; generated by PrusaSlicer 2.2.0+win64 on 2020-06-09 at 09:08:36 UTC

; 

; external perimeters extrusion width = 0.68mm
; perimeters extrusion width = 0.68mm
; infill extrusion width = 0.68mm
; solid infill extrusion width = 0.68mm
; top infill extrusion width = 0.60mm
; first layer extrusion width = 0.65mm

M73 P0 R97
M73 Q0 S97
M201 X1000 Y1000 Z200 E5000 ; sets maximum accelerations, mm/sec^2
M203 X200 Y200 Z12 E120 ; sets maximum feedrates, mm/sec
M204 P1250 R1250 T1250 ; sets acceleration (P, T) and retract acceleration (R), mm/sec^2
M205 X8.00 Y8.00 Z0.40 E4.50 ; sets the jerk limits, mm/sec
M205 S0 T0 ; sets the minimum extruding and travel feed rate, mm/sec
M107
M862.3 P "MK3S" ; printer model check
M862.1 P0.6 ; nozzle diameter check
M115 U3.9.0 ; tell printer latest fw version
G90 ; use absolute coordinates
M83 ; extruder relative mode
M104 S240 ; set extruder temp
M140 S85 ; set bed temp
M190 S85 ; wait for bed temp
M109 S240 ; wait for extruder temp
G28 W ; home all without mesh bed level
G80 ; mesh bed leveling
G1 Y-3.0 F1000.0 ; go outside print area
G92 E0.0
G1 X60.0 E9.0 F1000.0 ; intro line
M73 Q0 S97
M73 P0 R97
G1 X100.0 E12.5 F1000.0 ; intro line
G92 E0.0
M221 S95
G21 ; set units to millimeters
G90 ; use absolute coordinates
M83 ; use relative distances for extrusion
M900 K0.05 ; Filament gcode LA 1.5
M900 K24 ; Filament gcode LA 1.0
;BEFORE_LAYER_CHANGE
G92 E0.0
;0.2


G1 E-1.40000 F2100.00000
G1 Z0.200 F10800.000
;AFTER_LAYER_CHANGE
;0.2
G1 Z0.400
G1 X99.780 Y77.311
G1 Z0.200
G1 E1.40000 F2100.00000
M204 S1000
G1 F1200.000
G1 X100.606 Y76.791 E0.04924
G1 X101.560 Y76.611 E0.04905
G1 X139.526 Y78.436 E1.91869
G1 X140.905 Y78.573 E0.06994
G1 X143.156 Y79.076 E0.11645
G1 X145.793 Y80.160 E0.14391
G1 X147.935 Y81.518 E0.12798
G1 X149.645 Y83.013 E0.11466
G1 X151.115 Y84.770 E0.11566
G1 X152.509 Y87.104 E0.13725
G1 X153.410 Y89.464 E0.12749
G1 X153.896 Y91.843 E0.12258
G1 X154.008 Y93.304 E0.07395
G1 X154.376 Y107.036 E0.69343
G1 X154.280 Y107.746 E0.03616
G1 X153.997 Y108.403 E0.03613
G1 X153.492 Y109.006 E0.03972
G1 X152.830 Y109.431 E0.03972
G1 X100.130 Y132.396 E2.90180
G1 X99.538 Y132.567 E0.03114
G1 X98.925 Y132.595 E0.03094
G1 X98.324 Y132.479 E0.03094
G1 X97.762 Y132.224 E0.03114
G1 X97.232 Y131.798 E0.03433
G1 X96.829 Y131.249 E0.03433
G1 X96.582 Y130.616 E0.03433
G1 X96.508 Y129.936 E0.03453
G1 X98.956 Y79.041 E2.57205
G1 X99.203 Y78.098 E0.04924
G1 X99.727 Y77.384 E0.04470
G1 F8640.000
G1 X100.606 Y76.791 E-0.24470
G1 X101.560 Y76.611 E-0.22435
G1 X105.285 Y76.790 E-0.86096
G1 E-0.07000 F2100.00000
G1 Z0.400 F10800.000
G1 X117.504 Y97.311
G1 Z0.200
G1 E1.40000 F2100.00000
G1 F1200.000
G1 X117.993 Y96.961 E0.03036
G1 X118.534 Y96.699 E0.03035
G1 X119.113 Y96.531 E0.03042
G1 X119.681 Y96.467 E0.02888
G1 X120.308 Y96.498 E0.03166
G1 X120.899 Y96.635 E0.03063
G1 X121.453 Y96.868 E0.03035
G1 X121.961 Y97.191 E0.03036
G1 X122.407 Y97.596 E0.03044
G1 X122.778 Y98.071 E0.03039
G1 X123.063 Y98.601 E0.03038
G1 X123.254 Y99.172 E0.03040
G1 X123.347 Y99.766 E0.03038
G1 X123.337 Y100.368 E0.03038
G1 X123.226 Y100.960 E0.03038
G1 X123.017 Y101.525 E0.03041
G1 X122.715 Y102.046 E0.03041
G1 X122.329 Y102.507 E0.03034
G1 X121.872 Y102.898 E0.03036
G1 X121.380 Y103.191 E0.02891
G1 X120.796 Y103.421 E0.03168
G1 X120.202 Y103.539 E0.03060
G1 X119.600 Y103.555 E0.03039
G1 X119.004 Y103.469 E0.03039
G1 X118.432 Y103.284 E0.03034
G1 X117.898 Y103.005 E0.03039
G1 X117.420 Y102.639 E0.03041
G1 X117.010 Y102.199 E0.03036
G1 X116.681 Y101.694 E0.03042
G1 X116.442 Y101.141 E0.03039
G1 X116.299 Y100.557 E0.03038
G1 X116.257 Y99.956 E0.03038
G1 X116.318 Y99.358 E0.03037
G1 X116.470 Y98.806 E0.02887
G1 X116.733 Y98.236 E0.03167
G1 X117.080 Y97.740 E0.03060
G1 X117.440 Y97.375 E0.02589
G1 X117.872 Y97.801 F10800.000
G1 F1200.000
G1 X118.304 Y97.485 E0.02704
G1 X118.753 Y97.267 E0.02515
G1 X119.232 Y97.129 E0.02518
G1 X119.700 Y97.076 E0.02380
G1 X120.224 Y97.102 E0.02644
G1 X120.711 Y97.215 E0.02526
G1 X121.170 Y97.408 E0.02515
G1 X121.591 Y97.675 E0.02516
G1 X121.960 Y98.011 E0.02519
G1 X122.267 Y98.404 E0.02518
G1 X122.504 Y98.843 E0.02516
G1 X122.662 Y99.316 E0.02519
G1 X122.739 Y99.809 E0.02516
G1 X122.731 Y100.307 E0.02517
G1 X122.639 Y100.797 E0.02517
G1 X122.466 Y101.265 E0.02519
G1 X122.216 Y101.697 E0.02518
G1 X121.896 Y102.079 E0.02514
G1 X121.517 Y102.403 E0.02516
G1 X121.112 Y102.644 E0.02382
G1 X120.624 Y102.836 E0.02645
G1 X120.134 Y102.933 E0.02524
G1 X119.635 Y102.947 E0.02518
G1 X119.142 Y102.876 E0.02517
G1 X118.668 Y102.722 E0.02515
G1 X118.226 Y102.491 E0.02517
G1 X117.829 Y102.188 E0.02519
G1 X117.490 Y101.823 E0.02515
G1 X117.217 Y101.405 E0.02519
G1 X117.019 Y100.948 E0.02518
G1 X116.901 Y100.463 E0.02517
G1 X116.867 Y99.966 E0.02517
G1 X116.917 Y99.470 E0.02516
G1 X117.042 Y99.016 E0.02380
G1 X117.261 Y98.540 E0.02645
G1 X117.548 Y98.130 E0.02525
G1 X117.809 Y97.865 E0.01875
G1 X117.771 Y97.276 F10800.000
G1 F8640.000
G1 X118.304 Y97.485 E-0.14423
G1 X118.753 Y97.267 E-0.11506
G1 X119.232 Y97.129 E-0.11519
G1 X119.700 Y97.076 E-0.10888
G1 X120.224 Y97.102 E-0.12097
G1 X120.711 Y97.215 E-0.11553
G1 X121.170 Y97.408 E-0.11506
G1 X121.591 Y97.675 E-0.11507
G1 X121.960 Y98.011 E-0.11524
G1 X122.267 Y98.404 E-0.11517
G1 X122.504 Y98.843 E-0.11511
G1 X122.551 Y98.985 E-0.03449
G1 E-0.07000 F2100.00000
G1 Z0.400 F10800.000
G1 X135.278 Y92.934
G1 Z0.200
G1 E1.40000 F2100.00000
G1 F1200.000
G1 X135.136 Y92.349 E0.03040
G1 X135.094 Y91.748 E0.03038
G1 X135.155 Y91.149 E0.03041
G1 X135.315 Y90.570 E0.03035
G1 X135.559 Y90.052 E0.02888
G1 X135.914 Y89.535 E0.03165
G1 X136.340 Y89.103 E0.03062
G1 X136.829 Y88.753 E0.03035
G1 X137.371 Y88.490 E0.03039
G1 X137.949 Y88.323 E0.03042
G1 X138.518 Y88.259 E0.02889
G1 X139.144 Y88.290 E0.03165
G1 X139.735 Y88.427 E0.03062
G1 X140.291 Y88.660 E0.03042
G1 X140.798 Y88.984 E0.03037
G1 X141.243 Y89.389 E0.03039
G1 X141.614 Y89.863 E0.03038
G1 X141.899 Y90.393 E0.03038
G1 X142.091 Y90.963 E0.03037
G1 X142.183 Y91.558 E0.03039
G1 X142.174 Y92.160 E0.03038
G1 X142.063 Y92.751 E0.03040
G1 X141.854 Y93.316 E0.03041
G1 X141.552 Y93.837 E0.03039
G1 X141.166 Y94.300 E0.03040
G1 X140.708 Y94.690 E0.03036
G1 X140.192 Y94.997 E0.03036
G1 X139.629 Y95.213 E0.03044
G1 X139.038 Y95.331 E0.03039
G1 X138.437 Y95.347 E0.03036
G1 X137.841 Y95.261 E0.03039
G1 X137.268 Y95.075 E0.03039
G1 X136.735 Y94.797 E0.03035
G1 X136.280 Y94.449 E0.02889
G1 X135.849 Y93.994 E0.03167
G1 X135.518 Y93.486 E0.03061
G1 X135.314 Y93.016 E0.02583
G1 X135.871 Y92.775 F10800.000
G1 F1200.000
G1 X135.738 Y92.255 E0.02709
G1 X135.703 Y91.758 E0.02516
G1 X135.753 Y91.261 E0.02518
G1 X135.887 Y90.781 E0.02514
G1 X136.088 Y90.355 E0.02382
G1 X136.384 Y89.923 E0.02643
G1 X136.735 Y89.567 E0.02526
G1 X137.141 Y89.277 E0.02515
G1 X137.589 Y89.059 E0.02517
G1 X138.068 Y88.920 E0.02518
G1 X138.537 Y88.868 E0.02381
G1 X139.060 Y88.893 E0.02643
G1 X139.548 Y89.006 E0.02525
G1 X140.008 Y89.200 E0.02520
G1 X140.428 Y89.468 E0.02516
G1 X140.797 Y89.803 E0.02517
G1 X141.104 Y90.196 E0.02517
G1 X141.340 Y90.635 E0.02517
G1 X141.499 Y91.107 E0.02515
G1 X141.576 Y91.600 E0.02518
G1 X141.568 Y92.099 E0.02516
G1 X141.476 Y92.589 E0.02517
G1 X141.303 Y93.057 E0.02519
G1 X141.053 Y93.488 E0.02517
G1 X140.733 Y93.871 E0.02518
G1 X140.354 Y94.194 E0.02516
G1 X139.926 Y94.449 E0.02515
G1 X139.460 Y94.628 E0.02520
G1 X138.970 Y94.725 E0.02517
G1 X138.472 Y94.738 E0.02516
G1 X137.979 Y94.668 E0.02516
G1 X137.504 Y94.514 E0.02518
G1 X137.063 Y94.283 E0.02515
G1 X136.688 Y93.997 E0.02381
G1 X136.328 Y93.616 E0.02645
G1 X136.054 Y93.197 E0.02525
G1 X135.907 Y92.857 E0.01869
G1 X135.344 Y92.673 F10800.000
G1 F8640.000
G1 X135.738 Y92.255 E-0.14447
G1 X135.703 Y91.758 E-0.11511
G1 X135.753 Y91.261 E-0.11519
G1 X135.887 Y90.781 E-0.11500
G1 X136.088 Y90.355 E-0.10894
G1 X136.384 Y89.923 E-0.12091
G1 X136.735 Y89.567 E-0.11555
G1 X137.141 Y89.277 E-0.11506
G1 X137.589 Y89.059 E-0.11514
G1 X138.068 Y88.920 E-0.11519
G1 X138.537 Y88.868 E-0.10893
G1 X138.713 Y88.876 E-0.04052
G1 E-0.07000 F2100.00000
G1 Z0.400 F10800.000
G1 X150.616 Y106.301
G1 Z0.200
G1 E1.40000 F2100.00000
G1 F1200.000
G1 X100.334 Y128.212 E2.76873
G1 X102.634 Y80.404 E2.41610
G1 X139.238 Y82.164 E1.84987
G1 X140.278 Y82.262 E0.05277
G1 X142.179 Y82.691 E0.09835
G1 X143.912 Y83.394 E0.09442
G1 X145.533 Y84.386 E0.09593
G1 X146.973 Y85.634 E0.09619
G1 X148.185 Y87.096 E0.09587
G1 X149.142 Y88.737 E0.09588
G1 X149.821 Y90.526 E0.09657
G1 X150.197 Y92.398 E0.09640
G1 X150.272 Y93.439 E0.05270
G1 X150.614 Y106.211 E0.64493
G1 X151.234 Y106.694 F10800.000
G1 F1200.000
G1 X99.680 Y129.159 E2.83873
G1 X102.056 Y79.768 E2.49608
G1 X139.280 Y81.559 E1.88120
G1 X140.374 Y81.661 E0.05544
G1 X142.361 Y82.110 E0.10283
G1 X144.187 Y82.850 E0.09943
G1 X145.893 Y83.894 E0.10099
G1 X147.408 Y85.208 E0.10125
G1 X148.685 Y86.747 E0.10092
G1 X149.692 Y88.475 E0.10094
G1 X150.406 Y90.357 E0.10163
G1 X150.799 Y92.316 E0.10086
G1 X150.878 Y93.409 E0.05533
G1 X151.232 Y106.604 E0.66629
G1 X150.651 Y106.552 F10800.000
G1 F8640.000
G1 X145.955 Y108.913 E-1.33000
G1 E-0.07000 F2100.00000
G1 Z0.400 F10800.000
G1 X148.105 Y107.197
G1 Z0.200
G1 E1.40000 F2100.00000
G1 F1200.000
G1 X122.735 Y81.826 E1.81465
G1 X121.831 Y81.783 E0.04576
G1 X147.298 Y107.250 E1.82159
G1 X146.699 Y107.511 E0.03305
G1 X120.928 Y81.739 E1.84337
G1 X120.024 Y81.696 E0.04576
G1 X146.100 Y107.772 E1.86515
G1 X145.501 Y108.033 E0.03305
G1 X119.120 Y81.653 E1.88694
G1 X118.217 Y81.609 E0.04576
G1 X144.902 Y108.294 E1.90872
G1 X144.303 Y108.555 E0.03305
G1 X117.313 Y81.566 E1.93050
G1 X116.409 Y81.522 E0.04576
G1 X143.704 Y108.817 E1.95229
G1 X143.105 Y109.078 E0.03305
G1 X115.506 Y81.479 E1.97407
G1 X114.602 Y81.435 E0.04576
G1 X142.505 Y109.339 E1.99585
G1 X141.906 Y109.600 E0.03305
G1 X113.698 Y81.392 E2.01764
G1 X112.795 Y81.348 E0.04576
G1 X141.307 Y109.861 E2.03942
M73 Q1 S96
M73 P1 R96
G1 X140.708 Y110.122 E0.03305
G1 X111.891 Y81.305 E2.06120
G1 X110.987 Y81.261 E0.04576
G1 X140.109 Y110.383 E2.08299
G1 X139.510 Y110.644 E0.03305
G1 X110.084 Y81.218 E2.10477
G1 X109.180 Y81.174 E0.04576
G1 X138.911 Y110.905 E2.12655
G1 X138.311 Y111.166 E0.03305
G1 X108.276 Y81.131 E2.14834
G1 X107.372 Y81.087 E0.04576
G1 X137.712 Y111.427 E2.17012
G1 X137.113 Y111.688 E0.03305
G1 X106.469 Y81.044 E2.19190
G1 X105.565 Y81.001 E0.04576
G1 X120.682 Y96.117 E1.08126
G1 X120.371 Y96.045 E0.01616
G1 X119.718 Y96.013 E0.03306
G1 X104.661 Y80.957 E1.07693
G1 X103.758 Y80.914 E0.04576
G1 X118.949 Y96.105 E1.08657
G1 X118.370 Y96.272 E0.03047
G1 X118.293 Y96.309 E0.00432
G1 X103.057 Y81.073 E1.08979
G1 X103.018 Y81.894 E0.04156
G1 X117.720 Y96.597 E1.05165
G1 X117.218 Y96.955 E0.03119
G1 X102.978 Y82.715 E1.01856
G1 X102.939 Y83.535 E0.04156
G1 X116.789 Y97.386 E0.99068
G1 X116.729 Y97.447 E0.00435
G1 X116.425 Y97.882 E0.02683
G1 X102.899 Y84.356 E0.96745
G1 X102.860 Y85.177 E0.04156
G1 X116.133 Y98.450 E0.94940
G1 X116.041 Y98.650 E0.01110
G1 X115.918 Y99.095 E0.02340
G1 X102.820 Y85.998 E0.93685
G1 X102.781 Y86.818 E0.04156
G1 X115.811 Y99.848 E0.93200
G1 X115.801 Y99.949 E0.00512
G1 X115.848 Y100.627 E0.03436
G1 X115.886 Y100.783 E0.00815
G1 X102.741 Y87.639 E0.94018
G1 X102.702 Y88.460 E0.04156
G1 X129.324 Y115.082 E1.90424
G1 X129.924 Y114.821 E0.03305
G1 X119.036 Y103.934 E0.77877
G1 X119.573 Y104.011 E0.02746
G1 X119.963 Y104.001 E0.01973
G1 X130.523 Y114.560 E0.75529
G1 X131.122 Y114.299 E0.03305
G1 X120.722 Y103.900 E0.74385
G1 X120.925 Y103.859 E0.01045
G1 X121.368 Y103.685 E0.02407
G1 X131.721 Y114.038 E0.74054
G1 X132.320 Y113.777 E0.03305
G1 X121.934 Y103.391 E0.74289
G1 X122.138 Y103.269 E0.01202
G1 X122.426 Y103.023 E0.01917
G1 X132.919 Y113.516 E0.75052
G1 X133.518 Y113.255 E0.03305
G1 X122.854 Y102.590 E0.76282
G1 X123.089 Y102.308 E0.01859
G1 X123.215 Y102.091 E0.01267
G1 X134.118 Y112.994 E0.77983
G1 X134.717 Y112.733 E0.03305
G1 X123.504 Y101.520 E0.80199
G1 X123.667 Y101.082 E0.02365
G1 X123.708 Y100.864 E0.01123
G1 X135.316 Y112.472 E0.83029
G1 X135.915 Y112.211 E0.03305
G1 X123.797 Y100.093 E0.86676
G1 X123.803 Y99.735 E0.01810
G1 X123.711 Y99.147 E0.03011
G1 X136.722 Y112.157 E0.93060
G1 F8640.000
G1 X132.649 Y108.084 E-1.33000
G1 E-0.07000 F2100.00000
G1 Z0.400 F10800.000
G1 X128.933 Y115.551
G1 Z0.200
G1 E1.40000 F2100.00000
G1 F1200.000
G1 X102.662 Y89.281 E1.87905
G1 X102.623 Y90.101 E0.04156
G1 X128.126 Y115.605 E1.82418
G1 X127.527 Y115.866 E0.03305
G1 X102.583 Y90.922 E1.78415
G1 X102.544 Y91.743 E0.04156
G1 X126.928 Y116.127 E1.74412
G1 X126.329 Y116.388 E0.03305
G1 X102.504 Y92.563 E1.70409
G1 X102.465 Y93.384 E0.04156
G1 X125.730 Y116.649 E1.66406
G1 X125.130 Y116.910 E0.03305
G1 X102.425 Y94.205 E1.62403
G1 X102.386 Y95.026 E0.04156
G1 X124.531 Y117.171 E1.58400
G1 X123.932 Y117.432 E0.03305
G1 X102.346 Y95.846 E1.54396
G1 X102.307 Y96.667 E0.04156
G1 X123.333 Y117.693 E1.50393
G1 X122.734 Y117.954 E0.03305
G1 X102.268 Y97.488 E1.46390
G1 X102.228 Y98.309 E0.04156
G1 X122.135 Y118.215 E1.42387
M73 Q2 S95
M73 P2 R95
G1 X121.536 Y118.476 E0.03305
G1 X102.189 Y99.129 E1.38384
G1 X102.149 Y99.950 E0.04156
G1 X120.937 Y118.738 E1.34381
G1 X120.337 Y118.999 E0.03305
G1 X102.110 Y100.771 E1.30378
G1 X102.070 Y101.592 E0.04156
G1 X119.738 Y119.260 E1.26375
G1 X119.139 Y119.521 E0.03305
G1 X102.031 Y102.412 E1.22372
G1 X101.991 Y103.233 E0.04156
G1 X118.540 Y119.782 E1.18369
G1 X117.941 Y120.043 E0.03305
G1 X101.952 Y104.054 E1.14366
G1 X101.912 Y104.874 E0.04156
G1 X117.342 Y120.304 E1.10363
G1 X116.743 Y120.565 E0.03305
G1 X101.873 Y105.695 E1.06360
G1 X101.833 Y106.516 E0.04156
G1 X116.143 Y120.826 E1.02357
G1 X115.544 Y121.087 E0.03305
G1 X101.794 Y107.337 E0.98354
G1 X101.754 Y108.157 E0.04156
G1 X114.945 Y121.348 E0.94351
G1 X114.346 Y121.609 E0.03305
G1 X101.715 Y108.978 E0.90348
G1 X101.675 Y109.799 E0.04156
G1 X113.747 Y121.870 E0.86345
G1 X113.148 Y122.132 E0.03305
G1 X101.636 Y110.620 E0.82342
G1 X101.596 Y111.440 E0.04156
G1 X112.549 Y122.393 E0.78339
G1 X111.950 Y122.654 E0.03305
G1 X101.557 Y112.261 E0.74336
G1 X101.517 Y113.082 E0.04156
G1 X111.350 Y122.915 E0.70333
G1 X110.751 Y123.176 E0.03305
G1 X101.478 Y113.902 E0.66330
G1 X101.438 Y114.723 E0.04156
G1 X110.152 Y123.437 E0.62327
G1 X109.553 Y123.698 E0.03305
G1 X101.399 Y115.544 E0.58324
G1 X101.359 Y116.365 E0.04156
G1 X108.954 Y123.959 E0.54321
G1 X108.355 Y124.220 E0.03305
G1 X101.320 Y117.185 E0.50318
G1 X101.280 Y118.006 E0.04156
G1 X107.756 Y124.481 E0.46315
G1 X107.156 Y124.742 E0.03305
G1 X101.241 Y118.827 E0.42312
G1 X101.201 Y119.648 E0.04156
G1 X106.557 Y125.003 E0.38308
G1 X105.958 Y125.264 E0.03305
G1 X101.162 Y120.468 E0.34305
G1 X101.123 Y121.289 E0.04156
G1 X105.359 Y125.526 E0.30302
G1 X104.760 Y125.787 E0.03305
G1 X101.083 Y122.110 E0.26299
G1 X101.044 Y122.931 E0.04156
G1 X104.161 Y126.048 E0.22296
G1 X103.562 Y126.309 E0.03305
G1 X101.004 Y123.751 E0.18293
G1 X100.965 Y124.572 E0.04156
G1 X102.962 Y126.570 E0.14290
G1 X102.363 Y126.831 E0.03305
G1 X100.925 Y125.393 E0.10287
G1 X100.886 Y126.213 E0.04156
G1 X101.764 Y127.092 E0.06284
G1 X101.165 Y127.353 E0.03305
G1 X100.585 Y126.773 E0.04148
G1 F8640.000
G1 X101.165 Y127.353 E-0.18935
G1 X101.764 Y127.092 E-0.15091
G1 X100.886 Y126.213 E-0.28690
G1 X100.925 Y125.393 E-0.18973
G1 X102.363 Y126.831 E-0.46965
G1 X102.536 Y126.756 E-0.04347
G1 E-0.07000 F2100.00000
G1 Z0.400 F10800.000
G1 X150.215 Y98.124
G1 Z0.200
G1 E1.40000 F2100.00000
G1 F1200.000
G1 X142.327 Y90.236 E0.56420
G1 X142.535 Y90.855 E0.03304
G1 X142.617 Y91.386 E0.02720
G1 X149.958 Y98.727 E0.52504
G1 X149.982 Y99.611 E0.04472
G1 X142.621 Y92.250 E0.52650
G1 X142.504 Y92.873 E0.03210
G1 X142.471 Y92.961 E0.00470
G1 X150.005 Y100.494 E0.53887
G1 X150.029 Y101.378 E0.04472
G1 X142.229 Y93.578 E0.55794
G1 X141.910 Y94.119 E0.03178
G1 X150.053 Y102.262 E0.58245
G1 X150.076 Y103.146 E0.04472
G1 X141.518 Y94.588 E0.61212
G1 X141.059 Y94.989 E0.03084
G1 X150.100 Y104.030 E0.64668
G1 X150.124 Y104.914 E0.04472
G1 X140.533 Y95.324 E0.68596
G1 X140.391 Y95.409 E0.00839
G1 X139.934 Y95.584 E0.02478
