; generated by PrusaSlicer 2.2.0+win64 on 2020-06-30 at 02:51:09 UTC

; 

; external perimeters extrusion width = 0.65mm
; perimeters extrusion width = 0.65mm
; infill extrusion width = 0.65mm
; solid infill extrusion width = 0.65mm
; top infill extrusion width = 0.60mm
; first layer extrusion width = 0.65mm

M73 P0 R41
M73 Q0 S41
M201 X1000 Y1000 Z200 E5000 ; sets maximum accelerations, mm/sec^2
M203 X200 Y200 Z12 E120 ; sets maximum feedrates, mm/sec
M204 P1250 R1250 T1250 ; sets acceleration (P, T) and retract acceleration (R), mm/sec^2
M205 X8.00 Y8.00 Z0.40 E4.50 ; sets the jerk limits, mm/sec
M205 S0 T0 ; sets the minimum extruding and travel feed rate, mm/sec
M107
M862.3 P "MK3S" ; printer model check
M862.1 P0.6 ; nozzle diameter check
M115 U3.9.0 ; tell printer latest fw version
G90 ; use absolute coordinates
M83 ; extruder relative mode
M104 S240 ; set extruder temp
M140 S85 ; set bed temp
M190 S85 ; wait for bed temp
M109 S240 ; wait for extruder temp
G28 W ; home all without mesh bed level
G80 ; mesh bed leveling
G1 Y-3.0 F1000.0 ; go outside print area
G92 E0.0
G1 X60.0 E9.0 F1000.0 ; intro line
M73 Q0 S41
M73 P0 R41
G1 X100.0 E12.5 F1000.0 ; intro line
G92 E0.0
M221 S95
G21 ; set units to millimeters
G90 ; use absolute coordinates
M83 ; use relative distances for extrusion
M900 K0.05 ; Filament gcode LA 1.5
M900 K24 ; Filament gcode LA 1.0
;BEFORE_LAYER_CHANGE
G92 E0.0
;0.2


G1 E-1.40000 F2100.00000
G1 Z0.200 F10800.000
;AFTER_LAYER_CHANGE
;0.2
G1 Z0.400
G1 X106.188 Y87.728
G1 Z0.200
G1 E1.40000 F2100.00000
M204 S1000
G1 F1200.000
G1 X107.171 Y86.385 E0.08403
G1 X108.130 Y85.439 E0.06797
G1 X109.240 Y84.651 E0.06875
G1 X110.806 Y83.891 E0.08783
G1 X112.407 Y83.469 E0.08359
G1 X113.871 Y83.346 E0.07416
G1 X136.116 Y83.345 E1.12291
G1 X137.666 Y83.481 E0.07855
G1 X139.176 Y83.885 E0.07888
G1 X140.587 Y84.543 E0.07862
G1 X141.865 Y85.435 E0.07866
G1 X142.973 Y86.544 E0.07912
G1 X143.866 Y87.816 E0.07843
G1 X144.527 Y89.232 E0.07890
G1 X144.923 Y90.691 E0.07634
G1 X145.069 Y92.285 E0.08081
G1 X145.067 Y117.794 E1.28766
G1 X144.936 Y119.244 E0.07350
G1 X144.590 Y120.578 E0.06953
G1 X143.812 Y122.275 E0.09425
G1 X142.827 Y123.619 E0.08410
G1 X141.869 Y124.564 E0.06792
G1 X140.743 Y125.364 E0.06972
G1 X139.168 Y126.121 E0.08824
G1 X137.450 Y126.551 E0.08939
G1 X136.127 Y126.657 E0.06701
G1 X113.778 Y126.655 E1.12812
G1 X112.340 Y126.524 E0.07290
G1 X111.010 Y126.178 E0.06936
G1 X109.314 Y125.400 E0.09422
G1 X108.138 Y124.570 E0.07263
G1 X107.170 Y123.618 E0.06857
G1 X106.138 Y122.193 E0.08879
G1 X105.409 Y120.574 E0.08963
G1 X105.066 Y119.256 E0.06873
G1 X104.940 Y117.917 E0.06792
G1 X104.933 Y92.193 E1.29852
G1 X105.065 Y90.755 E0.07290
G1 X105.410 Y89.425 E0.06936
G1 X106.151 Y87.810 E0.08968
G1 F8640.000
G1 X107.171 Y86.385 E-0.40475
G1 X108.130 Y85.439 E-0.31091
G1 X109.240 Y84.651 E-0.31446
G1 X110.409 Y84.084 E-0.29988
G1 E-0.07000 F2100.00000
G1 Z0.400 F10800.000
G1 X135.646 Y117.566
G1 Z0.200
G1 E1.40000 F2100.00000
G1 F1200.000
G1 X135.978 Y117.236 E0.02360
G1 X136.361 Y116.968 E0.02359
G1 X136.783 Y116.772 E0.02353
G1 X137.234 Y116.649 E0.02358
G1 X137.700 Y116.610 E0.02359
G1 X138.166 Y116.649 E0.02359
G1 X138.617 Y116.772 E0.02358
G1 X139.039 Y116.968 E0.02353
G1 X139.423 Y117.237 E0.02365
G1 X139.752 Y117.566 E0.02346
G1 X140.021 Y117.949 E0.02365
G1 X140.217 Y118.372 E0.02353
G1 X140.339 Y118.823 E0.02358
G1 X140.379 Y119.289 E0.02359
G1 X140.339 Y119.754 E0.02359
G1 X140.217 Y120.205 E0.02358
G1 X140.021 Y120.628 E0.02353
G1 X139.752 Y121.011 E0.02359
G1 X139.423 Y121.342 E0.02360
G1 X139.039 Y121.609 E0.02357
G1 X138.617 Y121.808 E0.02359
G1 X138.166 Y121.927 E0.02354
G1 X137.700 Y121.970 E0.02361
G1 X137.234 Y121.927 E0.02361
G1 X136.783 Y121.808 E0.02354
G1 X136.361 Y121.609 E0.02359
G1 X135.978 Y121.343 E0.02351
G1 X135.646 Y121.011 E0.02373
G1 X135.380 Y120.628 E0.02352
G1 X135.181 Y120.205 E0.02359
G1 X135.061 Y119.754 E0.02354
G1 X135.019 Y119.289 E0.02361
G1 X135.061 Y118.823 E0.02361
G1 X135.181 Y118.372 E0.02354
G1 X135.380 Y117.949 E0.02359
G1 X135.595 Y117.640 E0.01902
G1 X135.487 Y117.126 F10800.000
G1 F8640.000
G1 X135.978 Y117.236 E-0.12844
G1 X136.361 Y116.968 E-0.10793
G1 X136.783 Y116.772 E-0.10764
G1 X137.234 Y116.649 E-0.10787
G1 X137.700 Y116.610 E-0.10791
G1 X138.166 Y116.649 E-0.10791
G1 X138.617 Y116.772 E-0.10788
G1 X139.039 Y116.968 E-0.10763
G1 X139.423 Y117.237 E-0.10817
G1 X139.752 Y117.566 E-0.10733
G1 X140.021 Y117.949 E-0.10817
G1 X140.217 Y118.372 E-0.10763
G1 X140.235 Y118.437 E-0.01548
G1 E-0.07000 F2100.00000
G1 Z0.400 F10800.000
G1 X115.478 Y119.288
G1 Z0.200
G1 E1.40000 F2100.00000
G1 F1200.000
G1 X115.430 Y119.842 E0.02802
G1 X115.286 Y120.376 E0.02794
G1 X115.051 Y120.879 E0.02802
G1 X114.733 Y121.331 E0.02790
G1 X114.343 Y121.723 E0.02794
G1 X113.887 Y122.042 E0.02807
G1 X113.387 Y122.275 E0.02788
G1 X112.850 Y122.418 E0.02805
G1 X112.294 Y122.464 E0.02812
G1 X111.734 Y122.399 E0.02847
G1 X111.208 Y122.217 E0.02810
G1 X110.740 Y121.951 E0.02715
G1 X110.323 Y121.636 E0.02640
G1 X109.953 Y121.265 E0.02645
G1 X109.637 Y120.848 E0.02642
G1 X109.372 Y120.381 E0.02713
G1 X109.190 Y119.854 E0.02810
G1 X109.125 Y119.294 E0.02848
G1 X109.170 Y118.739 E0.02812
G1 X109.314 Y118.202 E0.02805
G1 X109.546 Y117.701 E0.02788
G1 X109.865 Y117.245 E0.02808
G1 X110.258 Y116.855 E0.02792
G1 X110.710 Y116.537 E0.02790
G1 X111.213 Y116.303 E0.02802
G1 X111.747 Y116.159 E0.02794
G1 X112.270 Y116.114 E0.02649
G1 X112.849 Y116.158 E0.02934
G1 X113.388 Y116.303 E0.02813
G1 X113.888 Y116.537 E0.02791
G1 X114.343 Y116.855 E0.02799
G1 X114.733 Y117.246 E0.02789
G1 X115.051 Y117.700 E0.02799
G1 X115.273 Y118.173 E0.02637
G1 X115.430 Y118.736 E0.02950
G1 X115.470 Y119.199 E0.02344
G1 X115.959 Y119.565 F10800.000
G1 F8640.000
G1 X115.430 Y119.842 E-0.14870
G1 X115.286 Y120.376 E-0.12779
G1 X115.051 Y120.879 E-0.12817
G1 X114.733 Y121.331 E-0.12760
G1 X114.343 Y121.723 E-0.12780
G1 X113.887 Y122.042 E-0.12838
G1 X113.387 Y122.275 E-0.12752
G1 X112.850 Y122.418 E-0.12830
G1 X112.294 Y122.464 E-0.12865
G1 X111.734 Y122.399 E-0.13025
G1 X111.624 Y122.361 E-0.02685
G1 E-0.07000 F2100.00000
G1 Z0.400 F10800.000
G1 X111.066 Y98.814
G1 Z0.200
G1 E1.40000 F2100.00000
G1 F1200.000
G1 X110.700 Y98.846 E0.01852
G1 X110.332 Y98.814 E0.01863
G1 X109.974 Y98.717 E0.01872
G1 X109.642 Y98.561 E0.01853
G1 X109.338 Y98.349 E0.01872
G1 X109.079 Y98.085 E0.01869
G1 X108.873 Y97.788 E0.01822
G1 X108.721 Y97.445 E0.01896
G1 X108.645 Y97.083 E0.01865
G1 X108.627 Y96.736 E0.01753
G1 X108.642 Y96.394 E0.01730
G1 X108.717 Y96.031 E0.01873
G1 X108.869 Y95.681 E0.01927
G1 X109.080 Y95.375 E0.01876
G1 X109.339 Y95.111 E0.01865
G1 X109.642 Y94.900 E0.01867
G1 X109.975 Y94.744 E0.01855
G1 X110.332 Y94.648 E0.01867
G1 X110.700 Y94.616 E0.01865
G1 X111.068 Y94.648 E0.01864
G1 X111.441 Y94.752 E0.01953
G1 X111.757 Y94.900 E0.01764
G1 X112.059 Y95.111 E0.01858
G1 X112.321 Y95.373 E0.01873
G1 X112.535 Y95.682 E0.01899
G1 X112.683 Y96.004 E0.01786
G1 X112.782 Y96.369 E0.01910
G1 X112.812 Y96.731 E0.01834
G1 X112.780 Y97.103 E0.01887
G1 X112.684 Y97.456 E0.01844
G1 X112.531 Y97.787 E0.01843
G1 X112.320 Y98.089 E0.01858
G1 X112.059 Y98.350 E0.01865
G1 X111.758 Y98.561 E0.01854
G1 X111.423 Y98.718 E0.01866
G1 X111.153 Y98.790 E0.01412
G1 X110.940 Y99.158 F10800.000
G1 F8640.000
G1 X110.700 Y98.846 E-0.10525
G1 X110.332 Y98.814 E-0.08523
G1 X109.974 Y98.717 E-0.08561
G1 X109.642 Y98.561 E-0.08475
G1 X109.338 Y98.349 E-0.08563
G1 X109.079 Y98.085 E-0.08549
G1 X108.873 Y97.788 E-0.08335
G1 X108.721 Y97.445 E-0.08673
G1 X108.645 Y97.083 E-0.08529
G1 X108.627 Y96.736 E-0.08018
G1 X108.642 Y96.394 E-0.07912
G1 X108.717 Y96.031 E-0.08566
G1 X108.869 Y95.681 E-0.08816
G1 X109.080 Y95.375 E-0.08579
G1 X109.339 Y95.111 E-0.08529
G1 X109.476 Y95.016 E-0.03847
G1 E-0.07000 F2100.00000
G1 Z0.400 F10800.000
G1 X111.834 Y93.354
G1 Z0.200
G1 E1.40000 F2100.00000
G1 F1200.000
G1 X111.383 Y93.232 E0.02358
G1 X110.961 Y93.035 E0.02354
G1 X110.578 Y92.767 E0.02359
G1 X110.246 Y92.437 E0.02360
G1 X109.980 Y92.054 E0.02357
G1 X109.781 Y91.631 E0.02359
G1 X109.661 Y91.180 E0.02354
G1 X109.619 Y90.715 E0.02361
G1 X109.661 Y90.249 E0.02361
G1 X109.781 Y89.798 E0.02354
G1 X109.980 Y89.375 E0.02359
G1 X110.246 Y88.993 E0.02351
G1 X110.578 Y88.660 E0.02373
G1 X110.961 Y88.394 E0.02352
G1 X111.383 Y88.195 E0.02359
G1 X111.834 Y88.076 E0.02354
G1 X112.300 Y88.033 E0.02361
G1 X112.766 Y88.076 E0.02361
G1 X113.217 Y88.195 E0.02354
G1 X113.639 Y88.394 E0.02359
G1 X114.023 Y88.661 E0.02357
G1 X114.352 Y88.992 E0.02360
G1 X114.620 Y89.375 E0.02359
G1 X114.817 Y89.798 E0.02354
G1 X114.939 Y90.249 E0.02358
G1 X114.979 Y90.715 E0.02359
G1 X114.939 Y91.180 E0.02359
G1 X114.817 Y91.631 E0.02358
G1 X114.620 Y92.054 E0.02354
G1 X114.352 Y92.437 E0.02364
G1 X114.023 Y92.766 E0.02346
G1 X113.639 Y93.035 E0.02364
G1 X113.217 Y93.232 E0.02354
G1 X112.766 Y93.354 E0.02358
G1 X112.300 Y93.393 E0.02359
G1 X111.924 Y93.361 E0.01905
G1 X111.533 Y93.711 F10800.000
G1 F8640.000
G1 X111.383 Y93.232 E-0.12835
G1 X110.961 Y93.035 E-0.10768
G1 X110.578 Y92.767 E-0.10791
G1 X110.246 Y92.437 E-0.10795
G1 X109.980 Y92.054 E-0.10780
G1 X109.781 Y91.631 E-0.10792
G1 X109.661 Y91.180 E-0.10769
G1 X109.619 Y90.715 E-0.10799
G1 X109.661 Y90.249 E-0.10799
G1 X109.781 Y89.798 E-0.10768
G1 X109.980 Y89.375 E-0.10793
G1 X110.246 Y88.993 E-0.10756
G1 X110.293 Y88.945 E-0.01556
G1 E-0.07000 F2100.00000
G1 Z0.400 F10800.000
G1 X129.174 Y101.912
G1 Z0.200
G1 E1.40000 F2100.00000
G1 F1200.000
G1 X129.791 Y101.030 E0.05434
G1 X130.554 Y100.268 E0.05441
G1 X131.436 Y99.650 E0.05440
G1 X132.412 Y99.197 E0.05428
G1 X133.451 Y98.917 E0.05431
G1 X134.475 Y98.828 E0.05192
G1 X135.593 Y98.916 E0.05661
G1 X136.638 Y99.197 E0.05460
G1 X137.614 Y99.650 E0.05430
G1 X138.497 Y100.268 E0.05445
G1 X139.256 Y101.030 E0.05429
G1 X139.876 Y101.912 E0.05441
G1 X140.330 Y102.888 E0.05435
G1 X140.609 Y103.929 E0.05441
G1 X140.702 Y105.003 E0.05438
G1 X140.609 Y106.074 E0.05427
G1 X140.330 Y107.115 E0.05440
G1 X139.876 Y108.091 E0.05435
G1 X139.256 Y108.973 E0.05441
G1 X138.497 Y109.735 E0.05429
G1 X137.614 Y110.353 E0.05445
G1 X136.638 Y110.807 E0.05430
G1 X135.597 Y111.086 E0.05441
G1 X134.524 Y111.179 E0.05437
G1 X133.451 Y111.086 E0.05439
G1 X132.412 Y110.806 E0.05431
G1 X131.436 Y110.353 E0.05428
G1 X130.554 Y109.735 E0.05440
G1 X129.791 Y108.973 E0.05441
G1 X129.174 Y108.091 E0.05434
G1 X128.718 Y107.115 E0.05440
G1 X128.441 Y106.074 E0.05437
G1 X128.345 Y105.003 E0.05428
G1 X128.441 Y103.929 E0.05439
G1 X128.718 Y102.888 E0.05438
G1 X129.136 Y101.994 E0.04986
G1 X129.686 Y102.251 F10800.000
G1 F1200.000
G1 X130.258 Y101.422 E0.05084
G1 X130.945 Y100.735 E0.04904
G1 X131.741 Y100.178 E0.04902
G1 X132.620 Y99.769 E0.04893
G1 X133.556 Y99.518 E0.04896
G1 X134.478 Y99.438 E0.04669
G1 X135.490 Y99.517 E0.05126
G1 X136.430 Y99.769 E0.04912
G1 X137.309 Y100.178 E0.04894
G1 X138.105 Y100.735 E0.04904
G1 X138.790 Y101.422 E0.04895
G1 X139.348 Y102.217 E0.04905
G1 X139.757 Y103.097 E0.04897
G1 X140.009 Y104.035 E0.04905
G1 X140.093 Y105.003 E0.04902
G1 X140.009 Y105.968 E0.04892
G1 X139.757 Y106.907 E0.04905
G1 X139.348 Y107.786 E0.04897
G1 X138.790 Y108.581 E0.04905
G1 X138.105 Y109.268 E0.04895
G1 X137.309 Y109.825 E0.04904
G1 X136.430 Y110.234 E0.04894
G1 X135.491 Y110.486 E0.04905
G1 X134.524 Y110.570 E0.04902
G1 X133.556 Y110.486 E0.04902
G1 X132.620 Y110.234 E0.04896
G1 X131.741 Y109.825 E0.04893
G1 X130.945 Y109.268 E0.04902
G1 X130.258 Y108.581 E0.04904
G1 X129.702 Y107.786 E0.04899
G1 X129.291 Y106.907 E0.04901
G1 X129.041 Y105.968 E0.04902
G1 X128.955 Y105.003 E0.04893
G1 X129.041 Y104.035 E0.04903
G1 X129.291 Y103.097 E0.04903
G1 X129.648 Y102.332 E0.04259
G1 X129.383 Y101.733 F10800.000
G1 F8640.000
G1 X130.258 Y101.422 E-0.25307
G1 X130.945 Y100.735 E-0.22434
G1 X131.741 Y100.178 E-0.22422
G1 X132.620 Y99.769 E-0.22383
G1 X133.556 Y99.518 E-0.22394
G1 X134.336 Y99.450 E-0.18059
G1 E-0.07000 F2100.00000
G1 Z0.400 F10800.000
G1 X121.421 Y103.954
G1 Z0.200
G1 E1.40000 F2100.00000
G1 F1200.000
G1 X121.512 Y105.003 E0.05311
G1 X121.421 Y106.049 E0.05301
G1 X121.150 Y107.067 E0.05319
G1 X120.704 Y108.021 E0.05317
G1 X120.101 Y108.883 E0.05310
G1 X119.356 Y109.627 E0.05313
G1 X118.494 Y110.231 E0.05313
G1 X117.539 Y110.676 E0.05318
G1 X116.524 Y110.950 E0.05310
G1 X115.474 Y111.041 E0.05320
G1 X114.426 Y110.950 E0.05307
G1 X113.408 Y110.676 E0.05322
G1 X112.455 Y110.230 E0.05311
G1 X111.594 Y109.627 E0.05310
G1 X110.849 Y108.883 E0.05313
G1 X110.246 Y108.021 E0.05310
G1 X109.800 Y107.068 E0.05311
G1 X109.527 Y106.050 E0.05322
G1 X109.436 Y105.003 E0.05307
G1 X109.527 Y103.953 E0.05318
G1 X109.800 Y102.935 E0.05323
G1 X110.246 Y101.982 E0.05311
G1 X110.849 Y101.120 E0.05310
G1 X111.594 Y100.376 E0.05313
G1 X112.455 Y99.773 E0.05310
G1 X113.409 Y99.326 E0.05317
G1 X114.426 Y99.056 E0.05313
G1 X115.425 Y98.966 E0.05063
G1 X116.520 Y99.055 E0.05543
G1 X117.538 Y99.326 E0.05321
G1 X118.494 Y99.772 E0.05325
G1 X119.356 Y100.376 E0.05313
G1 X120.101 Y101.120 E0.05313
G1 X120.704 Y101.982 E0.05310
G1 X121.150 Y102.936 E0.05317
G1 X121.398 Y103.867 E0.04866
G1 X120.812 Y104.024 F10800.000
G1 F1200.000
G1 X120.903 Y105.003 E0.04963
G1 X120.821 Y105.944 E0.04768
G1 X120.577 Y106.859 E0.04781
G1 X120.176 Y107.716 E0.04779
G1 X119.634 Y108.491 E0.04775
G1 X118.965 Y109.160 E0.04776
G1 X118.190 Y109.703 E0.04777
G1 X117.331 Y110.104 E0.04784
G1 X116.418 Y110.350 E0.04773
G1 X115.474 Y110.432 E0.04782
G1 X114.532 Y110.350 E0.04771
G1 X113.617 Y110.104 E0.04783
G1 X112.760 Y109.703 E0.04776
G1 X111.985 Y109.160 E0.04775
G1 X111.316 Y108.491 E0.04776
G1 X110.774 Y107.716 E0.04775
G1 X110.373 Y106.859 E0.04776
G1 X110.127 Y105.944 E0.04783
G1 X110.045 Y105.003 E0.04771
G1 X110.127 Y104.059 E0.04781
G1 X110.373 Y103.144 E0.04784
G1 X110.774 Y102.287 E0.04776
G1 X111.316 Y101.512 E0.04775
G1 X111.985 Y100.843 E0.04776
G1 X112.760 Y100.300 E0.04775
G1 X113.618 Y99.899 E0.04779
G1 X114.532 Y99.656 E0.04778
G1 X115.428 Y99.576 E0.04539
G1 X116.416 Y99.655 E0.05005
G1 X117.330 Y99.899 E0.04774
G1 X118.190 Y100.300 E0.04787
G1 X118.965 Y100.843 E0.04777
G1 X119.634 Y101.512 E0.04776
G1 X120.176 Y102.287 E0.04775
G1 X120.577 Y103.144 E0.04779
G1 X120.788 Y103.937 E0.04139
G1 X121.376 Y104.226 F10800.000
G1 F8640.000
G1 X120.903 Y105.003 E-0.24753
G1 X120.821 Y105.944 E-0.21809
G1 X120.577 Y106.859 E-0.21868
G1 X120.176 Y107.716 E-0.21859
G1 X119.634 Y108.491 E-0.21844
G1 X118.995 Y109.130 E-0.20866
G1 E-0.07000 F2100.00000
G1 Z0.400 F10800.000
G1 X108.669 Y98.534
G1 Z0.200
G1 E1.40000 F2100.00000
G1 F1200.000
G1 X108.945 Y98.815 E0.01986
G1 X109.338 Y99.088 E0.02416
G1 X109.764 Y99.290 E0.02382
G1 X110.227 Y99.414 E0.02416
G1 X110.700 Y99.455 E0.02401
G1 X111.172 Y99.414 E0.02389
G1 X111.632 Y99.290 E0.02405
G1 X112.063 Y99.088 E0.02401
G1 X112.450 Y98.817 E0.02387
G1 X112.787 Y98.481 E0.02403
G1 X113.059 Y98.091 E0.02397
G1 X113.257 Y97.665 E0.02375
G1 X113.380 Y97.210 E0.02377
G1 X113.422 Y96.732 E0.02422
G1 X113.382 Y96.263 E0.02374
G1 X113.256 Y95.796 E0.02443
G1 X113.064 Y95.380 E0.02311
G1 X112.789 Y94.982 E0.02443
G1 X112.450 Y94.644 E0.02418
G1 X112.062 Y94.372 E0.02392
G1 X111.652 Y94.180 E0.02283
G1 X111.177 Y94.048 E0.02491
G1 X110.700 Y94.006 E0.02415
G1 X110.226 Y94.047 E0.02402
G1 X109.765 Y94.171 E0.02412
G1 X109.338 Y94.373 E0.02385
G1 X108.946 Y94.645 E0.02408
G1 X108.669 Y94.927 E0.01993
G1 X108.670 Y92.350 E0.13007
G1 X108.753 Y91.396 E0.04836
G1 X108.988 Y90.519 E0.04581
G1 X109.037 Y90.415 E0.00580
G1 X109.009 Y90.715 E0.01519
G1 X109.061 Y91.286 E0.02898
G1 X109.208 Y91.840 E0.02891
G1 X109.452 Y92.359 E0.02894
G1 X109.779 Y92.829 E0.02893
G1 X110.187 Y93.234 E0.02901
G1 X110.656 Y93.563 E0.02891
G1 X111.175 Y93.804 E0.02887
G1 X111.728 Y93.954 E0.02895
G1 X112.300 Y94.003 E0.02896
G1 X112.872 Y93.954 E0.02896
G1 X113.425 Y93.804 E0.02895
G1 X113.944 Y93.563 E0.02887
G1 X114.415 Y93.233 E0.02902
G1 X114.818 Y92.829 E0.02880
G1 X115.148 Y92.359 E0.02902
G1 X115.389 Y91.840 E0.02887
