; generated by PrusaSlicer 2.2.0+win64 on 2020-07-31 at 09:44:02 UTC

; 

; external perimeters extrusion width = 0.45mm
; perimeters extrusion width = 0.45mm
; infill extrusion width = 0.45mm
; solid infill extrusion width = 0.45mm
; top infill extrusion width = 0.40mm
; support material extrusion width = 0.35mm
; first layer extrusion width = 0.42mm

M73 P0 R144
M73 Q0 S146
M201 X1000 Y1000 Z200 E5000 ; sets maximum accelerations, mm/sec^2
M203 X200 Y200 Z12 E120 ; sets maximum feedrates, mm/sec
M204 P1250 R1250 T1250 ; sets acceleration (P, T) and retract acceleration (R), mm/sec^2
M205 X8.00 Y8.00 Z0.40 E4.50 ; sets the jerk limits, mm/sec
M205 S0 T0 ; sets the minimum extruding and travel feed rate, mm/sec
M107
M862.3 P "MK3S" ; printer model check
M862.1 P0.4 ; nozzle diameter check
M115 U3.9.0 ; tell printer latest fw version
G90 ; use absolute coordinates
M83 ; extruder relative mode
M104 S240 ; set extruder temp
M140 S85 ; set bed temp
M190 S85 ; wait for bed temp
M109 S240 ; wait for extruder temp
G28 W ; home all without mesh bed level
G80 ; mesh bed leveling
G1 Y-3.0 F1000.0 ; go outside print area
G92 E0.0
G1 X60.0 E9.0 F1000.0 ; intro line
M73 Q0 S146
M73 P0 R144
G1 X100.0 E12.5 F1000.0 ; intro line
G92 E0.0
M221 S95
G21 ; set units to millimeters
G90 ; use absolute coordinates
M83 ; use relative distances for extrusion
M900 K0.12 ; Filament gcode LA 1.5
M900 K45 ; Filament gcode LA 1.0
;BEFORE_LAYER_CHANGE
G92 E0.0
;0.2


G1 E-1.40000 F2100.00000
G1 Z0.200 F10800.000
;AFTER_LAYER_CHANGE
;0.2
G1 Z0.400
G1 X70.560 Y75.483
G1 Z0.200
G1 E1.40000 F2100.00000
M204 S1000
G1 F1200.000
G1 X71.305 Y74.939 E0.02893
G1 X72.098 Y74.603 E0.02700
G1 X73.230 Y74.430 E0.03591
G1 X176.757 Y74.430 E3.24601
G1 X177.458 Y74.493 E0.02206
G1 X178.161 Y74.687 E0.02287
G1 X178.798 Y74.999 E0.02226
G1 X179.436 Y75.479 E0.02502
G1 X179.917 Y76.011 E0.02248
G1 X180.412 Y76.874 E0.03122
G1 X180.642 Y77.624 E0.02457
G1 X180.717 Y78.315 E0.02179
G1 X180.717 Y131.691 E1.67357
G1 X180.532 Y132.799 E0.03522
G1 X180.167 Y133.620 E0.02817
G1 X179.438 Y134.520 E0.03633
G1 X178.696 Y135.062 E0.02881
G1 X177.635 Y135.467 E0.03560
G1 X176.770 Y135.570 E0.02733
G1 X73.213 Y135.570 E3.24695
G1 X72.074 Y135.389 E0.03617
G1 X71.250 Y135.029 E0.02818
G1 X70.339 Y134.297 E0.03663
G1 X69.792 Y133.550 E0.02904
G1 X69.458 Y132.760 E0.02688
G1 X69.282 Y131.628 E0.03591
G1 X69.285 Y78.332 E1.67107
G1 X69.466 Y77.210 E0.03564
G1 X69.829 Y76.389 E0.02814
G1 X70.522 Y75.529 E0.03462
G1 F8640.000
G1 X71.305 Y74.939 E-0.22645
G1 X72.098 Y74.603 E-0.19885
G1 X73.230 Y74.430 E-0.26445
G1 X76.003 Y74.430 E-0.64025
G1 E-0.07000 F2100.00000
G1 Z0.400 F10800.000
G1 X87.292 Y84.693
G1 Z0.200
G1 E1.40000 F2100.00000
G1 F1200.000
G1 X87.292 Y87.103 E0.07555
G1 F8640.000
G1 X87.292 Y84.693 E-0.55638
G1 E-0.84362 F2100.00000
G1 Z0.400 F10800.000
G1 X90.309 Y83.601
G1 Z0.200
G1 E1.40000 F2100.00000
G1 F1200.000
G1 X90.309 Y92.461 E0.27782
G1 X91.063 Y92.461 E0.02365
G1 X91.063 Y83.771 E0.27250
G1 X91.817 Y83.771 E0.02365
G1 X91.817 Y92.461 E0.27250
G1 X92.571 Y92.461 E0.02365
G1 X92.571 Y83.771 E0.27250
G1 X93.325 Y83.771 E0.02365
G1 X93.325 Y92.631 E0.27782
G1 F8640.000
G1 X93.325 Y86.871 E-1.33000
G1 E-0.07000 F2100.00000
G1 Z0.400 F10800.000
G1 X87.292 Y119.429
G1 Z0.200
G1 E1.40000 F2100.00000
G1 F1200.000
G1 X87.292 Y121.839 E0.07556
G1 F8640.000
G1 X87.292 Y119.429 E-0.55641
G1 E-0.84359 F2100.00000
G1 Z0.400 F10800.000
G1 X93.325 Y122.929
G1 Z0.200
G1 E1.40000 F2100.00000
G1 F1200.000
G1 X93.325 Y114.073 E0.27769
G1 X92.571 Y114.073 E0.02365
G1 X92.571 Y122.759 E0.27237
G1 X91.817 Y122.759 E0.02365
G1 X91.817 Y114.073 E0.27237
G1 X91.063 Y114.073 E0.02365
G1 X91.063 Y122.759 E0.27237
G1 X90.309 Y122.759 E0.02365
G1 X90.309 Y113.903 E0.27769
G1 F8640.000
G1 X90.309 Y119.663 E-1.33000
G1 E-0.07000 F2100.00000
G1 Z0.400 F10800.000
G1 X93.325 Y112.829
G1 Z0.200
G1 E1.40000 F2100.00000
G1 F1200.000
G1 X93.325 Y103.971 E0.27776
G1 X92.571 Y103.971 E0.02365
G1 X92.571 Y112.659 E0.27244
G1 X91.817 Y112.659 E0.02365
G1 X91.817 Y103.971 E0.27244
G1 X91.063 Y103.971 E0.02365
G1 X91.063 Y112.659 E0.27244
G1 X90.309 Y112.659 E0.02365
G1 X90.309 Y103.801 E0.27776
G1 F8640.000
G1 X90.309 Y109.561 E-1.33000
G1 E-0.07000 F2100.00000
G1 Z0.400 F10800.000
G1 X90.309 Y102.731
G1 Z0.200
G1 E1.40000 F2100.00000
G1 F1200.000
G1 X90.309 Y93.871 E0.27782
G1 X91.063 Y93.871 E0.02365
G1 X91.063 Y102.561 E0.27250
G1 X91.817 Y102.561 E0.02365
G1 X91.817 Y93.871 E0.27250
G1 X92.571 Y93.871 E0.02365
G1 X92.571 Y102.561 E0.27250
G1 X93.325 Y102.561 E0.02365
G1 X93.325 Y93.871 E0.27250
G1 X94.079 Y93.871 E0.02365
G1 X94.079 Y102.561 E0.27250
G1 X94.834 Y102.561 E0.02365
G1 X94.834 Y93.871 E0.27250
G1 X95.588 Y93.871 E0.02365
G1 X95.588 Y102.561 E0.27250
G1 X96.342 Y102.561 E0.02365
G1 X96.342 Y93.871 E0.27250
G1 X97.096 Y93.871 E0.02365
G1 X97.096 Y102.561 E0.27250
G1 X97.850 Y102.561 E0.02365
G1 X97.850 Y93.871 E0.27250
G1 X98.604 Y93.871 E0.02365
G1 X98.604 Y102.561 E0.27250
G1 X99.359 Y102.561 E0.02365
G1 X99.359 Y93.871 E0.27250
G1 X100.113 Y93.871 E0.02365
G1 X100.113 Y102.561 E0.27250
G1 X100.867 Y102.561 E0.02365
G1 X100.867 Y93.871 E0.27250
G1 X101.621 Y93.871 E0.02365
G1 X101.621 Y102.561 E0.27250
G1 X102.375 Y102.561 E0.02365
G1 X102.375 Y93.871 E0.27250
G1 X103.129 Y93.871 E0.02365
G1 X103.129 Y102.561 E0.27250
G1 X103.884 Y102.561 E0.02365
G1 X103.884 Y93.871 E0.27250
G1 X104.638 Y93.871 E0.02365
G1 X104.638 Y102.561 E0.27250
G1 X105.392 Y102.561 E0.02365
G1 X105.392 Y93.871 E0.27250
G1 X106.146 Y93.871 E0.02365
G1 X106.146 Y102.561 E0.27250
G1 X106.900 Y102.561 E0.02365
G1 X106.900 Y93.871 E0.27250
G1 X107.654 Y93.871 E0.02365
G1 X107.654 Y102.561 E0.27250
G1 X108.409 Y102.561 E0.02365
G1 X108.409 Y93.871 E0.27250
G1 X109.163 Y93.871 E0.02365
G1 X109.163 Y102.561 E0.27250
G1 X109.917 Y102.561 E0.02365
G1 X109.917 Y93.871 E0.27250
G1 X110.671 Y93.871 E0.02365
G1 X110.671 Y102.561 E0.27250
G1 X111.425 Y102.561 E0.02365
G1 X111.425 Y93.871 E0.27250
G1 X112.179 Y93.871 E0.02365
G1 X112.179 Y102.731 E0.27782
G1 F8640.000
G1 X112.179 Y96.971 E-1.33000
G1 E-0.07000 F2100.00000
G1 Z0.400 F10800.000
G1 X113.688 Y103.801
G1 Z0.200
G1 E1.40000 F2100.00000
G1 F1200.000
G1 X113.688 Y112.659 E0.27776
G1 X114.442 Y112.659 E0.02365
G1 X114.442 Y103.971 E0.27244
G1 X115.196 Y103.971 E0.02365
G1 X115.196 Y112.659 E0.27244
G1 X115.950 Y112.659 E0.02365
G1 X115.950 Y103.971 E0.27244
G1 X116.704 Y103.971 E0.02365
G1 X116.704 Y112.659 E0.27244
G1 X117.458 Y112.659 E0.02365
G1 X117.458 Y103.971 E0.27244
G1 X118.213 Y103.971 E0.02365
G1 X118.213 Y112.659 E0.27244
G1 X118.967 Y112.659 E0.02365
G1 X118.967 Y108.956 E0.11611
G1 X118.737 Y108.956 E0.00722
G1 X118.737 Y107.965 E0.03108
G1 X118.967 Y107.965 E0.00722
G1 X118.967 Y103.971 E0.12524
G1 X119.721 Y103.971 E0.02365
G1 X119.721 Y107.965 E0.12524
G1 X120.475 Y107.965 E0.02365
G1 X120.475 Y103.971 E0.12524
G1 X121.229 Y103.971 E0.02365
G1 X121.229 Y107.965 E0.12524
G1 X121.983 Y107.965 E0.02365
G1 X121.983 Y103.971 E0.12524
G1 X122.738 Y103.971 E0.02365
G1 X122.738 Y107.965 E0.12524
G1 X123.492 Y107.965 E0.02365
G1 X123.492 Y103.971 E0.12524
G1 X124.246 Y103.971 E0.02365
G1 X124.246 Y107.965 E0.12524
G1 X125.000 Y107.965 E0.02365
G1 X125.000 Y103.971 E0.12524
G1 X125.754 Y103.971 E0.02365
G1 X125.754 Y107.965 E0.12524
G1 X126.508 Y107.965 E0.02365
G1 X126.508 Y103.971 E0.12524
G1 X127.262 Y103.971 E0.02365
G1 X127.262 Y107.965 E0.12524
G1 X128.017 Y107.965 E0.02365
G1 X128.017 Y103.971 E0.12524
G1 X128.771 Y103.971 E0.02365
G1 X128.771 Y107.965 E0.12524
G1 X129.525 Y107.965 E0.02365
G1 X129.525 Y103.971 E0.12524
G1 X130.279 Y103.971 E0.02365
G1 X130.279 Y107.965 E0.12524
G1 X131.033 Y107.965 E0.02365
G1 X131.033 Y103.971 E0.12524
G1 X131.787 Y103.971 E0.02365
G1 X131.787 Y112.659 E0.27244
G1 X132.542 Y112.659 E0.02365
G1 X132.542 Y103.971 E0.27244
G1 X133.296 Y103.971 E0.02365
G1 X133.296 Y112.659 E0.27244
G1 X134.050 Y112.659 E0.02365
G1 X134.050 Y103.971 E0.27244
G1 X134.804 Y103.971 E0.02365
G1 X134.804 Y112.659 E0.27244
G1 X135.558 Y112.659 E0.02365
G1 X135.558 Y103.971 E0.27244
G1 X136.312 Y103.971 E0.02365
G1 X136.312 Y112.829 E0.27776
G1 F8640.000
G1 X136.312 Y107.069 E-1.33000
G1 E-0.07000 F2100.00000
G1 Z0.400 F10800.000
G1 X137.821 Y112.829
G1 Z0.200
G1 E1.40000 F2100.00000
G1 F1200.000
G1 X137.821 Y103.971 E0.27776
G1 X138.575 Y103.971 E0.02365
G1 X138.575 Y112.659 E0.27244
G1 X139.329 Y112.659 E0.02365
G1 X139.329 Y103.971 E0.27244
G1 X140.083 Y103.971 E0.02365
G1 X140.083 Y112.659 E0.27244
G1 X140.837 Y112.659 E0.02365
G1 X140.837 Y103.971 E0.27244
M73 Q0 S145
G1 X141.592 Y103.971 E0.02365
M73 P0 R143
G1 X141.592 Y112.829 E0.27776
G1 F8640.000
G1 X141.592 Y107.069 E-1.33000
G1 E-0.07000 F2100.00000
G1 Z0.400 F10800.000
G1 X141.592 Y122.929
G1 Z0.200
G1 E1.40000 F2100.00000
G1 F1200.000
G1 X141.592 Y114.073 E0.27769
G1 X140.837 Y114.073 E0.02365
G1 X140.837 Y122.759 E0.27237
G1 X140.083 Y122.759 E0.02365
G1 X140.083 Y114.073 E0.27237
G1 X139.329 Y114.073 E0.02365
G1 X139.329 Y122.759 E0.27237
G1 X138.575 Y122.759 E0.02365
G1 X138.575 Y114.073 E0.27237
G1 X137.821 Y114.073 E0.02365
G1 X137.821 Y122.929 E0.27769
G1 F8640.000
G1 X137.821 Y117.169 E-1.33000
G1 E-0.07000 F2100.00000
G1 Z0.400 F10800.000
G1 X136.312 Y122.929
G1 Z0.200
G1 E1.40000 F2100.00000
G1 F1200.000
G1 X136.312 Y114.073 E0.27769
G1 X135.558 Y114.073 E0.02365
G1 X135.558 Y122.759 E0.27237
G1 X134.804 Y122.759 E0.02365
G1 X134.804 Y114.073 E0.27237
G1 X134.050 Y114.073 E0.02365
G1 X134.050 Y122.759 E0.27237
G1 X133.296 Y122.759 E0.02365
G1 X133.296 Y114.073 E0.27237
G1 X132.542 Y114.073 E0.02365
G1 X132.542 Y122.759 E0.27237
G1 X131.787 Y122.759 E0.02365
G1 X131.787 Y114.073 E0.27237
G1 X131.033 Y114.073 E0.02365
G1 X131.033 Y117.193 E0.09785
G1 X130.279 Y117.193 E0.02365
G1 X130.279 Y114.073 E0.09785
G1 X129.525 Y114.073 E0.02365
G1 X129.525 Y117.193 E0.09785
G1 X128.771 Y117.193 E0.02365
G1 X128.771 Y114.073 E0.09785
G1 X128.017 Y114.073 E0.02365
G1 X128.017 Y117.193 E0.09785
G1 X127.262 Y117.193 E0.02365
G1 X127.262 Y114.073 E0.09785
G1 X126.508 Y114.073 E0.02365
G1 X126.508 Y117.193 E0.09785
G1 X125.754 Y117.193 E0.02365
G1 X125.754 Y114.073 E0.09785
G1 X125.000 Y114.073 E0.02365
G1 X125.000 Y117.193 E0.09785
G1 X124.246 Y117.193 E0.02365
G1 X124.246 Y114.073 E0.09785
G1 X123.492 Y114.073 E0.02365
G1 X123.492 Y117.193 E0.09785
G1 X122.738 Y117.193 E0.02365
G1 X122.738 Y114.073 E0.09785
G1 X121.983 Y114.073 E0.02365
G1 X121.983 Y117.193 E0.09785
G1 X121.229 Y117.193 E0.02365
G1 X121.229 Y114.073 E0.09785
G1 X120.475 Y114.073 E0.02365
G1 X120.475 Y117.193 E0.09785
G1 X119.721 Y117.193 E0.02365
G1 X119.721 Y114.073 E0.09785
G1 X118.967 Y114.073 E0.02365
G1 X118.967 Y117.193 E0.09785
G1 X118.737 Y117.193 E0.00722
G1 X118.737 Y118.185 E0.03108
G1 X118.967 Y118.185 E0.00722
G1 X118.967 Y122.759 E0.14344
G1 X118.213 Y122.759 E0.02365
G1 X118.213 Y114.073 E0.27237
G1 X117.458 Y114.073 E0.02365
G1 X117.458 Y122.759 E0.27237
G1 X116.704 Y122.759 E0.02365
G1 X116.704 Y114.073 E0.27237
G1 X115.950 Y114.073 E0.02365
G1 X115.950 Y122.759 E0.27237
G1 X115.196 Y122.759 E0.02365
G1 X115.196 Y114.073 E0.27237
G1 X114.442 Y114.073 E0.02365
G1 X114.442 Y122.759 E0.27237
G1 X113.688 Y122.759 E0.02365
G1 X113.688 Y113.903 E0.27769
G1 F8640.000
G1 X113.688 Y119.663 E-1.33000
G1 E-0.07000 F2100.00000
G1 Z0.400 F10800.000
G1 X112.179 Y112.829
G1 Z0.200
G1 E1.40000 F2100.00000
G1 F1200.000
G1 X112.179 Y103.971 E0.27776
G1 X111.425 Y103.971 E0.02365
G1 X111.425 Y112.659 E0.27244
G1 X110.671 Y112.659 E0.02365
G1 X110.671 Y103.971 E0.27244
G1 X109.917 Y103.971 E0.02365
G1 X109.917 Y112.659 E0.27244
G1 X109.163 Y112.659 E0.02365
G1 X109.163 Y103.971 E0.27244
G1 X108.409 Y103.971 E0.02365
G1 X108.409 Y112.659 E0.27244
G1 X107.654 Y112.659 E0.02365
G1 X107.654 Y108.956 E0.11611
G1 X106.900 Y108.956 E0.02365
G1 X106.900 Y112.659 E0.11611
G1 X106.146 Y112.659 E0.02365
G1 X106.146 Y108.956 E0.11611
G1 X105.392 Y108.956 E0.02365
G1 X105.392 Y112.659 E0.11611
G1 X104.638 Y112.659 E0.02365
G1 X104.638 Y108.956 E0.11611
G1 X103.884 Y108.956 E0.02365
G1 X103.884 Y112.659 E0.11611
G1 X103.129 Y112.659 E0.02365
G1 X103.129 Y108.956 E0.11611
G1 X102.375 Y108.956 E0.02365
G1 X102.375 Y112.659 E0.11611
G1 X101.621 Y112.659 E0.02365
G1 X101.621 Y108.956 E0.11611
G1 X100.867 Y108.956 E0.02365
G1 X100.867 Y112.659 E0.11611
G1 X100.113 Y112.659 E0.02365
G1 X100.113 Y108.956 E0.11611
G1 X99.359 Y108.956 E0.02365
G1 X99.359 Y112.659 E0.11611
G1 X98.604 Y112.659 E0.02365
G1 X98.604 Y108.956 E0.11611
G1 X97.850 Y108.956 E0.02365
G1 X97.850 Y112.659 E0.11611
G1 X97.096 Y112.659 E0.02365
G1 X97.096 Y108.956 E0.11611
G1 X96.342 Y108.956 E0.02365
G1 X96.342 Y112.659 E0.11611
G1 X95.588 Y112.659 E0.02365
G1 X95.588 Y108.956 E0.11611
G1 X94.834 Y108.956 E0.02365
G1 X94.834 Y112.659 E0.11611
G1 X94.079 Y112.659 E0.02365
G1 X94.079 Y108.956 E0.11611
G1 X93.359 Y108.956 E0.02260
G1 X93.359 Y107.965 E0.03108
G1 X94.079 Y107.965 E0.02260
G1 X94.079 Y103.971 E0.12524
G1 X94.834 Y103.971 E0.02365
G1 X94.834 Y107.965 E0.12524
G1 X95.588 Y107.965 E0.02365
G1 X95.588 Y103.971 E0.12524
G1 X96.342 Y103.971 E0.02365
G1 X96.342 Y107.965 E0.12524
G1 X97.096 Y107.965 E0.02365
G1 X97.096 Y103.971 E0.12524
G1 X97.850 Y103.971 E0.02365
G1 X97.850 Y107.965 E0.12524
G1 X98.604 Y107.965 E0.02365
G1 X98.604 Y103.971 E0.12524
G1 X99.359 Y103.971 E0.02365
G1 X99.359 Y107.965 E0.12524
G1 X100.113 Y107.965 E0.02365
G1 X100.113 Y103.971 E0.12524
G1 X100.867 Y103.971 E0.02365
G1 X100.867 Y107.965 E0.12524
G1 X101.621 Y107.965 E0.02365
G1 X101.621 Y103.971 E0.12524
G1 X102.375 Y103.971 E0.02365
G1 X102.375 Y107.965 E0.12524
G1 X103.129 Y107.965 E0.02365
G1 X103.129 Y103.971 E0.12524
G1 X103.884 Y103.971 E0.02365
G1 X103.884 Y107.965 E0.12524
G1 X104.638 Y107.965 E0.02365
G1 X104.638 Y103.971 E0.12524
G1 X105.392 Y103.971 E0.02365
G1 X105.392 Y107.965 E0.12524
G1 X106.146 Y107.965 E0.02365
G1 X106.146 Y103.971 E0.12524
G1 X106.900 Y103.971 E0.02365
G1 X106.900 Y107.965 E0.12524
G1 X107.654 Y107.965 E0.02365
G1 X107.654 Y103.801 E0.13056
G1 F8640.000
G1 X107.654 Y107.965 E-0.96149
G1 X106.900 Y107.965 E-0.17414
G1 X106.900 Y107.123 E-0.19438
G1 E-0.07000 F2100.00000
G1 Z0.400 F10800.000
G1 X107.654 Y113.903
G1 Z0.200
G1 E1.40000 F2100.00000
G1 F1200.000
G1 X107.654 Y117.193 E0.10317
G1 X106.900 Y117.193 E0.02365
G1 X106.900 Y114.073 E0.09785
G1 X106.146 Y114.073 E0.02365
G1 X106.146 Y117.193 E0.09785
G1 X105.392 Y117.193 E0.02365
G1 X105.392 Y114.073 E0.09785
G1 X104.638 Y114.073 E0.02365
G1 X104.638 Y117.193 E0.09785
G1 X103.884 Y117.193 E0.02365
G1 X103.884 Y114.073 E0.09785
G1 X103.129 Y114.073 E0.02365
G1 X103.129 Y117.193 E0.09785
G1 X102.375 Y117.193 E0.02365
G1 X102.375 Y114.073 E0.09785
G1 X101.621 Y114.073 E0.02365
G1 X101.621 Y117.193 E0.09785
G1 X100.867 Y117.193 E0.02365
G1 X100.867 Y114.073 E0.09785
G1 X100.113 Y114.073 E0.02365
G1 X100.113 Y117.193 E0.09785
G1 X99.359 Y117.193 E0.02365
G1 X99.359 Y114.073 E0.09785
G1 X98.604 Y114.073 E0.02365
G1 X98.604 Y117.193 E0.09785
G1 X97.850 Y117.193 E0.02365
G1 X97.850 Y114.073 E0.09785
G1 X97.096 Y114.073 E0.02365
G1 X97.096 Y117.193 E0.09785
G1 X96.342 Y117.193 E0.02365
G1 X96.342 Y114.073 E0.09785
G1 X95.588 Y114.073 E0.02365
G1 X95.588 Y117.193 E0.09785
G1 X94.834 Y117.193 E0.02365
G1 X94.834 Y114.073 E0.09785
G1 X94.079 Y114.073 E0.02365
G1 X94.079 Y117.193 E0.09785
G1 X93.359 Y117.193 E0.02260
G1 X93.359 Y118.185 E0.03108
G1 X94.079 Y118.185 E0.02260
G1 X94.079 Y122.759 E0.14344
G1 X94.834 Y122.759 E0.02365
G1 X94.834 Y118.185 E0.14344
G1 X95.588 Y118.185 E0.02365
G1 X95.588 Y122.759 E0.14344
G1 X96.342 Y122.759 E0.02365
G1 X96.342 Y118.185 E0.14344
G1 X97.096 Y118.185 E0.02365
G1 X97.096 Y122.759 E0.14344
G1 X97.850 Y122.759 E0.02365
G1 X97.850 Y118.185 E0.14344
G1 X98.604 Y118.185 E0.02365
G1 X98.604 Y122.759 E0.14344
G1 X99.359 Y122.759 E0.02365
G1 X99.359 Y118.185 E0.14344
G1 X100.113 Y118.185 E0.02365
G1 X100.113 Y122.759 E0.14344
G1 X100.867 Y122.759 E0.02365
