; generated by PrusaSlicer 2.2.0+win64 on 2020-06-10 at 10:44:08 UTC

; 

; external perimeters extrusion width = 0.68mm
; perimeters extrusion width = 0.68mm
; infill extrusion width = 0.68mm
; solid infill extrusion width = 0.68mm
; top infill extrusion width = 0.60mm
; first layer extrusion width = 0.65mm

M73 P0 R193
M73 Q0 S195
M201 X1000 Y1000 Z200 E5000 ; sets maximum accelerations, mm/sec^2
M203 X200 Y200 Z12 E120 ; sets maximum feedrates, mm/sec
M204 P1250 R1250 T1250 ; sets acceleration (P, T) and retract acceleration (R), mm/sec^2
M205 X8.00 Y8.00 Z0.40 E4.50 ; sets the jerk limits, mm/sec
M205 S0 T0 ; sets the minimum extruding and travel feed rate, mm/sec
M107
M862.3 P "MK3S" ; printer model check
M862.1 P0.6 ; nozzle diameter check
M115 U3.9.0 ; tell printer latest fw version
G90 ; use absolute coordinates
M83 ; extruder relative mode
M104 S240 ; set extruder temp
M140 S85 ; set bed temp
M190 S85 ; wait for bed temp
M109 S240 ; wait for extruder temp
G28 W ; home all without mesh bed level
G80 ; mesh bed leveling
G1 Y-3.0 F1000.0 ; go outside print area
G92 E0.0
G1 X60.0 E9.0 F1000.0 ; intro line
M73 Q0 S195
M73 P0 R193
G1 X100.0 E12.5 F1000.0 ; intro line
G92 E0.0
M221 S95
G21 ; set units to millimeters
G90 ; use absolute coordinates
M83 ; use relative distances for extrusion
M900 K0.05 ; Filament gcode LA 1.5
M900 K24 ; Filament gcode LA 1.0
;BEFORE_LAYER_CHANGE
G92 E0.0
;0.2


G1 E-1.40000 F2100.00000
G1 Z0.200 F10800.000
;AFTER_LAYER_CHANGE
;0.2
G1 Z0.400
G1 X70.404 Y59.775
G1 Z0.200
G1 E1.40000 F2100.00000
M204 S1000
G1 F1200.000
G1 X75.520 Y54.233 E0.38073
G1 X81.196 Y49.267 E0.38073
G1 X87.356 Y44.940 E0.37996
G1 X93.958 Y41.281 E0.38104
G1 X100.785 Y38.395 E0.37413
G1 X108.269 Y36.138 E0.39458
G1 X115.552 Y34.769 E0.37409
G1 X123.138 Y34.167 E0.38414
G1 X130.595 Y34.369 E0.37654
G1 X138.081 Y35.370 E0.38129
G1 X145.397 Y37.157 E0.38016
G1 X152.492 Y39.715 E0.38070
G1 X159.276 Y43.012 E0.38075
G1 X165.677 Y47.016 E0.38109
G1 X171.601 Y51.666 E0.38016
G1 X176.919 Y56.837 E0.37445
G1 X181.820 Y62.732 E0.38699
G1 X185.919 Y68.901 E0.37386
G1 X189.524 Y75.836 E0.39457
G1 X192.223 Y82.746 E0.37447
G1 X194.208 Y90.023 E0.38073
G1 X195.407 Y97.469 E0.38073
G1 X195.809 Y105.000 E0.38070
G1 X195.407 Y112.531 E0.38068
G1 X194.210 Y119.964 E0.38004
G1 X192.227 Y127.240 E0.38070
G1 X189.529 Y134.155 E0.37467
G1 X186.000 Y140.969 E0.38735
G1 X181.909 Y147.143 E0.37389
G1 X176.919 Y153.163 E0.39470
G1 X171.619 Y158.318 E0.37320
G1 X165.679 Y162.983 E0.38129
G1 X159.294 Y166.978 E0.38016
G1 X152.502 Y170.282 E0.38129
G1 X145.407 Y172.840 E0.38073
G1 X138.084 Y174.630 E0.38053
G1 X130.619 Y175.629 E0.38016
G1 X123.136 Y175.833 E0.37787
G1 X115.561 Y175.232 E0.38358
G1 X108.138 Y173.833 E0.38129
G1 X100.928 Y171.660 E0.38016
G1 X94.102 Y168.784 E0.37386
G1 X87.252 Y164.991 E0.39528
G1 X81.192 Y160.730 E0.37397
G1 X75.435 Y155.679 E0.38659
G1 X70.403 Y150.223 E0.37465
G1 X65.912 Y144.178 E0.38016
G1 X62.076 Y137.671 E0.38127
G1 X58.964 Y130.813 E0.38019
G1 X56.594 Y123.653 E0.38070
G1 X54.997 Y116.274 E0.38111
G1 X54.195 Y108.774 E0.38073
G1 X54.191 Y101.368 E0.37389
G1 X54.994 Y93.747 E0.38679
G1 X56.556 Y86.503 E0.37406
G1 X59.013 Y79.071 E0.39516
G1 X62.077 Y72.328 E0.37389
G1 X65.900 Y65.839 E0.38016
G1 X70.350 Y59.848 E0.37675
G1 F8640.000
G1 X74.252 Y55.610 E-1.33000
G1 E-0.07000 F2100.00000
G1 Z0.400 F10800.000
G1 X73.283 Y62.163
G1 Z0.200
G1 E1.40000 F2100.00000
G1 F1200.000
G1 X78.129 Y56.914 E0.36063
G1 X83.506 Y52.210 E0.36063
G1 X89.355 Y48.101 E0.36085
G1 X95.599 Y44.643 E0.36028
G1 X102.183 Y41.864 E0.36076
G1 X109.023 Y39.801 E0.36063
G1 X116.044 Y38.477 E0.36063
G1 X123.165 Y37.907 E0.36063
G1 X130.307 Y38.098 E0.36063
G1 X137.388 Y39.046 E0.36063
G1 X144.328 Y40.741 E0.36063
G1 X151.048 Y43.165 E0.36063
G1 X157.473 Y46.289 E0.36063
G1 X163.529 Y50.079 E0.36063
G1 X169.149 Y54.490 E0.36063
G1 X174.267 Y59.474 E0.36063
G1 X178.827 Y64.974 E0.36063
G1 X182.776 Y70.927 E0.36063
G1 X186.070 Y77.267 E0.36063
G1 X188.672 Y83.920 E0.36063
G1 X190.551 Y90.813 E0.36063
G1 X191.688 Y97.867 E0.36067
G1 X192.068 Y105.004 E0.36081
G1 X191.688 Y112.133 E0.36036
G1 X190.551 Y119.187 E0.36067
G1 X188.672 Y126.080 E0.36063
G1 X186.070 Y132.733 E0.36063
G1 X182.776 Y139.073 E0.36063
G1 X178.827 Y145.026 E0.36063
G1 X174.267 Y150.526 E0.36063
G1 X169.149 Y155.510 E0.36063
G1 X163.529 Y159.921 E0.36063
G1 X157.473 Y163.711 E0.36063
G1 X151.048 Y166.835 E0.36063
G1 X144.328 Y169.259 E0.36063
G1 X137.388 Y170.954 E0.36063
G1 X130.307 Y171.902 E0.36063
G1 X123.165 Y172.093 E0.36063
G1 X116.044 Y171.523 E0.36063
G1 X109.023 Y170.199 E0.36063
G1 X102.183 Y168.136 E0.36063
G1 X95.599 Y165.358 E0.36076
G1 X89.355 Y161.899 E0.36028
G1 X83.506 Y157.790 E0.36085
G1 X78.129 Y153.086 E0.36063
G1 X73.283 Y147.837 E0.36063
G1 X69.023 Y142.102 E0.36063
G1 X65.396 Y135.947 E0.36063
G1 X62.444 Y129.441 E0.36063
G1 X60.200 Y122.658 E0.36063
G1 X58.690 Y115.676 E0.36063
G1 X57.930 Y108.572 E0.36063
G1 X57.930 Y101.428 E0.36063
G1 X58.690 Y94.324 E0.36063
G1 X60.200 Y87.342 E0.36063
G1 X62.444 Y80.559 E0.36063
G1 X65.396 Y74.053 E0.36063
G1 X69.023 Y67.898 E0.36063
G1 X73.230 Y62.236 E0.35609
G1 X72.742 Y61.874 F10800.000
G1 F1200.000
G1 X72.815 Y61.775 E0.00618
G1 X77.705 Y56.478 E0.36390
G1 X83.130 Y51.731 E0.36390
G1 X89.033 Y47.585 E0.36412
G1 X95.333 Y44.096 E0.36354
G1 X101.977 Y41.292 E0.36403
G1 X108.879 Y39.211 E0.36390
G1 X115.963 Y37.875 E0.36390
G1 X123.149 Y37.300 E0.36390
G1 X130.355 Y37.492 E0.36390
G1 X137.500 Y38.448 E0.36390
G1 X144.503 Y40.159 E0.36390
G1 X151.284 Y42.605 E0.36390
G1 X157.767 Y45.757 E0.36390
G1 X163.879 Y49.581 E0.36390
G1 X169.549 Y54.033 E0.36390
G1 X174.714 Y59.062 E0.36390
G1 X179.315 Y64.611 E0.36390
G1 X183.300 Y70.619 E0.36390
G1 X186.624 Y77.016 E0.36390
G1 X189.249 Y83.729 E0.36390
G1 X191.146 Y90.684 E0.36390
G1 X192.292 Y97.802 E0.36394
G1 X192.676 Y105.004 E0.36408
G1 X192.292 Y112.198 E0.36363
G1 X191.146 Y119.316 E0.36394
G1 X189.249 Y126.271 E0.36390
G1 X186.624 Y132.984 E0.36390
G1 X183.300 Y139.381 E0.36390
G1 X179.315 Y145.389 E0.36390
G1 X174.714 Y150.938 E0.36390
G1 X169.549 Y155.967 E0.36390
G1 X163.879 Y160.419 E0.36390
G1 X157.767 Y164.243 E0.36390
G1 X151.284 Y167.395 E0.36390
G1 X144.503 Y169.841 E0.36390
G1 X137.500 Y171.552 E0.36390
M73 Q0 S194
M73 P0 R192
G1 X130.355 Y172.508 E0.36390
G1 X123.149 Y172.700 E0.36390
G1 X115.963 Y172.125 E0.36390
G1 X108.879 Y170.789 E0.36390
G1 X101.977 Y168.708 E0.36390
G1 X95.333 Y165.904 E0.36403
G1 X89.033 Y162.415 E0.36354
G1 X83.130 Y158.269 E0.36412
G1 X77.705 Y153.522 E0.36390
G1 X72.815 Y148.225 E0.36390
G1 X68.516 Y142.438 E0.36390
G1 X64.856 Y136.227 E0.36390
G1 X61.878 Y129.663 E0.36390
G1 X59.613 Y122.818 E0.36390
G1 X58.090 Y115.772 E0.36390
G1 X57.323 Y108.604 E0.36390
G1 X57.323 Y101.396 E0.36390
G1 X58.090 Y94.228 E0.36390
G1 X59.613 Y87.182 E0.36390
G1 X61.878 Y80.337 E0.36390
G1 X64.856 Y73.773 E0.36390
G1 X68.516 Y67.562 E0.36390
G1 X72.689 Y61.946 E0.35318
G1 X72.864 Y61.886 F10800.000
G1 F8640.000
G1 X72.815 Y61.775 E-0.04903
G1 X76.578 Y57.699 E-1.28097
G1 E-0.07000 F2100.00000
G1 Z0.400 F10800.000
G1 X73.597 Y62.504
G1 Z0.200
G1 E1.40000 F2100.00000
G1 F1200.000
G1 X82.504 Y62.504 E0.44964
G1 X82.504 Y53.691 E0.44491
G1 X83.112 Y53.159 F10800.000
G1 F1200.000
G1 X83.112 Y63.112 E0.50237
G1 X73.146 Y63.112 E0.50305
G1 X72.695 Y63.719 F10800.000
G1 F1200.000
G1 X83.719 Y63.719 E0.55646
G1 X83.719 Y52.628 E0.55983
G1 X84.326 Y52.190 F10800.000
G1 F1200.000
G1 X84.326 Y64.326 E0.61260
G1 X72.244 Y64.326 E0.60987
G1 X71.793 Y64.933 F10800.000
G1 F1200.000
G1 X84.933 Y64.933 E0.66329
G1 X84.933 Y51.764 E0.66477
G1 X85.540 Y51.337 F10800.000
G1 F1200.000
G1 X85.540 Y65.540 E0.71694
G1 X71.342 Y65.540 E0.71670
G1 X70.891 Y66.147 F10800.000
G1 F1200.000
G1 X86.147 Y66.147 E0.77011
G1 X86.147 Y50.911 E0.76911
G1 F8640.000
G1 X86.147 Y56.671 E-1.33000
G1 E-0.07000 F2100.00000
G1 Z0.400 F10800.000
G1 X87.968 Y49.631
G1 Z0.200
G1 E1.40000 F2100.00000
G1 F1200.000
G1 X87.968 Y67.968 E0.92562
G1 X69.538 Y67.968 E0.93035
G1 X69.152 Y68.575 F10800.000
G1 F1200.000
G1 X88.575 Y68.575 E0.98046
G1 X88.575 Y49.205 E0.97779
G1 X89.182 Y48.779 F10800.000
G1 F1200.000
G1 X89.182 Y69.182 E1.02996
G1 X68.794 Y69.182 E1.02916
G1 X68.437 Y69.789 F10800.000
G1 F1200.000
G1 X89.789 Y69.789 E1.07786
G1 X89.789 Y48.381 E1.08069
G1 F8640.000
G1 X89.789 Y54.141 E-1.33000
G1 E-0.07000 F2100.00000
G1 Z0.400 F10800.000
G1 X92.825 Y46.699
G1 Z0.200
G1 E1.40000 F2100.00000
G1 F1200.000
G1 X92.825 Y72.825 E1.31878
G1 X66.648 Y72.825 E1.32137
G1 X66.290 Y73.432 F10800.000
G1 F1200.000
G1 X93.432 Y73.432 E1.37007
G1 X93.432 Y46.363 E1.36640
G1 X94.039 Y46.027 F10800.000
G1 F1200.000
G1 X94.039 Y74.039 E1.41402
G1 X65.933 Y74.039 E1.41878
G1 X65.627 Y74.646 F10800.000
G1 F1200.000
G1 X94.646 Y74.646 E1.46486
G1 X94.646 Y45.691 E1.46164
G1 X95.253 Y45.354 F10800.000
G1 F1200.000
G1 X95.253 Y75.253 E1.50925
G1 X65.351 Y75.253 E1.50941
G1 X65.076 Y75.860 F10800.000
G1 F1200.000
G1 X95.860 Y75.860 E1.55396
G1 X95.860 Y45.026 E1.55646
G1 X96.467 Y44.770 F10800.000
G1 F1200.000
G1 X96.467 Y76.467 E1.60004
G1 X64.800 Y76.467 E1.59851
G1 X64.525 Y77.074 F10800.000
G1 F1200.000
G1 X97.074 Y77.074 E1.64306
G1 X97.074 Y44.514 E1.64361
G1 X97.681 Y44.258 F10800.000
G1 F1200.000
G1 X97.681 Y77.681 E1.68719
G1 X64.249 Y77.681 E1.68761
G1 X63.974 Y78.289 F10800.000
G1 F1200.000
G1 X98.289 Y78.289 E1.73216
G1 X98.289 Y44.002 E1.73077
G1 X98.896 Y43.745 F10800.000
G1 F1200.000
G1 X98.896 Y78.896 E1.77435
G1 X63.698 Y78.896 E1.77671
M73 Q1 S193
M73 P1 R191
G1 F8640.000
G1 X69.458 Y78.896 E-1.33000
G1 E-0.07000 F2100.00000
G1 Z0.400 F10800.000
G1 X62.248 Y82.600
G1 Z0.200
G1 E1.40000 F2100.00000
G1 F1200.000
G1 X84.649 Y105.000 E1.59912
G1 X62.248 Y127.400 E1.59912
G1 X62.035 Y126.755 F10800.000
G1 F1200.000
G1 X83.790 Y105.000 E1.55306
G1 X62.035 Y83.245 E1.55306
G1 F8640.000
G1 X66.108 Y87.318 E-1.33000
G1 E-0.07000 F2100.00000
G1 Z0.400 F10800.000
G1 X67.006 Y72.218
G1 Z0.200
G1 E1.40000 F2100.00000
G1 F1200.000
G1 X92.218 Y72.218 E1.27267
G1 X92.218 Y47.036 E1.27116
G1 X91.611 Y47.372 F10800.000
G1 F1200.000
G1 X91.611 Y71.611 E1.22354
G1 X67.364 Y71.611 E1.22397
G1 X67.721 Y71.004 F10800.000
G1 F1200.000
G1 X91.004 Y71.004 E1.17527
G1 X91.004 Y47.708 E1.17592
G1 X90.396 Y48.044 F10800.000
G1 F1200.000
G1 X90.396 Y70.396 E1.12831
G1 X68.079 Y70.396 E1.12656
G1 F8640.000
G1 X73.839 Y70.396 E-1.33000
G1 E-0.07000 F2100.00000
G1 Z0.400 F10800.000
G1 X69.989 Y67.361
G1 Z0.200
G1 E1.40000 F2100.00000
G1 F1200.000
G1 X87.361 Y67.361 E0.87693
G1 X87.361 Y50.058 E0.87345
G1 X86.754 Y50.484 F10800.000
G1 F1200.000
G1 X86.754 Y66.754 E0.82128
G1 X70.440 Y66.754 E0.82352
G1 F8640.000
G1 X76.200 Y66.754 E-1.33000
G1 E-0.07000 F2100.00000
G1 Z0.400 F10800.000
G1 X74.148 Y61.897
G1 Z0.200
G1 E1.40000 F2100.00000
G1 F1200.000
G1 X81.897 Y61.897 E0.39116
G1 X81.897 Y54.222 E0.38746
G1 X81.290 Y54.753 F10800.000
G1 F1200.000
G1 X81.290 Y61.290 E0.33000
G1 X74.709 Y61.290 E0.33222
G1 X75.269 Y60.683 F10800.000
G1 F1200.000
G1 X80.683 Y60.683 E0.27329
G1 X80.683 Y55.284 E0.27254
G1 X80.076 Y55.815 F10800.000
G1 F1200.000
G1 X80.076 Y60.076 E0.21508
G1 X75.830 Y60.076 E0.21436
G1 X76.390 Y59.469 F10800.000
G1 F1200.000
G1 X79.469 Y59.469 E0.15542
G1 X79.469 Y56.347 E0.15762
G1 X78.862 Y56.878 F10800.000
G1 F1200.000
G1 X78.862 Y58.862 E0.10016
G1 X76.951 Y58.862 E0.09649
G1 X77.511 Y58.255 F10800.000
G1 F1200.000
G1 X78.255 Y58.255 E0.03755
G1 X78.255 Y57.449 E0.04068
G1 F8640.000
G1 X78.255 Y58.255 E-0.18607
G1 X77.511 Y58.255 E-0.17177
G1 E-1.04215 F2100.00000
G1 Z0.400 F10800.000
G1 X113.507 Y39.419
G1 Z0.200
G1 E1.40000 F2100.00000
G1 F1200.000
G1 X125.000 Y50.912 E0.82046
G1 X136.523 Y39.389 E0.82258
G1 X135.765 Y39.288 F10800.000
G1 F1200.000
G1 X125.000 Y50.053 E0.76852
G1 X114.229 Y39.283 E0.76889
G1 X114.952 Y39.147 F10800.000
G1 F1200.000
G1 X125.000 Y49.195 E0.71733
G1 X135.008 Y39.187 E0.71447
G1 X134.251 Y39.085 F10800.000
G1 F1200.000
G1 X125.000 Y48.336 E0.66042
G1 X115.674 Y39.010 E0.66576
G1 X116.426 Y38.904 F10800.000
G1 F1200.000
G1 X125.000 Y47.478 E0.61210
G1 X133.494 Y38.984 E0.60637
G1 X132.737 Y38.882 F10800.000
G1 F1200.000
G1 X125.000 Y46.619 E0.55232
G1 X117.221 Y38.840 E0.55535
G1 X118.016 Y38.776 F10800.000
G1 F1200.000
G1 X125.000 Y45.761 E0.49860
G1 X131.980 Y38.781 E0.49827
G1 X131.223 Y38.680 F10800.000
G1 F1200.000
G1 X125.000 Y44.902 E0.44422
G1 X118.811 Y38.713 E0.44185
G1 F8640.000
G1 X122.883 Y42.786 E-1.33000
G1 E-0.07000 F2100.00000
G1 Z0.400 F10800.000
G1 X124.506 Y38.399
G1 Z0.200
G1 E1.40000 F2100.00000
G1 F1200.000
G1 X125.000 Y38.892 E0.03525
G1 X125.468 Y38.424 E0.03342
G1 X126.304 Y38.447 F10800.000
G1 F1200.000
G1 X125.000 Y39.751 E0.09312
G1 X123.624 Y38.375 E0.09822
G1 X122.785 Y38.395 F10800.000
G1 F1200.000
G1 X125.000 Y40.610 E0.15812
G1 X127.141 Y38.469 E0.15282
G1 X127.977 Y38.491 F10800.000
G1 F1200.000
G1 X125.000 Y41.468 E0.21252
G1 X121.990 Y38.458 E0.21487
G1 X121.195 Y38.522 F10800.000
G1 F1200.000
G1 X125.000 Y42.327 E0.27161
G1 X128.813 Y38.513 E0.27222
G1 X129.650 Y38.536 F10800.000
G1 F1200.000
G1 X125.000 Y43.185 E0.33192
G1 X120.400 Y38.586 E0.32836
G1 X119.605 Y38.649 F10800.000
G1 F1200.000
G1 X125.000 Y44.044 E0.38511
G1 X130.465 Y38.578 E0.39017
G1 F8640.000
G1 X126.392 Y42.651 E-1.33000
G1 E-0.07000 F2100.00000
G1 Z0.400 F10800.000
G1 X137.280 Y39.491
G1 Z0.200
G1 E1.40000 F2100.00000
G1 F1200.000
G1 X125.000 Y51.771 E0.87663
G1 X112.785 Y39.555 E0.87202
G1 X112.062 Y39.691 F10800.000
G1 F1200.000
G1 X125.000 Y52.629 E0.92359
G1 X137.972 Y39.657 E0.92603
G1 X138.662 Y39.826 F10800.000
G1 F1200.000
G1 X125.000 Y53.488 E0.97529
G1 X111.340 Y39.828 E0.97516
G1 X110.618 Y39.964 F10800.000
G1 F1200.000
G1 X125.000 Y54.346 E1.02672
G1 X139.352 Y39.994 E1.02454
G1 X140.042 Y40.163 F10800.000
G1 F1200.000
G1 X125.000 Y55.205 E1.07380
G1 X109.895 Y40.100 E1.07829
G1 X109.173 Y40.236 F10800.000
G1 F1200.000
G1 X125.000 Y56.063 E1.12986
G1 X140.732 Y40.332 E1.12305
G1 X141.422 Y40.500 F10800.000
G1 F1200.000
G1 X125.000 Y56.922 E1.17231
G1 X108.510 Y40.432 E1.17720
G1 X107.850 Y40.630 F10800.000
G1 F1200.000
G1 X125.000 Y57.780 E1.22429
G1 X142.112 Y40.669 E1.22157
G1 X142.802 Y40.837 F10800.000
G1 F1200.000
G1 X125.000 Y58.639 E1.27082
G1 X107.190 Y40.829 E1.27138
G1 F8640.000
G1 X111.263 Y44.902 E-1.33000
G1 E-0.07000 F2100.00000
G1 Z0.400 F10800.000
G1 X102.573 Y42.222
G1 Z0.200
G1 E1.40000 F2100.00000
M73 Q1 S192
M73 P1 R190
G1 F1200.000
G1 X125.000 Y64.649 E1.60102
G1 X147.338 Y42.311 E1.59465
G1 X147.969 Y42.538 F10800.000
G1 F1200.000
G1 X125.000 Y65.507 E1.63969
G1 X101.949 Y42.457 E1.64554
G1 X101.346 Y42.711 F10800.000
G1 F1200.000
G1 X125.000 Y66.366 E1.68864
G1 X148.600 Y42.766 E1.68474
G1 X149.231 Y42.994 F10800.000
G1 F1200.000
G1 X125.000 Y67.224 E1.72978
G1 X100.742 Y42.966 E1.73174
G1 X100.138 Y43.221 F10800.000
G1 F1200.000
G1 X125.000 Y68.083 E1.77484
G1 X149.862 Y43.221 E1.77483
G1 F8640.000
G1 X145.789 Y47.294 E-1.33000
G1 E-0.07000 F2100.00000
G1 Z0.400 F10800.000
G1 X146.707 Y42.083
G1 Z0.200
G1 E1.40000 F2100.00000
G1 F1200.000
G1 X125.000 Y63.790 E1.54960
G1 X103.233 Y42.023 E1.55393
G1 X103.892 Y41.824 F10800.000
G1 F1200.000
G1 X125.000 Y62.932 E1.50684
G1 X146.076 Y41.856 E1.50456
G1 X145.445 Y41.628 F10800.000
G1 F1200.000
G1 X125.000 Y62.073 E1.45951
G1 X104.552 Y41.625 E1.45975
G1 X105.212 Y41.426 F10800.000
G1 F1200.000
G1 X125.000 Y61.214 E1.41266
G1 X144.814 Y41.401 E1.41447
G1 X144.182 Y41.174 F10800.000
G1 F1200.000
G1 X125.000 Y60.356 E1.36933
G1 X105.871 Y41.227 E1.36557
G1 X106.531 Y41.028 F10800.000
G1 F1200.000
G1 X125.000 Y59.497 E1.31847
G1 X143.492 Y41.006 E1.32008
G1 F8640.000
G1 X139.419 Y45.079 E-1.33000
G1 E-0.07000 F2100.00000
G1 Z0.400 F10800.000
G1 X171.745 Y57.654
G1 Z0.200
G1 E1.40000 F2100.00000
G1 F1200.000
G1 X171.745 Y58.255 E0.03033
G1 X172.362 Y58.255 E0.03115
G1 X172.986 Y58.862 F10800.000
G1 F1200.000
G1 X171.138 Y58.862 E0.09327
