; generated by PrusaSlicer 2.2.0+win64 on 2020-05-28 at 18:31:45 UTC

; 

; external perimeters extrusion width = 0.45mm
; perimeters extrusion width = 0.45mm
; infill extrusion width = 0.45mm
; solid infill extrusion width = 0.45mm
; top infill extrusion width = 0.40mm
; support material extrusion width = 0.35mm
; first layer extrusion width = 0.42mm

M73 P0 R261
M73 Q0 S263
M201 X1000 Y1000 Z1000 E5000 ; sets maximum accelerations, mm/sec^2
M203 X200 Y200 Z12 E120 ; sets maximum feedrates, mm/sec
M204 P1250 R1250 T1250 ; sets acceleration (P, T) and retract acceleration (R), mm/sec^2
M205 X8.00 Y8.00 Z0.40 E4.50 ; sets the jerk limits, mm/sec
M205 S0 T0 ; sets the minimum extruding and travel feed rate, mm/sec
M107
M862.3 P "MK3S" ; printer model check
M862.1 P0.4 ; nozzle diameter check
M115 U3.8.1 ; tell printer latest fw version
G90 ; use absolute coordinates
M83 ; extruder relative mode
M104 S240 ; set extruder temp
M140 S85 ; set bed temp
M190 S85 ; wait for bed temp
M109 S240 ; wait for extruder temp
G28 W ; home all without mesh bed level
G80 ; mesh bed leveling
G1 Y-3.0 F1000.0 ; go outside print area
G92 E0.0
G1 X60.0 E9.0 F1000.0 ; intro line
M73 Q0 S263
M73 P0 R261
G1 X100.0 E12.5 F1000.0 ; intro line
G92 E0.0
M221 S95
G21 ; set units to millimeters
G90 ; use absolute coordinates
M83 ; use relative distances for extrusion
M900 K45 ; Filament gcode
;BEFORE_LAYER_CHANGE
G92 E0.0
;0.2


G1 E-1.40000 F2100.00000
G1 Z0.200 F10800.000
;AFTER_LAYER_CHANGE
;0.2
G1 Z0.400
G1 X89.097 Y76.034
G1 Z0.200
G1 E1.40000 F2100.00000
M204 S1000
G1 F1200.000
G1 X89.349 Y75.481 E0.01906
G1 X89.698 Y75.045 E0.01752
G1 X90.139 Y74.702 E0.01752
G1 X90.648 Y74.471 E0.01752
G1 X91.196 Y74.366 E0.01752
G1 X126.009 Y72.835 E1.09259
G1 X152.506 Y72.833 E0.83077
G1 X153.108 Y72.911 E0.01906
G1 X153.672 Y73.139 E0.01906
G1 X154.159 Y73.502 E0.01906
G1 X154.536 Y73.974 E0.01894
G1 X166.672 Y95.739 E0.78134
G1 X166.943 Y96.555 E0.02696
G1 X166.956 Y97.094 E0.01692
G1 X163.908 Y130.332 E1.04652
G1 X163.696 Y131.029 E0.02284
G1 X161.311 Y135.717 E0.16492
G1 X160.932 Y136.182 E0.01882
G1 X160.448 Y136.538 E0.01882
G1 X141.998 Y146.570 E0.65848
G1 X141.333 Y146.808 E0.02213
G1 X140.769 Y146.869 E0.01780
G1 X107.897 Y146.928 E1.03069
G1 X107.254 Y146.836 E0.02036
G1 X106.657 Y146.571 E0.02048
G1 X106.075 Y146.061 E0.02426
G1 X101.625 Y140.576 E0.22147
G1 X101.328 Y140.094 E0.01775
G1 X87.973 Y106.235 E1.14123
G1 X87.907 Y105.592 E0.02024
G1 X88.993 Y76.633 E0.90865
G1 X89.086 Y76.093 E0.01718
G1 F8640.000
G1 X89.349 Y75.481 E-0.15378
G1 X89.698 Y75.045 E-0.12899
G1 X90.139 Y74.702 E-0.12899
G1 X90.648 Y74.471 E-0.12899
G1 X91.196 Y74.366 E-0.12899
G1 X94.053 Y74.240 E-0.66026
G1 E-0.07000 F2100.00000
G1 Z0.400 F10800.000
G1 X118.568 Y85.359
G1 Z0.200
G1 E1.40000 F2100.00000
G1 F1200.000
G1 X118.568 Y81.707 E0.11450
G1 X118.629 Y81.632 E0.00304
G1 X118.956 Y81.341 E0.01372
G1 X119.323 Y81.113 E0.01354
G1 X119.323 Y85.700 E0.14385
G1 X119.757 Y85.878 E0.01473
G1 X120.077 Y85.946 E0.01024
G1 X120.077 Y80.868 E0.15919
G1 X120.597 Y80.829 E0.01636
G1 X120.831 Y80.858 E0.00738
G1 X120.831 Y85.957 E0.15988
G1 X121.056 Y85.927 E0.00713
G1 X121.475 Y85.797 E0.01374
G1 X121.585 Y85.741 E0.00389
G1 X121.585 Y81.076 E0.14626
G1 X121.842 Y81.204 E0.00901
G1 X122.196 Y81.462 E0.01372
G1 X122.339 Y81.611 E0.00648
G1 X122.339 Y85.451 E0.12042
G1 F8640.000
G1 X122.339 Y81.611 E-0.88682
G1 X122.196 Y81.462 E-0.04772
G1 X121.842 Y81.204 E-0.10103
G1 X121.585 Y81.076 E-0.06638
G1 X121.585 Y82.063 E-0.22804
G1 E-0.07000 F2100.00000
G1 Z0.400 F10800.000
G1 X129.127 Y90.245
G1 Z0.200
G1 E1.40000 F2100.00000
G1 F1200.000
G1 X129.127 Y95.094 E0.15204
G1 F8640.000
G1 X129.127 Y90.245 E-1.11970
G1 E-0.28030 F2100.00000
G1 Z0.400 F10800.000
G1 X126.110 Y78.005
G1 Z0.200
G1 E1.40000 F2100.00000
G1 F1200.000
G1 X126.110 Y75.210 E0.08765
G1 X126.864 Y75.210 E0.02365
G1 X126.864 Y77.868 E0.08335
G1 X127.618 Y77.901 E0.02367
G1 X127.618 Y75.210 E0.08438
G1 X128.373 Y75.210 E0.02365
G1 X128.373 Y77.934 E0.08541
G1 X129.127 Y77.967 E0.02367
G1 X129.127 Y75.210 E0.08644
G1 X129.881 Y75.210 E0.02365
G1 X129.881 Y94.957 E0.61917
G1 X130.635 Y94.990 E0.02367
G1 X130.635 Y75.210 E0.62019
G1 X131.389 Y75.210 E0.02365
G1 X131.389 Y95.023 E0.62122
G1 X132.143 Y95.056 E0.02367
G1 X132.143 Y75.210 E0.62225
G1 X132.897 Y75.210 E0.02365
G1 X132.897 Y95.089 E0.62328
G1 X133.652 Y95.122 E0.02367
G1 X133.652 Y75.210 E0.62431
G1 X134.406 Y75.210 E0.02365
G1 X134.406 Y95.154 E0.62534
G1 X135.160 Y95.187 E0.02367
G1 X135.160 Y75.210 E0.62637
G1 X135.914 Y75.210 E0.02365
G1 X135.914 Y95.220 E0.62740
G1 X136.668 Y95.253 E0.02367
G1 X136.668 Y75.210 E0.62843
G1 X137.422 Y75.210 E0.02365
G1 X137.422 Y95.286 E0.62946
G1 X138.177 Y95.319 E0.02367
G1 X138.177 Y75.210 E0.63049
G1 X138.931 Y75.210 E0.02365
G1 X138.931 Y95.351 E0.63152
G1 X139.685 Y95.384 E0.02367
G1 X139.685 Y75.210 E0.63255
G1 X140.439 Y75.210 E0.02365
G1 X140.439 Y95.417 E0.63358
G1 X141.193 Y95.450 E0.02367
G1 X141.193 Y75.210 E0.63461
G1 X141.947 Y75.210 E0.02365
G1 X141.947 Y95.483 E0.63564
G1 X142.702 Y95.516 E0.02367
G1 X142.702 Y75.210 E0.63667
G1 X143.456 Y75.210 E0.02365
G1 X143.456 Y95.549 E0.63770
G1 X144.210 Y95.581 E0.02367
G1 X144.210 Y75.210 E0.63873
G1 X144.964 Y75.210 E0.02365
G1 X144.964 Y95.614 E0.63976
G1 X145.718 Y95.647 E0.02367
G1 X145.718 Y75.210 E0.64079
G1 X146.472 Y75.210 E0.02365
G1 X146.472 Y95.680 E0.64182
G1 X147.226 Y95.713 E0.02367
G1 X147.226 Y75.210 E0.64285
G1 X147.981 Y75.210 E0.02365
G1 X147.981 Y95.746 E0.64388
G1 X148.735 Y95.778 E0.02367
G1 X148.735 Y75.210 E0.64491
G1 X149.489 Y75.210 E0.02365
G1 X149.489 Y95.811 E0.64594
G1 X150.243 Y95.844 E0.02367
G1 X150.243 Y75.210 E0.64697
G1 X150.997 Y75.210 E0.02365
G1 X150.997 Y95.877 E0.64800
G1 X151.751 Y95.910 E0.02367
G1 X151.751 Y75.210 E0.64903
G1 X152.506 Y75.210 E0.02365
G1 X152.506 Y96.112 E0.65538
G1 F8640.000
G1 X152.506 Y90.352 E-1.33000
G1 E-0.07000 F2100.00000
G1 Z0.400 F10800.000
G1 X161.556 Y129.994
G1 Z0.200
G1 E1.40000 F2100.00000
G1 F1200.000
G1 X161.556 Y121.566 E0.26426
G1 X160.801 Y121.566 E0.02365
G1 X160.801 Y129.825 E0.25894
G1 X160.047 Y129.825 E0.02365
G1 X160.047 Y121.566 E0.25894
G1 X159.293 Y121.566 E0.02365
G1 X159.293 Y134.460 E0.40428
G1 X158.539 Y134.460 E0.02365
G1 X158.539 Y121.566 E0.40428
G1 X157.785 Y121.566 E0.02365
G1 X157.785 Y134.460 E0.40428
G1 X157.031 Y134.460 E0.02365
G1 X157.031 Y121.566 E0.40428
G1 X156.276 Y121.566 E0.02365
G1 X156.276 Y134.460 E0.40428
G1 X155.522 Y134.460 E0.02365
G1 X155.522 Y121.566 E0.40428
M73 Q0 S262
M73 P0 R260
G1 X154.768 Y121.566 E0.02365
G1 X154.768 Y136.778 E0.47696
G1 X154.014 Y136.778 E0.02365
G1 X154.014 Y121.566 E0.47696
G1 X153.260 Y121.566 E0.02365
G1 X153.260 Y136.778 E0.47696
G1 X152.506 Y136.778 E0.02365
G1 X152.506 Y121.850 E0.46805
G1 X151.751 Y123.364 E0.05302
G1 X151.751 Y136.778 E0.42059
G1 X150.997 Y136.778 E0.02365
G1 X150.997 Y124.877 E0.37314
G1 X150.243 Y126.391 E0.05302
G1 X150.243 Y136.778 E0.32569
G1 X149.489 Y136.778 E0.02365
G1 X149.489 Y127.904 E0.27823
G1 X148.735 Y129.418 E0.05302
G1 X148.735 Y136.778 E0.23078
G1 X147.981 Y136.778 E0.02365
G1 X147.981 Y130.931 E0.18333
G1 X147.226 Y132.444 E0.05302
G1 X147.226 Y136.778 E0.13588
G1 X146.472 Y136.778 E0.02365
G1 X146.472 Y133.958 E0.08842
G1 X145.718 Y135.471 E0.05302
G1 X145.718 Y136.948 E0.04629
G1 F8640.000
G1 X145.718 Y135.471 E-0.34089
G1 X146.472 Y133.958 E-0.39044
G1 X146.472 Y136.551 E-0.59866
G1 E-0.07000 F2100.00000
G1 Z0.400 F10800.000
G1 X108.010 Y135.409
G1 Z0.200
G1 E1.40000 F2100.00000
G1 F1200.000
G1 X108.010 Y128.520 E0.21600
G1 X107.256 Y128.520 E0.02365
G1 X107.256 Y139.096 E0.33161
G1 X106.502 Y139.096 E0.02365
G1 X106.502 Y128.520 E0.33161
G1 X105.748 Y128.520 E0.02365
G1 X105.748 Y139.096 E0.33161
G1 X104.994 Y139.096 E0.02365
G1 X104.994 Y128.520 E0.33161
G1 X104.239 Y128.520 E0.02365
G1 X104.239 Y139.096 E0.33161
G1 X103.485 Y139.096 E0.02365
G1 X103.485 Y128.350 E0.33693
G1 F8640.000
G1 X103.485 Y134.110 E-1.33000
G1 E-0.07000 F2100.00000
G1 Z0.400 F10800.000
G1 X103.485 Y116.087
G1 Z0.200
G1 E1.40000 F2100.00000
G1 F1200.000
G1 X103.485 Y106.620 E0.29684
G1 X104.239 Y106.650 E0.02366
G1 X104.239 Y115.918 E0.29060
G1 X104.994 Y115.918 E0.02365
G1 X104.994 Y106.679 E0.28967
G1 X105.748 Y106.709 E0.02366
G1 X105.748 Y115.918 E0.28875
G1 X106.502 Y115.918 E0.02365
G1 X106.502 Y106.738 E0.28782
G1 X107.256 Y106.768 E0.02366
G1 X107.256 Y115.918 E0.28690
G1 X108.010 Y115.918 E0.02365
G1 X108.010 Y106.797 E0.28597
G1 X108.764 Y106.827 E0.02366
G1 X108.764 Y115.289 E0.26534
G1 F8640.000
G1 X108.764 Y109.529 E-1.33000
G1 E-0.07000 F2100.00000
G1 Z0.400 F10800.000
G1 X119.301 Y87.395
G1 Z0.200
G1 E1.40000 F2100.00000
G1 F1200.000
G1 X118.645 Y87.135 E0.02215
G1 X118.042 Y86.767 E0.02213
G1 X117.531 Y86.322 E0.02126
G1 X117.065 Y85.760 E0.02291
G1 X116.715 Y85.142 E0.02225
G1 X116.477 Y84.477 E0.02215
G1 X116.354 Y83.781 E0.02214
G1 X116.350 Y83.075 E0.02214
G1 X116.466 Y82.379 E0.02214
G1 X116.698 Y81.712 E0.02214
G1 X117.026 Y81.118 E0.02125
G1 X117.478 Y80.544 E0.02291
G1 X118.008 Y80.073 E0.02225
G1 X118.608 Y79.699 E0.02215
G1 X119.262 Y79.433 E0.02215
G1 X119.951 Y79.281 E0.02212
G1 X120.628 Y79.248 E0.02127
G1 X121.354 Y79.332 E0.02290
G1 X122.034 Y79.537 E0.02226
G1 X122.666 Y79.852 E0.02214
G1 X123.236 Y80.269 E0.02214
G1 X123.727 Y80.776 E0.02214
G1 X124.125 Y81.359 E0.02215
G1 X124.419 Y82.001 E0.02214
G1 X124.601 Y82.683 E0.02214
G1 X124.664 Y83.387 E0.02214
G1 X124.608 Y84.091 E0.02214
G1 X124.433 Y84.775 E0.02214
G1 X124.145 Y85.420 E0.02215
G1 X123.753 Y86.007 E0.02214
G1 X123.267 Y86.519 E0.02213
G1 X122.701 Y86.942 E0.02215
G1 X122.072 Y87.263 E0.02214
G1 X121.398 Y87.473 E0.02216
G1 X120.698 Y87.567 E0.02213
G1 X119.993 Y87.540 E0.02213
G1 X119.360 Y87.407 E0.02027
G1 X119.438 Y87.038 F10800.000
G1 F1200.000
G1 X118.813 Y86.796 E0.02099
G1 X118.265 Y86.462 E0.02012
G1 X117.801 Y86.058 E0.01929
G1 X117.376 Y85.545 E0.02089
G1 X117.059 Y84.984 E0.02020
G1 X116.842 Y84.380 E0.02014
G1 X116.731 Y83.747 E0.02013
G1 X116.728 Y83.106 E0.02013
G1 X116.833 Y82.472 E0.02013
G1 X117.044 Y81.866 E0.02013
G1 X117.341 Y81.327 E0.01929
G1 X117.753 Y80.804 E0.02089
G1 X118.235 Y80.376 E0.02019
G1 X118.780 Y80.036 E0.02013
G1 X119.374 Y79.794 E0.02014
G1 X120.001 Y79.656 E0.02011
G1 X120.616 Y79.627 E0.01930
G1 X121.277 Y79.703 E0.02089
G1 X121.894 Y79.889 E0.02020
G1 X122.469 Y80.175 E0.02013
G1 X122.987 Y80.554 E0.02013
G1 X123.433 Y81.015 E0.02012
G1 X123.796 Y81.545 E0.02013
G1 X124.063 Y82.129 E0.02013
G1 X124.228 Y82.749 E0.02013
G1 X124.285 Y83.389 E0.02013
G1 X124.234 Y84.029 E0.02013
G1 X124.076 Y84.651 E0.02013
G1 X123.814 Y85.237 E0.02014
G1 X123.457 Y85.771 E0.02013
G1 X123.016 Y86.236 E0.02012
G1 X122.501 Y86.621 E0.02014
G1 X121.929 Y86.913 E0.02012
G1 X121.316 Y87.104 E0.02014
G1 X120.680 Y87.188 E0.02012
G1 X120.039 Y87.164 E0.02012
G1 X119.496 Y87.050 E0.01738
G1 X119.574 Y86.681 F10800.000
G1 F1200.000
G1 X118.982 Y86.457 E0.01984
G1 X118.489 Y86.157 E0.01811
G1 X118.072 Y85.794 E0.01732
G1 X117.688 Y85.330 E0.01888
G1 X117.403 Y84.826 E0.01814
G1 X117.208 Y84.283 E0.01812
G1 X117.108 Y83.714 E0.01812
G1 X117.105 Y83.136 E0.01812
G1 X117.200 Y82.566 E0.01812
G1 X117.389 Y82.020 E0.01812
G1 X117.656 Y81.536 E0.01732
G1 X118.029 Y81.063 E0.01888
G1 X118.461 Y80.679 E0.01814
G1 X118.952 Y80.374 E0.01812
G1 X119.487 Y80.155 E0.01813
G1 X120.051 Y80.031 E0.01810
G1 X120.603 Y80.005 E0.01733
G1 X121.201 Y80.074 E0.01888
G1 X121.755 Y80.240 E0.01814
G1 X122.272 Y80.498 E0.01812
G1 X122.738 Y80.839 E0.01812
G1 X123.140 Y81.254 E0.01811
G1 X123.466 Y81.731 E0.01812
G1 X123.707 Y82.257 E0.01811
G1 X123.855 Y82.815 E0.01812
G1 X123.907 Y83.391 E0.01812
G1 X123.861 Y83.967 E0.01811
G1 X123.718 Y84.527 E0.01812
G1 X123.483 Y85.054 E0.01812
G1 X123.162 Y85.534 E0.01812
G1 X122.764 Y85.954 E0.01811
G1 X122.301 Y86.300 E0.01812
G1 X121.787 Y86.562 E0.01811
G1 X121.234 Y86.734 E0.01813
G1 X120.662 Y86.810 E0.01811
G1 X120.085 Y86.789 E0.01811
G1 X119.632 Y86.694 E0.01449
G1 X119.286 Y86.959 F10800.000
G1 F8640.000
G1 X118.982 Y86.457 E-0.15983
G1 X118.489 Y86.157 E-0.13336
G1 X118.072 Y85.794 E-0.12753
G1 X117.688 Y85.330 E-0.13905
G1 X117.403 Y84.826 E-0.13360
G1 X117.208 Y84.283 E-0.13345
G1 X117.108 Y83.714 E-0.13341
G1 X117.105 Y83.136 E-0.13341
G1 X117.200 Y82.566 E-0.13342
G1 X117.346 Y82.145 E-0.10295
G1 E-0.07000 F2100.00000
G1 Z0.400 F10800.000
G1 X127.055 Y96.791
G1 Z0.200
G1 E1.40000 F2100.00000
G1 F1200.000
G1 X162.050 Y98.315 E1.09828
G1 X139.806 Y142.953 E1.56373
G1 X109.512 Y143.007 E0.94987
G1 X110.938 Y104.955 E1.19393
G1 X91.891 Y104.210 E0.59766
G1 X92.861 Y78.344 E0.81158
G1 X118.292 Y79.452 E0.79813
G1 X117.781 Y79.770 E0.01885
G1 X117.202 Y80.285 E0.02430
G1 X116.710 Y80.909 E0.02492
G1 X116.353 Y81.558 E0.02322
G1 X116.099 Y82.285 E0.02415
G1 X115.973 Y83.045 E0.02416
G1 X115.977 Y83.815 E0.02415
G1 X116.111 Y84.574 E0.02416
G1 X116.371 Y85.300 E0.02417
G1 X116.753 Y85.974 E0.02431
G1 X117.260 Y86.586 E0.02492
G1 X117.818 Y87.073 E0.02322
G1 X118.476 Y87.473 E0.02414
G1 X119.192 Y87.757 E0.02416
G1 X119.946 Y87.916 E0.02416
G1 X120.716 Y87.945 E0.02415
G1 X121.479 Y87.843 E0.02414
G1 X122.215 Y87.614 E0.02417
G1 X122.901 Y87.263 E0.02415
G1 X123.518 Y86.802 E0.02416
G1 X124.048 Y86.243 E0.02415
G1 X124.477 Y85.603 E0.02415
G1 X124.791 Y84.899 E0.02417
G1 X124.981 Y84.153 E0.02416
G1 X125.042 Y83.385 E0.02415
G1 X124.973 Y82.618 E0.02416
G1 X124.775 Y81.873 E0.02415
G1 X124.455 Y81.173 E0.02415
G1 X124.020 Y80.537 E0.02416
G1 X123.484 Y79.983 E0.02415
G1 X123.041 Y79.659 E0.01724
G1 X127.792 Y79.865 E0.14912
G1 X127.057 Y96.731 E0.52931
G1 X127.448 Y96.431 F10800.000
G1 F1200.000
G1 X162.646 Y97.963 E1.10466
G1 X140.040 Y143.329 E1.58924
G1 X109.120 Y143.385 E0.96947
G1 X110.547 Y105.317 E1.19442
G1 X91.500 Y104.572 E0.59766
G1 X92.498 Y77.951 E0.83527
G1 X128.185 Y79.505 E1.12001
G1 X127.451 Y96.371 E0.52931
G1 X127.841 Y96.070 F10800.000
G1 F1200.000
G1 X163.242 Y97.612 E1.11104
G1 X140.273 Y143.706 E1.61475
G1 X108.729 Y143.763 E0.98907
G1 X110.156 Y105.679 E1.19492
G1 X91.109 Y104.934 E0.59766
G1 X92.135 Y77.558 E0.85897
G1 X128.578 Y79.145 E1.14373
G1 X127.844 Y96.010 E0.52931
M73 Q0 S261
M73 P0 R259
G1 X128.234 Y95.710 F10800.000
G1 F1200.000
G1 X163.839 Y97.260 E1.11742
G1 X140.507 Y144.083 E1.64025
G1 X108.337 Y144.141 E1.00867
G1 X109.765 Y106.042 E1.19541
G1 X90.718 Y105.296 E0.59766
G1 X91.773 Y77.165 E0.88267
G1 X128.972 Y78.784 E1.16745
G1 X128.237 Y95.650 E0.52931
G1 X128.367 Y96.087 F10800.000
G1 F8640.000
G1 X133.991 Y95.910 E-1.33000
G1 E-0.07000 F2100.00000
G1 Z0.400 F10800.000
G1 X116.726 Y86.120
G1 Z0.200
G1 E1.40000 F2100.00000
G1 F1200.000
G1 X109.980 Y79.373 E0.30002
G1 X110.539 Y79.397 E0.01760
G1 X115.863 Y84.722 E0.23678
G1 X115.732 Y84.056 E0.02134
G1 X111.098 Y79.422 E0.20608
G1 X111.657 Y79.446 E0.01760
G1 X115.692 Y83.481 E0.17945
G1 X115.701 Y82.955 E0.01654
G1 X112.216 Y79.470 E0.15498
G1 X112.775 Y79.495 E0.01760
G1 X115.778 Y82.497 E0.13350
G1 X115.824 Y82.215 E0.00898
G1 X115.878 Y82.062 E0.00509
G1 X113.335 Y79.519 E0.11309
G1 X113.894 Y79.543 E0.01760
G1 X116.016 Y81.665 E0.09436
G1 X116.093 Y81.442 E0.00743
G1 X116.177 Y81.291 E0.00542
G1 X114.453 Y79.568 E0.07665
G1 X115.012 Y79.592 E0.01760
G1 X116.367 Y80.947 E0.06024
G1 X116.474 Y80.752 E0.00698
G1 X116.577 Y80.622 E0.00522
G1 X115.571 Y79.616 E0.04471
G1 X116.130 Y79.641 E0.01760
G1 X116.812 Y80.323 E0.03032
G1 X117.059 Y80.034 E0.01193
G1 X116.690 Y79.665 E0.01641
G1 X117.249 Y79.689 E0.01760
G1 X117.462 Y79.902 E0.00947
G1 F8640.000
G1 X117.249 Y79.689 E-0.06956
G1 X116.690 Y79.665 E-0.12923
G1 X117.059 Y80.034 E-0.12047
G1 X116.812 Y80.323 E-0.08759
G1 X116.130 Y79.641 E-0.22267
G1 X115.571 Y79.616 E-0.12923
G1 X116.577 Y80.622 E-0.32831
G1 X116.474 Y80.752 E-0.03837
G1 X116.367 Y80.947 E-0.05124
G1 X115.897 Y80.477 E-0.15333
G1 E-0.07000 F2100.00000
G1 Z0.400 F10800.000
G1 X122.723 Y79.456
G1 Z0.200
G1 E1.40000 F2100.00000
G1 F1200.000
