; generated by PrusaSlicer 2.2.0+win64 on 2020-07-25 at 16:12:59 UTC

; 

; external perimeters extrusion width = 0.68mm
; perimeters extrusion width = 0.68mm
; infill extrusion width = 0.68mm
; solid infill extrusion width = 0.68mm
; top infill extrusion width = 0.60mm
; support material extrusion width = 0.55mm
; first layer extrusion width = 0.65mm

M73 P0 R101
M73 Q0 S101
M201 X1000 Y1000 Z200 E5000 ; sets maximum accelerations, mm/sec^2
M203 X200 Y200 Z12 E120 ; sets maximum feedrates, mm/sec
M204 P1250 R1250 T1250 ; sets acceleration (P, T) and retract acceleration (R), mm/sec^2
M205 X8.00 Y8.00 Z0.40 E4.50 ; sets the jerk limits, mm/sec
M205 S0 T0 ; sets the minimum extruding and travel feed rate, mm/sec
M107
M862.3 P "MK3S" ; printer model check
M862.1 P0.6 ; nozzle diameter check
M115 U3.9.0 ; tell printer latest fw version
G90 ; use absolute coordinates
M83 ; extruder relative mode
M104 S240 ; set extruder temp
M140 S85 ; set bed temp
M190 S85 ; wait for bed temp
M109 S240 ; wait for extruder temp
G28 W ; home all without mesh bed level
G80 ; mesh bed leveling
G1 Y-3.0 F1000.0 ; go outside print area
G92 E0.0
G1 X60.0 E9.0 F1000.0 ; intro line
M73 Q0 S101
M73 P0 R101
G1 X100.0 E12.5 F1000.0 ; intro line
G92 E0.0
M221 S95
G21 ; set units to millimeters
G90 ; use absolute coordinates
M83 ; use relative distances for extrusion
M900 K0.05 ; Filament gcode LA 1.5
M900 K24 ; Filament gcode LA 1.0
;BEFORE_LAYER_CHANGE
G92 E0.0
;0.2


G1 E-1.40000 F2100.00000
G1 Z0.200 F10800.000
;AFTER_LAYER_CHANGE
;0.2
G1 Z0.400
G1 X36.324 Y91.335
G1 Z0.200
G1 E1.40000 F2100.00000
M204 S1000
G1 F1200.000
G1 X36.636 Y90.704 E0.03553
G1 X37.103 Y90.182 E0.03533
G1 X37.695 Y89.802 E0.03553
G1 X38.363 Y89.594 E0.03533
G1 X48.510 Y89.285 E0.51245
G1 X211.583 Y94.536 E8.23597
G1 X212.392 Y94.794 E0.04290
G1 X213.076 Y95.299 E0.04290
G1 X213.561 Y95.997 E0.04290
G1 X213.795 Y96.814 E0.04290
G1 X213.785 Y113.533 E0.84396
G1 X213.502 Y114.389 E0.04548
G1 X212.948 Y115.094 E0.04528
G1 X212.184 Y115.572 E0.04548
G1 X211.307 Y115.761 E0.04528
G1 X48.579 Y120.712 E8.21813
G1 X38.763 Y120.712 E0.49553
G1 X37.960 Y120.575 E0.04111
G1 X37.271 Y120.221 E0.03912
G1 X36.719 Y119.683 E0.03892
G1 X36.348 Y119.006 E0.03892
G1 X36.192 Y118.251 E0.03892
G1 X36.188 Y92.154 E1.31739
G1 X36.309 Y91.423 E0.03736
G1 F8640.000
G1 X36.636 Y90.704 E-0.18252
G1 X37.103 Y90.182 E-0.16162
G1 X37.695 Y89.802 E-0.16253
G1 X38.363 Y89.594 E-0.16162
G1 X41.228 Y89.507 E-0.66171
G1 E-0.07000 F2100.00000
G1 Z0.400 F10800.000
G1 X41.314 Y94.886
G1 Z0.200
G1 E1.40000 F2100.00000
G1 F1200.000
G1 X41.314 Y114.898 E0.84382
G1 X41.989 Y114.898 E0.02846
G1 X41.989 Y95.099 E0.83481
G1 X42.664 Y95.099 E0.02846
G1 X42.664 Y95.826 E0.03066
G1 X42.491 Y95.992 E0.01007
G1 X42.342 Y96.199 E0.01079
G1 X42.156 Y96.641 E0.02019
G1 X42.102 Y97.032 E0.01665
G1 X42.101 Y112.965 E0.67181
G1 X42.156 Y113.357 E0.01668
G1 X42.343 Y113.799 E0.02023
G1 X42.500 Y114.015 E0.01127
G1 X42.664 Y114.172 E0.00954
G1 X42.664 Y115.112 E0.03964
G1 X40.009 Y118.105 F10800.000
G1 F1200.000
G1 X40.009 Y92.165 E1.30942
G1 X38.795 Y92.165 E0.06129
G1 X38.795 Y118.105 E1.30942
G1 X48.508 Y118.105 F10800.000
G1 F1200.000
G1 X48.508 Y114.330 E0.19057
G1 X47.294 Y114.330 E0.06129
G1 X47.294 Y117.832 E0.17681
G1 X46.080 Y117.832 E0.06129
G1 X46.080 Y114.329 E0.17683
G1 X44.865 Y114.329 E0.06129
G1 X44.865 Y117.832 E0.17686
G1 X43.651 Y117.832 E0.06129
G1 X43.651 Y115.439 E0.12079
G1 X42.437 Y115.439 E0.06129
G1 X42.437 Y117.832 E0.12079
G1 X41.223 Y117.832 E0.06129
G1 X41.223 Y115.439 E0.12079
G1 X40.313 Y115.439 E0.04595
G1 X40.313 Y94.558 E1.05405
G1 X41.223 Y94.558 E0.04595
G1 X41.223 Y92.165 E0.12079
G1 X42.437 Y92.165 E0.06129
G1 X42.437 Y94.558 E0.12079
G1 X43.651 Y94.558 E0.06129
G1 X43.651 Y92.165 E0.12079
G1 X44.865 Y92.165 E0.06129
G1 X44.865 Y95.669 E0.17684
G1 X46.080 Y95.668 E0.06129
G1 X46.080 Y92.165 E0.17681
G1 X47.294 Y92.165 E0.06129
G1 X47.294 Y95.668 E0.17679
G1 X48.508 Y95.667 E0.06129
G1 X48.508 Y91.892 E0.19055
G1 F8640.000
G1 X48.508 Y95.667 E-0.87162
G1 X47.294 Y95.668 E-0.28035
G1 X47.294 Y94.897 E-0.17802
G1 E-0.07000 F2100.00000
G1 Z0.400 F10800.000
G1 X69.149 Y114.065
G1 Z0.200
G1 E1.40000 F2100.00000
G1 F1200.000
G1 X69.149 Y115.357 E0.06522
G1 X70.363 Y115.357 E0.06129
G1 X70.363 Y114.329 E0.05191
G1 X70.732 Y114.245 E0.01912
G1 X70.907 Y114.159 E0.00984
G1 X71.115 Y114.013 E0.01282
G1 X71.410 Y113.683 E0.02234
G1 X71.502 Y113.517 E0.00959
G1 X71.577 Y113.301 E0.01157
G1 X71.577 Y115.357 E0.10382
G1 X72.791 Y115.357 E0.06129
G1 X72.791 Y112.965 E0.12079
G1 X74.005 Y112.965 E0.06129
G1 X74.005 Y115.357 E0.12079
G1 X75.219 Y115.357 E0.06129
G1 X75.219 Y112.965 E0.12079
G1 X76.434 Y112.965 E0.06129
G1 X76.434 Y115.357 E0.12079
G1 X77.648 Y115.357 E0.06129
G1 X77.648 Y112.965 E0.12079
G1 X78.862 Y112.965 E0.06129
G1 X78.862 Y115.357 E0.12079
G1 X80.076 Y115.357 E0.06129
G1 X80.076 Y112.965 E0.12079
G1 X81.290 Y112.965 E0.06129
G1 X81.290 Y115.357 E0.12079
G1 X82.504 Y115.357 E0.06129
G1 X82.504 Y112.965 E0.12079
G1 X83.719 Y112.965 E0.06129
G1 X83.719 Y115.357 E0.12079
G1 X84.933 Y115.357 E0.06129
G1 X84.933 Y112.965 E0.12079
G1 X86.147 Y112.965 E0.06129
G1 X86.147 Y115.357 E0.12079
G1 X87.361 Y115.357 E0.06129
G1 X87.361 Y112.965 E0.12079
G1 X88.575 Y112.965 E0.06129
G1 X88.575 Y115.357 E0.12079
G1 X89.789 Y115.357 E0.06129
G1 X89.789 Y112.965 E0.12079
G1 X91.004 Y112.965 E0.06129
G1 X91.004 Y115.357 E0.12079
G1 X92.218 Y115.357 E0.06129
G1 X92.218 Y112.965 E0.12079
G1 X93.432 Y112.965 E0.06129
G1 X93.432 Y115.357 E0.12079
G1 X94.646 Y115.357 E0.06129
G1 X94.646 Y112.965 E0.12079
G1 X95.860 Y112.965 E0.06129
G1 X95.860 Y115.357 E0.12079
G1 X97.074 Y115.357 E0.06129
G1 X97.074 Y112.965 E0.12079
G1 X98.288 Y112.965 E0.06129
G1 X98.288 Y115.357 E0.12079
G1 X99.503 Y115.357 E0.06129
G1 X99.503 Y112.965 E0.12079
G1 X100.717 Y112.965 E0.06129
G1 X100.717 Y115.357 E0.12079
G1 X101.931 Y115.357 E0.06129
G1 X101.931 Y112.965 E0.12079
G1 X103.145 Y112.965 E0.06129
G1 X103.145 Y115.357 E0.12079
G1 X104.359 Y115.357 E0.06129
G1 X104.359 Y112.965 E0.12079
G1 X105.573 Y112.965 E0.06129
G1 X105.573 Y115.357 E0.12079
G1 X106.788 Y115.357 E0.06129
G1 X106.788 Y112.965 E0.12079
G1 X108.002 Y112.965 E0.06129
G1 X108.002 Y115.357 E0.12079
G1 X109.216 Y115.357 E0.06129
G1 X109.216 Y112.965 E0.12079
G1 X110.430 Y112.965 E0.06129
G1 X110.430 Y115.357 E0.12079
G1 X111.644 Y115.357 E0.06129
G1 X111.644 Y112.965 E0.12079
G1 X112.858 Y112.965 E0.06129
G1 X112.858 Y115.357 E0.12079
G1 X114.073 Y115.357 E0.06129
G1 X114.073 Y112.965 E0.12079
G1 X115.287 Y112.965 E0.06129
G1 X115.287 Y115.357 E0.12079
G1 X116.501 Y115.357 E0.06129
G1 X116.501 Y112.965 E0.12079
G1 X117.715 Y112.965 E0.06129
G1 X117.715 Y115.357 E0.12079
G1 X118.929 Y115.357 E0.06129
G1 X118.929 Y112.965 E0.12079
G1 X120.143 Y112.965 E0.06129
G1 X120.143 Y115.357 E0.12079
G1 X121.358 Y115.357 E0.06129
G1 X121.358 Y112.965 E0.12079
G1 X122.572 Y112.965 E0.06129
G1 X122.572 Y115.357 E0.12079
G1 X123.786 Y115.357 E0.06129
G1 X123.786 Y112.965 E0.12079
G1 X125.000 Y112.965 E0.06129
G1 X125.000 Y115.631 E0.13458
G1 F8640.000
G1 X125.000 Y112.965 E-0.61559
G1 X123.786 Y112.965 E-0.28035
G1 X123.786 Y114.844 E-0.43406
G1 E-0.07000 F2100.00000
G1 Z0.400 F10800.000
G1 X125.000 Y112.637
G1 Z0.200
G1 E1.40000 F2100.00000
G1 F1200.000
G1 X125.000 Y107.474 E0.21771
G1 X124.325 Y107.474 E0.02846
G1 X124.325 Y112.424 E0.20870
G1 X123.650 Y112.424 E0.02846
G1 X123.650 Y107.474 E0.20870
G1 X123.400 Y107.474 E0.01054
G1 X123.400 Y107.847 E0.01573
G1 X123.353 Y107.895 E0.00284
G1 X123.353 Y108.678 E0.03304
G1 X122.975 Y109.056 E0.02250
G1 X122.975 Y112.424 E0.14200
G1 X122.300 Y112.424 E0.02846
G1 X122.300 Y109.307 E0.13139
G1 X121.626 Y109.308 E0.02846
G1 X121.626 Y112.424 E0.13137
G1 X120.951 Y112.424 E0.02846
G1 X120.951 Y109.308 E0.13135
G1 X120.276 Y109.309 E0.02846
G1 X120.276 Y112.424 E0.13133
G1 X119.601 Y112.424 E0.02846
G1 X119.601 Y109.309 E0.13131
G1 X118.926 Y109.310 E0.02846
G1 X118.926 Y112.424 E0.13129
G1 X118.251 Y112.424 E0.02846
G1 X118.251 Y109.310 E0.13127
G1 X117.576 Y109.311 E0.02846
G1 X117.576 Y112.424 E0.13125
G1 X116.901 Y112.424 E0.02846
G1 X116.901 Y109.311 E0.13123
G1 X116.226 Y109.312 E0.02846
G1 X116.226 Y112.424 E0.13120
G1 X115.552 Y112.424 E0.02846
G1 X115.552 Y109.312 E0.13118
G1 X114.877 Y109.313 E0.02846
G1 X114.877 Y112.424 E0.13116
G1 X114.202 Y112.424 E0.02846
G1 X114.202 Y109.313 E0.13114
G1 X113.527 Y109.314 E0.02846
G1 X113.527 Y112.424 E0.13112
G1 X112.852 Y112.424 E0.02846
G1 X112.852 Y109.314 E0.13110
G1 X112.177 Y109.315 E0.02846
G1 X112.177 Y112.424 E0.13108
G1 X111.502 Y112.424 E0.02846
G1 X111.502 Y109.315 E0.13106
G1 X110.827 Y109.316 E0.02846
G1 X110.827 Y112.424 E0.13104
G1 X110.152 Y112.424 E0.02846
G1 X110.152 Y109.316 E0.13102
G1 X109.478 Y109.317 E0.02846
G1 X109.478 Y112.424 E0.13100
G1 X108.803 Y112.424 E0.02846
G1 X108.803 Y109.317 E0.13098
G1 X108.128 Y109.318 E0.02846
G1 X108.128 Y112.424 E0.13096
G1 X107.453 Y112.424 E0.02846
G1 X107.453 Y109.318 E0.13094
G1 X106.778 Y109.319 E0.02846
G1 X106.778 Y112.424 E0.13092
G1 X106.103 Y112.424 E0.02846
G1 X106.103 Y109.319 E0.13090
G1 X105.428 Y109.320 E0.02846
G1 X105.428 Y112.424 E0.13088
G1 X104.753 Y112.424 E0.02846
G1 X104.753 Y109.320 E0.13086
G1 X104.078 Y109.321 E0.02846
G1 X104.078 Y112.424 E0.13084
G1 X103.404 Y112.424 E0.02846
G1 X103.404 Y109.321 E0.13082
G1 X102.729 Y109.321 E0.02846
G1 X102.729 Y112.424 E0.13080
G1 X102.054 Y112.424 E0.02846
G1 X102.054 Y109.322 E0.13077
G1 X101.379 Y109.322 E0.02846
G1 X101.379 Y112.424 E0.13075
G1 X100.704 Y112.424 E0.02846
G1 X100.704 Y109.323 E0.13073
G1 X100.029 Y109.323 E0.02846
G1 X100.029 Y112.424 E0.13071
G1 X99.354 Y112.424 E0.02846
G1 X99.354 Y109.324 E0.13069
G1 X98.679 Y109.324 E0.02846
G1 X98.679 Y112.424 E0.13067
G1 X98.004 Y112.424 E0.02846
G1 X98.004 Y109.325 E0.13065
G1 X97.330 Y109.325 E0.02846
G1 X97.330 Y112.424 E0.13063
G1 X96.655 Y112.424 E0.02846
G1 X96.655 Y109.326 E0.13061
G1 X95.980 Y109.326 E0.02846
G1 X95.980 Y112.424 E0.13059
G1 X95.305 Y112.424 E0.02846
G1 X95.305 Y109.327 E0.13057
G1 X94.630 Y109.327 E0.02846
G1 X94.630 Y112.424 E0.13055
G1 X93.955 Y112.424 E0.02846
G1 X93.955 Y109.328 E0.13053
G1 X93.280 Y109.328 E0.02846
G1 X93.280 Y112.424 E0.13051
G1 X92.605 Y112.424 E0.02846
G1 X92.605 Y109.329 E0.13049
G1 X91.930 Y109.329 E0.02846
G1 X91.930 Y112.424 E0.13047
G1 X91.256 Y112.424 E0.02846
G1 X91.256 Y109.330 E0.13045
G1 X90.581 Y109.330 E0.02846
G1 X90.581 Y112.424 E0.13043
G1 X89.906 Y112.424 E0.02846
G1 X89.906 Y109.331 E0.13041
G1 X89.231 Y109.331 E0.02846
G1 X89.231 Y112.424 E0.13039
G1 X88.556 Y112.424 E0.02846
G1 X88.556 Y109.332 E0.13036
G1 X87.881 Y109.332 E0.02846
G1 X87.881 Y112.424 E0.13034
G1 X87.206 Y112.424 E0.02846
G1 X87.206 Y109.333 E0.13032
G1 X86.531 Y109.333 E0.02846
G1 X86.531 Y112.424 E0.13030
G1 X85.856 Y112.424 E0.02846
G1 X85.856 Y109.334 E0.13028
G1 X85.182 Y109.334 E0.02846
G1 X85.182 Y112.424 E0.13026
G1 X84.507 Y112.424 E0.02846
G1 X84.507 Y109.335 E0.13024
G1 X83.832 Y109.335 E0.02846
G1 X83.832 Y112.424 E0.13022
G1 X83.157 Y112.424 E0.02846
G1 X83.157 Y109.336 E0.13020
G1 X82.482 Y109.336 E0.02846
G1 X82.482 Y112.424 E0.13018
G1 X81.807 Y112.424 E0.02846
G1 X81.807 Y109.337 E0.13016
G1 X81.132 Y109.337 E0.02846
G1 X81.132 Y112.424 E0.13014
G1 X80.457 Y112.424 E0.02846
G1 X80.457 Y109.338 E0.13012
G1 X79.782 Y109.338 E0.02846
G1 X79.782 Y112.424 E0.13010
G1 X79.108 Y112.424 E0.02846
G1 X79.108 Y109.338 E0.13008
G1 X78.433 Y109.339 E0.02846
G1 X78.433 Y112.424 E0.13006
G1 X77.758 Y112.424 E0.02846
G1 X77.758 Y109.339 E0.13004
G1 X77.083 Y109.340 E0.02846
G1 X77.083 Y112.424 E0.13002
G1 X76.408 Y112.424 E0.02846
G1 X76.408 Y109.340 E0.13000
M73 Q1 S100
G1 X75.733 Y109.341 E0.02846
G1 X75.733 Y112.424 E0.12998
G1 X75.058 Y112.424 E0.02846
M73 P1 R100
G1 X75.058 Y109.341 E0.12996
G1 X74.383 Y109.342 E0.02846
G1 X74.383 Y112.424 E0.12993
G1 X73.708 Y112.424 E0.02846
G1 X73.708 Y109.342 E0.12991
G1 X73.034 Y109.343 E0.02846
G1 X73.034 Y112.424 E0.12989
G1 X72.359 Y112.424 E0.02846
G1 X72.359 Y109.159 E0.13763
G1 X72.791 Y109.075 F10800.000
G1 F1200.000
G1 X72.791 Y107.591 E0.07494
G1 X74.005 Y107.578 E0.06129
G1 X74.005 Y109.074 E0.07553
G1 F8640.000
G1 X74.005 Y107.578 E-0.34549
G1 X72.791 Y107.591 E-0.28037
G1 X72.791 Y109.075 E-0.34279
G1 E-0.43136 F2100.00000
G1 Z0.400 F10800.000
G1 X121.358 Y109.040
G1 Z0.200
G1 E1.40000 F2100.00000
G1 F1200.000
G1 X121.358 Y107.032 E0.10137
G1 X122.572 Y107.023 E0.06129
G1 X122.572 Y109.039 E0.10180
G1 X123.786 Y107.206 F10800.000
G1 F1200.000
G1 X123.786 Y103.065 E0.20903
G1 X125.000 Y103.065 E0.06129
G1 X125.000 Y107.206 E0.20903
G1 F8640.000
G1 X125.000 Y103.065 E-0.95616
G1 X123.786 Y103.065 E-0.28035
G1 X123.786 Y103.470 E-0.09349
G1 E-0.07000 F2100.00000
G1 Z0.400 F10800.000
G1 X121.358 Y103.251
G1 Z0.200
G1 E1.40000 F2100.00000
G1 F1200.000
G1 X121.358 Y101.233 E0.10186
G1 X122.500 Y101.234 E0.05766
G1 X122.572 Y101.306 E0.00513
G1 X122.572 Y103.251 E0.09819
G1 F8640.000
G1 X122.572 Y101.306 E-0.44913
G1 X122.500 Y101.234 E-0.02348
G1 X121.358 Y101.233 E-0.26375
G1 X121.358 Y103.251 E-0.46592
G1 E-0.19772 F2100.00000
G1 Z0.400 F10800.000
G1 X125.000 Y102.738
G1 Z0.200
G1 E1.40000 F2100.00000
G1 F1200.000
G1 X125.000 Y97.574 E0.21771
G1 X124.325 Y97.574 E0.02846
G1 X124.325 Y102.524 E0.20870
G1 X123.650 Y102.524 E0.02846
G1 X123.650 Y97.574 E0.20870
G1 X122.975 Y97.574 E0.02846
G1 X122.975 Y100.944 E0.14209
G1 X122.724 Y100.693 E0.01498
G1 X122.300 Y100.693 E0.01786
G1 X122.300 Y97.574 E0.13148
G1 X121.626 Y97.574 E0.02846
G1 X121.626 Y100.692 E0.13146
G1 X120.951 Y100.692 E0.02846
G1 X120.951 Y97.574 E0.13144
G1 X120.276 Y97.574 E0.02846
G1 X120.276 Y100.691 E0.13142
G1 X119.601 Y100.691 E0.02846
G1 X119.601 Y97.574 E0.13140
G1 X118.926 Y97.574 E0.02846
G1 X118.926 Y100.690 E0.13139
G1 X118.251 Y100.690 E0.02846
G1 X118.251 Y97.574 E0.13137
G1 X117.576 Y97.574 E0.02846
G1 X117.576 Y100.689 E0.13135
G1 X116.901 Y100.689 E0.02846
G1 X116.901 Y97.574 E0.13133
G1 X116.226 Y97.574 E0.02846
G1 X116.226 Y100.688 E0.13131
G1 X115.552 Y100.688 E0.02846
G1 X115.552 Y97.574 E0.13129
G1 X114.877 Y97.574 E0.02846
G1 X114.877 Y100.687 E0.13127
G1 X114.202 Y100.687 E0.02846
G1 X114.202 Y97.574 E0.13125
G1 X113.527 Y97.574 E0.02846
G1 X113.527 Y100.687 E0.13123
G1 X112.852 Y100.686 E0.02846
G1 X112.852 Y97.574 E0.13121
G1 X112.177 Y97.574 E0.02846
G1 X112.177 Y100.686 E0.13119
G1 X111.502 Y100.685 E0.02846
G1 X111.502 Y97.574 E0.13117
G1 X110.827 Y97.574 E0.02846
G1 X110.827 Y100.685 E0.13115
G1 X110.152 Y100.684 E0.02846
G1 X110.152 Y97.574 E0.13113
G1 X109.478 Y97.574 E0.02846
G1 X109.478 Y100.684 E0.13111
G1 X108.803 Y100.683 E0.02846
G1 X108.803 Y97.574 E0.13109
G1 X108.128 Y97.574 E0.02846
G1 X108.128 Y100.683 E0.13107
G1 X107.453 Y100.682 E0.02846
G1 X107.453 Y97.574 E0.13105
G1 X106.778 Y97.574 E0.02846
G1 X106.778 Y100.682 E0.13104
G1 X106.103 Y100.681 E0.02846
G1 X106.103 Y97.574 E0.13102
G1 X105.428 Y97.574 E0.02846
G1 X105.428 Y100.681 E0.13100
G1 X104.753 Y100.681 E0.02846
G1 X104.753 Y97.574 E0.13098
G1 X104.078 Y97.574 E0.02846
G1 X104.078 Y100.680 E0.13096
G1 X103.404 Y100.680 E0.02846
G1 X103.404 Y97.574 E0.13094
G1 X102.729 Y97.574 E0.02846
G1 X102.729 Y100.679 E0.13092
G1 X102.054 Y100.679 E0.02846
G1 X102.054 Y97.574 E0.13090
G1 X101.379 Y97.574 E0.02846
G1 X101.379 Y100.678 E0.13088
G1 X100.704 Y100.678 E0.02846
G1 X100.704 Y97.574 E0.13086
G1 X100.029 Y97.574 E0.02846
G1 X100.029 Y100.677 E0.13084
G1 X99.354 Y100.677 E0.02846
G1 X99.354 Y97.574 E0.13082
G1 X98.679 Y97.574 E0.02846
G1 X98.679 Y100.676 E0.13080
G1 X98.004 Y100.676 E0.02846
G1 X98.004 Y97.574 E0.13078
G1 X97.330 Y97.574 E0.02846
G1 X97.330 Y100.675 E0.13076
G1 X96.655 Y100.675 E0.02846
G1 X96.655 Y97.574 E0.13074
G1 X95.980 Y97.574 E0.02846
G1 X95.980 Y100.675 E0.13072
G1 X95.305 Y100.674 E0.02846
G1 X95.305 Y97.574 E0.13070
G1 X94.630 Y97.574 E0.02846
G1 X94.630 Y100.674 E0.13069
G1 X93.955 Y100.673 E0.02846
