; generated by PrusaSlicer 2.2.0+win64 on 2020-06-02 at 12:32:36 UTC

; 

; external perimeters extrusion width = 0.68mm
; perimeters extrusion width = 0.68mm
; infill extrusion width = 0.68mm
; solid infill extrusion width = 0.68mm
; top infill extrusion width = 0.60mm
; first layer extrusion width = 0.65mm

M73 P0 R24
M73 Q0 S24
M201 X1000 Y1000 Z200 E5000 ; sets maximum accelerations, mm/sec^2
M203 X200 Y200 Z12 E120 ; sets maximum feedrates, mm/sec
M204 P1250 R1250 T1250 ; sets acceleration (P, T) and retract acceleration (R), mm/sec^2
M205 X8.00 Y8.00 Z0.40 E4.50 ; sets the jerk limits, mm/sec
M205 S0 T0 ; sets the minimum extruding and travel feed rate, mm/sec
M107
M862.3 P "MK3S" ; printer model check
M862.1 P0.6 ; nozzle diameter check
M115 U3.9.0 ; tell printer latest fw version
G90 ; use absolute coordinates
M83 ; extruder relative mode
M104 S240 ; set extruder temp
M140 S85 ; set bed temp
M190 S85 ; wait for bed temp
M109 S240 ; wait for extruder temp
G28 W ; home all without mesh bed level
G80 ; mesh bed leveling
G1 Y-3.0 F1000.0 ; go outside print area
G92 E0.0
G1 X60.0 E9.0 F1000.0 ; intro line
M73 Q0 S24
M73 P0 R24
G1 X100.0 E12.5 F1000.0 ; intro line
G92 E0.0
M221 S95
G21 ; set units to millimeters
G90 ; use absolute coordinates
M83 ; use relative distances for extrusion
M900 K0.05 ; Filament gcode LA 1.5
M900 K24 ; Filament gcode LA 1.0
;BEFORE_LAYER_CHANGE
G92 E0.0
;0.2


G1 E-1.40000 F2100.00000
G1 Z0.200 F10800.000
;AFTER_LAYER_CHANGE
;0.2
G1 Z0.400
G1 X79.474 Y64.268
G1 Z0.200
G1 E1.40000 F2100.00000
M204 S1000
G1 F1200.000
G1 X80.077 Y63.819 E0.03792
G1 X80.778 Y63.562 E0.03773
G1 X81.313 Y63.506 E0.02714
G1 X123.320 Y63.506 E2.12044
G1 X123.940 Y63.582 E0.03154
G1 X124.524 Y63.803 E0.03154
G1 X125.039 Y64.157 E0.03154
G1 X125.455 Y64.623 E0.03154
G1 X169.222 Y129.466 E3.94905
G1 X169.489 Y130.066 E0.03314
G1 X171.153 Y135.870 E0.30480
G1 X171.289 Y136.724 E0.04361
G1 X171.207 Y137.638 E0.04635
G1 X170.863 Y138.566 E0.04996
G1 X170.270 Y139.374 E0.05058
G1 X169.596 Y139.919 E0.04376
G1 X168.944 Y140.210 E0.03602
G1 X147.634 Y146.320 E1.11908
G1 X146.995 Y146.437 E0.03280
G1 X146.245 Y146.426 E0.03783
G1 X145.464 Y146.242 E0.04050
G1 X144.672 Y145.841 E0.04483
G1 X130.512 Y135.925 E0.87261
G1 X129.849 Y135.299 E0.04603
G1 X79.492 Y74.356 E3.99070
G1 X79.069 Y73.685 E0.04000
G1 X78.792 Y72.884 E0.04280
G1 X78.709 Y72.123 E0.03864
G1 X78.709 Y66.089 E0.30457
G1 X78.766 Y65.571 E0.02633
G1 X79.026 Y64.866 E0.03792
G1 X79.420 Y64.340 E0.03318
G1 F8640.000
G1 X80.077 Y63.819 E-0.19349
G1 X80.778 Y63.562 E-0.17257
G1 X81.313 Y63.506 E-0.12412
G1 X84.950 Y63.506 E-0.83982
G1 E-0.07000 F2100.00000
G1 Z0.400 F10800.000
G1 X82.449 Y67.245
G1 Z0.200
G1 E1.40000 F2100.00000
G1 F1200.000
G1 X122.415 Y67.245 E2.01743
G1 X136.932 Y130.126 E3.25761
G1 X147.560 Y137.567 E0.65494
G1 X166.216 Y132.218 E0.97969
G1 X167.366 Y136.227 E0.21051
G1 X146.798 Y142.122 E1.08003
G1 X133.227 Y132.607 E0.83665
G1 X119.572 Y73.460 E3.06424
G1 X119.448 Y73.073 E0.02049
G1 X119.239 Y72.671 E0.02290
G1 X118.965 Y72.309 E0.02290
G1 X118.635 Y71.997 E0.02290
G1 X118.258 Y71.746 E0.02290
G1 X117.844 Y71.561 E0.02290
G1 X117.404 Y71.448 E0.02290
G1 X117.000 Y71.414 E0.02049
G1 X82.456 Y71.416 E1.74371
G1 X82.449 Y67.335 E0.20597
G1 X81.841 Y66.638 F10800.000
G1 F1200.000
G1 X122.898 Y66.638 E2.07250
G1 X137.471 Y129.762 E3.27022
G1 X147.671 Y136.904 E0.62856
G1 X166.633 Y131.467 E0.99572
G1 X168.117 Y136.643 E0.27180
G1 X146.687 Y142.785 E1.12531
G1 X132.688 Y132.971 E0.86303
G1 X118.986 Y73.621 E3.07470
G1 X118.885 Y73.308 E0.01662
G1 X118.724 Y72.996 E0.01774
G1 X118.512 Y72.715 E0.01774
G1 X118.256 Y72.474 E0.01774
G1 X117.964 Y72.279 E0.01774
G1 X117.643 Y72.136 E0.01774
G1 X117.302 Y72.048 E0.01774
G1 X116.974 Y72.021 E0.01662
G1 X81.850 Y72.023 E1.77302
G1 X81.841 Y66.728 E0.26726
G1 X82.440 Y66.669 F10800.000
G1 F8640.000
G1 X87.601 Y66.716 E-1.33000
G1 E-0.07000 F2100.00000
G1 Z0.400 F10800.000
G1 X83.848 Y71.234
G1 Z0.200
G1 E1.40000 F2100.00000
G1 F1200.000
G1 X82.910 Y70.295 E0.06805
G1 X82.908 Y69.422 E0.04476
G1 X84.447 Y70.960 E0.11155
G1 X85.319 Y70.960 E0.04468
G1 X82.907 Y68.548 E0.17485
G1 X82.905 Y67.701 E0.04344
G1 X82.931 Y67.701 E0.00132
G1 X86.190 Y70.960 E0.23628
G1 X87.062 Y70.960 E0.04468
G1 X83.803 Y67.701 E0.23627
G1 X84.675 Y67.701 E0.04469
G1 X87.934 Y70.960 E0.23627
G1 X88.806 Y70.960 E0.04468
G1 X85.546 Y67.701 E0.23627
G1 X86.418 Y67.701 E0.04469
G1 X89.677 Y70.960 E0.23626
G1 X90.549 Y70.960 E0.04468
G1 X87.290 Y67.701 E0.23626
G1 X88.162 Y67.701 E0.04469
G1 X91.421 Y70.960 E0.23625
G1 X92.293 Y70.960 E0.04468
G1 X89.034 Y67.701 E0.23625
G1 X89.905 Y67.701 E0.04469
G1 X93.164 Y70.960 E0.23625
G1 X94.036 Y70.960 E0.04468
G1 X90.777 Y67.701 E0.23624
G1 X91.649 Y67.701 E0.04469
G1 X94.908 Y70.960 E0.23624
G1 X95.780 Y70.960 E0.04468
G1 X92.521 Y67.701 E0.23623
G1 X93.393 Y67.701 E0.04469
G1 X96.651 Y70.960 E0.23623
G1 X97.523 Y70.959 E0.04468
G1 X94.264 Y67.701 E0.23623
G1 X95.136 Y67.701 E0.04469
G1 X98.395 Y70.959 E0.23622
G1 X99.267 Y70.959 E0.04468
G1 X96.008 Y67.701 E0.23622
G1 X96.880 Y67.701 E0.04469
G1 X100.138 Y70.959 E0.23621
G1 X101.010 Y70.959 E0.04468
G1 X97.752 Y67.701 E0.23621
G1 X98.623 Y67.701 E0.04469
G1 X101.882 Y70.959 E0.23621
G1 X102.754 Y70.959 E0.04468
G1 X99.495 Y67.701 E0.23620
G1 X100.367 Y67.701 E0.04469
G1 X103.625 Y70.959 E0.23620
G1 X104.497 Y70.959 E0.04468
G1 X101.239 Y67.701 E0.23619
G1 X102.111 Y67.701 E0.04469
G1 X105.369 Y70.959 E0.23619
G1 X106.241 Y70.959 E0.04468
G1 X102.982 Y67.701 E0.23619
G1 X103.854 Y67.701 E0.04469
G1 X107.112 Y70.959 E0.23618
G1 X107.984 Y70.959 E0.04468
G1 X104.726 Y67.701 E0.23618
G1 X105.598 Y67.701 E0.04469
G1 X108.856 Y70.959 E0.23618
G1 X109.728 Y70.959 E0.04468
G1 X106.470 Y67.701 E0.23617
G1 X107.341 Y67.701 E0.04469
G1 X110.599 Y70.959 E0.23617
G1 X111.471 Y70.959 E0.04468
G1 X108.213 Y67.701 E0.23616
G1 X109.085 Y67.701 E0.04469
G1 X112.343 Y70.959 E0.23616
G1 X113.215 Y70.959 E0.04468
G1 X109.957 Y67.701 E0.23616
G1 X110.829 Y67.701 E0.04469
G1 X114.086 Y70.958 E0.23615
G1 X114.958 Y70.958 E0.04468
G1 X111.700 Y67.701 E0.23615
G1 X112.572 Y67.701 E0.04469
G1 X115.830 Y70.958 E0.23614
G1 X116.702 Y70.958 E0.04468
G1 X113.444 Y67.701 E0.23614
G1 X114.316 Y67.701 E0.04469
G1 X118.083 Y71.468 E0.27312
G1 F8640.000
G1 X114.316 Y67.701 E-1.23032
G1 X113.884 Y67.701 E-0.09968
G1 E-0.07000 F2100.00000
G1 Z0.400 F10800.000
G1 X122.646 Y69.057
G1 Z0.200
G1 E1.40000 F2100.00000
G1 F1200.000
G1 X121.290 Y67.701 E0.09832
G1 X120.418 Y67.701 E0.04469
G1 X122.544 Y69.826 E0.15406
G1 X122.805 Y70.959 E0.05963
G1 X119.547 Y67.701 E0.23622
G1 X118.675 Y67.701 E0.04469
G1 X123.067 Y72.093 E0.31839
G1 X123.329 Y73.226 E0.05963
G1 X117.803 Y67.701 E0.40056
G1 X116.931 Y67.701 E0.04469
G1 X123.590 Y74.360 E0.48272
G1 X123.852 Y75.493 E0.05963
M73 Q4 S23
G1 X116.059 Y67.701 E0.56489
M73 P4 R23
G1 X115.188 Y67.701 E0.04469
G1 X124.114 Y76.627 E0.64706
G1 X124.375 Y77.760 E0.05963
G1 X120.029 Y73.414 E0.31510
G1 X120.290 Y74.547 E0.05963
G1 X124.637 Y78.894 E0.31510
G1 X124.899 Y80.027 E0.05963
G1 X120.552 Y75.681 E0.31510
G1 X120.814 Y76.814 E0.05963
G1 X125.160 Y81.161 E0.31510
G1 X125.422 Y82.294 E0.05963
G1 X121.075 Y77.948 E0.31510
G1 X121.337 Y79.081 E0.05963
G1 X125.684 Y83.428 E0.31510
G1 X125.945 Y84.561 E0.05963
G1 X121.599 Y80.215 E0.31510
G1 X121.860 Y81.348 E0.05963
G1 X126.207 Y85.695 E0.31510
G1 X126.469 Y86.828 E0.05963
G1 X122.122 Y82.482 E0.31510
G1 X122.384 Y83.615 E0.05963
G1 X126.731 Y87.962 E0.31510
G1 X126.992 Y89.095 E0.05963
G1 X122.645 Y84.748 E0.31510
G1 X122.907 Y85.882 E0.05963
G1 X127.254 Y90.229 E0.31510
G1 X127.516 Y91.362 E0.05963
G1 X123.169 Y87.015 E0.31510
G1 X123.431 Y88.149 E0.05963
G1 X127.777 Y92.496 E0.31510
G1 X128.039 Y93.629 E0.05963
G1 X123.692 Y89.282 E0.31510
G1 X123.954 Y90.416 E0.05963
G1 X128.301 Y94.763 E0.31510
G1 X128.562 Y95.896 E0.05963
G1 X124.216 Y91.549 E0.31510
G1 X124.477 Y92.683 E0.05963
G1 X128.824 Y97.030 E0.31510
G1 X129.086 Y98.163 E0.05963
G1 X124.739 Y93.816 E0.31510
G1 X125.001 Y94.950 E0.05963
G1 X129.347 Y99.297 E0.31510
G1 X129.609 Y100.430 E0.05963
G1 X125.262 Y96.083 E0.31510
G1 X125.524 Y97.217 E0.05963
G1 X129.871 Y101.564 E0.31510
G1 X130.132 Y102.697 E0.05963
G1 X125.786 Y98.350 E0.31510
G1 X126.047 Y99.484 E0.05963
G1 X130.394 Y103.830 E0.31510
G1 X130.656 Y104.964 E0.05963
G1 X126.309 Y100.617 E0.31510
G1 X126.571 Y101.751 E0.05963
G1 X130.917 Y106.097 E0.31510
G1 X131.179 Y107.231 E0.05963
G1 X126.832 Y102.884 E0.31510
G1 X127.094 Y104.018 E0.05963
G1 X131.441 Y108.364 E0.31510
G1 X131.703 Y109.498 E0.05963
G1 X127.356 Y105.151 E0.31510
G1 X127.618 Y106.285 E0.05963
G1 X131.964 Y110.631 E0.31510
G1 X132.226 Y111.765 E0.05963
G1 X127.879 Y107.418 E0.31510
G1 X128.141 Y108.552 E0.05963
G1 X132.488 Y112.898 E0.31510
G1 X132.749 Y114.032 E0.05963
G1 X128.403 Y109.685 E0.31510
G1 X128.664 Y110.819 E0.05963
G1 X133.011 Y115.165 E0.31510
G1 X133.273 Y116.299 E0.05963
G1 X128.926 Y111.952 E0.31510
G1 X129.188 Y113.086 E0.05963
G1 X133.534 Y117.432 E0.31510
G1 X133.796 Y118.566 E0.05963
G1 X129.449 Y114.219 E0.31510
G1 X129.711 Y115.352 E0.05963
G1 X134.058 Y119.699 E0.31510
G1 X134.319 Y120.833 E0.05963
G1 X129.973 Y116.486 E0.31510
G1 X130.234 Y117.619 E0.05963
G1 X134.581 Y121.966 E0.31510
G1 X134.843 Y123.100 E0.05963
G1 X130.496 Y118.753 E0.31510
G1 X130.758 Y119.886 E0.05963
G1 X135.104 Y124.233 E0.31510
G1 X135.366 Y125.367 E0.05963
G1 X131.019 Y121.020 E0.31510
G1 X131.281 Y122.153 E0.05963
G1 X135.628 Y126.500 E0.31510
G1 X135.890 Y127.634 E0.05963
G1 X131.543 Y123.287 E0.31510
G1 X131.804 Y124.420 E0.05963
G1 X136.516 Y129.132 E0.34152
G1 F8640.000
G1 X132.443 Y125.059 E-1.33000
G1 E-0.07000 F2100.00000
G1 Z0.400 F10800.000
G1 X137.613 Y135.460
G1 Z0.200
G1 E1.40000 F2100.00000
G1 F1200.000
G1 X133.375 Y131.221 E0.30725
G1 X133.113 Y130.088 E0.05963
G1 X139.414 Y136.388 E0.45674
G1 X142.330 Y138.433 E0.18260
G1 X132.851 Y128.954 E0.68715
G1 X132.590 Y127.821 E0.05963
G1 X145.247 Y140.478 E0.91756
G1 X146.882 Y141.624 E0.10233
G1 X147.180 Y141.539 E0.01588
G1 X132.328 Y126.687 E1.07661
G1 X132.066 Y125.554 E0.05963
G1 X147.857 Y141.345 E1.14470
G1 X148.535 Y141.151 E0.03613
G1 X140.713 Y133.328 E0.56703
G1 X143.621 Y135.365 E0.18197
G1 X149.212 Y140.956 E0.40535
G1 X149.890 Y140.762 E0.03613
G1 X146.529 Y137.401 E0.24366
G1 X147.477 Y138.065 E0.05934
G1 X147.934 Y137.934 E0.02435
G1 X150.567 Y140.568 E0.19094
G1 X151.245 Y140.374 E0.03613
G1 X148.611 Y137.740 E0.19094
G1 X149.289 Y137.545 E0.03613
G1 X151.923 Y140.180 E0.19094
G1 X152.600 Y139.985 E0.03613
G1 X149.966 Y137.351 E0.19095
G1 X150.644 Y137.157 E0.03613
G1 X153.278 Y139.791 E0.19095
G1 X153.955 Y139.597 E0.03613
G1 X151.321 Y136.963 E0.19096
G1 X151.999 Y136.768 E0.03613
G1 X154.633 Y139.403 E0.19096
G1 X155.311 Y139.208 E0.03613
G1 X152.676 Y136.574 E0.19097
G1 X153.354 Y136.380 E0.03613
G1 X155.988 Y139.014 E0.19097
G1 X156.666 Y138.820 E0.03613
G1 X154.031 Y136.186 E0.19097
G1 X154.709 Y135.991 E0.03613
G1 X157.343 Y138.626 E0.19098
G1 X158.021 Y138.432 E0.03613
G1 X155.386 Y135.797 E0.19098
G1 X156.064 Y135.603 E0.03613
G1 X158.698 Y138.237 E0.19099
G1 X159.376 Y138.043 E0.03613
G1 X156.741 Y135.408 E0.19099
G1 X157.419 Y135.214 E0.03613
G1 X160.054 Y137.849 E0.19099
G1 X160.731 Y137.655 E0.03613
G1 X158.096 Y135.020 E0.19100
G1 X158.774 Y134.826 E0.03613
G1 X161.409 Y137.460 E0.19100
G1 X162.086 Y137.266 E0.03613
G1 X159.451 Y134.631 E0.19101
G1 X160.129 Y134.437 E0.03613
G1 X162.764 Y137.072 E0.19101
G1 X163.441 Y136.878 E0.03613
G1 X160.806 Y134.243 E0.19101
G1 X161.484 Y134.049 E0.03613
G1 X164.119 Y136.684 E0.19102
G1 X164.797 Y136.489 E0.03613
G1 X162.161 Y133.854 E0.19102
G1 X162.839 Y133.660 E0.03613
G1 X165.474 Y136.295 E0.19103
G1 X166.152 Y136.101 E0.03613
G1 X163.517 Y133.466 E0.19103
G1 X164.194 Y133.271 E0.03613
G1 X166.789 Y135.866 E0.18809
G1 X166.438 Y134.644 E0.06518
G1 X164.872 Y133.077 E0.11357
G1 X165.549 Y132.883 E0.03613
G1 X166.486 Y133.820 E0.06793
;BEFORE_LAYER_CHANGE
G92 E0.0
;0.55


G1 F8640.000
G1 X165.549 Y132.883 E-0.30602
G1 X164.872 Y133.077 E-0.16275
G1 X166.438 Y134.644 E-0.51160
G1 X166.789 Y135.866 E-0.29360
G1 X166.617 Y135.695 E-0.05603
G1 E-0.07000 F2100.00000
G1 Z0.400 F10800.000
G1 Z0.550
;AFTER_LAYER_CHANGE
;0.55
M104 S250 ; set temperature
M140 S90 ; set bed temperature
G1 Z0.750
G1 X170.863 Y138.566
G1 Z0.550
G1 E1.40000 F2100.00000
G1 F3000.000
G1 X170.270 Y139.374 E0.08383
G1 X169.596 Y139.919 E0.07252
G1 X168.944 Y140.210 E0.05970
G1 X147.634 Y146.320 E1.85454
G1 X146.995 Y146.437 E0.05436
G1 X146.245 Y146.426 E0.06269
G1 X145.464 Y146.242 E0.06712
G1 X144.672 Y145.841 E0.07430
G1 X130.512 Y135.925 E1.44610
G1 X129.849 Y135.299 E0.07628
G1 X79.492 Y74.356 E6.61341
G1 X79.069 Y73.685 E0.06629
G1 X78.792 Y72.884 E0.07092
G1 X78.709 Y72.123 E0.06403
G1 X78.709 Y66.089 E0.50474
G1 X78.766 Y65.571 E0.04364
G1 X79.026 Y64.866 E0.06285
G1 X79.474 Y64.268 E0.06252
G1 X80.077 Y63.819 E0.06285
G1 X80.778 Y63.562 E0.06252
G1 X81.313 Y63.506 E0.04497
G1 X123.320 Y63.506 E3.51401
G1 X123.940 Y63.582 E0.05226
G1 X124.524 Y63.803 E0.05226
G1 X125.039 Y64.157 E0.05226
G1 X125.455 Y64.623 E0.05226
G1 X169.222 Y129.466 E6.54439
G1 X169.489 Y130.066 E0.05491
G1 X171.153 Y135.870 E0.50511
G1 X171.289 Y136.724 E0.07227
G1 X171.207 Y137.638 E0.07682
G1 X170.895 Y138.482 E0.07527
G1 F8640.000
G1 X170.270 Y139.374 E-0.25142
G1 X169.596 Y139.919 E-0.20017
G1 X168.944 Y140.210 E-0.16478
G1 X165.973 Y141.062 E-0.71362
G1 E-0.07000 F2100.00000
G1 Z0.750 F10800.000
G1 X167.692 Y136.684
G1 Z0.550
G1 E1.40000 F2100.00000
M204 S800
G1 F2700.000
G1 X146.701 Y142.704 E1.92208
G1 X132.773 Y132.951 E1.49657
G1 X119.055 Y73.587 E5.36288
G1 X118.956 Y73.278 E0.02856
G1 X118.779 Y72.937 E0.03381
G1 X118.505 Y72.604 E0.03796
G1 X118.304 Y72.414 E0.02437
G1 X118.000 Y72.212 E0.03206
G1 X117.668 Y72.064 E0.03206
G1 X117.315 Y71.973 E0.03206
G1 X116.992 Y71.946 E0.02856
G1 X82.263 Y71.946 E3.05677
G1 X82.261 Y67.058 E0.43019
G1 X122.564 Y67.058 E3.54745
G1 X137.098 Y130.013 E5.68703
G1 X147.594 Y137.363 E1.12783
G1 X166.345 Y131.986 E1.71689
G1 X167.667 Y136.598 E0.42227
M204 S1000
G1 F8640.000
G1 X162.137 Y138.208 E-1.33000
G1 E-0.07000 F2100.00000
G1 Z0.750 F10800.000
G1 X147.705 Y136.702
G1 Z0.550
G1 E1.40000 F2100.00000
M204 S800
G1 X166.759 Y131.238 E1.74473
G1 X168.312 Y136.653 E0.49583
G1 X168.341 Y136.890 E0.02104
G1 X168.319 Y137.037 E0.01301
G1 X168.274 Y137.147 E0.01049
G1 X146.803 Y143.304 E1.96601
G1 X146.599 Y143.314 E0.01800
G1 X146.409 Y143.238 E0.01800
G1 X132.383 Y133.416 E1.50714
G1 X132.254 Y133.288 E0.01597
G1 X132.180 Y133.128 E0.01557
G1 X118.472 Y73.748 E5.36403
G1 X118.396 Y73.512 E0.02184
G1 X118.272 Y73.273 E0.02373
G1 X118.062 Y73.018 E0.02899
G1 X117.926 Y72.889 E0.01652
G1 X117.707 Y72.744 E0.02310
G1 X117.468 Y72.637 E0.02310
G1 X117.214 Y72.571 E0.02310
G1 X116.966 Y72.551 E0.02184
G1 X81.834 Y72.551 E3.09230
G1 X81.729 Y72.413 E0.01530
G1 X81.659 Y72.158 E0.02322
G1 X81.656 Y66.453 E0.50215
G1 X123.045 Y66.453 E3.64307
G1 X137.635 Y129.651 E5.70894
G1 X147.631 Y136.650 E1.07407
M204 S1000
G1 X147.882 Y137.275 F10800.000
G1 F8640.000
G1 X153.174 Y135.082 E-1.33000
G1 E-0.07000 F2100.00000
G1 Z0.750 F10800.000
G1 X82.443 Y68.466
G1 Z0.550
G1 E1.40000 F2100.00000
G1 F4200.000
G1 X83.397 Y67.512 E0.11910
G1 X84.255 Y67.512 E0.07577
G1 X82.716 Y69.051 E0.19223
G1 X82.716 Y69.909 E0.07573
G1 X85.113 Y67.512 E0.29933
G1 X85.971 Y67.512 E0.07577
G1 X82.716 Y70.767 E0.40643
G1 X82.717 Y71.492 E0.06404
G1 X82.849 Y71.492 E0.01170
G1 X86.829 Y67.512 E0.49700
G1 X87.688 Y67.512 E0.07577
G1 X83.707 Y71.492 E0.49700
G1 X84.566 Y71.492 E0.07577
G1 X88.546 Y67.512 E0.49700
G1 X89.404 Y67.512 E0.07577
G1 X85.424 Y71.492 E0.49700
G1 X86.282 Y71.492 E0.07577
G1 X90.262 Y67.512 E0.49700
G1 X91.120 Y67.512 E0.07577
G1 X87.140 Y71.492 E0.49700
G1 X87.998 Y71.492 E0.07577
G1 X91.978 Y67.512 E0.49700
G1 X92.836 Y67.512 E0.07577
G1 X88.856 Y71.492 E0.49700
