; generated by PrusaSlicer 2.2.0+win64 on 2020-06-02 at 05:27:32 UTC

; 

; external perimeters extrusion width = 0.68mm
; perimeters extrusion width = 0.68mm
; infill extrusion width = 0.68mm
; solid infill extrusion width = 0.68mm
; top infill extrusion width = 0.60mm
; first layer extrusion width = 0.65mm

M73 P0 R48
M73 Q0 S49
M201 X1000 Y1000 Z200 E5000 ; sets maximum accelerations, mm/sec^2
M203 X200 Y200 Z12 E120 ; sets maximum feedrates, mm/sec
M204 P1250 R1250 T1250 ; sets acceleration (P, T) and retract acceleration (R), mm/sec^2
M205 X8.00 Y8.00 Z0.40 E4.50 ; sets the jerk limits, mm/sec
M205 S0 T0 ; sets the minimum extruding and travel feed rate, mm/sec
M107
M862.3 P "MK3S" ; printer model check
M862.1 P0.6 ; nozzle diameter check
M115 U3.9.0 ; tell printer latest fw version
G90 ; use absolute coordinates
M83 ; extruder relative mode
M104 S240 ; set extruder temp
M140 S85 ; set bed temp
M190 S85 ; wait for bed temp
M109 S240 ; wait for extruder temp
G28 W ; home all without mesh bed level
G80 ; mesh bed leveling
G1 Y-3.0 F1000.0 ; go outside print area
G92 E0.0
G1 X60.0 E9.0 F1000.0 ; intro line
M73 Q0 S48
M73 P0 R48
G1 X100.0 E12.5 F1000.0 ; intro line
G92 E0.0
M221 S95
G21 ; set units to millimeters
G90 ; use absolute coordinates
M83 ; use relative distances for extrusion
M900 K0.05 ; Filament gcode LA 1.5
M900 K24 ; Filament gcode LA 1.0
;BEFORE_LAYER_CHANGE
G92 E0.0
;0.2


G1 E-1.40000 F2100.00000
G1 Z0.200 F10800.000
;AFTER_LAYER_CHANGE
;0.2
G1 Z0.400
G1 X80.175 Y151.732
G1 Z0.200
G1 E1.40000 F2100.00000
M204 S1000
G1 F1200.000
G1 X79.368 Y151.206 E0.04865
G1 X78.721 Y150.399 E0.05224
G1 X78.301 Y149.609 E0.04515
G1 X78.003 Y148.728 E0.04695
G1 X77.862 Y147.892 E0.04281
G1 X77.840 Y140.310 E0.38273
G1 X77.914 Y139.757 E0.02814
G1 X78.105 Y139.234 E0.02814
G1 X124.798 Y58.312 E4.71608
G1 X125.171 Y57.816 E0.03134
G1 X125.561 Y57.481 E0.02593
G1 X126.009 Y57.230 E0.02593
G1 X126.498 Y57.071 E0.02593
G1 X127.008 Y57.012 E0.02593
G1 X169.558 Y57.011 E2.14787
G1 X170.468 Y57.177 E0.04667
G1 X171.266 Y57.652 E0.04687
G1 X171.846 Y58.376 E0.04687
G1 X172.136 Y59.254 E0.04667
G1 X172.144 Y67.056 E0.39381
G1 X171.887 Y68.353 E0.06674
G1 X171.330 Y69.556 E0.06693
G1 X120.551 Y136.250 E4.23137
G1 X106.631 Y150.589 E1.00883
G1 X105.953 Y151.146 E0.04425
G1 X104.906 Y151.675 E0.05921
G1 X104.160 Y151.867 E0.03891
G1 X103.435 Y151.930 E0.03671
G1 X81.123 Y151.930 E1.12632
G1 X80.263 Y151.751 E0.04430
G1 F8640.000
G1 X79.368 Y151.206 E-0.24201
G1 X78.721 Y150.399 E-0.23895
G1 X78.301 Y149.609 E-0.20654
G1 X78.003 Y148.728 E-0.21477
G1 X77.862 Y147.892 E-0.19582
G1 X77.859 Y146.887 E-0.23192
G1 E-0.07000 F2100.00000
G1 Z0.400 F10800.000
G1 X81.578 Y147.009
G1 Z0.200
G1 E1.40000 F2100.00000
G1 F1200.000
G1 X81.578 Y141.514 E0.27742
G1 X100.924 Y141.514 E0.97660
G1 X111.926 Y130.181 E0.79728
G1 X127.955 Y60.751 E3.59694
G1 X168.422 Y60.751 E2.04275
G1 X168.422 Y66.247 E0.27743
G1 X137.348 Y66.218 E1.56860
G1 X136.324 Y66.305 E0.05186
G1 X135.284 Y66.572 E0.05424
G1 X134.302 Y67.011 E0.05424
G1 X133.408 Y67.607 E0.05424
G1 X132.626 Y68.344 E0.05424
G1 X131.979 Y69.201 E0.05424
G1 X131.484 Y70.155 E0.05424
G1 X131.170 Y71.132 E0.05183
G1 X116.913 Y132.886 E3.19922
G1 X103.237 Y146.982 E0.99141
G1 X81.668 Y147.009 E1.08878
G1 F8640.000
G1 X81.578 Y141.514 E-1.26912
G1 X81.841 Y141.514 E-0.06088
G1 E-0.07000 F2100.00000
G1 Z0.400 F10800.000
G1 X100.668 Y140.906
G1 Z0.200
G1 E1.40000 F2100.00000
G1 F1200.000
G1 X111.372 Y129.879 E0.77578
G1 X127.472 Y60.144 E3.61277
G1 X169.029 Y60.144 E2.09777
G1 X169.029 Y66.608 E0.32633
G1 X169.015 Y66.854 E0.01244
G1 X137.373 Y66.825 E1.59723
G1 X136.426 Y66.905 E0.04798
G1 X135.484 Y67.148 E0.04908
G1 X134.597 Y67.544 E0.04908
G1 X133.788 Y68.083 E0.04908
G1 X133.080 Y68.750 E0.04908
G1 X132.494 Y69.526 E0.04908
G1 X132.046 Y70.389 E0.04908
G1 X131.755 Y71.294 E0.04796
G1 X117.486 Y133.102 E3.20210
G1 X117.431 Y133.224 E0.00671
G1 X103.569 Y147.511 E1.00484
G1 X103.470 Y147.573 E0.00591
G1 X103.372 Y147.589 E0.00501
G1 X80.985 Y147.617 E1.13008
G1 X80.971 Y147.371 E0.01244
G1 X80.971 Y140.906 E0.32633
G1 X100.578 Y140.906 E0.98974
G1 X101.218 Y141.145 F10800.000
G1 F8640.000
G1 X104.607 Y136.790 E-1.33000
G1 E-0.07000 F2100.00000
G1 Z0.400 F10800.000
G1 X168.240 Y62.166
G1 Z0.200
G1 E1.40000 F2100.00000
G1 F1200.000
G1 X167.280 Y61.206 E0.06884
G1 X166.418 Y61.206 E0.04374
G1 X167.967 Y62.755 E0.11110
G1 X167.967 Y63.618 E0.04374
G1 X165.555 Y61.206 E0.17295
G1 X164.693 Y61.206 E0.04374
G1 X167.967 Y64.480 E0.23481
G1 X167.967 Y65.343 E0.04374
G1 X163.830 Y61.206 E0.29666
G1 X162.968 Y61.206 E0.04374
G1 X167.553 Y65.791 E0.32879
G1 X166.689 Y65.790 E0.04378
G1 X162.105 Y61.206 E0.32873
G1 X161.243 Y61.206 E0.04374
G1 X165.826 Y65.789 E0.32868
G1 X164.963 Y65.788 E0.04378
G1 X160.380 Y61.206 E0.32862
G1 X159.518 Y61.206 E0.04374
G1 X164.099 Y65.787 E0.32857
G1 X163.236 Y65.787 E0.04378
G1 X158.655 Y61.206 E0.32851
G1 X157.793 Y61.206 E0.04374
G1 X162.373 Y65.786 E0.32845
G1 X161.510 Y65.785 E0.04378
G1 X156.930 Y61.206 E0.32840
G1 X156.068 Y61.206 E0.04374
G1 X160.646 Y65.784 E0.32834
G1 X159.783 Y65.783 E0.04378
G1 X155.206 Y61.206 E0.32828
G1 X154.343 Y61.206 E0.04374
G1 X158.920 Y65.783 E0.32823
G1 X158.057 Y65.782 E0.04378
G1 X153.481 Y61.206 E0.32817
G1 X152.618 Y61.206 E0.04374
G1 X157.193 Y65.781 E0.32812
G1 X156.330 Y65.780 E0.04378
G1 X151.756 Y61.206 E0.32806
G1 X150.893 Y61.206 E0.04374
G1 X155.467 Y65.780 E0.32800
G1 X154.604 Y65.779 E0.04378
G1 X150.031 Y61.206 E0.32795
G1 X149.168 Y61.206 E0.04374
G1 X153.740 Y65.778 E0.32789
G1 X152.877 Y65.777 E0.04378
G1 X148.306 Y61.206 E0.32783
G1 X147.443 Y61.206 E0.04374
G1 X152.014 Y65.776 E0.32778
M73 Q2 S47
G1 X151.150 Y65.776 E0.04378
G1 X146.581 Y61.206 E0.32772
G1 X145.718 Y61.206 E0.04374
G1 X150.287 Y65.775 E0.32766
M73 P2 R47
G1 X149.424 Y65.774 E0.04378
G1 X144.856 Y61.206 E0.32761
G1 X143.993 Y61.206 E0.04374
G1 X148.561 Y65.773 E0.32755
G1 X147.697 Y65.773 E0.04378
G1 X143.131 Y61.206 E0.32750
G1 X142.268 Y61.206 E0.04374
G1 X146.834 Y65.772 E0.32744
G1 X145.971 Y65.771 E0.04378
G1 X141.406 Y61.206 E0.32738
G1 X140.543 Y61.206 E0.04374
G1 X145.108 Y65.770 E0.32733
G1 X144.244 Y65.769 E0.04378
G1 X139.681 Y61.206 E0.32727
G1 X138.818 Y61.206 E0.04374
G1 X143.381 Y65.769 E0.32721
G1 X142.518 Y65.768 E0.04378
G1 X137.956 Y61.206 E0.32716
G1 X137.093 Y61.206 E0.04374
G1 X141.655 Y65.767 E0.32710
G1 X140.791 Y65.766 E0.04378
G1 X136.231 Y61.206 E0.32705
G1 X135.369 Y61.206 E0.04374
G1 X139.928 Y65.765 E0.32699
G1 X139.065 Y65.765 E0.04378
G1 X134.506 Y61.206 E0.32693
G1 X133.644 Y61.206 E0.04374
G1 X138.202 Y65.764 E0.32688
G1 X137.338 Y65.763 E0.04378
G1 X132.781 Y61.206 E0.32682
G1 X131.919 Y61.206 E0.04374
G1 X136.542 Y65.829 E0.33157
G1 X136.248 Y65.854 E0.01497
G1 X135.816 Y65.965 E0.02263
G1 X131.056 Y61.206 E0.34133
G1 X130.194 Y61.206 E0.04374
G1 X135.130 Y66.142 E0.35402
G1 X134.534 Y66.409 E0.03311
G1 X129.331 Y61.206 E0.37312
G1 X128.469 Y61.206 E0.04374
G1 X133.957 Y66.694 E0.39358
G1 X133.439 Y67.039 E0.03154
G1 X128.184 Y61.783 E0.37690
G1 X128.022 Y62.484 E0.03647
G1 X132.950 Y67.413 E0.35345
G1 X132.506 Y67.831 E0.03094
G1 X127.860 Y63.185 E0.33322
G1 X127.698 Y63.886 E0.03647
G1 X132.099 Y68.286 E0.31561
G1 X131.728 Y68.778 E0.03123
G1 X127.537 Y64.586 E0.30060
G1 X127.375 Y65.287 E0.03647
G1 X131.405 Y69.318 E0.28906
G1 X131.111 Y69.885 E0.03244
G1 X127.213 Y65.988 E0.27952
G1 X127.051 Y66.688 E0.03647
G1 X130.887 Y70.524 E0.27508
G1 X130.689 Y71.189 E0.03517
G1 X126.890 Y67.389 E0.27251
G1 X126.728 Y68.090 E0.03647
G1 X130.528 Y71.890 E0.27251
G1 X130.366 Y72.590 E0.03647
G1 X126.566 Y68.790 E0.27251
G1 X126.404 Y69.491 E0.03647
G1 X130.204 Y73.291 E0.27251
G1 X130.042 Y73.992 E0.03647
G1 X126.242 Y70.192 E0.27251
G1 X126.081 Y70.893 E0.03647
G1 X129.880 Y74.692 E0.27251
G1 X129.719 Y75.393 E0.03647
G1 X125.919 Y71.593 E0.27251
G1 X125.757 Y72.294 E0.03647
G1 X129.557 Y76.094 E0.27251
G1 X129.395 Y76.795 E0.03647
G1 X125.595 Y72.995 E0.27251
G1 X125.434 Y73.695 E0.03647
G1 X129.233 Y77.495 E0.27251
G1 X129.072 Y78.196 E0.03647
G1 X125.272 Y74.396 E0.27251
G1 X125.110 Y75.097 E0.03647
G1 X128.910 Y78.897 E0.27251
G1 X128.748 Y79.597 E0.03647
G1 X124.948 Y75.798 E0.27251
G1 X124.786 Y76.498 E0.03647
G1 X128.586 Y80.298 E0.27251
G1 X128.425 Y80.999 E0.03647
G1 X124.625 Y77.199 E0.27251
G1 X124.463 Y77.900 E0.03647
G1 X128.263 Y81.700 E0.27251
G1 X128.101 Y82.400 E0.03647
G1 X124.301 Y78.600 E0.27251
G1 X124.139 Y79.301 E0.03647
G1 X127.939 Y83.101 E0.27251
G1 X127.777 Y83.802 E0.03647
G1 X123.978 Y80.002 E0.27251
G1 X123.816 Y80.702 E0.03647
G1 X127.616 Y84.502 E0.27251
G1 X127.454 Y85.203 E0.03647
G1 X123.654 Y81.403 E0.27251
G1 X123.492 Y82.104 E0.03647
G1 X127.292 Y85.904 E0.27251
G1 X127.130 Y86.604 E0.03647
G1 X123.331 Y82.805 E0.27251
G1 X123.169 Y83.505 E0.03647
G1 X126.969 Y87.305 E0.27251
G1 X126.807 Y88.006 E0.03647
G1 X123.007 Y84.206 E0.27251
G1 X122.845 Y84.907 E0.03647
G1 X126.645 Y88.707 E0.27251
G1 X126.483 Y89.407 E0.03647
G1 X122.683 Y85.607 E0.27251
G1 X122.522 Y86.308 E0.03647
G1 X126.322 Y90.108 E0.27251
G1 X126.160 Y90.809 E0.03647
G1 X122.360 Y87.009 E0.27251
G1 X122.198 Y87.710 E0.03647
G1 X125.998 Y91.509 E0.27251
G1 X125.836 Y92.210 E0.03647
G1 X122.036 Y88.410 E0.27251
G1 X121.875 Y89.111 E0.03647
G1 X125.674 Y92.911 E0.27251
G1 X125.513 Y93.612 E0.03647
G1 X121.713 Y89.812 E0.27251
G1 X121.551 Y90.512 E0.03647
G1 X125.351 Y94.312 E0.27251
G1 X125.189 Y95.013 E0.03647
G1 X121.389 Y91.213 E0.27251
G1 X121.228 Y91.914 E0.03647
G1 X125.027 Y95.714 E0.27251
G1 X124.866 Y96.414 E0.03647
G1 X121.066 Y92.615 E0.27251
G1 X120.904 Y93.315 E0.03647
G1 X124.704 Y97.115 E0.27251
G1 X124.542 Y97.816 E0.03647
G1 X120.742 Y94.016 E0.27251
G1 X120.580 Y94.717 E0.03647
G1 X124.380 Y98.517 E0.27251
G1 X124.219 Y99.217 E0.03647
G1 X120.419 Y95.417 E0.27251
G1 X120.257 Y96.118 E0.03647
G1 X124.057 Y99.918 E0.27251
G1 X123.895 Y100.619 E0.03647
G1 X120.095 Y96.819 E0.27251
G1 X119.933 Y97.519 E0.03647
G1 X123.733 Y101.319 E0.27251
G1 X123.571 Y102.020 E0.03647
G1 X119.772 Y98.220 E0.27251
G1 X119.610 Y98.921 E0.03647
G1 X123.410 Y102.721 E0.27251
G1 X123.248 Y103.421 E0.03647
G1 X119.448 Y99.622 E0.27251
G1 X119.286 Y100.322 E0.03647
G1 X123.086 Y104.122 E0.27251
G1 X122.924 Y104.823 E0.03647
G1 X119.124 Y101.023 E0.27251
G1 X118.963 Y101.724 E0.03647
G1 X122.763 Y105.524 E0.27251
G1 X122.601 Y106.224 E0.03647
G1 X118.801 Y102.424 E0.27251
G1 X118.639 Y103.125 E0.03647
G1 X122.439 Y106.925 E0.27251
G1 X122.277 Y107.626 E0.03647
G1 X118.477 Y103.826 E0.27251
G1 X118.316 Y104.527 E0.03647
G1 X122.115 Y108.326 E0.27251
G1 X121.954 Y109.027 E0.03647
G1 X118.154 Y105.227 E0.27251
G1 X117.992 Y105.928 E0.03647
G1 X121.792 Y109.728 E0.27251
G1 X121.630 Y110.429 E0.03647
G1 X117.830 Y106.629 E0.27251
G1 X117.669 Y107.329 E0.03647
G1 X121.468 Y111.129 E0.27251
G1 X121.307 Y111.830 E0.03647
G1 X117.507 Y108.030 E0.27251
G1 X117.345 Y108.731 E0.03647
G1 X121.145 Y112.531 E0.27251
G1 X120.983 Y113.231 E0.03647
G1 X117.183 Y109.432 E0.27251
G1 X117.021 Y110.132 E0.03647
G1 X120.821 Y113.932 E0.27251
G1 X120.660 Y114.633 E0.03647
G1 X116.860 Y110.833 E0.27251
G1 X116.698 Y111.534 E0.03647
G1 X120.498 Y115.334 E0.27251
G1 X120.336 Y116.034 E0.03647
G1 X116.536 Y112.234 E0.27251
G1 X116.374 Y112.935 E0.03647
G1 X120.174 Y116.735 E0.27251
G1 X120.012 Y117.436 E0.03647
G1 X116.213 Y113.636 E0.27251
G1 X116.051 Y114.336 E0.03647
G1 X119.851 Y118.136 E0.27251
G1 X119.689 Y118.837 E0.03647
G1 X115.889 Y115.037 E0.27251
G1 X115.727 Y115.738 E0.03647
G1 X119.527 Y119.538 E0.27251
G1 X119.365 Y120.238 E0.03647
G1 X115.566 Y116.439 E0.27251
G1 X115.404 Y117.139 E0.03647
G1 X119.204 Y120.939 E0.27251
G1 X119.042 Y121.640 E0.03647
G1 X115.242 Y117.840 E0.27251
G1 X115.080 Y118.541 E0.03647
G1 X118.880 Y122.341 E0.27251
G1 X118.718 Y123.041 E0.03647
G1 X114.918 Y119.241 E0.27251
G1 X114.757 Y119.942 E0.03647
G1 X118.557 Y123.742 E0.27251
G1 X118.395 Y124.443 E0.03647
G1 X114.595 Y120.643 E0.27251
G1 X114.433 Y121.344 E0.03647
G1 X118.233 Y125.143 E0.27251
G1 X118.071 Y125.844 E0.03647
G1 X114.271 Y122.044 E0.27251
G1 X114.110 Y122.745 E0.03647
G1 X117.909 Y126.545 E0.27251
G1 X117.748 Y127.246 E0.03647
G1 X113.948 Y123.446 E0.27251
G1 X113.786 Y124.146 E0.03647
G1 X117.586 Y127.946 E0.27251
G1 X117.424 Y128.647 E0.03647
G1 X113.624 Y124.847 E0.27251
G1 X113.462 Y125.548 E0.03647
G1 X117.262 Y129.348 E0.27251
G1 X117.101 Y130.048 E0.03647
G1 X113.301 Y126.249 E0.27251
G1 X113.139 Y126.949 E0.03647
G1 X116.939 Y130.749 E0.27251
G1 X116.777 Y131.450 E0.03647
G1 X112.977 Y127.650 E0.27251
G1 X112.815 Y128.351 E0.03647
G1 X116.615 Y132.150 E0.27251
G1 X116.498 Y132.660 E0.02649
G1 X116.382 Y132.779 E0.00846
G1 X112.654 Y129.051 E0.26735
G1 X112.492 Y129.752 E0.03647
G1 X115.957 Y133.217 E0.24849
G1 X115.532 Y133.655 E0.03093
G1 X112.313 Y130.435 E0.23088
G1 X111.888 Y130.873 E0.03093
G1 X115.107 Y134.093 E0.23088
G1 X114.683 Y134.530 E0.03093
G1 X111.463 Y131.311 E0.23089
G1 X111.038 Y131.748 E0.03093
G1 X114.258 Y134.968 E0.23090
G1 X113.833 Y135.406 E0.03093
G1 X110.613 Y132.186 E0.23091
G1 X110.189 Y132.624 E0.03093
G1 X113.409 Y135.844 E0.23092
G1 X112.984 Y136.281 E0.03093
G1 X109.764 Y133.061 E0.23093
G1 X109.339 Y133.499 E0.03093
G1 X112.559 Y136.719 E0.23093
G1 X112.134 Y137.157 E0.03093
G1 X108.914 Y133.937 E0.23094
G1 X108.489 Y134.374 E0.03093
G1 X111.710 Y137.595 E0.23095
G1 X111.285 Y138.032 E0.03093
G1 X108.064 Y134.812 E0.23096
G1 X107.640 Y135.250 E0.03093
G1 X110.860 Y138.470 E0.23097
G1 X110.436 Y138.908 E0.03093
G1 X107.215 Y135.687 E0.23098
G1 X106.790 Y136.125 E0.03093
G1 X110.011 Y139.346 E0.23098
G1 X109.586 Y139.783 E0.03093
G1 X106.365 Y136.563 E0.23099
G1 X105.940 Y137.000 E0.03093
G1 X109.161 Y140.221 E0.23100
G1 X108.737 Y140.659 E0.03093
G1 X105.515 Y137.438 E0.23101
G1 X105.091 Y137.875 E0.03093
G1 X108.312 Y141.097 E0.23102
G1 X107.887 Y141.535 E0.03093
G1 X104.666 Y138.313 E0.23103
G1 X104.241 Y138.751 E0.03093
G1 X107.462 Y141.972 E0.23103
G1 X107.038 Y142.410 E0.03093
G1 X103.816 Y139.188 E0.23104
G1 X103.391 Y139.626 E0.03093
G1 X106.613 Y142.848 E0.23105
G1 X106.188 Y143.286 E0.03093
G1 X102.966 Y140.064 E0.23106
G1 X102.542 Y140.501 E0.03093
G1 X105.764 Y143.723 E0.23107
G1 X105.339 Y144.161 E0.03093
G1 X102.117 Y140.939 E0.23108
G1 X101.692 Y141.377 E0.03093
G1 X104.914 Y144.599 E0.23108
G1 X104.489 Y145.037 E0.03093
G1 X101.267 Y141.814 E0.23109
G1 X101.117 Y141.969 E0.01093
G1 X100.559 Y141.969 E0.02829
G1 X104.065 Y145.474 E0.25140
G1 X103.640 Y145.912 E0.03093
G1 X99.697 Y141.969 E0.28279
G1 X98.834 Y141.969 E0.04374
G1 X103.215 Y146.350 E0.31419
G1 X103.044 Y146.527 E0.01248
G1 X102.530 Y146.527 E0.02605
G1 X97.972 Y141.969 E0.32690
G1 X97.109 Y141.969 E0.04374
G1 X101.669 Y146.528 E0.32698
G1 X100.807 Y146.529 E0.04368
G1 X96.247 Y141.969 E0.32706
G1 X95.384 Y141.969 E0.04374
G1 X99.946 Y146.531 E0.32714
G1 X99.085 Y146.532 E0.04368
G1 X94.522 Y141.969 E0.32722
G1 X93.659 Y141.969 E0.04374
G1 X98.223 Y146.533 E0.32730
G1 X97.362 Y146.534 E0.04368
G1 X92.797 Y141.969 E0.32738
G1 X91.934 Y141.969 E0.04374
G1 X96.500 Y146.535 E0.32746
G1 X95.639 Y146.536 E0.04368
G1 X91.072 Y141.969 E0.32754
G1 X90.209 Y141.969 E0.04374
G1 X94.778 Y146.537 E0.32761
G1 X93.916 Y146.538 E0.04368
G1 X89.347 Y141.969 E0.32769
G1 X88.485 Y141.969 E0.04374
G1 X93.055 Y146.539 E0.32777
G1 X92.194 Y146.540 E0.04368
G1 X87.622 Y141.969 E0.32785
G1 X86.760 Y141.969 E0.04374
G1 X91.332 Y146.542 E0.32793
G1 X90.471 Y146.543 E0.04368
G1 X85.897 Y141.969 E0.32801
G1 X85.035 Y141.969 E0.04374
G1 X89.609 Y146.544 E0.32809
G1 X88.748 Y146.545 E0.04368
G1 X84.172 Y141.969 E0.32817
G1 X83.310 Y141.969 E0.04374
G1 X87.887 Y146.546 E0.32825
G1 X87.025 Y146.547 E0.04368
G1 X82.447 Y141.969 E0.32833
G1 X82.033 Y141.969 E0.02100
G1 X82.033 Y142.417 E0.02274
G1 X86.164 Y146.548 E0.29625
G1 X85.303 Y146.549 E0.04368
G1 X82.033 Y143.280 E0.23448
G1 X82.033 Y144.142 E0.04374
G1 X84.441 Y146.550 E0.17270
