; generated by PrusaSlicer 2.2.0+win64 on 2020-06-27 at 08:26:04 UTC

; 

; external perimeters extrusion width = 0.68mm
; perimeters extrusion width = 0.68mm
; infill extrusion width = 0.68mm
; solid infill extrusion width = 0.68mm
; top infill extrusion width = 0.60mm
; first layer extrusion width = 0.65mm

M73 P0 R37
M73 Q0 S37
M201 X1000 Y1000 Z200 E5000 ; sets maximum accelerations, mm/sec^2
M203 X200 Y200 Z12 E120 ; sets maximum feedrates, mm/sec
M204 P1250 R1250 T1250 ; sets acceleration (P, T) and retract acceleration (R), mm/sec^2
M205 X8.00 Y8.00 Z0.40 E4.50 ; sets the jerk limits, mm/sec
M205 S0 T0 ; sets the minimum extruding and travel feed rate, mm/sec
M107
M862.3 P "MK3S" ; printer model check
M862.1 P0.6 ; nozzle diameter check
M115 U3.9.0 ; tell printer latest fw version
G90 ; use absolute coordinates
M83 ; extruder relative mode
M104 S240 ; set extruder temp
M140 S85 ; set bed temp
M190 S85 ; wait for bed temp
M109 S240 ; wait for extruder temp
G28 W ; home all without mesh bed level
G80 ; mesh bed leveling
G1 Y-3.0 F1000.0 ; go outside print area
G92 E0.0
G1 X60.0 E9.0 F1000.0 ; intro line
M73 Q0 S37
M73 P0 R37
G1 X100.0 E12.5 F1000.0 ; intro line
G92 E0.0
M221 S95
G21 ; set units to millimeters
G90 ; use absolute coordinates
M83 ; use relative distances for extrusion
M900 K0.05 ; Filament gcode LA 1.5
M900 K24 ; Filament gcode LA 1.0
;BEFORE_LAYER_CHANGE
G92 E0.0
;0.2


G1 E-1.40000 F2100.00000
G1 Z0.200 F10800.000
;AFTER_LAYER_CHANGE
;0.2
G1 Z0.400
G1 X117.741 Y97.836
G1 Z0.200
G1 E1.40000 F2100.00000
M204 S1000
G1 F1086
G1 X119.076 Y96.698 E0.08852
G1 X120.739 Y95.742 E0.09685
G1 X122.118 Y95.218 E0.07450
G1 X123.566 Y94.910 E0.07469
G1 X125.376 Y94.812 E0.09149
G1 X127.234 Y95.050 E0.09456
G1 X128.951 Y95.597 E0.09098
G1 X130.520 Y96.424 E0.08955
G1 X132.109 Y97.702 E0.10294
G1 X133.264 Y99.037 E0.08910
G1 X133.972 Y100.149 E0.06652
G1 X134.553 Y101.439 E0.07145
G1 X135.059 Y103.320 E0.09829
G1 X135.198 Y105.112 E0.09072
G1 X135.023 Y106.886 E0.08999
G1 X134.486 Y108.732 E0.09708
G1 X133.698 Y110.311 E0.08905
G1 X132.854 Y111.507 E0.07393
G1 X131.839 Y112.556 E0.07369
G1 X130.284 Y113.723 E0.09812
G1 X128.708 Y114.501 E0.08874
G1 X127.005 Y115.000 E0.08955
G1 X125.180 Y115.196 E0.09266
G1 X123.511 Y115.089 E0.08442
G1 X121.645 Y114.624 E0.09708
G1 X120.310 Y114.056 E0.07325
G1 X119.061 Y113.282 E0.07414
G1 X117.690 Y112.106 E0.09120
G1 X116.499 Y110.635 E0.09556
G1 X115.646 Y109.065 E0.09015
G1 X115.085 Y107.388 E0.08927
G1 X114.816 Y105.414 E0.10057
G1 X114.850 Y104.004 E0.07122
G1 X115.102 Y102.575 E0.07324
G1 X115.669 Y100.898 E0.08935
G1 X116.594 Y99.227 E0.09642
G1 X117.684 Y97.905 E0.08648
G1 X118.155 Y98.304 F10800.000
G1 F1086
G1 X118.266 Y98.173 E0.00866
G1 X119.571 Y97.100 E0.08529
G1 X120.787 Y96.383 E0.07127
G1 X122.096 Y95.865 E0.07106
G1 X123.847 Y95.478 E0.09051
G1 X125.389 Y95.418 E0.07790
G1 X127.120 Y95.645 E0.08813
G1 X128.719 Y96.158 E0.08473
G1 X130.183 Y96.929 E0.08353
G1 X131.676 Y98.127 E0.09661
G1 X132.757 Y99.372 E0.08327
G1 X133.437 Y100.436 E0.06371
G1 X133.993 Y101.673 E0.06846
G1 X134.463 Y103.432 E0.09190
G1 X134.591 Y105.123 E0.08563
G1 X134.427 Y106.770 E0.08355
G1 X133.929 Y108.491 E0.09043
G1 X133.197 Y109.969 E0.08327
G1 X132.386 Y111.120 E0.07107
G1 X131.397 Y112.139 E0.07167
G1 X129.956 Y113.212 E0.09072
G1 X128.478 Y113.939 E0.08313
G1 X126.890 Y114.404 E0.08353
G1 X125.182 Y114.589 E0.08673
G1 X123.457 Y114.461 E0.08730
G1 X122.079 Y114.136 E0.07147
G1 X120.768 Y113.601 E0.07147
G1 X119.231 Y112.663 E0.09092
G1 X118.019 Y111.578 E0.08212
G1 X116.949 Y110.214 E0.08746
G1 X116.097 Y108.558 E0.09402
G1 X115.622 Y106.988 E0.08279
G1 X115.434 Y105.704 E0.06550
G1 X115.433 Y104.452 E0.06321
G1 X115.732 Y102.531 E0.09816
G1 X116.295 Y100.971 E0.08372
G1 X117.131 Y99.515 E0.08473
G1 X118.097 Y98.373 E0.07552
G1 F8640.000
G1 X118.266 Y98.173 E-0.06040
G1 X119.571 Y97.100 E-0.39014
G1 X120.787 Y96.383 E-0.32601
G1 X122.096 Y95.865 E-0.32506
G1 X123.062 Y95.652 E-0.22840
G1 E-0.07000 F2100.00000
G1 Z0.400 F10800.000
G1 X122.037 Y103.288
G1 Z0.200
G1 E1.40000 F2100.00000
G1 F1086
G1 X121.986 Y102.827 E0.02342
G1 X122.019 Y102.452 E0.01900
G1 X122.113 Y102.088 E0.01900
G1 X122.265 Y101.743 E0.01901
G1 X122.472 Y101.429 E0.01899
G1 X122.728 Y101.153 E0.01900
G1 X123.025 Y100.923 E0.01899
G1 X123.357 Y100.745 E0.01902
G1 X123.714 Y100.624 E0.01898
G1 X124.085 Y100.563 E0.01900
G1 X124.462 Y100.565 E0.01901
G1 X124.833 Y100.628 E0.01900
G1 X125.188 Y100.751 E0.01900
G1 X125.519 Y100.932 E0.01900
G1 X125.815 Y101.164 E0.01900
G1 X126.069 Y101.442 E0.01900
G1 X126.284 Y101.774 E0.01996
G1 X126.316 Y101.855 E0.00442
G1 X126.599 Y101.976 E0.01556
G1 X127.076 Y102.280 E0.02852
G1 X127.501 Y102.665 E0.02896
G1 X127.873 Y103.143 E0.03060
G1 X128.138 Y103.636 E0.02822
G1 X128.314 Y104.153 E0.02757
G1 X128.413 Y104.753 E0.03070
G1 X128.405 Y105.337 E0.02950
G1 X128.302 Y105.900 E0.02891
G1 X128.098 Y106.452 E0.02968
G1 X127.958 Y106.696 E0.01422
G1 X127.982 Y106.779 E0.00432
G1 X128.014 Y107.173 E0.01996
G1 X127.981 Y107.548 E0.01900
G1 X127.887 Y107.912 E0.01900
G1 X127.735 Y108.257 E0.01901
G1 X127.528 Y108.571 E0.01899
G1 X127.272 Y108.847 E0.01900
G1 X126.975 Y109.077 E0.01899
G1 X126.643 Y109.255 E0.01902
G1 X126.286 Y109.376 E0.01898
G1 X125.915 Y109.437 E0.01901
G1 X125.538 Y109.435 E0.01900
G1 X125.167 Y109.372 E0.01900
G1 X124.812 Y109.249 E0.01900
G1 X124.481 Y109.068 E0.01900
G1 X124.185 Y108.836 E0.01900
G1 X123.931 Y108.558 E0.01900
G1 X123.691 Y108.161 E0.02342
G1 X123.189 Y107.902 E0.02853
G1 X122.693 Y107.526 E0.03142
G1 X122.312 Y107.117 E0.02820
G1 X122.006 Y106.654 E0.02801
G1 X121.759 Y106.097 E0.03074
G1 X121.620 Y105.535 E0.02921
G1 X121.578 Y104.964 E0.02895
G1 X121.631 Y104.408 E0.02818
G1 X121.787 Y103.822 E0.03057
G1 X121.998 Y103.369 E0.02525
G1 X122.702 Y103.396 F10800.000
G1 F1086
G1 X122.618 Y103.111 E0.01500
G1 X122.596 Y102.829 E0.01426
G1 X122.619 Y102.555 E0.01392
G1 X122.688 Y102.287 E0.01392
G1 X122.800 Y102.035 E0.01393
G1 X122.951 Y101.805 E0.01391
G1 X123.139 Y101.603 E0.01392
G1 X123.357 Y101.434 E0.01391
G1 X123.600 Y101.304 E0.01394
G1 X123.861 Y101.215 E0.01390
G1 X124.133 Y101.171 E0.01392
G1 X124.409 Y101.172 E0.01393
G1 X124.681 Y101.218 E0.01392
G1 X124.942 Y101.308 E0.01392
G1 X125.184 Y101.441 E0.01392
G1 X125.401 Y101.611 E0.01392
G1 X125.587 Y101.814 E0.01392
G1 X125.740 Y102.051 E0.01426
G1 X125.844 Y102.318 E0.01446
G1 X126.315 Y102.515 E0.02579
G1 X126.706 Y102.764 E0.02341
G1 X127.054 Y103.079 E0.02368
G1 X127.362 Y103.476 E0.02535
G1 X127.579 Y103.879 E0.02313
G1 X127.723 Y104.301 E0.02251
G1 X127.806 Y104.798 E0.02544
G1 X127.799 Y105.278 E0.02420
G1 X127.714 Y105.740 E0.02370
G1 X127.546 Y106.194 E0.02446
G1 X127.301 Y106.614 E0.02455
G1 X127.382 Y106.889 E0.01446
G1 X127.404 Y107.171 E0.01426
G1 X127.381 Y107.445 E0.01392
G1 X127.312 Y107.713 E0.01392
G1 X127.200 Y107.965 E0.01393
G1 X127.049 Y108.195 E0.01391
G1 X126.861 Y108.397 E0.01392
G1 X126.643 Y108.566 E0.01391
G1 X126.400 Y108.696 E0.01394
G1 X126.139 Y108.785 E0.01391
G1 X125.867 Y108.829 E0.01393
G1 X125.591 Y108.828 E0.01392
G1 X125.319 Y108.782 E0.01392
G1 X125.058 Y108.692 E0.01392
G1 X124.816 Y108.559 E0.01392
G1 X124.599 Y108.389 E0.01392
G1 X124.413 Y108.186 E0.01392
G1 X124.260 Y107.949 E0.01426
G1 X124.152 Y107.672 E0.01499
G1 X123.925 Y107.599 E0.01204
G1 X123.514 Y107.387 E0.02338
G1 X123.101 Y107.074 E0.02613
G1 X122.791 Y106.740 E0.02301
G1 X122.540 Y106.361 E0.02292
G1 X122.335 Y105.900 E0.02548
G1 X122.222 Y105.440 E0.02393
G1 X122.187 Y104.970 E0.02376
G1 X122.231 Y104.516 E0.02306
G1 X122.360 Y104.030 E0.02537
G1 X122.559 Y103.602 E0.02385
G1 X122.650 Y103.470 E0.00808
G1 X122.440 Y103.254 F10800.000
G1 F8640.000
G1 X122.618 Y103.111 E-0.08326
G1 X122.596 Y102.829 E-0.06521
G1 X122.619 Y102.555 E-0.06368
G1 X122.688 Y102.287 E-0.06368
G1 X122.800 Y102.035 E-0.06372
G1 X122.951 Y101.805 E-0.06364
G1 X123.139 Y101.603 E-0.06367
G1 X123.357 Y101.434 E-0.06363
G1 X123.600 Y101.304 E-0.06376
G1 X123.861 Y101.215 E-0.06360
G1 X124.133 Y101.171 E-0.06370
G1 X124.409 Y101.172 E-0.06371
G1 X124.681 Y101.218 E-0.06368
G1 X124.942 Y101.308 E-0.06368
G1 X125.184 Y101.441 E-0.06368
G1 X125.401 Y101.611 E-0.06368
G1 X125.587 Y101.814 E-0.06368
G1 X125.740 Y102.051 E-0.06522
G1 X125.844 Y102.318 E-0.06614
G1 X126.223 Y102.477 E-0.09497
G1 E-0.07000 F2100.00000
G1 Z0.400 F10800.000
G1 X120.195 Y101.665
G1 Z0.200
G1 E1.40000 F2100.00000
G1 F1086
G1 X120.828 Y100.901 E0.05008
G1 X121.581 Y100.255 E0.05008
G1 X122.432 Y99.745 E0.05008
G1 X123.357 Y99.387 E0.05008
G1 X124.330 Y99.190 E0.05008
G1 X125.321 Y99.160 E0.05008
G1 X126.303 Y99.298 E0.05008
G1 X127.248 Y99.601 E0.05008
G1 X128.129 Y100.058 E0.05008
G1 X128.920 Y100.659 E0.05018
G1 X129.599 Y101.386 E0.05017
G1 X130.146 Y102.219 E0.05031
G1 X130.539 Y103.120 E0.04966
G1 X130.776 Y104.075 E0.04965
G1 X130.849 Y105.071 E0.05042
G1 X130.753 Y106.058 E0.05007
G1 X130.490 Y107.017 E0.05019
G1 X130.070 Y107.916 E0.05008
G1 X129.504 Y108.731 E0.05008
G1 X128.809 Y109.438 E0.05008
G1 X128.004 Y110.018 E0.05008
G1 X127.113 Y110.454 E0.05008
G1 X126.161 Y110.732 E0.05008
G1 X125.175 Y110.846 E0.05008
G1 X124.185 Y110.792 E0.05008
G1 X123.218 Y110.571 E0.05008
G1 X122.302 Y110.189 E0.05008
G1 X121.464 Y109.659 E0.05008
G1 X120.724 Y108.991 E0.05027
G1 X120.111 Y108.211 E0.05011
G1 X119.636 Y107.332 E0.05046
G1 X119.321 Y106.404 E0.04943
G1 X119.167 Y105.433 E0.04964
G1 X119.178 Y104.435 E0.05040
G1 X119.359 Y103.456 E0.05025
G1 X119.701 Y102.525 E0.05008
G1 X120.151 Y101.743 E0.04553
G1 X119.624 Y101.440 F10800.000
G1 F1086
G1 X119.695 Y101.317 E0.00715
G1 X120.394 Y100.474 E0.05529
G1 X121.225 Y99.760 E0.05529
G1 X122.165 Y99.198 E0.05529
G1 X123.186 Y98.802 E0.05529
G1 X124.260 Y98.584 E0.05529
G1 X125.355 Y98.552 E0.05529
G1 X126.439 Y98.704 E0.05529
G1 X127.483 Y99.038 E0.05529
G1 X128.454 Y99.543 E0.05529
G1 X129.329 Y100.207 E0.05540
G1 X130.078 Y101.009 E0.05540
G1 X130.681 Y101.929 E0.05553
G1 X131.116 Y102.924 E0.05485
G1 X131.377 Y103.979 E0.05484
G1 X131.458 Y105.078 E0.05564
G1 X131.352 Y106.169 E0.05530
G1 X131.062 Y107.227 E0.05541
G1 X130.598 Y108.220 E0.05529
G1 X129.974 Y109.120 E0.05529
G1 X129.206 Y109.901 E0.05529
G1 X128.317 Y110.541 E0.05529
G1 X127.333 Y111.022 E0.05529
G1 X126.282 Y111.330 E0.05529
G1 X125.194 Y111.455 E0.05529
G1 X124.100 Y111.395 E0.05529
G1 X123.032 Y111.151 E0.05529
G1 X122.021 Y110.730 E0.05529
G1 X121.095 Y110.144 E0.05529
G1 X120.279 Y109.407 E0.05549
G1 X119.602 Y108.545 E0.05535
G1 X119.077 Y107.575 E0.05567
G1 X118.730 Y106.550 E0.05462
G1 X118.559 Y105.478 E0.05483
G1 X118.572 Y104.376 E0.05562
G1 X118.771 Y103.295 E0.05549
G1 X119.149 Y102.267 E0.05529
G1 X119.579 Y101.518 E0.04360
G1 X119.766 Y101.435 F10800.000
G1 F8640.000
G1 X119.695 Y101.317 E-0.05349
G1 X120.394 Y100.474 E-0.25293
G1 X121.225 Y99.760 E-0.25292
G1 X122.165 Y99.198 E-0.25292
G1 X123.186 Y98.802 E-0.25292
G1 X124.260 Y98.584 E-0.25293
G1 X124.311 Y98.583 E-0.01188
G1 E-0.07000 F2100.00000
G1 Z0.400 F10800.000
G1 X122.448 Y110.053
G1 Z0.200
G1 E1.40000 F2100.00000
G1 F1086
G1 X120.998 Y108.602 E0.10788
G1 X120.493 Y107.960 E0.04293
G1 X120.055 Y107.149 E0.04849
G1 X119.858 Y106.568 E0.03225
G1 X123.809 Y110.519 E0.29379
G1 F8640.000
G1 X119.858 Y106.568 E-1.29010
G1 X119.913 Y106.732 E-0.03990
G1 E-0.07000 F2100.00000
G1 Z0.400 F10800.000
G1 X130.606 Y105.690
G1 Z0.200
G1 E1.40000 F2100.00000
G1 F1086
G1 X128.654 Y103.738 E0.14515
G1 X128.757 Y104.041 E0.01687
G1 X128.869 Y104.718 E0.03609
G1 X128.867 Y104.846 E0.00670
G1 X130.237 Y106.216 E0.10187
G1 X130.037 Y106.910 E0.03800
G1 X128.805 Y105.678 E0.09161
G1 X128.743 Y106.021 E0.01832
G1 X128.611 Y106.378 E0.02001
G1 X129.753 Y107.520 E0.08490
G1 X129.674 Y107.688 E0.00977
G1 X129.409 Y108.070 E0.02446
G1 X128.467 Y107.128 E0.07005
G1 X128.431 Y107.625 E0.02617
G1 X128.357 Y107.913 E0.01566
G1 X129.019 Y108.575 E0.04922
G1 X128.576 Y109.026 E0.03325
G1 X128.092 Y108.542 E0.03598
G1 X127.888 Y108.853 E0.01955
G1 X127.705 Y109.050 E0.01411
G1 X128.067 Y109.412 E0.02693
G1 X127.769 Y109.626 E0.01930
G1 X127.513 Y109.752 E0.01502
G1 X127.222 Y109.461 E0.02163
G1 X126.825 Y109.674 E0.02372
G1 X126.613 Y109.746 E0.01176
G1 X126.907 Y110.040 E0.02185
G1 X126.215 Y110.242 E0.03791
G1 X125.864 Y109.892 E0.02607
G1 X125.499 Y109.890 E0.01921
G1 X125.054 Y109.814 E0.02376
G1 X124.807 Y109.729 E0.01372
G1 X125.436 Y110.358 E0.04677
G1 X125.162 Y110.389 E0.01453
G1 X124.539 Y110.355 E0.03278
G1 X119.630 Y105.446 E0.36505
G1 X119.632 Y104.554 E0.04692
G1 X121.328 Y106.250 E0.12613
G1 X121.169 Y105.607 E0.03482
G1 X121.136 Y105.163 E0.02342
G1 X119.760 Y103.788 E0.10228
G1 X119.799 Y103.576 E0.01131
G1 X119.972 Y103.106 E0.02637
G1 X121.184 Y104.317 E0.09011
G1 X121.380 Y103.618 E0.03816
G1 X120.248 Y102.487 E0.08415
G1 X120.575 Y101.920 E0.03442
G1 X121.534 Y102.879 E0.07130
G1 X121.569 Y102.375 E0.02652
G1 X121.641 Y102.092 E0.01541
G1 X120.980 Y101.431 E0.04915
G1 X121.154 Y101.221 E0.01432
G1 X121.429 Y100.985 E0.01905
G1 X121.906 Y101.461 E0.03543
G1 X122.112 Y101.147 E0.01978
G1 X122.292 Y100.954 E0.01389
G1 X121.920 Y100.582 E0.02763
G1 X122.480 Y100.247 E0.03428
G1 X122.774 Y100.542 E0.02191
G1 X123.175 Y100.326 E0.02394
G1 X123.383 Y100.256 E0.01151
G1 X123.101 Y99.974 E0.02093
G1 X123.486 Y99.825 E0.02168
G1 X123.786 Y99.764 E0.01611
G1 X124.130 Y100.108 E0.02558
G1 X124.501 Y100.110 E0.01952
G1 X124.946 Y100.186 E0.02376
G1 X125.184 Y100.268 E0.01321
G1 X124.554 Y99.638 E0.04681
G1 X125.296 Y99.616 E0.03902
G1 X125.448 Y99.638 E0.00805
G1 X130.354 Y104.543 E0.36482
G1 X130.324 Y104.147 E0.02091
G1 X130.151 Y103.447 E0.03793
G1 X126.564 Y99.860 E0.26674
G1 X127.073 Y100.022 E0.02808
G1 X127.884 Y100.444 E0.04809
G1 X128.544 Y100.945 E0.04354
G1 X130.047 Y102.449 E0.11181
;BEFORE_LAYER_CHANGE
G92 E0.0
;0.6


G1 F8640.000
G1 X128.544 Y100.945 E-0.49100
G1 X127.884 Y100.444 E-0.19122
G1 X127.073 Y100.022 E-0.21117
G1 X126.564 Y99.860 E-0.12331
G1 X127.524 Y100.819 E-0.31331
G1 E-0.07000 F2100.00000
G1 Z0.400 F10800.000
G1 Z0.600
;AFTER_LAYER_CHANGE
;0.6
M104 S250 ; set temperature
M140 S90 ; set bed temperature
G1 Z0.800
G1 X130.520 Y96.424
G1 Z0.600
G1 E1.40000 F2100.00000
G1 F1132
G1 X132.109 Y97.702 E0.19132
G1 X133.264 Y99.037 E0.16559
G1 X133.972 Y100.149 E0.12364
G1 X134.553 Y101.439 E0.13280
G1 X135.059 Y103.320 E0.18269
G1 X135.198 Y105.112 E0.16862
G1 X135.023 Y106.886 E0.16726
G1 X134.486 Y108.732 E0.18043
G1 X133.698 Y110.311 E0.16550
G1 X132.854 Y111.507 E0.13740
G1 X131.839 Y112.556 E0.13697
G1 X130.284 Y113.723 E0.18236
G1 X128.708 Y114.501 E0.16494
G1 X127.005 Y115.000 E0.16644
G1 X125.180 Y115.196 E0.17222
G1 X123.511 Y115.089 E0.15690
G1 X121.645 Y114.624 E0.18043
G1 X120.310 Y114.056 E0.13613
G1 X119.061 Y113.282 E0.13780
G1 X117.690 Y112.106 E0.16950
G1 X116.499 Y110.635 E0.17761
G1 X115.646 Y109.065 E0.16755
G1 X115.085 Y107.388 E0.16592
G1 X114.816 Y105.414 E0.18692
G1 X114.850 Y104.004 E0.13237
G1 X115.102 Y102.575 E0.13613
G1 X115.669 Y100.898 E0.16606
G1 X116.594 Y99.227 E0.17921
G1 X117.741 Y97.836 E0.16918
G1 X119.076 Y96.698 E0.16452
G1 X120.739 Y95.742 E0.18000
G1 X122.118 Y95.218 E0.13846
G1 X123.566 Y94.910 E0.13882
G1 X125.376 Y94.812 E0.17004
G1 X127.234 Y95.050 E0.17575
G1 X128.951 Y95.597 E0.16910
G1 X130.440 Y96.383 E0.15799
G1 X130.159 Y96.917 F10800.000
G1 F1132
G1 X131.676 Y98.127 E0.18201
G1 X132.757 Y99.372 E0.15477
G1 X133.437 Y100.436 E0.11841
G1 X133.993 Y101.673 E0.12724
G1 X134.463 Y103.432 E0.17081
G1 X134.591 Y105.123 E0.15916
G1 X134.427 Y106.770 E0.15528
G1 X133.929 Y108.491 E0.16807
G1 X133.197 Y109.969 E0.15477
G1 X132.386 Y111.120 E0.13209
G1 X131.397 Y112.139 E0.13321
G1 X129.956 Y113.212 E0.16861
G1 X128.478 Y113.939 E0.15450
G1 X126.890 Y114.404 E0.15525
G1 X125.182 Y114.589 E0.16120
G1 X123.457 Y114.461 E0.16226
G1 X122.079 Y114.136 E0.13283
G1 X120.768 Y113.601 E0.13284
G1 X119.231 Y112.663 E0.16898
G1 X118.019 Y111.578 E0.15263
G1 X116.949 Y110.214 E0.16255
