; generated by PrusaSlicer 2.2.0+win64 on 2020-06-07 at 01:23:00 UTC

; 

; external perimeters extrusion width = 0.68mm
; perimeters extrusion width = 0.68mm
; infill extrusion width = 0.68mm
; solid infill extrusion width = 0.68mm
; top infill extrusion width = 0.60mm
; support material extrusion width = 0.55mm
; first layer extrusion width = 0.65mm

M73 P0 R135
M73 Q0 S137
M201 X1000 Y1000 Z200 E5000 ; sets maximum accelerations, mm/sec^2
M203 X200 Y200 Z12 E120 ; sets maximum feedrates, mm/sec
M204 P1250 R1250 T1250 ; sets acceleration (P, T) and retract acceleration (R), mm/sec^2
M205 X8.00 Y8.00 Z0.40 E4.50 ; sets the jerk limits, mm/sec
M205 S0 T0 ; sets the minimum extruding and travel feed rate, mm/sec
M107
M862.3 P "MK3S" ; printer model check
M862.1 P0.6 ; nozzle diameter check
M115 U3.9.0 ; tell printer latest fw version
G90 ; use absolute coordinates
M83 ; extruder relative mode
M104 S240 ; set extruder temp
M140 S85 ; set bed temp
M190 S85 ; wait for bed temp
M109 S240 ; wait for extruder temp
G28 W ; home all without mesh bed level
G80 ; mesh bed leveling
G1 Y-3.0 F1000.0 ; go outside print area
G92 E0.0
G1 X60.0 E9.0 F1000.0 ; intro line
M73 Q0 S137
M73 P0 R135
G1 X100.0 E12.5 F1000.0 ; intro line
G92 E0.0
M221 S95
G21 ; set units to millimeters
G90 ; use absolute coordinates
M83 ; use relative distances for extrusion
M900 K0.05 ; Filament gcode LA 1.5
M900 K24 ; Filament gcode LA 1.0
;BEFORE_LAYER_CHANGE
G92 E0.0
;0.2


G1 E-1.40000 F2100.00000
G1 Z0.200 F10800.000
;AFTER_LAYER_CHANGE
;0.2
G1 Z0.400
G1 X69.418 Y48.444
G1 Z0.200
G1 E1.40000 F2100.00000
M204 S1000
G1 F1200.000
G1 X70.131 Y48.341 E0.03633
G1 X173.376 Y48.132 E5.21171
G1 X180.775 Y48.408 E0.37380
G1 X181.319 Y48.491 E0.02774
G1 X184.852 Y49.435 E0.18463
G1 X185.437 Y49.686 E0.03214
G1 X185.918 Y50.046 E0.03034
G1 X186.304 Y50.507 E0.03034
G1 X186.574 Y51.044 E0.03034
G1 X186.714 Y51.628 E0.03034
G1 X187.614 Y154.258 E5.18084
G1 X187.530 Y154.905 E0.03294
G1 X187.286 Y155.515 E0.03314
G1 X186.900 Y156.041 E0.03294
G1 X186.396 Y156.455 E0.03294
G1 X185.873 Y156.708 E0.02934
G1 X185.306 Y156.839 E0.02934
G1 X134.031 Y162.478 E2.60394
G1 X120.221 Y162.298 E0.69717
G1 X110.470 Y162.024 E0.49240
G1 X109.784 Y161.905 E0.03513
G1 X108.950 Y161.463 E0.04766
G1 X77.090 Y136.081 E2.05624
G1 X62.850 Y117.590 E1.17811
G1 X62.529 Y116.837 E0.04131
G1 X62.458 Y116.022 E0.04131
G1 X67.548 Y50.725 E3.30609
G1 X67.668 Y50.137 E0.03034
G1 X67.920 Y49.591 E0.03034
G1 X68.290 Y49.117 E0.03034
G1 X68.758 Y48.741 E0.03034
G1 X69.336 Y48.481 E0.03199
G1 F8640.000
G1 X70.131 Y48.341 E-0.18626
G1 X75.084 Y48.331 E-1.14375
G1 E-0.07000 F2100.00000
G1 Z0.400 F10800.000
G1 X180.658 Y53.266
G1 Z0.200
G1 E1.40000 F2100.00000
G1 F1200.000
G1 X180.658 Y51.012 E0.11377
G1 X179.444 Y51.012 E0.06129
G1 X179.444 Y53.648 E0.13304
G1 X178.230 Y54.345 E0.07066
G1 X178.230 Y51.012 E0.16821
G1 X177.015 Y51.012 E0.06129
G1 X177.015 Y55.041 E0.20337
G1 X175.801 Y55.738 E0.07066
G1 X175.801 Y51.012 E0.23854
G1 X174.587 Y51.012 E0.06129
G1 X174.587 Y56.435 E0.27371
G1 X173.373 Y57.131 E0.07066
G1 X173.373 Y50.739 E0.32267
G1 F8640.000
G1 X173.373 Y56.499 E-1.33000
G1 E-0.07000 F2100.00000
G1 Z0.400 F10800.000
G1 X145.440 Y99.718
G1 Z0.200
G1 E1.40000 F2100.00000
G1 F1200.000
G1 X145.952 Y100.075 E0.03148
G1 X146.395 Y100.514 E0.03150
G1 X146.758 Y101.020 E0.03145
G1 X147.031 Y101.582 E0.03151
G1 X147.204 Y102.181 E0.03150
G1 X147.273 Y102.800 E0.03142
G1 X147.238 Y103.422 E0.03147
G1 X147.097 Y104.030 E0.03148
G1 X146.856 Y104.605 E0.03148
G1 X146.520 Y105.131 E0.03150
G1 X146.101 Y105.593 E0.03146
G1 X145.610 Y105.977 E0.03146
G1 X145.084 Y106.260 E0.03019
G1 X144.474 Y106.470 E0.03256
G1 X143.854 Y106.567 E0.03166
G1 X143.231 Y106.557 E0.03146
G1 X142.618 Y106.443 E0.03148
G1 X142.033 Y106.226 E0.03150
G1 X141.493 Y105.913 E0.03147
G1 X141.015 Y105.515 E0.03142
G1 X140.610 Y105.041 E0.03150
G1 X140.291 Y104.504 E0.03154
G1 X140.068 Y103.922 E0.03142
G1 X139.945 Y103.311 E0.03146
G1 X139.929 Y102.687 E0.03151
G1 X140.017 Y102.070 E0.03147
G1 X140.209 Y101.476 E0.03151
G1 X140.486 Y100.947 E0.03014
G1 X140.874 Y100.432 E0.03257
G1 X141.334 Y100.004 E0.03170
G1 X141.855 Y99.663 E0.03146
G1 X142.427 Y99.415 E0.03147
G1 X143.033 Y99.267 E0.03148
G1 X143.630 Y99.226 E0.03019
G1 X144.272 Y99.286 E0.03254
G1 X144.876 Y99.453 E0.03167
G1 X145.359 Y99.680 E0.02692
G1 X145.100 Y100.229 F10800.000
G1 F1200.000
G1 X145.562 Y100.543 E0.02819
G1 X145.932 Y100.909 E0.02627
G1 X146.235 Y101.332 E0.02625
G1 X146.462 Y101.800 E0.02627
G1 X146.606 Y102.300 E0.02627
G1 X146.664 Y102.817 E0.02623
G1 X146.634 Y103.336 E0.02625
G1 X146.517 Y103.843 E0.02626
G1 X146.316 Y104.322 E0.02625
G1 X146.036 Y104.761 E0.02628
G1 X145.686 Y105.146 E0.02625
G1 X145.277 Y105.467 E0.02624
G1 X144.839 Y105.702 E0.02509
G1 X144.327 Y105.879 E0.02735
G1 X143.812 Y105.959 E0.02632
G1 X143.292 Y105.951 E0.02625
G1 X142.780 Y105.856 E0.02627
G1 X142.292 Y105.675 E0.02627
G1 X141.842 Y105.414 E0.02625
G1 X141.443 Y105.081 E0.02623
G1 X141.105 Y104.686 E0.02627
G1 X140.839 Y104.238 E0.02629
G1 X140.653 Y103.753 E0.02624
G1 X140.551 Y103.243 E0.02624
G1 X140.537 Y102.723 E0.02628
G1 X140.611 Y102.208 E0.02625
G1 X140.771 Y101.712 E0.02628
G1 X141.001 Y101.273 E0.02506
G1 X141.327 Y100.839 E0.02734
G1 X141.709 Y100.484 E0.02636
G1 X142.144 Y100.200 E0.02625
G1 X142.622 Y99.993 E0.02625
G1 X143.127 Y99.869 E0.02626
G1 X143.623 Y99.835 E0.02508
G1 X144.162 Y99.885 E0.02733
G1 X144.665 Y100.024 E0.02634
G1 X145.019 Y100.191 E0.01975
G1 X145.581 Y99.946 F10800.000
G1 F8640.000
G1 X145.562 Y100.543 E-0.14953
G1 X145.932 Y100.909 E-0.12015
G1 X146.235 Y101.332 E-0.12006
G1 X146.462 Y101.800 E-0.12018
G1 X146.606 Y102.300 E-0.12017
G1 X146.664 Y102.817 E-0.12000
G1 X146.634 Y103.336 E-0.12008
G1 X146.517 Y103.843 E-0.12013
G1 X146.316 Y104.322 E-0.12009
G1 X146.036 Y104.761 E-0.12021
G1 X145.747 Y105.080 E-0.09939
G1 E-0.07000 F2100.00000
G1 Z0.400 F10800.000
G1 X163.354 Y127.717
G1 Z0.200
G1 E1.40000 F2100.00000
G1 F1200.000
G1 X163.876 Y127.376 E0.03149
G1 X164.448 Y127.128 E0.03147
G1 X165.053 Y126.980 E0.03146
G1 X165.649 Y126.938 E0.03016
G1 X166.292 Y126.998 E0.03258
G1 X166.897 Y127.166 E0.03167
G1 X167.460 Y127.431 E0.03144
G1 X167.971 Y127.787 E0.03145
G1 X168.415 Y128.226 E0.03150
G1 X168.779 Y128.733 E0.03151
G1 X169.051 Y129.295 E0.03148
G1 X169.224 Y129.893 E0.03146
G1 X169.294 Y130.513 E0.03148
G1 X169.257 Y131.136 E0.03148
G1 X169.117 Y131.743 E0.03146
G1 X168.876 Y132.317 E0.03146
G1 X168.541 Y132.843 E0.03148
G1 X168.121 Y133.305 E0.03148
G1 X167.630 Y133.689 E0.03148
G1 X167.081 Y133.985 E0.03146
G1 X166.490 Y134.184 E0.03148
G1 X165.874 Y134.280 E0.03150
G1 X165.251 Y134.270 E0.03144
G1 X164.638 Y134.155 E0.03146
G1 X164.054 Y133.939 E0.03148
G1 X163.514 Y133.626 E0.03148
G1 X163.034 Y133.227 E0.03151
G1 X162.630 Y132.752 E0.03145
G1 X162.311 Y132.217 E0.03144
G1 X162.087 Y131.634 E0.03151
G1 X161.966 Y131.023 E0.03147
G1 X161.949 Y130.400 E0.03144
G1 X162.037 Y129.783 E0.03147
G1 X162.229 Y129.189 E0.03151
G1 X162.519 Y128.637 E0.03148
G1 X162.896 Y128.142 E0.03143
G1 X163.288 Y127.778 E0.02695
G1 X163.701 Y128.223 F10800.000
G1 F1200.000
G1 X164.165 Y127.912 E0.02819
G1 X164.642 Y127.705 E0.02626
G1 X165.147 Y127.582 E0.02624
G1 X165.642 Y127.548 E0.02507
G1 X166.182 Y127.598 E0.02736
G1 X166.685 Y127.737 E0.02633
G1 X167.155 Y127.958 E0.02624
G1 X167.582 Y128.256 E0.02625
G1 X167.952 Y128.621 E0.02627
G1 X168.255 Y129.045 E0.02628
G1 X168.482 Y129.513 E0.02626
G1 X168.626 Y130.012 E0.02625
G1 X168.684 Y130.529 E0.02626
G1 X168.654 Y131.049 E0.02626
G1 X168.537 Y131.555 E0.02625
G1 X168.336 Y132.035 E0.02625
G1 X168.056 Y132.474 E0.02626
G1 X167.707 Y132.859 E0.02626
G1 X167.297 Y133.180 E0.02627
G1 X166.839 Y133.426 E0.02625
G1 X166.346 Y133.592 E0.02627
G1 X165.832 Y133.672 E0.02627
G1 X165.312 Y133.664 E0.02623
G1 X164.801 Y133.568 E0.02626
G1 X164.313 Y133.387 E0.02626
G1 X163.863 Y133.127 E0.02626
G1 X163.463 Y132.794 E0.02628
G1 X163.125 Y132.398 E0.02625
G1 X162.859 Y131.951 E0.02624
G1 X162.673 Y131.465 E0.02628
G1 X162.571 Y130.955 E0.02626
G1 X162.557 Y130.435 E0.02624
G1 X162.631 Y129.921 E0.02625
G1 X162.791 Y129.425 E0.02627
G1 X163.033 Y128.964 E0.02627
G1 X163.348 Y128.551 E0.02623
G1 X163.635 Y128.284 E0.01979
G1 X163.618 Y127.671 F10800.000
G1 F8640.000
G1 X164.165 Y127.912 E-0.14948
G1 X164.642 Y127.705 E-0.12010
G1 X165.147 Y127.582 E-0.12002
G1 X165.642 Y127.548 E-0.11468
G1 X166.182 Y127.598 E-0.12517
G1 X166.685 Y127.737 E-0.12044
G1 X167.155 Y127.958 E-0.12002
G1 X167.582 Y128.256 E-0.12007
G1 X167.952 Y128.621 E-0.12018
G1 X168.255 Y129.045 E-0.12019
G1 X168.443 Y129.433 E-0.09963
G1 E-0.07000 F2100.00000
G1 Z0.400 F10800.000
G1 X146.741 Y140.685
G1 Z0.200
G1 E1.40000 F2100.00000
G1 F1200.000
G1 X147.104 Y141.193 E0.03151
G1 X147.376 Y141.753 E0.03145
G1 X147.550 Y142.352 E0.03145
G1 X147.619 Y142.972 E0.03151
G1 X147.583 Y143.594 E0.03146
G1 X147.443 Y144.201 E0.03146
G1 X147.201 Y144.777 E0.03150
G1 X146.867 Y145.302 E0.03146
G1 X146.447 Y145.764 E0.03149
G1 X145.956 Y146.149 E0.03151
G1 X145.407 Y146.444 E0.03143
G1 X144.816 Y146.643 E0.03148
G1 X144.200 Y146.739 E0.03148
G1 X143.577 Y146.729 E0.03146
G1 X142.964 Y146.614 E0.03148
G1 X142.379 Y146.398 E0.03150
G1 X141.840 Y146.085 E0.03144
G1 X141.360 Y145.686 E0.03149
G1 X140.955 Y145.211 E0.03152
G1 X140.637 Y144.676 E0.03144
G1 X140.414 Y144.094 E0.03145
G1 X140.291 Y143.483 E0.03147
G1 X140.274 Y142.859 E0.03149
G1 X140.363 Y142.242 E0.03146
G1 X140.554 Y141.649 E0.03146
G1 X140.844 Y141.096 E0.03152
G1 X141.223 Y140.601 E0.03145
G1 X141.679 Y140.176 E0.03146
G1 X142.201 Y139.835 E0.03150
G1 X142.773 Y139.587 E0.03148
G1 X143.378 Y139.439 E0.03144
G1 X143.975 Y139.397 E0.03019
G1 X144.618 Y139.457 E0.03262
G1 X145.222 Y139.625 E0.03160
G1 X145.787 Y139.890 E0.03151
G1 X146.298 Y140.247 E0.03148
G1 X146.677 Y140.622 E0.02690
G1 X146.250 Y141.054 F10800.000
G1 F1200.000
G1 X146.581 Y141.504 E0.02817
G1 X146.807 Y141.972 E0.02625
G1 X146.952 Y142.471 E0.02625
G1 X147.010 Y142.988 E0.02628
G1 X146.980 Y143.508 E0.02625
G1 X146.863 Y144.014 E0.02624
G1 X146.662 Y144.494 E0.02628
G1 X146.382 Y144.933 E0.02625
G1 X146.033 Y145.318 E0.02627
G1 X145.622 Y145.639 E0.02629
G1 X145.165 Y145.885 E0.02622
G1 X144.672 Y146.051 E0.02627
G1 X144.158 Y146.131 E0.02626
G1 X143.638 Y146.123 E0.02625
G1 X143.126 Y146.027 E0.02627
G1 X142.638 Y145.846 E0.02627
G1 X142.189 Y145.586 E0.02624
G1 X141.788 Y145.253 E0.02627
G1 X141.451 Y144.857 E0.02627
G1 X141.185 Y144.410 E0.02624
G1 X140.999 Y143.924 E0.02625
G1 X140.897 Y143.414 E0.02625
G1 X140.883 Y142.894 E0.02627
G1 X140.957 Y142.379 E0.02626
G1 X141.116 Y141.885 E0.02624
G1 X141.358 Y141.423 E0.02629
G1 X141.674 Y141.010 E0.02625
G1 X142.054 Y140.656 E0.02624
G1 X142.490 Y140.371 E0.02628
G1 X142.967 Y140.164 E0.02626
G1 X143.472 Y140.041 E0.02623
G1 X143.968 Y140.006 E0.02509
G1 X144.508 Y140.057 E0.02738
G1 X145.010 Y140.196 E0.02629
G1 X145.481 Y140.417 E0.02628
G1 X145.907 Y140.715 E0.02625
G1 X146.186 Y140.991 E0.01978
G1 X146.798 Y140.948 F10800.000
G1 F8640.000
G1 X146.581 Y141.504 E-0.14942
G1 X146.807 Y141.972 E-0.12005
G1 X146.952 Y142.471 E-0.12005
G1 X147.010 Y142.988 E-0.12019
G1 X146.980 Y143.508 E-0.12009
G1 X146.863 Y144.014 E-0.12004
G1 X146.662 Y144.494 E-0.12020
G1 X146.382 Y144.933 E-0.12007
G1 X146.033 Y145.318 E-0.12014
G1 X145.622 Y145.639 E-0.12026
G1 X145.243 Y145.843 E-0.09948
G1 E-0.07000 F2100.00000
G1 Z0.400 F10800.000
G1 X138.486 Y89.843
G1 Z0.200
G1 E1.40000 F2100.00000
G1 F1200.000
G1 X142.256 Y77.268 E0.66267
G1 X183.010 Y53.884 E2.37181
G1 X183.866 Y153.236 E5.01536
G1 X176.525 Y154.047 E0.37283
G1 X176.524 Y154.026 E0.00104
G1 X134.865 Y158.626 E2.11570
G1 X128.945 Y95.327 E3.20921
G1 X138.408 Y89.888 E0.55096
G1 X137.974 Y89.437 F10800.000
G1 F1200.000
G1 X141.744 Y76.862 E0.66268
G1 X183.608 Y52.841 E2.43642
G1 X184.478 Y153.779 E5.09543
M73 Q0 S135
G1 X175.923 Y154.724 E0.43444
M73 P0 R134
G1 X175.923 Y154.703 E0.00105
G1 X134.318 Y159.297 E2.11295
G1 X128.304 Y94.995 E3.26006
G1 X137.896 Y89.482 E0.55846
G1 X138.545 Y89.253 F10800.000
G1 F8640.000
G1 X139.576 Y83.972 E-1.33000
G1 E-0.07000 F2100.00000
G1 Z0.400 F10800.000
G1 X163.620 Y127.325
G1 Z0.200
G1 E1.40000 F2100.00000
G1 F1200.000
G1 X143.309 Y107.014 E1.45200
G1 X143.886 Y107.023 E0.02918
G1 X144.138 Y106.984 E0.01290
G1 X163.986 Y126.832 E1.41887
G1 X164.302 Y126.694 E0.01742
G1 X164.629 Y126.615 E0.01700
G1 X144.840 Y106.826 E1.41465
G1 X145.267 Y106.679 E0.02283
G1 X145.453 Y106.579 E0.01065
G1 X165.375 Y126.501 E1.42419
G1 X165.655 Y126.482 E0.01416
G1 X166.273 Y126.539 E0.03138
G1 X145.991 Y106.257 E1.44990
G1 X146.464 Y105.870 E0.03088
G1 X183.320 Y142.727 E2.63474
G1 X183.313 Y141.859 E0.04384
G1 X146.873 Y105.420 E2.60496
G1 X147.210 Y104.897 E0.03144
G1 X183.305 Y140.992 E2.58036
G1 X183.298 Y140.125 E0.04384
G1 X147.476 Y104.303 E2.56079
G1 X147.532 Y104.170 E0.00729
G1 X147.658 Y103.626 E0.02827
G1 X183.290 Y139.258 E2.54725
G1 X183.283 Y138.391 E0.04384
G1 X147.727 Y102.835 E2.54175
G1 X147.652 Y102.092 E0.03775
G1 X147.574 Y101.822 E0.01421
G1 X183.551 Y137.799 E2.57187
G1 F8640.000
G1 X179.478 Y133.726 E-1.33000
G1 E-0.07000 F2100.00000
G1 Z0.400 F10800.000
G1 X183.603 Y143.869
G1 Z0.200
G1 E1.40000 F2100.00000
G1 F1200.000
G1 X169.689 Y129.955 E0.99468
G1 X169.750 Y130.501 E0.02774
G1 X169.730 Y130.856 E0.01797
G1 X183.335 Y144.461 E0.97261
G1 X183.342 Y145.328 E0.04384
G1 X169.617 Y131.602 E0.98123
G1 X169.551 Y131.883 E0.01457
G1 X169.400 Y132.245 E0.01984
G1 X183.350 Y146.195 E0.99727
G1 X183.357 Y147.063 E0.04384
G1 X169.103 Y132.808 E1.01901
G1 X168.904 Y133.121 E0.01873
G1 X168.738 Y133.303 E0.01246
G1 X183.365 Y147.930 E1.04562
G1 X183.372 Y148.797 E0.04384
G1 X168.311 Y133.735 E1.07672
G1 X167.820 Y134.104 E0.03104
G1 X183.380 Y149.664 E1.11233
G1 X183.387 Y150.531 E0.04384
G1 X167.261 Y134.405 E1.15283
G1 X166.617 Y134.621 E0.03431
G1 X183.395 Y151.399 E1.19936
G1 X183.402 Y152.266 E0.04384
G1 X165.872 Y134.735 E1.25321
G1 X165.205 Y134.725 E0.03369
G1 X164.954 Y134.678 E0.01290
G1 X183.135 Y152.859 E1.29970
G1 X182.361 Y152.944 E0.03937
G1 X129.883 Y100.466 E3.75147
G1 X129.972 Y101.415 E0.04815
G1 X181.587 Y153.030 E3.68979
G1 X180.812 Y153.115 E0.03937
G1 X130.060 Y102.363 E3.62810
G1 X130.149 Y103.311 E0.04815
G1 X180.038 Y153.201 E3.56641
M73 Q1 S134
M73 P1 R133
G1 X179.264 Y153.286 E0.03937
G1 X130.238 Y104.260 E3.50472
G1 X130.327 Y105.208 E0.04815
G1 X178.490 Y153.372 E3.44303
G1 X177.716 Y153.457 E0.03937
G1 X130.415 Y106.157 E3.38135
G1 X130.504 Y107.105 E0.04815
G1 X176.923 Y153.524 E3.31833
G1 X176.148 Y153.609 E0.03937
G1 X130.593 Y108.054 E3.25664
G1 X130.681 Y109.002 E0.04815
G1 X175.374 Y153.695 E3.19495
G1 X174.600 Y153.780 E0.03937
G1 X130.770 Y109.950 E3.13326
G1 X130.859 Y110.899 E0.04815
G1 X173.826 Y153.866 E3.07157
G1 X173.051 Y153.951 E0.03937
G1 X130.947 Y111.847 E3.00988
G1 X131.036 Y112.796 E0.04815
G1 X172.277 Y154.037 E2.94819
G1 X171.503 Y154.122 E0.03937
G1 X131.125 Y113.744 E2.88651
G1 X131.214 Y114.693 E0.04815
G1 X170.729 Y154.208 E2.82482
G1 X169.955 Y154.293 E0.03937
G1 X131.302 Y115.641 E2.76313
G1 X131.391 Y116.590 E0.04815
G1 X169.180 Y154.379 E2.70144
G1 X168.406 Y154.464 E0.03937
G1 X131.480 Y117.538 E2.63975
G1 X131.568 Y118.486 E0.04815
G1 X167.632 Y154.550 E2.57806
G1 X166.858 Y154.635 E0.03937
G1 X131.657 Y119.435 E2.51638
G1 X131.746 Y120.383 E0.04815
G1 X166.083 Y154.721 E2.45469
G1 X165.309 Y154.806 E0.03937
G1 X131.834 Y121.332 E2.39300
G1 X131.923 Y122.280 E0.04815
G1 X164.535 Y154.892 E2.33131
G1 X163.761 Y154.977 E0.03937
G1 X132.012 Y123.229 E2.26962
M73 Q2 S133
M73 P2 R132
G1 X132.101 Y124.177 E0.04815
G1 X162.986 Y155.063 E2.20793
G1 X162.212 Y155.148 E0.03937
G1 X132.189 Y125.125 E2.14624
G1 X132.278 Y126.074 E0.04815
G1 X145.418 Y139.214 E0.93934
G1 X144.701 Y139.008 E0.03771
G1 X144.316 Y138.972 E0.01953
G1 X132.367 Y127.022 E0.85424
G1 X132.455 Y127.971 E0.04815
G1 X143.462 Y138.977 E0.78681
