; generated by PrusaSlicer 2.2.0+win64 on 2020-06-02 at 11:43:56 UTC

; 

; external perimeters extrusion width = 0.65mm
; perimeters extrusion width = 0.65mm
; infill extrusion width = 0.65mm
; solid infill extrusion width = 0.65mm
; top infill extrusion width = 0.60mm
; first layer extrusion width = 0.65mm

M73 P0 R72
M73 Q0 S73
M201 X1000 Y1000 Z200 E5000 ; sets maximum accelerations, mm/sec^2
M203 X200 Y200 Z12 E120 ; sets maximum feedrates, mm/sec
M204 P1250 R1250 T1250 ; sets acceleration (P, T) and retract acceleration (R), mm/sec^2
M205 X8.00 Y8.00 Z0.40 E4.50 ; sets the jerk limits, mm/sec
M205 S0 T0 ; sets the minimum extruding and travel feed rate, mm/sec
M107
M862.3 P "MK3S" ; printer model check
M862.1 P0.6 ; nozzle diameter check
M115 U3.9.0 ; tell printer latest fw version
G90 ; use absolute coordinates
M83 ; extruder relative mode
M104 S240 ; set extruder temp
M140 S85 ; set bed temp
M190 S85 ; wait for bed temp
M109 S240 ; wait for extruder temp
G28 W ; home all without mesh bed level
G80 ; mesh bed leveling
G1 Y-3.0 F1000.0 ; go outside print area
G92 E0.0
G1 X60.0 E9.0 F1000.0 ; intro line
M73 Q0 S73
M73 P0 R72
G1 X100.0 E12.5 F1000.0 ; intro line
G92 E0.0
M221 S95
G21 ; set units to millimeters
G90 ; use absolute coordinates
M83 ; use relative distances for extrusion
M900 K0.05 ; Filament gcode LA 1.5
M900 K24 ; Filament gcode LA 1.0
;BEFORE_LAYER_CHANGE
G92 E0.0
;0.2


G1 E-1.40000 F2100.00000
G1 Z0.200 F10800.000
;AFTER_LAYER_CHANGE
;0.2
G1 Z0.400
G1 X112.385 Y83.424
G1 Z0.200
G1 E1.40000 F2100.00000
M204 S1000
G1 F1200.000
G1 X112.900 Y82.979 E0.03433
G1 X113.508 Y82.683 E0.03414
G1 X114.176 Y82.554 E0.03433
G1 X135.670 Y82.549 E1.08501
G1 X136.636 Y82.736 E0.04964
G1 X137.463 Y83.267 E0.04964
G1 X138.035 Y84.067 E0.04964
G1 X138.270 Y85.018 E0.04944
G1 X138.273 Y124.860 E2.01115
G1 X138.200 Y125.456 E0.03034
G1 X137.995 Y126.017 E0.03014
G1 X137.607 Y126.585 E0.03473
G1 X137.087 Y127.030 E0.03453
G1 X136.465 Y127.325 E0.03473
G1 X135.788 Y127.448 E0.03473
G1 X114.302 Y127.451 E1.08461
G1 X113.713 Y127.376 E0.02994
G1 X113.161 Y127.172 E0.02974
G1 X112.584 Y126.776 E0.03533
G1 X112.133 Y126.241 E0.03533
G1 X111.840 Y125.605 E0.03533
G1 X111.728 Y124.914 E0.03533
G1 X111.727 Y85.140 E2.00773
G1 X111.800 Y84.544 E0.03034
G1 X112.005 Y83.983 E0.03014
G1 X112.335 Y83.498 E0.02959
G1 F8640.000
G1 X112.900 Y82.979 E-0.17721
G1 X113.508 Y82.683 E-0.15614
G1 X114.176 Y82.554 E-0.15706
G1 X117.812 Y82.553 E-0.83959
G1 E-0.07000 F2100.00000
G1 Z0.400 F10800.000
G1 X121.439 Y98.284
G1 Z0.200
G1 E1.40000 F2100.00000
G1 F1200.000
G1 X121.573 Y98.202 E0.00792
G1 X122.771 Y97.721 E0.06518
G1 X124.033 Y97.448 E0.06518
G1 X125.323 Y97.394 E0.06518
G1 X126.604 Y97.558 E0.06518
G1 X127.839 Y97.936 E0.06518
G1 X128.992 Y98.517 E0.06518
G1 X130.030 Y99.285 E0.06518
G1 X130.923 Y100.217 E0.06518
G1 X131.646 Y101.287 E0.06518
G1 X132.178 Y102.464 E0.06518
G1 X132.504 Y103.713 E0.06518
G1 X132.613 Y105.000 E0.06518
G1 X132.504 Y106.287 E0.06518
G1 X132.178 Y107.536 E0.06518
G1 X131.646 Y108.713 E0.06518
G1 X130.923 Y109.783 E0.06518
G1 X130.030 Y110.715 E0.06518
G1 X128.992 Y111.483 E0.06518
G1 X127.839 Y112.064 E0.06518
G1 X126.604 Y112.442 E0.06518
G1 X125.323 Y112.606 E0.06518
G1 X124.033 Y112.552 E0.06518
G1 X122.771 Y112.279 E0.06518
G1 X121.573 Y111.798 E0.06518
G1 X120.473 Y111.121 E0.06518
G1 X119.504 Y110.268 E0.06518
G1 X118.692 Y109.263 E0.06518
G1 X118.063 Y108.136 E0.06518
G1 X117.632 Y106.918 E0.06518
G1 X117.414 Y105.646 E0.06518
G1 X117.414 Y104.354 E0.06518
G1 X117.632 Y103.082 E0.06518
G1 X118.063 Y101.864 E0.06518
G1 X118.692 Y100.737 E0.06518
G1 X119.504 Y99.732 E0.06518
G1 X120.473 Y98.879 E0.06518
G1 X121.362 Y98.331 E0.05272
G1 X121.847 Y98.746 F10800.000
G1 F1200.000
G1 X122.949 Y98.303 E0.05997
G1 X124.110 Y98.053 E0.05997
G1 X125.183 Y98.007 E0.05422
G1 X125.297 Y98.002 E0.00575
G1 X126.476 Y98.153 E0.05997
G1 X127.611 Y98.501 E0.05997
G1 X128.672 Y99.036 E0.05997
G1 X129.627 Y99.742 E0.05997
G1 X130.449 Y100.600 E0.05997
G1 X131.115 Y101.584 E0.05997
G1 X131.604 Y102.667 E0.05997
G1 X131.903 Y103.816 E0.05997
G1 X132.004 Y105.000 E0.05997
G1 X131.903 Y106.184 E0.05997
G1 X131.604 Y107.333 E0.05997
G1 X131.115 Y108.416 E0.05997
G1 X130.449 Y109.400 E0.05997
G1 X129.627 Y110.258 E0.05997
G1 X128.672 Y110.964 E0.05997
G1 X127.611 Y111.499 E0.05997
G1 X126.476 Y111.847 E0.05997
G1 X125.297 Y111.998 E0.05997
G1 X124.110 Y111.947 E0.05997
G1 X122.949 Y111.697 E0.05997
G1 X121.847 Y111.254 E0.05997
G1 X120.835 Y110.631 E0.05997
G1 X119.943 Y109.846 E0.05997
G1 X119.197 Y108.922 E0.05997
G1 X118.618 Y107.885 E0.05997
G1 X118.222 Y106.765 E0.05997
G1 X118.021 Y105.594 E0.05997
G1 X118.021 Y104.406 E0.05997
G1 X118.222 Y103.235 E0.05997
G1 X118.618 Y102.115 E0.05997
G1 X119.197 Y101.078 E0.05997
G1 X119.943 Y100.154 E0.05997
G1 X120.835 Y99.369 E0.05997
G1 X121.770 Y98.793 E0.05542
G1 X121.881 Y98.147 F10800.000
G1 F8640.000
G1 X122.949 Y98.303 E-0.29480
G1 X124.110 Y98.053 E-0.27430
G1 X125.183 Y98.007 E-0.24800
G1 X125.297 Y98.002 E-0.02630
G1 X126.476 Y98.153 E-0.27430
G1 X127.355 Y98.423 E-0.21230
G1 E-0.07000 F2100.00000
G1 Z0.400 F10800.000
G1 X124.189 Y93.042
G1 Z0.200
G1 E1.40000 F2100.00000
G1 F1200.000
G1 X123.754 Y92.867 E0.02370
G1 X123.354 Y92.621 E0.02370
G1 X123.033 Y92.338 E0.02156
G1 X122.710 Y91.952 E0.02542
G1 X122.478 Y91.535 E0.02410
G1 X122.321 Y91.093 E0.02370
G1 X122.242 Y90.630 E0.02370
G1 X122.242 Y90.160 E0.02370
G1 X122.314 Y89.739 E0.02156
G1 X122.474 Y89.262 E0.02542
G1 X122.707 Y88.845 E0.02410
G1 X123.002 Y88.480 E0.02370
G1 X123.354 Y88.169 E0.02370
G1 X123.754 Y87.923 E0.02370
G1 X124.189 Y87.748 E0.02370
G1 X124.648 Y87.649 E0.02370
G1 X125.075 Y87.631 E0.02156
G1 X125.576 Y87.687 E0.02542
G1 X126.032 Y87.826 E0.02410
G1 X126.451 Y88.038 E0.02370
G1 X126.829 Y88.317 E0.02370
G1 X127.154 Y88.656 E0.02370
G1 X127.417 Y89.045 E0.02370
G1 X127.610 Y89.473 E0.02370
G1 X127.728 Y89.927 E0.02370
G1 X127.768 Y90.395 E0.02370
G1 X127.728 Y90.863 E0.02370
G1 X127.610 Y91.317 E0.02370
G1 X127.417 Y91.745 E0.02370
G1 X127.154 Y92.134 E0.02370
G1 X126.829 Y92.473 E0.02370
G1 X126.451 Y92.752 E0.02370
G1 X126.032 Y92.964 E0.02370
G1 X125.583 Y93.101 E0.02370
G1 X125.117 Y93.161 E0.02370
G1 X124.648 Y93.141 E0.02370
G1 X124.277 Y93.061 E0.01916
G1 X124.405 Y92.467 F10800.000
G1 F1200.000
G1 X124.028 Y92.323 E0.02039
G1 X123.716 Y92.131 E0.01848
G1 X123.469 Y91.913 E0.01660
G1 X123.213 Y91.606 E0.02020
G1 X123.033 Y91.284 E0.01862
G1 X122.911 Y90.939 E0.01848
G1 X122.849 Y90.578 E0.01848
G1 X122.849 Y90.212 E0.01848
G1 X122.905 Y89.888 E0.01660
G1 X123.031 Y89.508 E0.02020
G1 X123.211 Y89.186 E0.01862
G1 X123.441 Y88.901 E0.01848
G1 X123.716 Y88.659 E0.01848
G1 X124.028 Y88.467 E0.01848
G1 X124.368 Y88.331 E0.01848
G1 X124.726 Y88.254 E0.01848
G1 X125.054 Y88.240 E0.01660
G1 X125.452 Y88.284 E0.02020
G1 X125.805 Y88.392 E0.01862
G1 X126.132 Y88.557 E0.01848
G1 X126.426 Y88.774 E0.01848
G1 X126.680 Y89.039 E0.01848
G1 X126.885 Y89.342 E0.01848
G1 X127.036 Y89.676 E0.01848
G1 X127.128 Y90.030 E0.01848
G1 X127.159 Y90.395 E0.01848
G1 X127.128 Y90.760 E0.01848
G1 X127.036 Y91.114 E0.01848
G1 X126.885 Y91.448 E0.01848
G1 X126.680 Y91.751 E0.01848
G1 X126.426 Y92.016 E0.01848
G1 X126.132 Y92.233 E0.01848
G1 X125.805 Y92.398 E0.01848
G1 X125.455 Y92.505 E0.01848
G1 X125.092 Y92.552 E0.01848
G1 X124.726 Y92.536 E0.01848
G1 X124.493 Y92.486 E0.01201
G1 X124.113 Y92.746 F10800.000
G1 F8640.000
G1 X124.028 Y92.323 E-0.11386
G1 X123.716 Y92.131 E-0.08455
G1 X123.469 Y91.913 E-0.07596
G1 X123.213 Y91.606 E-0.09240
G1 X123.033 Y91.284 E-0.08519
G1 X122.911 Y90.939 E-0.08455
G1 X122.849 Y90.578 E-0.08455
G1 X122.849 Y90.212 E-0.08455
G1 X122.905 Y89.888 E-0.07595
G1 X123.031 Y89.508 E-0.09240
G1 X123.211 Y89.186 E-0.08519
G1 X123.441 Y88.901 E-0.08455
G1 X123.716 Y88.659 E-0.08455
G1 X124.028 Y88.467 E-0.08455
G1 X124.368 Y88.331 E-0.08455
G1 X124.506 Y88.301 E-0.03266
G1 E-0.07000 F2100.00000
G1 Z0.400 F10800.000
G1 X125.576 Y116.897
G1 Z0.200
G1 E1.40000 F2100.00000
G1 F1200.000
G1 X126.032 Y117.036 E0.02410
G1 X126.451 Y117.248 E0.02370
G1 X126.829 Y117.527 E0.02370
G1 X127.154 Y117.866 E0.02370
G1 X127.417 Y118.255 E0.02370
G1 X127.610 Y118.683 E0.02370
G1 X127.728 Y119.137 E0.02370
G1 X127.768 Y119.605 E0.02370
G1 X127.728 Y120.073 E0.02370
G1 X127.610 Y120.527 E0.02370
G1 X127.417 Y120.955 E0.02370
G1 X127.154 Y121.344 E0.02370
G1 X126.858 Y121.652 E0.02156
G1 X126.458 Y121.959 E0.02542
G1 X126.032 Y122.174 E0.02410
G1 X125.583 Y122.311 E0.02370
G1 X125.117 Y122.371 E0.02370
G1 X124.648 Y122.351 E0.02370
G1 X124.189 Y122.252 E0.02370
G1 X123.754 Y122.077 E0.02370
G1 X123.354 Y121.831 E0.02370
G1 X123.002 Y121.520 E0.02370
G1 X122.707 Y121.155 E0.02370
G1 X122.478 Y120.745 E0.02370
G1 X122.321 Y120.303 E0.02370
G1 X122.242 Y119.840 E0.02370
G1 X122.242 Y119.370 E0.02370
G1 X122.321 Y118.907 E0.02370
G1 X122.478 Y118.465 E0.02370
G1 X122.686 Y118.092 E0.02156
G1 X122.996 Y117.695 E0.02542
G1 X123.354 Y117.379 E0.02410
G1 X123.754 Y117.133 E0.02370
G1 X124.189 Y116.958 E0.02370
G1 X124.648 Y116.859 E0.02370
G1 X125.075 Y116.841 E0.02156
G1 X125.486 Y116.887 E0.02088
G1 X125.419 Y117.490 F10800.000
G1 F1200.000
G1 X125.805 Y117.602 E0.02027
G1 X126.132 Y117.767 E0.01848
G1 X126.426 Y117.984 E0.01848
G1 X126.680 Y118.249 E0.01848
G1 X126.885 Y118.552 E0.01848
G1 X127.036 Y118.886 E0.01848
G1 X127.128 Y119.240 E0.01848
G1 X127.159 Y119.605 E0.01848
G1 X127.128 Y119.970 E0.01848
G1 X127.036 Y120.324 E0.01848
G1 X126.885 Y120.658 E0.01848
G1 X126.680 Y120.961 E0.01848
G1 X126.452 Y121.199 E0.01660
G1 X126.134 Y121.442 E0.02020
G1 X125.805 Y121.608 E0.01862
G1 X125.455 Y121.715 E0.01848
G1 X125.092 Y121.762 E0.01848
G1 X124.726 Y121.746 E0.01848
G1 X124.368 Y121.669 E0.01848
G1 X124.028 Y121.533 E0.01848
G1 X123.716 Y121.341 E0.01848
G1 X123.441 Y121.099 E0.01848
G1 X123.211 Y120.814 E0.01848
G1 X123.033 Y120.494 E0.01848
G1 X122.911 Y120.149 E0.01848
G1 X122.849 Y119.788 E0.01848
G1 X122.849 Y119.422 E0.01848
G1 X122.911 Y119.061 E0.01848
G1 X123.033 Y118.716 E0.01848
G1 X123.193 Y118.429 E0.01660
G1 X123.439 Y118.113 E0.02020
G1 X123.716 Y117.869 E0.01862
G1 X124.028 Y117.677 E0.01848
G1 X124.368 Y117.541 E0.01848
G1 X124.726 Y117.464 E0.01848
G1 X125.054 Y117.450 E0.01660
G1 X125.330 Y117.480 E0.01398
G1 X125.685 Y117.189 F10800.000
G1 F8640.000
G1 X125.805 Y117.602 E-0.11325
G1 X126.132 Y117.767 E-0.08455
G1 X126.426 Y117.984 E-0.08455
G1 X126.680 Y118.249 E-0.08455
G1 X126.885 Y118.552 E-0.08455
G1 X127.036 Y118.886 E-0.08455
G1 X127.128 Y119.240 E-0.08455
G1 X127.159 Y119.605 E-0.08455
G1 X127.128 Y119.970 E-0.08455
G1 X127.036 Y120.324 E-0.08455
G1 X126.885 Y120.658 E-0.08455
G1 X126.680 Y120.961 E-0.08455
G1 X126.452 Y121.199 E-0.07596
G1 X126.134 Y121.442 E-0.09240
G1 X125.805 Y121.608 E-0.08519
G1 X125.668 Y121.650 E-0.03316
G1 E-0.07000 F2100.00000
G1 Z0.400 F10800.000
G1 X133.516 Y123.712
G1 Z0.200
G1 E1.40000 F2100.00000
G1 F1200.000
G1 X116.484 Y123.712 E0.85981
G1 X116.484 Y86.288 E1.88909
G1 X133.516 Y86.288 E0.85981
G1 X133.516 Y123.622 E1.88455
G1 X134.124 Y124.319 F10800.000
G1 F1200.000
G1 X115.876 Y124.319 E0.92110
G1 X115.876 Y85.681 E1.95038
G1 X134.124 Y85.681 E0.92110
G1 X134.124 Y124.229 E1.94583
G1 X133.566 Y124.098 F10800.000
G1 F8640.000
G1 X128.364 Y124.257 E-1.33000
G1 E-0.07000 F2100.00000
G1 Z0.400 F10800.000
G1 X123.167 Y123.530
G1 Z0.200
G1 E1.40000 F2100.00000
G1 F1200.000
G1 X116.939 Y117.302 E0.45307
G1 X116.939 Y118.177 E0.04501
G1 X122.019 Y123.256 E0.36955
G1 X121.144 Y123.256 E0.04501
G1 X116.939 Y119.052 E0.30590
G1 X116.939 Y119.926 E0.04501
G1 X120.269 Y123.256 E0.24225
G1 X119.394 Y123.256 E0.04501
G1 X116.939 Y120.801 E0.17860
G1 X116.939 Y121.676 E0.04501
G1 X118.519 Y123.256 E0.11495
G1 X117.644 Y123.256 E0.04501
G1 X116.666 Y122.278 E0.07118
G1 F8640.000
G1 X117.644 Y123.256 E-0.31949
G1 X118.519 Y123.256 E-0.20202
G1 X116.939 Y121.676 E-0.51599
G1 X116.939 Y120.801 E-0.20202
G1 X117.216 Y121.078 E-0.09048
G1 E-0.07000 F2100.00000
G1 Z0.400 F10800.000
G1 X131.482 Y100.719
G1 Z0.200
G1 E1.40000 F2100.00000
G1 F1200.000
G1 X133.334 Y102.571 E0.13455
G1 X132.948 Y103.164 F10800.000
G1 F1200.000
G1 X133.008 Y103.645 E0.01652
G1 X133.027 Y104.092 E0.01527
G1 X133.065 Y105.013 E0.02265
G1 X133.046 Y105.460 E0.01243
G1 X133.027 Y105.908 E0.01385
G1 X133.005 Y106.390 E0.01670
G1 X132.977 Y106.613 E0.00828
G1 X132.948 Y106.836 E0.00879
G1 F8640.000
G1 X132.977 Y106.613 E-0.05191
G1 E-1.34809 F2100.00000
G1 Z0.400 F10800.000
G1 X133.334 Y108.325
G1 Z0.200
G1 E1.40000 F2100.00000
G1 F1200.000
G1 X132.627 Y107.618 E0.05143
G1 X132.364 Y108.230 E0.03426
G1 X133.061 Y108.927 E0.05069
G1 X133.061 Y109.802 E0.04501
G1 X132.092 Y108.832 E0.07051
G1 X132.045 Y108.936 E0.00583
G1 X131.753 Y109.368 E0.02685
G1 X133.061 Y110.676 E0.09517
G1 X133.061 Y111.551 E0.04501
G1 X131.400 Y109.890 E0.12084
G1 X131.279 Y110.070 E0.01114
G1 X130.998 Y110.363 E0.02089
G1 X133.061 Y112.426 E0.15011
G1 X133.061 Y113.301 E0.04501
G1 X130.570 Y110.810 E0.18125
G1 X130.332 Y111.058 E0.01769
G1 X130.108 Y111.223 E0.01429
G1 X133.061 Y114.176 E0.21482
G1 X133.061 Y115.051 E0.04501
G1 X129.605 Y111.595 E0.25141
G1 X129.231 Y111.872 E0.02394
G1 X129.082 Y111.947 E0.00858
G1 X133.061 Y115.926 E0.28946
G1 X133.061 Y116.801 E0.04501
G1 X128.501 Y112.240 E0.33178
G1 X128.009 Y112.488 E0.02832
G1 X127.905 Y112.520 E0.00558
G1 X133.061 Y117.676 E0.37508
G1 X133.061 Y118.551 E0.04501
G1 X127.236 Y112.725 E0.42381
G1 X126.700 Y112.889 E0.02880
G1 X126.545 Y112.909 E0.00807
G1 X133.061 Y119.426 E0.47408
G1 X133.061 Y120.300 E0.04501
G1 X125.769 Y113.008 E0.53050
G1 X125.343 Y113.063 E0.02212
G1 X124.931 Y113.045 E0.02118
G1 X133.061 Y121.175 E0.59145
G1 X133.061 Y122.050 E0.04501
G1 X124.017 Y113.007 E0.65792
G1 X122.912 Y112.776 E0.05812
G1 X133.061 Y122.925 E0.73838
G1 X133.061 Y123.256 E0.01704
G1 X132.517 Y123.256 E0.02797
G1 X128.129 Y118.867 E0.31929
G1 X128.179 Y119.060 E0.01023
G1 X128.225 Y119.605 E0.02814
G1 X128.207 Y119.821 E0.01113
G1 X131.643 Y123.256 E0.24995
G1 X130.768 Y123.256 E0.04501
G1 X128.072 Y120.561 E0.19612
G1 X128.041 Y120.679 E0.00632
G1 X127.815 Y121.179 E0.02819
G1 X129.893 Y123.256 E0.15115
G1 X129.018 Y123.256 E0.04501
G1 X127.452 Y121.691 E0.11391
G1 X127.163 Y121.993 E0.02151
G1 X127.002 Y122.116 E0.01041
G1 X128.143 Y123.256 E0.08299
G1 X127.268 Y123.256 E0.04501
G1 X126.473 Y122.461 E0.05785
G1 X126.202 Y122.597 E0.01557
G1 X125.844 Y122.707 E0.01929
G1 X126.393 Y123.256 E0.03995
G1 X125.518 Y123.256 E0.04501
G1 X125.087 Y122.825 E0.03138
G1 X124.590 Y122.804 E0.02556
G1 X124.081 Y122.694 E0.02680
G1 X124.643 Y123.256 E0.04090
G1 X123.768 Y123.256 E0.04501
G1 X116.939 Y116.427 E0.49685
G1 X116.939 Y115.552 E0.04501
G1 X121.920 Y120.533 E0.36235
G1 X121.879 Y120.418 E0.00628
G1 X121.787 Y119.878 E0.02814
G1 X121.787 Y119.525 E0.01820
G1 X116.939 Y114.677 E0.35267
G1 X116.939 Y113.802 E0.04501
G1 X121.892 Y118.755 E0.36035
G1 X122.061 Y118.277 E0.02612
G1 X122.143 Y118.131 E0.00858
G1 X116.939 Y112.927 E0.37857
G1 X116.939 Y112.052 E0.04501
G1 X122.490 Y117.603 E0.40382
G1 X122.663 Y117.381 E0.01448
G1 X122.918 Y117.157 E0.01749
G1 X116.939 Y111.177 E0.43498
G1 X116.939 Y110.302 E0.04501
G1 X123.433 Y116.796 E0.47242
G1 X123.548 Y116.725 E0.00697
G1 X124.039 Y116.528 E0.02723
G1 X116.939 Y109.428 E0.51655
G1 X116.939 Y108.553 E0.04501
G1 X124.784 Y116.398 E0.57073
G1 X125.091 Y116.385 E0.01579
G1 X125.728 Y116.467 E0.03308
G1 X121.534 Y112.273 E0.30511
G1 X121.367 Y112.206 E0.00929
G1 X120.201 Y111.488 E0.07041
G1 X119.174 Y110.584 E0.07041
G1 X118.314 Y109.519 E0.07041
G1 X117.724 Y108.463 E0.06225
G1 X116.666 Y107.405 E0.07697
G1 X117.053 Y106.905 F10800.000
G1 F1200.000
G1 X117.001 Y106.302 E0.02259
G1 X116.949 Y105.671 E0.01716
G1 X116.950 Y104.301 E0.03715
G1 X116.976 Y103.999 E0.00924
G1 X117.001 Y103.698 E0.01027
G1 X117.027 Y103.396 E0.01130
G1 X117.053 Y103.095 E0.01233
G1 F8640.000
G1 X117.027 Y103.396 E-0.06989
