; generated by PrusaSlicer 2.2.0+win64 on 2020-07-30 at 18:18:43 UTC

; 

; external perimeters extrusion width = 0.68mm
; perimeters extrusion width = 0.68mm
; infill extrusion width = 0.68mm
; solid infill extrusion width = 0.68mm
; top infill extrusion width = 0.60mm
; support material extrusion width = 0.55mm
; first layer extrusion width = 0.65mm

M73 P0 R29
M73 Q0 S29
M201 X1000 Y1000 Z200 E5000 ; sets maximum accelerations, mm/sec^2
M203 X200 Y200 Z12 E120 ; sets maximum feedrates, mm/sec
M204 P1250 R1250 T1250 ; sets acceleration (P, T) and retract acceleration (R), mm/sec^2
M205 X8.00 Y8.00 Z0.40 E4.50 ; sets the jerk limits, mm/sec
M205 S0 T0 ; sets the minimum extruding and travel feed rate, mm/sec
M107
M862.3 P "MK3S" ; printer model check
M862.1 P0.6 ; nozzle diameter check
M115 U3.9.0 ; tell printer latest fw version
G90 ; use absolute coordinates
M83 ; extruder relative mode
M104 S240 ; set extruder temp
M140 S85 ; set bed temp
M190 S85 ; wait for bed temp
M109 S240 ; wait for extruder temp
G28 W ; home all without mesh bed level
G80 ; mesh bed leveling
G1 Y-3.0 F1000.0 ; go outside print area
G92 E0.0
G1 X60.0 E9.0 F1000.0 ; intro line
M73 Q0 S29
M73 P0 R29
G1 X100.0 E12.5 F1000.0 ; intro line
G92 E0.0
M221 S95
G21 ; set units to millimeters
G90 ; use absolute coordinates
M83 ; use relative distances for extrusion
M900 K0.05 ; Filament gcode LA 1.5
M900 K24 ; Filament gcode LA 1.0
;BEFORE_LAYER_CHANGE
G92 E0.0
;0.2


G1 E-1.40000 F2100.00000
G1 Z0.200 F10800.000
;AFTER_LAYER_CHANGE
;0.2
G1 Z0.400
G1 X100.165 Y72.098
G1 Z0.200
G1 E1.40000 F2100.00000
M204 S1000
G1 F1200.000
G1 X145.171 Y72.065 E2.27186
G1 X146.151 Y72.258 E0.05043
G1 X146.990 Y72.808 E0.05063
G1 X156.791 Y82.798 E0.70644
G1 X157.199 Y83.381 E0.03593
G1 X157.435 Y84.052 E0.03593
G1 X157.487 Y84.563 E0.02593
G1 X157.485 Y103.199 E0.94069
G1 X156.068 Y122.833 E0.99368
G1 X155.958 Y123.391 E0.02874
G1 X155.728 Y123.916 E0.02894
G1 X155.174 Y124.586 E0.04389
G1 X154.434 Y125.035 E0.04369
G1 X121.590 Y137.497 E1.77325
G1 X118.460 Y137.868 E0.15907
G1 X108.659 Y137.866 E0.49479
G1 X108.026 Y137.767 E0.03234
G1 X107.440 Y137.519 E0.03214
G1 X106.875 Y137.079 E0.03613
G1 X89.855 Y119.460 E1.23658
G1 X89.484 Y118.962 E0.03134
G1 X89.241 Y118.391 E0.03134
G1 X89.137 Y117.675 E0.03653
G1 X89.140 Y96.557 E1.06600
G1 X90.563 Y81.810 E0.74789
G1 X90.677 Y81.285 E0.02714
G1 X90.897 Y80.794 E0.02714
G1 X91.296 Y80.268 E0.03334
G1 X98.796 Y72.770 E0.53532
G1 X99.430 Y72.332 E0.03892
G1 X100.079 Y72.125 E0.03438
G1 F8640.000
G1 X105.839 Y72.118 E-1.33000
G1 E-0.07000 F2100.00000
G1 Z0.400 F10800.000
G1 X91.744 Y96.673
G1 Z0.200
G1 E1.40000 F2100.00000
G1 F1200.000
G1 X91.744 Y117.663 E1.05956
G1 X92.958 Y117.663 E0.06129
G1 X92.958 Y96.946 E1.04577
G1 X93.155 Y96.946 E0.00991
G1 X93.155 Y82.097 E0.74958
G1 X94.172 Y82.097 E0.05138
G1 X94.172 Y120.138 E1.92028
G1 X95.387 Y120.138 E0.06129
G1 X95.387 Y82.097 E1.92028
G1 X95.630 Y82.097 E0.01226
G1 X95.630 Y79.622 E0.12493
G1 X96.601 Y79.622 E0.04903
G1 X96.601 Y122.613 E2.17014
G1 X97.815 Y122.613 E0.06129
G1 X97.815 Y79.622 E2.17014
G1 X98.104 Y79.622 E0.01461
G1 X98.104 Y77.147 E0.12493
G1 X99.029 Y77.147 E0.04668
G1 X99.029 Y122.613 E2.29507
G1 X100.243 Y122.613 E0.06129
G1 X100.243 Y77.147 E2.29507
G1 X100.579 Y77.147 E0.01696
G1 X100.579 Y74.672 E0.12493
G1 X101.457 Y74.672 E0.04433
G1 X101.457 Y125.088 E2.54493
G1 X102.672 Y125.088 E0.06129
G1 X102.672 Y74.672 E2.54493
G1 X103.886 Y74.672 E0.06129
G1 X103.886 Y127.563 E2.66986
G1 X105.100 Y127.563 E0.06129
G1 X105.100 Y74.672 E2.66986
G1 X106.314 Y74.672 E0.06129
G1 X106.314 Y132.512 E2.91971
G1 X107.528 Y132.512 E0.06129
G1 X107.528 Y101.047 E1.58833
G1 X107.336 Y100.845 E0.01408
G1 X107.060 Y100.448 E0.02441
G1 X106.820 Y99.945 E0.02814
G1 X106.671 Y99.408 E0.02814
G1 X106.617 Y98.853 E0.02814
G1 X106.661 Y98.297 E0.02814
G1 X106.826 Y97.688 E0.03186
G1 X107.069 Y97.186 E0.02814
G1 X107.348 Y96.791 E0.02441
G1 X107.528 Y96.602 E0.01318
G1 X107.528 Y74.672 E1.10702
G1 X108.742 Y74.672 E0.06129
G1 X108.742 Y95.813 E1.06716
G1 X109.305 Y95.668 E0.02934
G1 X109.787 Y95.627 E0.02441
G1 X109.957 Y95.636 E0.00856
G1 X109.957 Y74.672 E1.05824
G1 X111.171 Y74.672 E0.06129
G1 X111.171 Y95.939 E1.07352
G1 X111.454 Y96.079 E0.01594
G1 X111.849 Y96.358 E0.02441
G1 X112.247 Y96.748 E0.02814
G1 X112.385 Y96.935 E0.01175
G1 X112.385 Y74.672 E1.12383
G1 X113.599 Y74.672 E0.06129
G1 X113.599 Y134.987 E3.04464
G1 X114.813 Y134.987 E0.06129
G1 X114.813 Y74.672 E3.04464
G1 X116.027 Y74.672 E0.06129
G1 X116.027 Y134.987 E3.04464
M73 Q3 S28
M73 P3 R28
G1 X117.241 Y134.987 E0.06129
G1 X117.241 Y74.672 E3.04464
G1 X118.456 Y74.672 E0.06129
G1 X118.456 Y135.261 E3.05843
G1 X112.385 Y135.261 F10800.000
G1 F1200.000
G1 X112.385 Y100.714 E1.74387
G1 X112.235 Y100.916 E0.01268
G1 X111.835 Y101.304 E0.02814
G1 X111.438 Y101.580 E0.02441
G1 X111.171 Y101.711 E0.01503
G1 X111.171 Y134.987 E1.67974
G1 X109.957 Y134.987 E0.06129
G1 X109.957 Y102.013 E1.66450
G1 X109.769 Y102.022 E0.00947
G1 X109.287 Y101.979 E0.02441
G1 X108.742 Y101.837 E0.02843
G1 X108.742 Y135.261 E1.68716
G1 X120.884 Y121.422 F10800.000
G1 F1200.000
G1 X120.884 Y134.987 E0.68477
G1 X119.670 Y134.987 E0.06129
G1 X119.670 Y121.695 E0.67098
G1 X118.821 Y121.695 E0.04283
G1 X118.821 Y115.188 E0.32846
G1 X119.670 Y115.188 E0.04283
G1 X119.670 Y74.672 E2.04521
G1 X120.884 Y74.672 E0.06129
G1 X120.884 Y115.188 E2.04521
G1 X121.296 Y115.188 E0.02082
G1 X121.296 Y102.814 E0.62465
G1 X122.098 Y102.814 E0.04047
G1 X122.098 Y74.672 E1.42056
G1 X123.312 Y74.672 E0.06129
G1 X123.312 Y102.814 E1.42056
G1 X124.526 Y102.814 E0.06129
G1 X124.526 Y74.672 E1.42056
G1 X125.741 Y74.672 E0.06129
G1 X125.741 Y105.289 E1.54549
G1 X126.955 Y105.289 E0.06129
G1 X126.955 Y74.672 E1.54549
G1 X128.169 Y74.672 E0.06129
G1 X128.169 Y115.188 E2.04521
G1 X129.383 Y115.188 E0.06129
G1 X129.383 Y74.672 E2.04521
G1 X130.597 Y74.672 E0.06129
G1 X130.597 Y115.188 E2.04521
G1 X131.811 Y115.188 E0.06129
G1 X131.811 Y74.672 E2.04521
G1 X133.026 Y74.672 E0.06129
G1 X133.026 Y115.461 E2.05900
G1 X139.096 Y115.461 F10800.000
G1 F1200.000
G1 X139.096 Y101.129 E0.72347
G1 X138.835 Y101.380 E0.01828
G1 X138.438 Y101.656 E0.02441
G1 X137.882 Y101.915 E0.03096
G1 X137.882 Y115.188 E0.67000
G1 X136.668 Y115.188 E0.06129
G1 X136.668 Y102.089 E0.66121
G1 X136.214 Y102.042 E0.02302
G1 X135.748 Y101.916 E0.02441
G1 X135.454 Y101.785 E0.01624
G1 X135.454 Y115.188 E0.67660
G1 X134.240 Y115.188 E0.06129
G1 X134.240 Y100.783 E0.72717
G1 X134.023 Y100.460 E0.01962
G1 X133.795 Y99.951 E0.02814
G1 X133.671 Y99.484 E0.02441
G1 X133.617 Y98.929 E0.02814
G1 X133.661 Y98.373 E0.02814
G1 X133.801 Y97.834 E0.02814
G1 X134.032 Y97.327 E0.02814
G1 X134.240 Y97.020 E0.01869
G1 X134.240 Y74.672 E1.12811
G1 X135.454 Y74.672 E0.06129
G1 X135.454 Y96.018 E1.07750
G1 X135.765 Y95.881 E0.01714
G1 X136.232 Y95.757 E0.02441
G1 X136.668 Y95.714 E0.02211
G1 X136.668 Y74.672 E1.06215
G1 X137.882 Y74.672 E0.06129
G1 X137.882 Y95.887 E1.07089
G1 X138.454 Y96.155 E0.03187
G1 X138.849 Y96.434 E0.02441
G1 X139.096 Y96.673 E0.01738
G1 X139.096 Y74.672 E1.11059
G1 X140.310 Y74.672 E0.06129
G1 X140.310 Y117.663 E2.17014
G1 X141.525 Y117.663 E0.06129
G1 X141.525 Y74.672 E2.17014
G1 X142.739 Y74.672 E0.06129
G1 X142.739 Y122.613 E2.42000
G1 X143.953 Y122.613 E0.06129
G1 X143.953 Y74.672 E2.42000
G1 X145.167 Y74.672 E0.06129
G1 X145.167 Y122.613 E2.42000
M73 Q7 S27
M73 P7 R27
G1 X146.381 Y122.613 E0.06129
G1 X146.381 Y77.147 E2.29507
G1 X147.595 Y77.147 E0.06129
G1 X147.595 Y122.613 E2.29507
G1 X148.810 Y122.613 E0.06129
G1 X148.810 Y79.622 E2.17014
G1 X150.024 Y79.622 E0.06129
G1 X150.024 Y122.613 E2.17014
G1 X151.238 Y122.613 E0.06129
G1 X151.238 Y82.097 E2.04521
G1 X152.452 Y82.097 E0.06129
G1 X152.452 Y122.613 E2.04521
G1 X153.470 Y122.613 E0.05138
G1 X153.470 Y102.814 E0.99944
G1 X153.666 Y102.814 E0.00991
G1 X153.666 Y84.572 E0.92084
G1 X154.880 Y84.572 E0.06129
G1 X154.880 Y103.087 E0.93463
G1 F8640.000
G1 X154.880 Y97.327 E-1.33000
G1 E-0.07000 F2100.00000
G1 Z0.400 F10800.000
G1 X136.668 Y99.945
G1 Z0.200
G1 E1.40000 F2100.00000
G1 F1200.000
G1 X136.668 Y97.857 E0.10541
G1 F8640.000
G1 X136.668 Y99.945 E-0.48218
G1 E-0.91782 F2100.00000
G1 Z0.400 F10800.000
G1 X109.957 Y97.781
G1 Z0.200
G1 E1.40000 F2100.00000
G1 F1200.000
G1 X109.957 Y99.870 E0.10546
G1 F8640.000
G1 X109.957 Y97.781 E-0.48240
G1 E-0.91760 F2100.00000
G1 Z0.400 F10800.000
G1 X134.855 Y98.896
G1 Z0.200
G1 E1.40000 F2100.00000
G1 F1200.000
G1 X134.886 Y98.555 E0.01724
G1 X134.975 Y98.226 E0.01724
G1 X135.121 Y97.917 E0.01724
G1 X135.317 Y97.637 E0.01724
G1 X135.560 Y97.396 E0.01724
G1 X135.840 Y97.201 E0.01724
G1 X136.150 Y97.058 E0.01724
G1 X136.480 Y96.970 E0.01724
G1 X136.811 Y96.942 E0.01675
G1 X137.160 Y96.972 E0.01769
G1 X137.490 Y97.061 E0.01729
G1 X137.800 Y97.207 E0.01724
G1 X138.079 Y97.403 E0.01724
G1 X138.320 Y97.646 E0.01724
G1 X138.515 Y97.926 E0.01724
G1 X138.658 Y98.236 E0.01724
G1 X138.743 Y98.557 E0.01675
G1 X138.775 Y98.906 E0.01769
G1 X138.744 Y99.247 E0.01729
G1 X138.655 Y99.577 E0.01724
G1 X138.509 Y99.886 E0.01724
G1 X138.313 Y100.165 E0.01724
G1 X138.077 Y100.399 E0.01675
G1 X137.791 Y100.601 E0.01769
G1 X137.480 Y100.745 E0.01729
G1 X137.150 Y100.832 E0.01724
G1 X136.809 Y100.861 E0.01724
G1 X136.469 Y100.830 E0.01724
G1 X136.140 Y100.741 E0.01724
G1 X135.839 Y100.600 E0.01675
G1 X135.552 Y100.399 E0.01769
G1 X135.310 Y100.157 E0.01729
G1 X135.115 Y99.876 E0.01724
G1 X134.972 Y99.566 E0.01724
G1 X134.884 Y99.236 E0.01724
G1 X134.863 Y98.985 E0.01270
G1 X134.560 Y98.724 F10800.000
G1 X134.799 Y98.991
G1 F1200.000
G1 X134.791 Y98.895 E0.00482
G1 X134.823 Y98.544 E0.01781
G1 X134.915 Y98.204 E0.01781
G1 X135.065 Y97.884 E0.01781
G1 X135.268 Y97.596 E0.01781
G1 X135.519 Y97.347 E0.01781
G1 X135.808 Y97.146 E0.01781
G1 X136.128 Y96.998 E0.01781
G1 X136.469 Y96.907 E0.01781
G1 X136.821 Y96.877 E0.01781
G1 X137.149 Y96.907 E0.01665
G1 X137.514 Y97.002 E0.01903
G1 X137.832 Y97.151 E0.01773
G1 X138.120 Y97.355 E0.01781
G1 X138.369 Y97.605 E0.01781
G1 X138.570 Y97.894 E0.01781
G1 X138.719 Y98.214 E0.01781
G1 X138.803 Y98.533 E0.01665
G1 X138.839 Y98.908 E0.01903
G1 X138.807 Y99.258 E0.01773
G1 X138.715 Y99.599 E0.01781
G1 X138.565 Y99.918 E0.01781
G1 X138.362 Y100.206 E0.01781
G1 X138.111 Y100.455 E0.01781
G1 X137.822 Y100.657 E0.01781
G1 X137.502 Y100.805 E0.01781
G1 X137.161 Y100.895 E0.01781
G1 X136.809 Y100.925 E0.01781
G1 X136.458 Y100.893 E0.01781
G1 X136.117 Y100.801 E0.01781
G1 X135.798 Y100.651 E0.01781
G1 X135.510 Y100.448 E0.01781
G1 X135.261 Y100.198 E0.01781
G1 X135.060 Y99.908 E0.01781
G1 X134.911 Y99.588 E0.01781
G1 X134.821 Y99.247 E0.01781
G1 X134.807 Y99.080 E0.00844
G1 X134.876 Y98.933 F10800.000
G1 F8640.000
G1 X134.791 Y98.895 E-0.04285
G1 X134.823 Y98.544 E-0.08145
G1 X134.915 Y98.204 E-0.08145
G1 X135.065 Y97.884 E-0.08145
G1 X135.268 Y97.596 E-0.08146
G1 X135.519 Y97.347 E-0.08145
G1 X135.808 Y97.146 E-0.08145
G1 X136.128 Y96.998 E-0.08145
G1 X136.469 Y96.907 E-0.08145
G1 X136.821 Y96.877 E-0.08145
G1 X137.149 Y96.907 E-0.07614
G1 X137.514 Y97.002 E-0.08706
G1 X137.832 Y97.151 E-0.08108
G1 X138.120 Y97.355 E-0.08145
G1 X138.369 Y97.605 E-0.08145
G1 X138.570 Y97.894 E-0.08145
G1 X138.690 Y98.151 E-0.06542
G1 E-0.07000 F2100.00000
G1 Z0.400 F10800.000
G1 X111.775 Y98.831
G1 Z0.200
G1 E1.40000 F2100.00000
G1 F1200.000
G1 X111.744 Y99.171 E0.01724
G1 X111.655 Y99.500 E0.01724
G1 X111.510 Y99.810 E0.01724
G1 X111.313 Y100.089 E0.01724
G1 X111.078 Y100.323 E0.01675
G1 X110.791 Y100.525 E0.01769
G1 X110.480 Y100.668 E0.01729
G1 X110.150 Y100.756 E0.01724
G1 X109.810 Y100.785 E0.01724
G1 X109.469 Y100.754 E0.01724
G1 X109.140 Y100.665 E0.01724
G1 X108.830 Y100.519 E0.01724
G1 X108.551 Y100.323 E0.01724
G1 X108.317 Y100.087 E0.01675
G1 X108.116 Y99.801 E0.01769
G1 X107.972 Y99.490 E0.01729
G1 X107.884 Y99.160 E0.01724
G1 X107.855 Y98.820 E0.01724
G1 X107.886 Y98.479 E0.01724
G1 X107.975 Y98.150 E0.01724
G1 X108.121 Y97.840 E0.01724
G1 X108.317 Y97.561 E0.01724
G1 X108.560 Y97.320 E0.01724
G1 X108.840 Y97.125 E0.01724
G1 X109.150 Y96.982 E0.01724
G1 X109.480 Y96.894 E0.01724
G1 X109.811 Y96.866 E0.01675
G1 X110.160 Y96.896 E0.01769
G1 X110.491 Y96.985 E0.01729
G1 X110.800 Y97.131 E0.01724
G1 X111.079 Y97.327 E0.01724
G1 X111.320 Y97.570 E0.01724
G1 X111.515 Y97.850 E0.01724
G1 X111.654 Y98.151 E0.01675
G1 X111.746 Y98.489 E0.01769
G1 X111.767 Y98.741 E0.01274
G1 X112.070 Y99.002 F10800.000
G1 X111.831 Y98.736
G1 F1200.000
G1 X111.839 Y98.831 E0.00482
G1 X111.807 Y99.182 E0.01781
G1 X111.715 Y99.523 E0.01781
G1 X111.565 Y99.842 E0.01781
G1 X111.362 Y100.130 E0.01781
G1 X111.112 Y100.379 E0.01781
G1 X110.841 Y100.567 E0.01665
G1 X110.500 Y100.729 E0.01903
G1 X110.161 Y100.819 E0.01773
G1 X109.809 Y100.849 E0.01781
G1 X109.458 Y100.817 E0.01781
G1 X109.118 Y100.725 E0.01781
G1 X108.798 Y100.575 E0.01781
G1 X108.510 Y100.372 E0.01781
G1 X108.261 Y100.121 E0.01781
G1 X108.060 Y99.832 E0.01781
G1 X107.911 Y99.512 E0.01781
G1 X107.821 Y99.171 E0.01781
G1 X107.791 Y98.819 E0.01781
G1 X107.823 Y98.468 E0.01781
G1 X107.915 Y98.128 E0.01781
G1 X108.065 Y97.808 E0.01781
G1 X108.269 Y97.520 E0.01781
G1 X108.519 Y97.271 E0.01781
G1 X108.808 Y97.070 E0.01781
G1 X109.128 Y96.921 E0.01781
G1 X109.469 Y96.831 E0.01781
G1 X109.821 Y96.801 E0.01781
G1 X110.149 Y96.831 E0.01665
G1 X110.514 Y96.926 E0.01903
G1 X110.832 Y97.075 E0.01773
G1 X111.120 Y97.278 E0.01781
G1 X111.369 Y97.529 E0.01781
G1 X111.571 Y97.818 E0.01781
G1 X111.719 Y98.138 E0.01781
G1 X111.809 Y98.479 E0.01781
G1 X111.823 Y98.646 E0.00844
G1 X111.754 Y98.793 F10800.000
;BEFORE_LAYER_CHANGE
G92 E0.0
;0.538397


G1 F8640.000
G1 X111.839 Y98.831 E-0.04285
G1 X111.807 Y99.182 E-0.08145
G1 X111.715 Y99.523 E-0.08145
G1 X111.565 Y99.842 E-0.08145
G1 X111.362 Y100.130 E-0.08145
G1 X111.112 Y100.379 E-0.08145
G1 X110.841 Y100.567 E-0.07614
G1 X110.500 Y100.729 E-0.08706
G1 X110.161 Y100.819 E-0.08108
G1 X109.809 Y100.849 E-0.08145
G1 X109.458 Y100.817 E-0.08145
G1 X109.118 Y100.725 E-0.08145
G1 X108.798 Y100.575 E-0.08145
G1 X108.510 Y100.372 E-0.08145
G1 X108.261 Y100.121 E-0.08145
G1 X108.060 Y99.832 E-0.08145
G1 X107.941 Y99.575 E-0.06542
G1 E-0.07000 F2100.00000
G1 Z0.400 F10800.000
G1 Z0.538
;AFTER_LAYER_CHANGE
;0.538397
M104 S250 ; set temperature
M140 S90 ; set bed temperature
G1 Z0.738
G1 X109.140 Y98.045
G1 Z0.538
G1 E1.40000 F2100.00000
G1 F3000.000
G1 X109.140 Y99.283 E0.08318
G1 X109.287 Y99.451 E0.01500
G1 X109.404 Y99.533 E0.00959
G1 X109.671 Y99.631 E0.01911
G1 X109.814 Y99.644 E0.00970
G1 X109.814 Y98.006 E0.11001
G1 X109.960 Y98.019 E0.00979
G1 X110.097 Y98.056 E0.00959
G1 X110.227 Y98.117 E0.00959
G1 X110.444 Y98.300 E0.01911
G1 X110.489 Y98.365 E0.00532
G1 X110.489 Y99.607 E0.08339
G1 F8640.000
G1 X110.489 Y98.365 E-0.28670
G1 X110.444 Y98.300 E-0.01828
G1 X110.227 Y98.117 E-0.06569
G1 X110.097 Y98.056 E-0.03297
G1 X109.960 Y98.019 E-0.03297
G1 X109.814 Y98.006 E-0.03365
G1 X109.814 Y99.644 E-0.37822
G1 X109.671 Y99.631 E-0.03335
G1 X109.404 Y99.533 E-0.06569
G1 X109.287 Y99.451 E-0.03297
G1 X109.140 Y99.283 E-0.05158
G1 X109.140 Y98.045 E-0.28598
G1 E-0.08194 F2100.00000
G1 Z0.738 F10800.000
G1 X117.913 Y112.468
G1 Z0.538
G1 E1.40000 F2100.00000
G1 F3000.000
G1 X117.913 Y107.305 E0.34679
G1 X117.238 Y107.305 E0.04533
G1 X117.238 Y112.254 E0.33244
G1 X116.563 Y112.254 E0.04533
G1 X116.563 Y107.305 E0.33244
G1 X115.888 Y107.305 E0.04533
G1 X115.888 Y132.054 E1.66219
G1 X115.214 Y132.054 E0.04533
G1 X115.214 Y107.305 E1.66219
G1 X114.539 Y107.305 E0.04533
G1 X114.539 Y132.054 E1.66219
G1 X113.864 Y132.054 E0.04533
G1 X113.864 Y107.305 E1.66219
G1 X113.413 Y107.305 E0.03030
G1 X113.413 Y102.355 E0.33243
G1 X113.864 Y102.355 E0.03030
G1 X113.864 Y77.606 E1.66219
G1 X114.539 Y77.606 E0.04533
G1 X114.539 Y102.355 E1.66219
G1 X115.214 Y102.355 E0.04533
G1 X115.214 Y77.606 E1.66219
G1 X115.888 Y77.606 E0.04533
G1 X115.888 Y102.355 E1.66219
G1 X116.563 Y102.355 E0.04533
G1 X116.563 Y77.606 E1.66219
G1 X117.238 Y77.606 E0.04533
