; generated by PrusaSlicer 2.2.0+win64 on 2020-06-27 at 12:08:46 UTC

; 

; external perimeters extrusion width = 0.68mm
; perimeters extrusion width = 0.68mm
; infill extrusion width = 0.68mm
; solid infill extrusion width = 0.68mm
; top infill extrusion width = 0.60mm
; support material extrusion width = 0.55mm
; first layer extrusion width = 0.65mm

M73 P0 R38
M73 Q0 S39
M201 X1000 Y1000 Z200 E5000 ; sets maximum accelerations, mm/sec^2
M203 X200 Y200 Z12 E120 ; sets maximum feedrates, mm/sec
M204 P1250 R1250 T1250 ; sets acceleration (P, T) and retract acceleration (R), mm/sec^2
M205 X8.00 Y8.00 Z0.40 E4.50 ; sets the jerk limits, mm/sec
M205 S0 T0 ; sets the minimum extruding and travel feed rate, mm/sec
M107
M862.3 P "MK3S" ; printer model check
M862.1 P0.6 ; nozzle diameter check
M115 U3.9.0 ; tell printer latest fw version
G90 ; use absolute coordinates
M83 ; extruder relative mode
M104 S240 ; set extruder temp
M140 S85 ; set bed temp
M190 S85 ; wait for bed temp
M109 S240 ; wait for extruder temp
G28 W ; home all without mesh bed level
G80 ; mesh bed leveling
G1 Y-3.0 F1000.0 ; go outside print area
G92 E0.0
G1 X60.0 E9.0 F1000.0 ; intro line
M73 Q0 S39
M73 P0 R38
G1 X100.0 E12.5 F1000.0 ; intro line
G92 E0.0
M221 S95
G21 ; set units to millimeters
G90 ; use absolute coordinates
M83 ; use relative distances for extrusion
M900 K0.05 ; Filament gcode LA 1.5
M900 K24 ; Filament gcode LA 1.0
;BEFORE_LAYER_CHANGE
G92 E0.0
;0.2


G1 E-1.40000 F2100.00000
G1 Z0.200 F10800.000
;AFTER_LAYER_CHANGE
;0.2
G1 Z0.400
G1 X106.571 Y87.136
G1 Z0.200
G1 E1.40000 F2100.00000
M204 S1000
G1 F1200.000
G1 X107.563 Y85.959 E0.07768
G1 X108.786 Y84.944 E0.08023
G1 X109.825 Y84.318 E0.06122
G1 X110.958 Y83.839 E0.06212
G1 X112.561 Y83.441 E0.08336
G1 X113.874 Y83.344 E0.06647
G1 X136.116 Y83.344 E1.12274
G1 X137.519 Y83.453 E0.07102
G1 X138.909 Y83.791 E0.07222
G1 X140.211 Y84.337 E0.07129
G1 X141.530 Y85.174 E0.07883
G1 X142.443 Y85.965 E0.06095
G1 X143.232 Y86.873 E0.06077
G1 X144.002 Y88.070 E0.07184
G1 X144.619 Y89.494 E0.07833
G1 X144.948 Y90.833 E0.06961
G1 X145.069 Y92.286 E0.07358
G1 X145.066 Y117.825 E1.28917
G1 X144.957 Y119.115 E0.06538
G1 X144.631 Y120.469 E0.07029
G1 X144.100 Y121.753 E0.07016
G1 X143.429 Y122.864 E0.06551
G1 X142.317 Y124.152 E0.08587
G1 X141.363 Y124.956 E0.06296
G1 X140.217 Y125.659 E0.06792
G1 X138.710 Y126.267 E0.08202
G1 X137.511 Y126.548 E0.06214
G1 X136.275 Y126.651 E0.06262
G1 X113.731 Y126.651 E1.13802
G1 X112.469 Y126.545 E0.06390
G1 X111.113 Y126.217 E0.07043
G1 X109.833 Y125.686 E0.06995
G1 X108.723 Y125.016 E0.06547
G1 X107.435 Y123.904 E0.08587
G1 X106.633 Y122.954 E0.06278
G1 X105.925 Y121.801 E0.06827
G1 X105.320 Y120.299 E0.08178
G1 X105.038 Y119.097 E0.06230
G1 X104.935 Y117.848 E0.06325
G1 X104.935 Y92.159 E1.29675
G1 X105.042 Y90.882 E0.06471
G1 X105.369 Y89.530 E0.07023
G1 X105.901 Y88.246 E0.07014
G1 X106.524 Y87.213 E0.06093
G1 F8640.000
G1 X107.563 Y85.959 E-0.37584
G1 X108.786 Y84.944 E-0.36700
G1 X109.825 Y84.318 E-0.28006
G1 X110.958 Y83.839 E-0.28416
G1 X111.055 Y83.815 E-0.02294
G1 E-0.07000 F2100.00000
G1 Z0.400 F10800.000
G1 X135.930 Y117.275
G1 Z0.200
G1 E1.40000 F2100.00000
G1 F1200.000
G1 X136.294 Y117.006 E0.02283
G1 X136.699 Y116.802 E0.02291
G1 X137.135 Y116.668 E0.02300
G1 X137.586 Y116.611 E0.02298
G1 X138.039 Y116.630 E0.02285
G1 X138.484 Y116.725 E0.02297
G1 X138.905 Y116.895 E0.02294
G1 X139.293 Y117.133 E0.02297
G1 X139.635 Y117.432 E0.02294
G1 X139.918 Y117.786 E0.02289
G1 X140.142 Y118.184 E0.02306
G1 X140.292 Y118.613 E0.02293
G1 X140.369 Y119.060 E0.02289
G1 X140.369 Y119.514 E0.02290
G1 X140.292 Y119.963 E0.02302
G1 X140.142 Y120.390 E0.02285
G1 X139.918 Y120.788 E0.02304
G1 X139.635 Y121.142 E0.02289
G1 X139.293 Y121.441 E0.02294
G1 X138.905 Y121.679 E0.02297
G1 X138.485 Y121.849 E0.02287
G1 X138.040 Y121.946 E0.02300
G1 X137.585 Y121.966 E0.02299
G1 X137.135 Y121.906 E0.02292
G1 X136.701 Y121.774 E0.02290
G1 X136.293 Y121.569 E0.02304
G1 X135.929 Y121.298 E0.02289
G1 X135.614 Y120.970 E0.02295
G1 X135.360 Y120.594 E0.02294
G1 X135.173 Y120.180 E0.02290
G1 X135.059 Y119.741 E0.02294
G1 X135.019 Y119.287 E0.02299
G1 X135.059 Y118.833 E0.02301
G1 X135.173 Y118.396 E0.02281
G1 X135.360 Y117.981 E0.02297
G1 X135.614 Y117.604 E0.02297
G1 X135.868 Y117.340 E0.01846
G1 X135.841 Y116.832 F10800.000
G1 F8640.000
G1 X136.294 Y117.006 E-0.12498
G1 X136.699 Y116.802 E-0.10478
G1 X137.135 Y116.668 E-0.10521
G1 X137.586 Y116.611 E-0.10513
G1 X138.039 Y116.630 E-0.10451
G1 X138.484 Y116.725 E-0.10508
G1 X138.905 Y116.895 E-0.10493
G1 X139.293 Y117.133 E-0.10505
G1 X139.635 Y117.432 E-0.10493
G1 X139.918 Y117.786 E-0.10472
G1 X140.142 Y118.184 E-0.10547
G1 X140.292 Y118.613 E-0.10491
G1 X140.329 Y118.828 E-0.05032
G1 E-0.07000 F2100.00000
G1 Z0.400 F10800.000
G1 X114.969 Y119.060
G1 Z0.200
G1 E1.40000 F2100.00000
G1 F1200.000
G1 X114.969 Y119.514 E0.02290
G1 X114.892 Y119.963 E0.02302
G1 X114.743 Y120.389 E0.02279
G1 X114.521 Y120.788 E0.02305
G1 X114.234 Y121.142 E0.02301
G1 X113.893 Y121.441 E0.02288
G1 X113.505 Y121.679 E0.02297
G1 X113.085 Y121.849 E0.02287
G1 X112.640 Y121.946 E0.02300
G1 X112.185 Y121.966 E0.02299
G1 X111.735 Y121.906 E0.02292
G1 X111.300 Y121.774 E0.02293
G1 X110.895 Y121.569 E0.02291
G1 X110.530 Y121.299 E0.02293
G1 X110.214 Y120.970 E0.02300
G1 X109.960 Y120.594 E0.02293
G1 X109.773 Y120.180 E0.02290
G1 X109.659 Y119.741 E0.02294
G1 X109.619 Y119.287 E0.02299
G1 X109.659 Y118.833 E0.02301
G1 X109.773 Y118.396 E0.02281
G1 X109.960 Y117.981 E0.02297
G1 X110.214 Y117.604 E0.02297
G1 X110.531 Y117.275 E0.02305
G1 X110.896 Y117.006 E0.02288
G1 X111.299 Y116.802 E0.02277
G1 X111.735 Y116.668 E0.02303
G1 X112.186 Y116.611 E0.02298
G1 X112.639 Y116.630 E0.02285
G1 X113.084 Y116.725 E0.02297
G1 X113.505 Y116.895 E0.02294
G1 X113.893 Y117.133 E0.02297
G1 X114.234 Y117.432 E0.02288
G1 X114.521 Y117.786 E0.02302
G1 X114.743 Y118.185 E0.02307
G1 X114.892 Y118.613 E0.02287
G1 X114.954 Y118.971 E0.01835
G1 X115.380 Y119.253 F10800.000
G1 F8640.000
G1 X114.969 Y119.514 E-0.12527
G1 X114.892 Y119.963 E-0.10528
G1 X114.743 Y120.389 E-0.10423
G1 X114.521 Y120.788 E-0.10542
G1 X114.234 Y121.142 E-0.10527
G1 X113.893 Y121.441 E-0.10467
G1 X113.505 Y121.679 E-0.10505
G1 X113.085 Y121.849 E-0.10459
G1 X112.640 Y121.946 E-0.10520
G1 X112.185 Y121.966 E-0.10517
G1 X111.735 Y121.906 E-0.10486
G1 X111.300 Y121.774 E-0.10489
G1 X111.106 Y121.676 E-0.05010
G1 E-0.07000 F2100.00000
G1 Z0.400 F10800.000
G1 X112.638 Y93.370
G1 Z0.200
G1 E1.40000 F2100.00000
G1 F1200.000
G1 X112.186 Y93.389 E0.02285
G1 X111.735 Y93.332 E0.02298
G1 X111.299 Y93.198 E0.02303
G1 X110.896 Y92.994 E0.02277
G1 X110.531 Y92.725 E0.02288
G1 X110.214 Y92.396 E0.02305
G1 X109.960 Y92.019 E0.02297
G1 X109.773 Y91.604 E0.02297
G1 X109.659 Y91.167 E0.02281
G1 X109.619 Y90.713 E0.02301
G1 X109.659 Y90.259 E0.02299
G1 X109.773 Y89.820 E0.02294
G1 X109.960 Y89.406 E0.02290
G1 X110.214 Y89.030 E0.02293
G1 X110.530 Y88.701 E0.02300
G1 X110.895 Y88.431 E0.02293
G1 X111.300 Y88.226 E0.02290
G1 X111.735 Y88.094 E0.02293
G1 X112.185 Y88.034 E0.02292
G1 X112.640 Y88.054 E0.02300
G1 X113.085 Y88.151 E0.02299
G1 X113.505 Y88.321 E0.02287
G1 X113.893 Y88.559 E0.02296
G1 X114.234 Y88.858 E0.02289
G1 X114.521 Y89.212 E0.02301
G1 X114.743 Y89.611 E0.02305
G1 X114.892 Y90.037 E0.02277
G1 X114.969 Y90.484 E0.02292
G1 X114.969 Y90.940 E0.02301
G1 X114.892 Y91.387 E0.02289
G1 X114.743 Y91.815 E0.02287
G1 X114.521 Y92.214 E0.02307
G1 X114.234 Y92.568 E0.02302
G1 X113.893 Y92.867 E0.02288
G1 X113.505 Y93.105 E0.02297
G1 X113.084 Y93.275 E0.02294
G1 X112.727 Y93.351 E0.01843
G1 X112.464 Y93.787 F10800.000
G1 F8640.000
G1 X112.186 Y93.389 E-0.12506
G1 X111.735 Y93.332 E-0.10513
G1 X111.299 Y93.198 E-0.10536
G1 X110.896 Y92.994 E-0.10417
G1 X110.531 Y92.725 E-0.10464
G1 X110.214 Y92.396 E-0.10545
G1 X109.960 Y92.019 E-0.10506
G1 X109.773 Y91.604 E-0.10509
G1 X109.659 Y91.167 E-0.10433
G1 X109.619 Y90.713 E-0.10523
G1 X109.659 Y90.259 E-0.10515
G1 X109.773 Y89.820 E-0.10493
G1 X109.863 Y89.621 E-0.05041
G1 E-0.07000 F2100.00000
G1 Z0.400 F10800.000
G1 X130.411 Y103.141
G1 Z0.200
G1 E1.40000 F2100.00000
G1 F1200.000
G1 X130.785 Y102.472 E0.03869
G1 X131.265 Y101.878 E0.03857
G1 X131.840 Y101.370 E0.03872
G1 X132.493 Y100.968 E0.03869
G1 X133.204 Y100.682 E0.03869
G1 X133.953 Y100.522 E0.03866
G1 X134.677 Y100.492 E0.03659
G1 X135.471 Y100.585 E0.04035
G1 X136.208 Y100.811 E0.03891
G1 X136.893 Y101.156 E0.03873
G1 X137.507 Y101.613 E0.03863
G1 X138.035 Y102.162 E0.03849
G1 X138.466 Y102.799 E0.03878
G1 X138.781 Y103.497 E0.03867
G1 X138.974 Y104.238 E0.03866
G1 X139.038 Y105.001 E0.03867
G1 X138.974 Y105.762 E0.03856
G1 X138.781 Y106.503 E0.03865
G1 X138.466 Y107.201 E0.03867
G1 X138.035 Y107.838 E0.03878
G1 X137.507 Y108.387 E0.03849
G1 X136.893 Y108.844 E0.03863
G1 X136.208 Y109.189 E0.03873
G1 X135.475 Y109.414 E0.03869
G1 X134.716 Y109.510 E0.03862
G1 X133.953 Y109.478 E0.03856
G1 X133.204 Y109.318 E0.03866
G1 X132.493 Y109.032 E0.03869
G1 X131.840 Y108.630 E0.03869
G1 X131.265 Y108.122 E0.03872
G1 X130.785 Y107.528 E0.03857
G1 X130.411 Y106.859 E0.03869
G1 X130.157 Y106.138 E0.03859
G1 X130.026 Y105.385 E0.03859
G1 X130.026 Y104.615 E0.03883
G1 X130.157 Y103.862 E0.03859
G1 X130.381 Y103.226 E0.03405
G1 X130.953 Y103.427 F10800.000
G1 F1200.000
G1 X131.290 Y102.814 E0.03533
G1 X131.705 Y102.299 E0.03340
G1 X132.202 Y101.860 E0.03349
G1 X132.767 Y101.513 E0.03345
G1 X133.382 Y101.265 E0.03346
G1 X134.030 Y101.126 E0.03343
G1 X134.654 Y101.100 E0.03155
G1 X135.345 Y101.181 E0.03514
G1 X135.980 Y101.376 E0.03353
G1 X136.573 Y101.675 E0.03348
G1 X137.104 Y102.070 E0.03343
G1 X137.562 Y102.546 E0.03332
G1 X137.934 Y103.096 E0.03354
G1 X138.207 Y103.700 E0.03344
G1 X138.373 Y104.340 E0.03342
G1 X138.429 Y105.001 E0.03347
G1 X138.373 Y105.660 E0.03336
G1 X138.207 Y106.300 E0.03342
G1 X137.934 Y106.904 E0.03344
G1 X137.562 Y107.454 E0.03354
G1 X137.104 Y107.930 E0.03332
G1 X136.573 Y108.325 E0.03343
G1 X135.980 Y108.624 E0.03348
G1 X135.347 Y108.818 E0.03346
G1 X134.690 Y108.901 E0.03341
G1 X134.030 Y108.874 E0.03338
G1 X133.382 Y108.735 E0.03343
G1 X132.767 Y108.487 E0.03346
G1 X132.202 Y108.140 E0.03345
G1 X131.705 Y107.701 E0.03349
G1 X131.290 Y107.186 E0.03340
G1 X130.966 Y106.608 E0.03345
G1 X130.746 Y105.984 E0.03339
G1 X130.633 Y105.332 E0.03339
G1 X130.633 Y104.668 E0.03355
G1 X130.746 Y104.016 E0.03339
G1 X130.923 Y103.512 E0.02695
G1 X130.600 Y102.942 F10800.000
G1 F8640.000
G1 X131.290 Y102.814 E-0.18213
G1 X131.705 Y102.299 E-0.15279
G1 X132.202 Y101.860 E-0.15319
G1 X132.767 Y101.513 E-0.15301
G1 X133.382 Y101.265 E-0.15307
G1 X134.030 Y101.126 E-0.15293
G1 X134.654 Y101.100 E-0.14433
G1 X135.345 Y101.181 E-0.16072
G1 X135.668 Y101.280 E-0.07783
G1 E-0.07000 F2100.00000
G1 Z0.400 F10800.000
G1 X120.223 Y108.658
G1 Z0.200
G1 E1.40000 F2100.00000
G1 F1200.000
G1 X114.702 Y110.944 E0.30167
G1 X113.441 Y110.605 E0.06592
G1 X112.512 Y110.175 E0.05167
G1 X111.673 Y109.594 E0.05148
G1 X110.945 Y108.878 E0.05157
G1 X110.349 Y108.048 E0.05158
G1 X109.905 Y107.129 E0.05153
G1 X109.623 Y106.147 E0.05155
G1 X109.514 Y105.132 E0.05155
G1 X109.578 Y104.115 E0.05145
G1 X109.816 Y103.121 E0.05159
G1 X110.221 Y102.181 E0.05164
G1 X110.779 Y101.328 E0.05147
G1 X111.473 Y100.579 E0.05153
G1 X112.287 Y99.961 E0.05161
G1 X113.193 Y99.491 E0.05153
G1 X114.168 Y99.182 E0.05159
G1 X115.132 Y99.053 E0.04910
G1 X116.193 Y99.080 E0.05359
G1 X117.199 Y99.291 E0.05188
G1 X118.145 Y99.669 E0.05144
G1 X119.017 Y100.203 E0.05158
G1 X119.783 Y100.878 E0.05156
G1 X120.424 Y101.674 E0.05157
G1 X120.917 Y102.568 E0.05155
G1 X121.253 Y103.531 E0.05149
G1 X121.419 Y104.540 E0.05163
G1 X121.409 Y105.559 E0.05144
G1 X121.229 Y106.565 E0.05158
G1 X120.875 Y107.524 E0.05162
G1 X120.268 Y108.580 E0.06144
G1 X119.800 Y108.176 F10800.000
G1 F1200.000
G1 X114.660 Y110.304 E0.28083
G1 X113.648 Y110.032 E0.05288
G1 X112.814 Y109.646 E0.04639
G1 X112.062 Y109.125 E0.04621
G1 X111.408 Y108.482 E0.04631
G1 X110.873 Y107.736 E0.04631
G1 X110.474 Y106.911 E0.04627
G1 X110.221 Y106.030 E0.04627
G1 X110.123 Y105.118 E0.04628
G1 X110.181 Y104.205 E0.04621
G1 X110.394 Y103.313 E0.04630
G1 X110.758 Y102.470 E0.04636
G1 X111.259 Y101.703 E0.04624
G1 X111.882 Y101.031 E0.04627
G1 X112.612 Y100.476 E0.04630
G1 X113.426 Y100.054 E0.04627
G1 X114.301 Y99.777 E0.04630
G1 X115.164 Y99.661 E0.04398
G1 X116.122 Y99.686 E0.04836
G1 X117.022 Y99.875 E0.04644
G1 X117.872 Y100.214 E0.04618
G1 X118.655 Y100.693 E0.04632
G1 X119.343 Y101.299 E0.04628
G1 X119.918 Y102.013 E0.04629
G1 X120.361 Y102.816 E0.04629
G1 X120.663 Y103.681 E0.04624
G1 X120.811 Y104.587 E0.04633
G1 X120.803 Y105.502 E0.04622
G1 X120.641 Y106.405 E0.04631
G1 X120.323 Y107.266 E0.04633
G1 X119.845 Y108.098 E0.04842
G1 X119.868 Y108.772 F10800.000
G1 F8640.000
G1 X114.660 Y110.304 E-1.30110
G1 X114.539 Y110.272 E-0.02890
G1 E-0.07000 F2100.00000
G1 Z0.400 F10800.000
G1 X109.010 Y119.287
G1 Z0.200
G1 E1.40000 F2100.00000
G1 F1200.000
G1 X109.034 Y119.568 E0.01423
G1 X108.928 Y119.311 E0.01403
G1 X108.736 Y118.516 E0.04129
G1 X108.670 Y117.658 E0.04345
G1 X108.670 Y92.342 E1.27789
G1 X108.736 Y91.484 E0.04345
G1 X108.928 Y90.689 E0.04129
G1 X109.034 Y90.432 E0.01403
G1 X109.010 Y90.713 E0.01423
G1 X109.059 Y91.271 E0.02828
G1 X109.199 Y91.807 E0.02794
G1 X109.427 Y92.316 E0.02817
G1 X109.741 Y92.780 E0.02825
G1 X110.130 Y93.184 E0.02832
G1 X110.577 Y93.513 E0.02804
G1 X111.070 Y93.762 E0.02791
G1 X111.606 Y93.928 E0.02829
G1 X112.161 Y93.998 E0.02825
G1 X112.715 Y93.974 E0.02800
G1 X113.261 Y93.858 E0.02817
G1 X113.780 Y93.649 E0.02820
G1 X114.254 Y93.357 E0.02814
G1 X114.673 Y92.991 E0.02808
G1 X115.026 Y92.555 E0.02830
G1 X115.299 Y92.064 E0.02837
G1 X115.482 Y91.539 E0.02805
G1 X115.576 Y90.992 E0.02805
G1 X115.576 Y90.432 E0.02825
G1 X115.482 Y89.884 E0.02810
G1 X115.298 Y89.361 E0.02795
G1 X115.026 Y88.871 E0.02832
G1 X114.673 Y88.435 E0.02830
G1 X114.254 Y88.069 E0.02808
G1 X113.780 Y87.777 E0.02813
G1 X113.264 Y87.569 E0.02805
G1 X112.718 Y87.450 E0.02819
G1 X112.158 Y87.426 E0.02832
G1 X112.031 Y87.443 E0.00649
G1 X112.276 Y87.341 E0.01341
G1 X113.071 Y87.149 E0.04129
G1 X113.929 Y87.083 E0.04345
G1 X136.069 Y87.083 E1.11758
G1 X136.929 Y87.149 E0.04353
G1 X137.722 Y87.341 E0.04119
G1 X137.970 Y87.444 E0.01359
G1 X137.558 Y87.426 E0.02083
G1 X137.006 Y87.499 E0.02812
G1 X136.474 Y87.660 E0.02803
G1 X135.972 Y87.912 E0.02837
G1 X135.526 Y88.245 E0.02809
G1 X135.141 Y88.646 E0.02810
G1 X134.828 Y89.109 E0.02819
G1 X134.599 Y89.617 E0.02812
G1 X134.459 Y90.156 E0.02811
G1 X134.410 Y90.713 E0.02824
G1 X134.459 Y91.271 E0.02828
G1 X134.599 Y91.807 E0.02794
G1 X134.827 Y92.316 E0.02817
G1 X135.141 Y92.780 E0.02826
G1 X135.528 Y93.182 E0.02822
G1 X135.975 Y93.513 E0.02803
G1 X136.472 Y93.763 E0.02809
G1 X137.006 Y93.928 E0.02822
G1 X137.561 Y93.998 E0.02825
G1 X138.115 Y93.974 E0.02800
G1 X138.661 Y93.858 E0.02817
G1 X139.180 Y93.649 E0.02820
G1 X139.654 Y93.357 E0.02814
G1 X140.075 Y92.989 E0.02820
G1 X140.423 Y92.555 E0.02810
G1 X140.698 Y92.067 E0.02829
G1 X140.882 Y91.539 E0.02819
G1 X140.976 Y90.992 E0.02805
G1 X140.976 Y90.457 E0.02699
G1 X141.072 Y90.688 E0.01262
G1 X141.262 Y91.484 E0.04132
G1 X141.330 Y92.343 E0.04351
G1 X141.330 Y117.657 E1.27778
G1 X141.262 Y118.516 E0.04351
G1 X141.072 Y119.312 E0.04132
G1 X140.976 Y119.543 E0.01262
G1 X140.976 Y119.008 E0.02699
G1 X140.882 Y118.461 E0.02805
G1 X140.698 Y117.933 E0.02819
G1 X140.423 Y117.445 E0.02829
G1 X140.075 Y117.011 E0.02810
G1 X139.654 Y116.643 E0.02820
G1 X139.180 Y116.351 E0.02814
G1 X138.661 Y116.142 E0.02820
G1 X138.115 Y116.026 E0.02817
G1 X137.561 Y116.002 E0.02800
G1 X137.006 Y116.072 E0.02825
G1 X136.472 Y116.237 E0.02822
G1 X135.975 Y116.487 E0.02809
G1 X135.528 Y116.818 E0.02803
G1 X135.141 Y117.220 E0.02822
G1 X134.827 Y117.684 E0.02826
G1 X134.599 Y118.193 E0.02817
G1 X134.459 Y118.729 E0.02794
G1 X134.410 Y119.287 E0.02828
G1 X134.459 Y119.844 E0.02824
G1 X134.599 Y120.383 E0.02811
G1 X134.828 Y120.891 E0.02812
