; generated by PrusaSlicer 2.2.0+win64 on 2020-06-29 at 05:27:42 UTC

; 

; external perimeters extrusion width = 0.68mm
; perimeters extrusion width = 0.68mm
; infill extrusion width = 0.68mm
; solid infill extrusion width = 0.68mm
; top infill extrusion width = 0.60mm
; first layer extrusion width = 0.65mm

M73 P0 R5
M73 Q0 S5
M201 X1000 Y1000 Z200 E5000 ; sets maximum accelerations, mm/sec^2
M203 X200 Y200 Z12 E120 ; sets maximum feedrates, mm/sec
M204 P1250 R1250 T1250 ; sets acceleration (P, T) and retract acceleration (R), mm/sec^2
M205 X8.00 Y8.00 Z0.40 E4.50 ; sets the jerk limits, mm/sec
M205 S0 T0 ; sets the minimum extruding and travel feed rate, mm/sec
M107
M862.3 P "MK3S" ; printer model check
M862.1 P0.6 ; nozzle diameter check
M115 U3.9.0 ; tell printer latest fw version
G90 ; use absolute coordinates
M83 ; extruder relative mode
M104 S215 ; set extruder temp
M140 S60 ; set bed temp
M190 S60 ; wait for bed temp
M109 S215 ; wait for extruder temp
G28 W ; home all without mesh bed level
G80 ; mesh bed leveling
G1 Y-3.0 F1000.0 ; go outside print area
G92 E0.0
G1 X60.0 E9.0 F1000.0 ; intro line
M73 Q1 S5
M73 P1 R5
G1 X100.0 E12.5 F1000.0 ; intro line
G92 E0.0
M221 S95
G21 ; set units to millimeters
G90 ; use absolute coordinates
M83 ; use relative distances for extrusion
M900 K0.04 ; Filament gcode LA 1.5
M900 K18 ; Filament gcode LA 1.0
;BEFORE_LAYER_CHANGE
G92 E0.0
;0.2


G1 E-0.80000 F2100.00000
G1 Z0.600 F10800.000
;AFTER_LAYER_CHANGE
;0.2
G1 X119.959 Y100.168
G1 Z0.200
G1 E0.80000 F2100.00000
M204 S1000
G1 F900
G1 X120.078 Y100.025 E0.00937
G1 X121.069 Y99.217 E0.06457
G1 X121.824 Y98.764 E0.04442
G1 X122.641 Y98.418 E0.04483
G1 X123.964 Y98.081 E0.06891
G1 X125.129 Y98.007 E0.05892
G1 X126.422 Y98.152 E0.06569
G1 X127.635 Y98.522 E0.06401
G1 X128.738 Y99.090 E0.06264
G1 X129.817 Y99.938 E0.06926
G1 X130.423 Y100.588 E0.04484
G1 X130.930 Y101.309 E0.04452
G1 X131.498 Y102.432 E0.06352
G1 X131.877 Y103.744 E0.06892
G1 X131.990 Y104.989 E0.06309
G1 X131.878 Y106.250 E0.06393
G1 X131.502 Y107.558 E0.06869
G1 X130.941 Y108.673 E0.06298
G1 X130.436 Y109.397 E0.04459
G1 X129.828 Y110.051 E0.04509
G1 X128.747 Y110.904 E0.06949
G1 X127.644 Y111.474 E0.06268
G1 X126.442 Y111.844 E0.06347
G1 X125.131 Y111.993 E0.06664
G1 X123.818 Y111.891 E0.06648
G1 X122.948 Y111.690 E0.04507
G1 X122.111 Y111.369 E0.04522
G1 X120.914 Y110.683 E0.06965
G1 X119.974 Y109.873 E0.06265
G1 X119.170 Y108.875 E0.06469
G1 X118.533 Y107.676 E0.06855
G1 X118.160 Y106.469 E0.06375
G1 X118.024 Y105.602 E0.04432
G1 X118.009 Y104.732 E0.04390
G1 X118.197 Y103.347 E0.07056
G1 X118.599 Y102.166 E0.06300
G1 X119.215 Y101.059 E0.06396
G1 X119.901 Y100.237 E0.05403
G1 X120.501 Y100.461 F10800.000
G1 F900
G1 X121.394 Y99.729 E0.05823
G1 X122.101 Y99.304 E0.04166
G1 X122.868 Y98.981 E0.04202
G1 X124.069 Y98.680 E0.06250
G1 X125.128 Y98.614 E0.05358
G1 X126.300 Y98.747 E0.05955
G1 X127.401 Y99.082 E0.05809
G1 X128.404 Y99.598 E0.05694
G1 X129.385 Y100.365 E0.06285
G1 X129.953 Y100.972 E0.04196
G1 X130.428 Y101.650 E0.04178
G1 X130.939 Y102.669 E0.05757
G1 X131.281 Y103.860 E0.06252
G1 X131.383 Y104.991 E0.05736
G1 X131.282 Y106.132 E0.05782
G1 X130.942 Y107.323 E0.06249
G1 X130.437 Y108.334 E0.05707
G1 X129.965 Y109.015 E0.04182
G1 X129.398 Y109.622 E0.04194
G1 X128.411 Y110.398 E0.06336
G1 X127.412 Y110.913 E0.05674
G1 X126.318 Y111.250 E0.05777
G1 X125.129 Y111.386 E0.06046
G1 X123.938 Y111.296 E0.06028
G1 X123.123 Y111.109 E0.04220
G1 X122.344 Y110.808 E0.04214
G1 X121.259 Y110.183 E0.06320
G1 X120.405 Y109.445 E0.05699
G1 X119.676 Y108.540 E0.05864
G1 X119.096 Y107.448 E0.06241
G1 X118.757 Y106.360 E0.05756
G1 X118.629 Y105.547 E0.04153
G1 X118.617 Y104.732 E0.04115
G1 X118.790 Y103.476 E0.06402
G1 X119.156 Y102.406 E0.05707
G1 X119.716 Y101.402 E0.05802
G1 X120.444 Y100.530 E0.05736
G1 X120.908 Y100.916 F10800.000
G1 F900
G1 X121.721 Y100.240 E0.05339
G1 X122.376 Y99.845 E0.03861
G1 X123.095 Y99.544 E0.03931
G1 X124.178 Y99.277 E0.05630
G1 X125.129 Y99.221 E0.04809
G1 X126.180 Y99.342 E0.05344
G1 X127.166 Y99.641 E0.05203
G1 X128.070 Y100.105 E0.05126
G1 X128.953 Y100.791 E0.05645
G1 X129.481 Y101.355 E0.03899
G1 X129.923 Y101.987 E0.03893
G1 X130.379 Y102.903 E0.05168
G1 X130.685 Y103.977 E0.05633
G1 X130.775 Y104.988 E0.05124
G1 X130.687 Y106.014 E0.05201
G1 X130.383 Y107.087 E0.05626
G1 X129.933 Y107.996 E0.05122
G1 X129.494 Y108.631 E0.03895
G1 X128.967 Y109.194 E0.03894
G1 X128.075 Y109.893 E0.05720
G1 X127.179 Y110.353 E0.05086
G1 X126.200 Y110.654 E0.05169
G1 X125.132 Y110.779 E0.05431
G1 X124.062 Y110.702 E0.05412
G1 X123.304 Y110.529 E0.03924
G1 X122.577 Y110.248 E0.03940
G1 X121.601 Y109.681 E0.05697
G1 X120.838 Y109.019 E0.05096
G1 X120.186 Y108.211 E0.05245
G1 X119.662 Y107.227 E0.05625
G1 X119.354 Y106.251 E0.05168
G1 X119.234 Y105.495 E0.03865
G1 X119.224 Y104.732 E0.03851
G1 X119.384 Y103.604 E0.05748
G1 X119.714 Y102.646 E0.05119
G1 X120.215 Y101.747 E0.05193
G1 X120.850 Y100.985 E0.05005
G1 F8640.000
G1 X121.721 Y100.240 E-0.26470
G1 X122.376 Y99.845 E-0.17662
G1 X123.095 Y99.544 E-0.17982
G1 X123.678 Y99.400 E-0.13887
G1 E-0.04000 F2100.00000
G1 Z0.800 F10800.000
G1 X123.154 Y103.193
G1 Z0.200
G1 E0.80000 F2100.00000
G1 F900
G1 X123.286 Y103.055 E0.00968
G1 X123.703 Y102.759 E0.02577
G1 X124.029 Y102.599 E0.01837
G1 X124.374 Y102.489 E0.01827
G1 X124.806 Y102.420 E0.02206
G1 X125.320 Y102.432 E0.02595
G1 X125.752 Y102.525 E0.02232
G1 X126.163 Y102.690 E0.02232
G1 X126.592 Y102.966 E0.02577
G1 X126.863 Y103.209 E0.01837
G1 X127.093 Y103.489 E0.01827
G1 X127.318 Y103.863 E0.02206
G1 X127.499 Y104.345 E0.02595
G1 X127.573 Y104.780 E0.02232
G1 X127.573 Y105.220 E0.02216
G1 X127.499 Y105.655 E0.02232
G1 X127.319 Y106.133 E0.02577
G1 X127.139 Y106.449 E0.01837
G1 X126.913 Y106.735 E0.01837
G1 X126.536 Y107.079 E0.02577
G1 X126.160 Y107.311 E0.02232
G1 X125.752 Y107.475 E0.02216
G1 X125.323 Y107.567 E0.02216
G1 X124.881 Y107.586 E0.02232
G1 X124.376 Y107.511 E0.02577
G1 X124.029 Y107.401 E0.01837
G1 X123.705 Y107.242 E0.01827
G1 X123.345 Y106.993 E0.02206
G1 X122.982 Y106.629 E0.02595
G1 X122.735 Y106.262 E0.02232
G1 X122.554 Y105.862 E0.02216
G1 X122.443 Y105.437 E0.02216
G1 X122.406 Y104.997 E0.02232
G1 X122.459 Y104.489 E0.02577
G1 X122.554 Y104.138 E0.01837
G1 X122.701 Y103.805 E0.01837
G1 X122.978 Y103.376 E0.02577
G1 X123.091 Y103.258 E0.00826
G1 X123.092 Y103.011 F10800.000
G1 X122.886 Y103.093
G1 F900
G1 X123.300 Y102.710 E0.02847
G1 X123.712 Y102.456 E0.02439
G1 X124.160 Y102.276 E0.02439
G1 X124.632 Y102.174 E0.02439
G1 X125.115 Y102.154 E0.02439
G1 X125.594 Y102.215 E0.02439
G1 X126.056 Y102.357 E0.02439
G1 X126.488 Y102.574 E0.02439
G1 X126.876 Y102.861 E0.02439
G1 X127.211 Y103.210 E0.02439
G1 X127.481 Y103.611 E0.02439
G1 X127.680 Y104.050 E0.02433
G1 X127.802 Y104.519 E0.02446
G1 X127.843 Y105.000 E0.02439
G1 X127.802 Y105.481 E0.02439
G1 X127.680 Y105.949 E0.02439
G1 X127.481 Y106.389 E0.02439
G1 X127.211 Y106.790 E0.02439
G1 X126.876 Y107.139 E0.02439
G1 X126.488 Y107.426 E0.02439
G1 X126.056 Y107.643 E0.02439
G1 X125.594 Y107.785 E0.02439
G1 X125.115 Y107.846 E0.02439
G1 X124.632 Y107.826 E0.02439
G1 X124.160 Y107.724 E0.02439
G1 X123.712 Y107.544 E0.02439
G1 X123.300 Y107.290 E0.02439
G1 X122.938 Y106.971 E0.02439
G1 X122.635 Y106.596 E0.02433
G1 X122.398 Y106.173 E0.02446
G1 X122.237 Y105.718 E0.02439
G1 X122.156 Y105.242 E0.02439
G1 X122.156 Y104.758 E0.02439
G1 X122.237 Y104.282 E0.02439
G1 X122.398 Y103.827 E0.02439
G1 X122.633 Y103.406 E0.02433
G1 X122.830 Y103.163 E0.01578
G1 X123.436 Y103.216 F10800.000
M106 S255
;BEFORE_LAYER_CHANGE
G92 E0.0
;0.6


G1 F8640.000
G1 X123.300 Y102.710 E-0.15084
G1 X123.712 Y102.456 E-0.11157
G1 X124.160 Y102.276 E-0.11157
G1 X124.632 Y102.174 E-0.11157
G1 X125.115 Y102.154 E-0.11157
G1 X125.594 Y102.215 E-0.11157
G1 X125.807 Y102.280 E-0.05131
G1 E-0.04000 F2100.00000
G1 Z0.800 F10800.000
;AFTER_LAYER_CHANGE
;0.6
G1 X126.422 Y98.152
G1 Z0.600
G1 E0.80000 F2100.00000
G1 F900
G1 X127.635 Y98.522 E0.11896
G1 X128.738 Y99.090 E0.11641
G1 X129.817 Y99.938 E0.12873
G1 X130.423 Y100.588 E0.08333
G1 X130.930 Y101.309 E0.08275
G1 X131.498 Y102.432 E0.11806
G1 X131.877 Y103.744 E0.12809
G1 X131.990 Y104.989 E0.11727
G1 X131.878 Y106.250 E0.11882
G1 X131.502 Y107.558 E0.12766
G1 X130.941 Y108.673 E0.11706
G1 X130.436 Y109.397 E0.08288
G1 X129.828 Y110.051 E0.08380
G1 X128.747 Y110.904 E0.12915
G1 X127.644 Y111.474 E0.11650
G1 X126.442 Y111.844 E0.11796
G1 X125.131 Y111.993 E0.12386
G1 X123.818 Y111.891 E0.12356
G1 X122.948 Y111.690 E0.08376
G1 X122.111 Y111.369 E0.08404
G1 X120.914 Y110.683 E0.12945
G1 X119.974 Y109.873 E0.11644
G1 X119.170 Y108.875 E0.12023
G1 X118.533 Y107.676 E0.12740
G1 X118.160 Y106.469 E0.11848
G1 X118.024 Y105.602 E0.08238
G1 X118.009 Y104.732 E0.08159
G1 X118.197 Y103.347 E0.13114
G1 X118.599 Y102.166 E0.11709
G1 X119.215 Y101.059 E0.11887
G1 X120.078 Y100.025 E0.12628
G1 X121.069 Y99.217 E0.12001
G1 X121.824 Y98.764 E0.08255
G1 X122.641 Y98.418 E0.08332
G1 X123.964 Y98.081 E0.12808
G1 X125.129 Y98.007 E0.10950
G1 X126.333 Y98.142 E0.11365
G1 X126.265 Y98.743 F10800.000
G1 F900
G1 X127.401 Y99.082 E0.11125
G1 X128.404 Y99.598 E0.10582
G1 X129.385 Y100.365 E0.11681
G1 X129.953 Y100.972 E0.07799
G1 X130.428 Y101.650 E0.07765
G1 X130.939 Y102.669 E0.10700
G1 X131.281 Y103.860 E0.11619
G1 X131.383 Y104.991 E0.10661
G1 X131.282 Y106.132 E0.10746
G1 X130.942 Y107.323 E0.11614
G1 X130.437 Y108.334 E0.10607
G1 X129.965 Y109.015 E0.07772
G1 X129.398 Y109.622 E0.07795
G1 X128.411 Y110.398 E0.11777
G1 X127.412 Y110.913 E0.10545
G1 X126.318 Y111.250 E0.10738
G1 X125.129 Y111.386 E0.11237
G1 X123.938 Y111.296 E0.11204
G1 X123.123 Y111.109 E0.07844
G1 X122.344 Y110.808 E0.07831
G1 X121.259 Y110.183 E0.11747
G1 X120.405 Y109.445 E0.10593
G1 X119.676 Y108.540 E0.10900
G1 X119.096 Y107.448 E0.11600
G1 X118.757 Y106.360 E0.10698
G1 X118.629 Y105.547 E0.07719
G1 X118.617 Y104.732 E0.07648
G1 X118.790 Y103.476 E0.11899
G1 X119.156 Y102.406 E0.10606
G1 X119.716 Y101.402 E0.10783
G1 X120.501 Y100.461 E0.11505
G1 X121.394 Y99.729 E0.10822
G1 X122.101 Y99.304 E0.07744
G1 X122.868 Y98.981 E0.07809
G1 X124.069 Y98.680 E0.11616
G1 X125.128 Y98.614 E0.09958
G1 X126.176 Y98.733 E0.09889
G1 X126.107 Y99.333 F10800.000
G1 F900
G1 X127.166 Y99.641 E0.10355
G1 X128.070 Y100.105 E0.09528
G1 X128.953 Y100.791 E0.10491
G1 X129.481 Y101.355 E0.07247
G1 X129.923 Y101.987 E0.07236
G1 X130.379 Y102.903 E0.09605
G1 X130.685 Y103.977 E0.10469
G1 X130.775 Y104.988 E0.09523
G1 X130.687 Y106.014 E0.09666
G1 X130.383 Y107.087 E0.10457
G1 X129.933 Y107.996 E0.09520
G1 X129.494 Y108.631 E0.07239
G1 X128.967 Y109.194 E0.07237
G1 X128.075 Y109.893 E0.10632
G1 X127.179 Y110.353 E0.09454
G1 X126.200 Y110.654 E0.09608
G1 X125.132 Y110.779 E0.10093
G1 X124.062 Y110.702 E0.10058
G1 X123.304 Y110.529 E0.07293
G1 X122.577 Y110.248 E0.07323
G1 X121.601 Y109.681 E0.10588
G1 X120.838 Y109.019 E0.09472
G1 X120.186 Y108.211 E0.09748
G1 X119.662 Y107.227 E0.10455
G1 X119.354 Y106.251 E0.09604
G1 X119.234 Y105.495 E0.07183
G1 X119.224 Y104.732 E0.07158
G1 X119.384 Y103.604 E0.10684
G1 X119.714 Y102.646 E0.09515
G1 X120.215 Y101.747 E0.09652
G1 X120.923 Y100.897 E0.10378
G1 X121.721 Y100.240 E0.09698
G1 X122.376 Y99.845 E0.07176
G1 X123.095 Y99.544 E0.07306
G1 X124.178 Y99.277 E0.10465
G1 X125.129 Y99.221 E0.08938
G1 X126.017 Y99.323 E0.08392
G1 F8640.000
G1 X127.166 Y99.641 E-0.27537
G1 X128.070 Y100.105 E-0.23449
G1 X128.925 Y100.770 E-0.25014
G1 E-0.04000 F2100.00000
G1 Z1.200 F10800.000
G1 X125.305 Y102.570
G1 Z0.600
G1 E0.80000 F2100.00000
M204 S800
G1 F900
G1 X125.711 Y102.658 E0.04105
G1 X126.090 Y102.810 E0.04034
G1 X126.285 Y102.919 E0.02210
G1 X126.607 Y103.157 E0.03962
G1 X126.767 Y103.310 E0.02183
G1 X127.023 Y103.628 E0.04033
G1 X127.226 Y103.990 E0.04105
G1 X127.364 Y104.382 E0.04105
G1 X127.435 Y104.792 E0.04105
G1 X127.435 Y105.207 E0.04105
G1 X127.366 Y105.609 E0.04034
G1 X127.301 Y105.823 E0.02210
G1 X127.135 Y106.189 E0.03962
G1 X127.019 Y106.377 E0.02183
G1 X126.763 Y106.694 E0.04033
G1 X126.457 Y106.964 E0.04034
G1 X126.271 Y107.089 E0.02210
G1 X125.907 Y107.273 E0.04034
G1 X125.510 Y107.395 E0.04105
G1 X125.098 Y107.447 E0.04105
G1 X124.690 Y107.430 E0.04033
G1 X124.472 Y107.392 E0.02183
G1 X124.082 Y107.273 E0.04033
G1 X123.711 Y107.086 E0.04105
G1 X123.377 Y106.839 E0.04105
G1 X123.089 Y106.539 E0.04105
G1 X122.856 Y106.195 E0.04105
G1 X122.688 Y105.823 E0.04034
G1 X122.623 Y105.609 E0.02210
G1 X122.554 Y105.207 E0.04034
G1 X122.554 Y104.799 E0.04033
G1 X122.582 Y104.579 E0.02190
G1 X122.683 Y104.191 E0.03962
G1 X122.766 Y103.985 E0.02197
G1 X122.965 Y103.628 E0.04033
G1 X123.226 Y103.305 E0.04105
G1 X123.538 Y103.031 E0.04105
G1 X123.892 Y102.813 E0.04105
G1 X124.271 Y102.660 E0.04040
G1 X124.485 Y102.605 E0.02183
G1 X124.890 Y102.553 E0.04033
G1 X125.215 Y102.567 E0.03216
M204 S1000
G1 X125.556 Y102.240 F10800.000
G1 X125.115 Y102.169
M204 S800
G1 F900
G1 X125.586 Y102.229 E0.04700
G1 X126.051 Y102.371 E0.04800
G1 X126.480 Y102.587 E0.04746
G1 X126.866 Y102.873 E0.04749
G1 X127.199 Y103.220 E0.04749
G1 X127.468 Y103.618 E0.04749
G1 X127.666 Y104.056 E0.04749
G1 X127.787 Y104.521 E0.04749
G1 X127.828 Y105.000 E0.04749
G1 X127.787 Y105.479 E0.04749
G1 X127.666 Y105.944 E0.04749
G1 X127.470 Y106.378 E0.04700
G1 X127.199 Y106.780 E0.04800
G1 X126.866 Y107.127 E0.04746
G1 X126.480 Y107.413 E0.04749
G1 X126.051 Y107.629 E0.04749
G1 X125.591 Y107.770 E0.04749
G1 X125.115 Y107.831 E0.04749
G1 X124.634 Y107.811 E0.04749
G1 X124.164 Y107.710 E0.04749
G1 X123.719 Y107.530 E0.04749
G1 X123.309 Y107.278 E0.04749
G1 X122.948 Y106.961 E0.04749
G1 X122.646 Y106.587 E0.04749
G1 X122.412 Y106.167 E0.04749
G1 X122.254 Y105.719 E0.04700
G1 X122.171 Y105.240 E0.04800
G1 X122.171 Y104.760 E0.04746
G1 X122.252 Y104.286 E0.04749
G1 X122.412 Y103.833 E0.04749
G1 X122.646 Y103.413 E0.04749
G1 X122.948 Y103.039 E0.04749
G1 X123.309 Y102.722 E0.04749
G1 X123.719 Y102.470 E0.04749
G1 X124.164 Y102.290 E0.04749
G1 X124.634 Y102.189 E0.04749
G1 X125.025 Y102.173 E0.03860
M204 S1000
G1 X125.335 Y102.590 F10800.000
;BEFORE_LAYER_CHANGE
G92 E0.0
;1


G1 F8640.000
G1 X125.586 Y102.229 E-0.13037
G1 X126.051 Y102.371 E-0.11217
G1 X126.480 Y102.587 E-0.11092
G1 X126.866 Y102.873 E-0.11098
G1 X127.199 Y103.220 E-0.11098
G1 X127.468 Y103.618 E-0.11098
G1 X127.599 Y103.908 E-0.07360
G1 E-0.04000 F2100.00000
G1 Z1.200 F10800.000
;AFTER_LAYER_CHANGE
;1
G1 X131.498 Y102.432
G1 Z1.000
G1 E0.80000 F2100.00000
G1 F900
G1 X131.877 Y103.744 E0.12809
G1 X131.990 Y104.989 E0.11727
G1 X131.878 Y106.250 E0.11882
G1 X131.502 Y107.558 E0.12766
G1 X130.941 Y108.673 E0.11706
G1 X130.436 Y109.397 E0.08288
G1 X129.828 Y110.051 E0.08380
G1 X128.747 Y110.904 E0.12915
G1 X127.644 Y111.474 E0.11650
G1 X126.442 Y111.844 E0.11796
G1 X125.131 Y111.993 E0.12386
G1 X123.818 Y111.891 E0.12356
G1 X122.948 Y111.690 E0.08376
G1 X122.111 Y111.369 E0.08404
G1 X120.914 Y110.683 E0.12945
G1 X119.974 Y109.873 E0.11644
G1 X119.170 Y108.875 E0.12023
G1 X118.533 Y107.676 E0.12740
G1 X118.160 Y106.469 E0.11848
G1 X118.024 Y105.602 E0.08238
G1 X118.009 Y104.732 E0.08159
G1 X118.197 Y103.347 E0.13114
G1 X118.599 Y102.166 E0.11709
G1 X119.215 Y101.059 E0.11887
G1 X120.078 Y100.025 E0.12628
G1 X121.069 Y99.217 E0.12001
G1 X121.824 Y98.764 E0.08255
G1 X122.641 Y98.418 E0.08332
G1 X123.964 Y98.081 E0.12808
G1 X125.129 Y98.007 E0.10950
G1 X126.422 Y98.152 E0.12210
G1 X127.635 Y98.522 E0.11896
G1 X128.738 Y99.090 E0.11641
G1 X129.817 Y99.938 E0.12873
G1 X130.423 Y100.588 E0.08333
G1 X130.930 Y101.309 E0.08275
G1 X131.457 Y102.352 E0.10961
G1 X130.916 Y102.623 F10800.000
G1 F900
G1 X131.281 Y103.860 E0.12092
G1 X131.383 Y104.991 E0.10661
G1 X131.282 Y106.132 E0.10746
G1 X130.942 Y107.323 E0.11614
G1 X130.437 Y108.334 E0.10607
G1 X129.965 Y109.015 E0.07772
G1 X129.398 Y109.622 E0.07795
G1 X128.411 Y110.398 E0.11777
G1 X127.412 Y110.913 E0.10545
G1 X126.318 Y111.250 E0.10738
G1 X125.129 Y111.386 E0.11237
G1 X123.938 Y111.296 E0.11204
G1 X123.123 Y111.109 E0.07844
