; generated by PrusaSlicer 2.2.0+win64 on 2020-06-30 at 03:35:19 UTC

; 

; external perimeters extrusion width = 0.45mm
; perimeters extrusion width = 0.45mm
; infill extrusion width = 0.45mm
; solid infill extrusion width = 0.45mm
; top infill extrusion width = 0.40mm
; first layer extrusion width = 0.42mm

M73 P0 R236
M73 Q0 S239
M201 X1000 Y1000 Z200 E5000 ; sets maximum accelerations, mm/sec^2
M203 X200 Y200 Z12 E120 ; sets maximum feedrates, mm/sec
M204 P1250 R1250 T1250 ; sets acceleration (P, T) and retract acceleration (R), mm/sec^2
M205 X8.00 Y8.00 Z0.40 E4.50 ; sets the jerk limits, mm/sec
M205 S0 T0 ; sets the minimum extruding and travel feed rate, mm/sec
M107
M862.3 P "MK3S" ; printer model check
M862.1 P0.4 ; nozzle diameter check
M115 U3.9.0 ; tell printer latest fw version
G90 ; use absolute coordinates
M83 ; extruder relative mode
M104 S240 ; set extruder temp
M140 S85 ; set bed temp
M190 S85 ; wait for bed temp
M109 S240 ; wait for extruder temp
G28 W ; home all without mesh bed level
G80 ; mesh bed leveling
G1 Y-3.0 F1000.0 ; go outside print area
G92 E0.0
G1 X60.0 E9.0 F1000.0 ; intro line
M73 Q0 S239
M73 P0 R236
G1 X100.0 E12.5 F1000.0 ; intro line
G92 E0.0
M221 S95
G21 ; set units to millimeters
G90 ; use absolute coordinates
M83 ; use relative distances for extrusion
M900 K0.12 ; Filament gcode LA 1.5
M900 K45 ; Filament gcode LA 1.0
;BEFORE_LAYER_CHANGE
G92 E0.0
;0.2


G1 E-1.40000 F2100.00000
G1 Z0.200 F10800.000
;AFTER_LAYER_CHANGE
;0.2
G1 Z0.400
G1 X64.162 Y47.940
G1 Z0.200
G1 E1.40000 F2100.00000
M204 S1000
G1 F1200.000
G1 X64.455 Y47.319 E0.02154
G1 X64.827 Y46.882 E0.01799
G1 X65.296 Y46.546 E0.01811
G1 X65.833 Y46.332 E0.01811
G1 X66.405 Y46.254 E0.01811
G1 X142.525 Y46.254 E2.38668
G1 X143.142 Y46.337 E0.01953
G1 X143.714 Y46.575 E0.01941
G1 X184.781 Y70.805 E1.49506
G1 X185.392 Y71.328 E0.02520
G1 X185.793 Y72.024 E0.02520
G1 X185.940 Y72.844 E0.02614
G1 X185.940 Y161.376 E2.77586
G1 X185.839 Y162.056 E0.02154
G1 X185.547 Y162.678 E0.02154
G1 X185.170 Y163.120 E0.01823
G1 X184.697 Y163.458 E0.01823
G1 X184.156 Y163.671 E0.01823
G1 X183.576 Y163.746 E0.01835
G1 X66.429 Y163.746 E3.67305
G1 X65.750 Y163.644 E0.02154
G1 X65.128 Y163.353 E0.02154
G1 X64.685 Y162.976 E0.01823
G1 X64.348 Y162.503 E0.01823
G1 X64.135 Y161.962 E0.01823
G1 X64.060 Y161.381 E0.01835
G1 X64.060 Y48.624 E3.53544
G1 X64.153 Y48.000 E0.01978
G1 F8640.000
G1 X64.455 Y47.319 E-0.17195
G1 X64.827 Y46.882 E-0.13248
G1 X65.296 Y46.546 E-0.13336
G1 X65.833 Y46.332 E-0.13336
G1 X66.405 Y46.254 E-0.13336
G1 X69.114 Y46.254 E-0.62550
G1 E-0.07000 F2100.00000
G1 Z0.400 F10800.000
G1 X156.841 Y78.670
G1 Z0.200
G1 E1.40000 F2100.00000
G1 F1200.000
G1 X157.247 Y77.690 E0.03327
G1 X157.801 Y76.785 E0.03327
G1 X158.490 Y75.978 E0.03327
G1 X159.297 Y75.289 E0.03327
G1 X160.202 Y74.735 E0.03328
G1 X161.190 Y74.332 E0.03345
G1 X162.234 Y74.146 E0.03326
G1 X163.140 Y74.110 E0.02843
G1 X164.307 Y74.146 E0.03661
G1 X165.352 Y74.332 E0.03329
G1 X166.340 Y74.735 E0.03345
G1 X167.245 Y75.289 E0.03328
G1 X168.052 Y75.978 E0.03327
G1 X168.741 Y76.785 E0.03327
G1 X169.295 Y77.690 E0.03327
G1 X169.701 Y78.670 E0.03327
G1 X169.949 Y79.702 E0.03327
G1 X170.032 Y80.759 E0.03327
G1 X169.949 Y81.817 E0.03327
G1 X169.701 Y82.849 E0.03327
G1 X169.295 Y83.829 E0.03327
G1 X168.741 Y84.734 E0.03327
G1 X168.052 Y85.540 E0.03327
G1 X167.245 Y86.229 E0.03327
G1 X166.340 Y86.784 E0.03327
G1 X165.356 Y87.189 E0.03339
G1 X164.314 Y87.398 E0.03330
G1 X163.271 Y87.440 E0.03274
G1 X162.228 Y87.398 E0.03274
G1 X161.186 Y87.189 E0.03330
G1 X160.202 Y86.784 E0.03339
G1 X159.297 Y86.229 E0.03327
G1 X158.490 Y85.540 E0.03327
G1 X157.801 Y84.734 E0.03327
G1 X157.247 Y83.829 E0.03327
G1 X156.841 Y82.849 E0.03327
G1 X156.593 Y81.817 E0.03327
G1 X156.510 Y80.759 E0.03327
G1 X156.593 Y79.702 E0.03327
G1 X156.827 Y78.728 E0.03138
G1 X156.573 Y78.373 F10800.000
G1 F8640.000
G1 X157.247 Y77.690 E-0.25867
G1 X157.801 Y76.785 E-0.24498
G1 X158.490 Y75.978 E-0.24498
G1 X159.297 Y75.289 E-0.24498
G1 X160.202 Y74.735 E-0.24511
G1 X160.568 Y74.585 E-0.09128
G1 E-0.07000 F2100.00000
G1 Z0.400 F10800.000
G1 X160.494 Y74.208
G1 Z0.200
G1 E1.40000 F2100.00000
G1 F1200.000
G1 X160.031 Y74.397 E0.01567
G1 X159.075 Y74.983 E0.03518
G1 X158.223 Y75.711 E0.03513
G1 X157.495 Y76.563 E0.03513
G1 X156.910 Y77.518 E0.03513
G1 X156.481 Y78.553 E0.03513
G1 X156.219 Y79.643 E0.03513
G1 X156.132 Y80.759 E0.03513
G1 X156.219 Y81.876 E0.03513
G1 X156.481 Y82.966 E0.03513
G1 X156.910 Y84.001 E0.03513
G1 X157.495 Y84.956 E0.03513
G1 X158.223 Y85.808 E0.03513
G1 X159.075 Y86.535 E0.03513
G1 X160.030 Y87.121 E0.03515
G1 X160.609 Y87.359 E0.01961
G1 X149.308 Y87.359 E0.35432
G1 X149.308 Y74.210 E0.41227
G1 X160.434 Y74.208 E0.34884
G1 F8640.000
G1 X160.031 Y74.397 E-0.10271
G1 X159.075 Y74.983 E-0.25904
G1 X158.223 Y75.711 E-0.25869
G1 X157.495 Y76.563 E-0.25869
G1 X156.910 Y77.518 E-0.25869
G1 X156.591 Y78.287 E-0.19219
G1 E-0.07000 F2100.00000
G1 Z0.400 F10800.000
G1 X166.050 Y74.209
G1 Z0.200
G1 E1.40000 F2100.00000
G1 F1200.000
G1 X182.776 Y74.210 E0.52444
G1 X182.776 Y87.359 E0.41227
G1 X165.934 Y87.359 E0.52807
G1 X166.512 Y87.121 E0.01959
G1 X167.468 Y86.535 E0.03515
G1 X168.319 Y85.808 E0.03513
G1 X169.047 Y84.956 E0.03513
G1 X169.632 Y84.001 E0.03513
G1 X170.061 Y82.966 E0.03513
G1 X170.323 Y81.876 E0.03513
G1 X170.411 Y80.759 E0.03513
G1 X170.323 Y79.643 E0.03513
G1 X170.061 Y78.553 E0.03513
G1 X169.632 Y77.518 E0.03513
G1 X169.047 Y76.563 E0.03513
G1 X168.319 Y75.711 E0.03513
G1 X167.468 Y74.983 E0.03513
G1 X166.511 Y74.397 E0.03518
G1 X166.105 Y74.232 E0.01374
G1 F8640.000
G1 X171.865 Y74.224 E-1.33000
G1 E-0.07000 F2100.00000
G1 Z0.400 F10800.000
G1 X183.153 Y73.833
G1 Z0.200
G1 E1.40000 F2100.00000
G1 F1200.000
G1 X183.153 Y87.736 E0.43591
G1 X165.794 Y87.736 E0.54429
G1 X164.802 Y87.749 E0.03110
G1 X163.327 Y87.815 E0.04629
G1 X161.853 Y87.753 E0.04626
G1 X160.862 Y87.736 E0.03109
G1 X148.931 Y87.736 E0.37408
G1 X148.931 Y73.833 E0.43591
G1 X160.864 Y73.831 E0.37416
G1 X163.328 Y73.729 E0.07731
G1 X165.295 Y73.825 E0.06175
G1 X165.794 Y73.832 E0.01565
G1 X183.093 Y73.833 E0.54241
G1 X182.953 Y74.179 F10800.000
G1 F8640.000
G1 X183.118 Y79.593 E-1.33000
G1 E-0.07000 F2100.00000
G1 Z0.400 F10800.000
G1 X182.663 Y75.087
G1 Z0.200
G1 E1.40000 F2100.00000
G1 F1200.000
G1 X182.068 Y74.493 E0.02643
G1 X181.534 Y74.493 E0.01681
G1 X182.493 Y75.452 E0.04266
G1 X182.493 Y75.987 E0.01680
G1 X180.999 Y74.493 E0.06642
G1 X180.465 Y74.493 E0.01681
G1 X182.493 Y76.522 E0.09019
G1 X182.493 Y77.056 E0.01680
G1 X179.930 Y74.493 E0.11395
G1 X179.395 Y74.493 E0.01681
G1 X182.493 Y77.591 E0.13772
G1 X182.493 Y78.125 E0.01680
G1 X178.861 Y74.493 E0.16149
G1 X178.326 Y74.493 E0.01681
G1 X182.493 Y78.660 E0.18525
G1 X182.493 Y79.195 E0.01680
G1 X177.791 Y74.493 E0.20902
G1 X177.257 Y74.492 E0.01681
G1 X182.493 Y79.729 E0.23278
G1 X182.493 Y80.264 E0.01680
G1 X176.722 Y74.492 E0.25655
G1 X176.187 Y74.492 E0.01681
G1 X182.493 Y80.798 E0.28032
G1 X182.493 Y81.333 E0.01680
G1 X175.653 Y74.492 E0.30408
G1 X175.118 Y74.492 E0.01681
G1 X182.493 Y81.868 E0.32785
G1 X182.493 Y82.402 E0.01680
G1 X174.583 Y74.492 E0.35161
G1 X174.049 Y74.492 E0.01681
G1 X182.493 Y82.937 E0.37538
G1 X182.493 Y83.471 E0.01680
G1 X173.514 Y74.492 E0.39915
G1 X172.980 Y74.492 E0.01681
G1 X182.493 Y84.006 E0.42291
G1 X182.493 Y84.541 E0.01680
G1 X172.445 Y74.492 E0.44668
G1 X171.910 Y74.492 E0.01681
G1 X182.493 Y85.075 E0.47044
G1 X182.493 Y85.610 E0.01680
G1 X171.376 Y74.492 E0.49421
G1 X170.841 Y74.492 E0.01681
G1 X182.493 Y86.144 E0.51798
G1 X182.493 Y86.679 E0.01680
G1 X170.306 Y74.492 E0.54174
G1 X169.772 Y74.492 E0.01681
G1 X182.356 Y87.076 E0.55939
G1 X181.821 Y87.076 E0.01680
G1 X169.237 Y74.492 E0.55939
G1 X168.702 Y74.492 E0.01681
G1 X181.286 Y87.076 E0.55939
G1 X180.752 Y87.076 E0.01680
G1 X168.168 Y74.492 E0.55939
G1 X167.633 Y74.492 E0.01681
G1 X180.217 Y87.076 E0.55939
G1 X179.683 Y87.076 E0.01680
G1 X169.710 Y77.103 E0.44332
G1 X169.885 Y77.389 E0.01056
G1 X170.185 Y78.113 E0.02461
G1 X179.148 Y87.076 E0.39844
G1 X178.613 Y87.076 E0.01680
G1 X170.435 Y78.897 E0.36357
G1 X170.603 Y79.600 E0.02273
M73 Q0 S238
G1 X178.079 Y87.076 E0.33232
M73 P0 R235
G1 X177.544 Y87.076 E0.01680
G1 X170.649 Y80.180 E0.30653
G1 X170.694 Y80.760 E0.01829
G1 X177.010 Y87.076 E0.28074
G1 X176.475 Y87.076 E0.01680
G1 X170.655 Y81.256 E0.25871
G1 X170.616 Y81.752 E0.01563
G1 X175.940 Y87.076 E0.23668
G1 X175.406 Y87.076 E0.01680
G1 X170.535 Y82.205 E0.21654
G1 X170.431 Y82.636 E0.01394
G1 X174.871 Y87.076 E0.19737
G1 X174.337 Y87.076 E0.01680
G1 X170.326 Y83.065 E0.17829
G1 X170.169 Y83.443 E0.01286
G1 X173.802 Y87.076 E0.16148
G1 X173.267 Y87.076 E0.01680
G1 X170.013 Y83.821 E0.14468
G1 X169.848 Y84.191 E0.01272
G1 X172.733 Y87.076 E0.12826
G1 X172.198 Y87.076 E0.01680
G1 X169.644 Y84.522 E0.11352
G1 X169.441 Y84.854 E0.01222
G1 X171.664 Y87.076 E0.09879
G1 X171.129 Y87.076 E0.01680
G1 X169.230 Y85.177 E0.08442
G1 X168.984 Y85.465 E0.01192
G1 X170.594 Y87.076 E0.07160
G1 X170.060 Y87.076 E0.01680
G1 X168.738 Y85.754 E0.05878
G1 X168.486 Y86.037 E0.01190
G1 X169.525 Y87.076 E0.04618
G1 X168.991 Y87.076 E0.01680
G1 X168.198 Y86.283 E0.03523
G1 X167.910 Y86.530 E0.01192
G1 X168.456 Y87.076 E0.02429
G1 X167.921 Y87.076 E0.01680
G1 X167.619 Y86.774 E0.01343
G1 X167.288 Y86.977 E0.01222
G1 X167.557 Y87.246 E0.01194
G1 F8640.000
G1 X167.288 Y86.977 E-0.08772
G1 X167.619 Y86.774 E-0.08977
G1 X167.921 Y87.076 E-0.09863
G1 X168.456 Y87.076 E-0.12344
G1 X167.910 Y86.530 E-0.17842
G1 X168.198 Y86.283 E-0.08756
G1 X168.991 Y87.076 E-0.25883
G1 X169.525 Y87.076 E-0.12344
G1 X168.661 Y86.212 E-0.28220
G1 E-0.07000 F2100.00000
G1 Z0.400 F10800.000
G1 X165.749 Y87.396
G1 Z0.200
G1 E1.40000 F2100.00000
G1 F1200.000
G1 X165.598 Y87.427 E0.00329
G1 X165.447 Y87.458 E0.00286
G1 X165.218 Y87.483 E0.00361
G1 X165.007 Y87.505 E0.00255
G1 X164.796 Y87.528 E0.00187
G1 X164.664 Y87.544 E0.00074
G1 F8640.000
G1 X164.796 Y87.528 E-0.03065
G1 E-1.36935 F2100.00000
G1 Z0.400 F10800.000
G1 X161.873 Y87.542
G1 Z0.200
G1 E1.40000 F2100.00000
G1 F1200.000
G1 X161.113 Y87.460 E0.00602
G1 X160.794 Y87.395 E0.00511
G1 F8640.000
G1 X161.113 Y87.460 E-0.07533
G1 E-1.32467 F2100.00000
G1 Z0.400 F10800.000
G1 X149.421 Y86.472
G1 Z0.200
G1 E1.40000 F2100.00000
G1 F1200.000
G1 X150.025 Y87.076 E0.02713
G1 X150.566 Y87.076 E0.01719
G1 X149.591 Y86.101 E0.04381
G1 X149.591 Y85.561 E0.01719
G1 X151.106 Y87.076 E0.06812
G1 X151.647 Y87.076 E0.01719
G1 X149.591 Y85.020 E0.09243
G1 X149.591 Y84.479 E0.01719
G1 X152.188 Y87.076 E0.11674
G1 X152.728 Y87.076 E0.01719
G1 X149.591 Y83.939 E0.14104
G1 X149.591 Y83.398 E0.01719
G1 X153.269 Y87.076 E0.16535
G1 X153.810 Y87.076 E0.01719
G1 X149.591 Y82.857 E0.18966
G1 X149.591 Y82.317 E0.01719
G1 X154.350 Y87.076 E0.21397
G1 X154.891 Y87.076 E0.01719
G1 X149.591 Y81.776 E0.23827
G1 X149.591 Y81.235 E0.01719
G1 X155.432 Y87.076 E0.26258
G1 X155.972 Y87.076 E0.01719
G1 X149.591 Y80.695 E0.28689
G1 X149.591 Y80.154 E0.01719
G1 X156.513 Y87.076 E0.31120
G1 X157.054 Y87.076 E0.01719
G1 X149.591 Y79.613 E0.33550
G1 X149.591 Y79.073 E0.01719
G1 X157.594 Y87.076 E0.35981
G1 X158.135 Y87.076 E0.01719
G1 X149.591 Y78.532 E0.38412
G1 X149.591 Y77.991 E0.01719
G1 X158.676 Y87.076 E0.40843
G1 X159.217 Y87.076 E0.01719
G1 X149.591 Y77.451 E0.43273
G1 X149.591 Y76.910 E0.01719
G1 X156.549 Y83.868 E0.31279
G1 X156.191 Y82.970 E0.03073
G1 X149.591 Y76.369 E0.29672
G1 X149.591 Y75.829 E0.01719
G1 X156.020 Y82.258 E0.28904
G1 X155.939 Y81.921 E0.01103
G1 X155.915 Y81.612 E0.00984
G1 X149.591 Y75.288 E0.28431
G1 X149.591 Y74.747 E0.01719
G1 X155.869 Y81.025 E0.28223
G1 X155.848 Y80.759 E0.00848
G1 X155.869 Y80.485 E0.00874
G1 X149.877 Y74.493 E0.26941
G1 X150.417 Y74.493 E0.01718
G1 X155.909 Y79.984 E0.24688
G1 X155.939 Y79.598 E0.01231
G1 X155.963 Y79.498 E0.00328
G1 X150.958 Y74.493 E0.22502
G1 X151.499 Y74.492 E0.01718
G1 X156.068 Y79.062 E0.20543
G1 X156.173 Y78.626 E0.01425
G1 X152.039 Y74.492 E0.18583
G1 X152.580 Y74.492 E0.01718
G1 X156.311 Y78.224 E0.16776
G1 X156.470 Y77.842 E0.01315
G1 X153.120 Y74.492 E0.15057
G1 X153.661 Y74.492 E0.01718
G1 X156.628 Y77.459 E0.13339
G1 X156.825 Y77.115 E0.01259
G1 X154.202 Y74.492 E0.11793
G1 X154.742 Y74.492 E0.01718
G1 X157.030 Y76.780 E0.10287
G1 X157.236 Y76.445 E0.01250
G1 X155.283 Y74.492 E0.08780
G1 X155.823 Y74.492 E0.01718
G1 X157.478 Y76.147 E0.07441
G1 X157.728 Y75.855 E0.01219
G1 X156.364 Y74.492 E0.06130
G1 X156.905 Y74.492 E0.01718
G1 X157.977 Y75.564 E0.04819
G1 X158.260 Y75.307 E0.01217
G1 X157.445 Y74.492 E0.03665
G1 X157.986 Y74.492 E0.01718
G1 X158.552 Y75.058 E0.02546
G1 X158.844 Y74.809 E0.01219
G1 X158.526 Y74.491 E0.01426
G1 X159.067 Y74.491 E0.01718
G1 X159.293 Y74.717 E0.01015
G1 F8640.000
G1 X159.067 Y74.491 E-0.07371
G1 X158.526 Y74.491 E-0.12482
G1 X158.844 Y74.809 E-0.10361
G1 X158.552 Y75.058 E-0.08855
G1 X157.986 Y74.492 E-0.18492
G1 X157.445 Y74.492 E-0.12482
G1 X158.260 Y75.307 E-0.26622
G1 X157.977 Y75.564 E-0.08839
G1 X157.135 Y74.722 E-0.27496
G1 E-0.07000 F2100.00000
G1 Z0.400 F10800.000
G1 X160.679 Y74.172
G1 Z0.200
G1 E1.40000 F2100.00000
G1 F1200.000
G1 X160.991 Y74.108 E0.00606
G1 X161.823 Y74.004 E0.00669
G1 F8640.000
G1 X160.991 Y74.108 E-0.19360
G1 E-1.20640 F2100.00000
G1 Z0.400 F10800.000
G1 X164.752 Y74.009
G1 Z0.200
G1 E1.40000 F2100.00000
G1 F1200.000
G1 X165.019 Y74.040 E0.00183
G1 X165.288 Y74.071 E0.00257
G1 X165.431 Y74.085 E0.00167
G1 X165.576 Y74.115 E0.00218
G1 X165.720 Y74.144 E0.00266
G1 X165.865 Y74.173 E0.00314
G1 F8640.000
G1 X165.720 Y74.144 E-0.03403
G1 E-1.36597 F2100.00000
G1 Z0.400 F10800.000
G1 X165.352 Y98.547
G1 Z0.200
G1 E1.40000 F2100.00000
G1 F1200.000
G1 X166.340 Y98.950 E0.03345
G1 X167.245 Y99.505 E0.03328
G1 X168.052 Y100.194 E0.03327
G1 X168.741 Y101.001 E0.03327
G1 X169.295 Y101.905 E0.03327
G1 X169.701 Y102.886 E0.03327
G1 X169.949 Y103.917 E0.03327
G1 X170.032 Y104.975 E0.03327
G1 X169.949 Y106.033 E0.03327
G1 X169.701 Y107.064 E0.03327
G1 X169.295 Y108.045 E0.03327
G1 X168.741 Y108.949 E0.03327
G1 X168.052 Y109.756 E0.03327
G1 X167.245 Y110.445 E0.03327
G1 X166.340 Y110.999 E0.03327
G1 X165.356 Y111.405 E0.03339
G1 X164.314 Y111.613 E0.03330
G1 X163.271 Y111.655 E0.03274
G1 X162.228 Y111.613 E0.03274
G1 X161.186 Y111.405 E0.03330
G1 X160.202 Y110.999 E0.03339
G1 X159.297 Y110.445 E0.03327
G1 X158.490 Y109.756 E0.03327
G1 X157.801 Y108.949 E0.03327
G1 X157.247 Y108.045 E0.03327
G1 X156.841 Y107.064 E0.03327
G1 X156.593 Y106.033 E0.03327
G1 X156.510 Y104.975 E0.03327
G1 X156.593 Y103.917 E0.03327
G1 X156.841 Y102.886 E0.03327
G1 X157.247 Y101.905 E0.03327
G1 X157.801 Y101.001 E0.03327
G1 X158.490 Y100.194 E0.03327
G1 X159.297 Y99.505 E0.03327
G1 X160.202 Y98.950 E0.03328
G1 X161.190 Y98.547 E0.03345
G1 X162.234 Y98.361 E0.03326
G1 X163.140 Y98.325 E0.02843
G1 X164.307 Y98.361 E0.03661
G1 X165.293 Y98.537 E0.03141
G1 X165.644 Y98.273 F10800.000
G1 F8640.000
G1 X166.340 Y98.950 E-0.25990
G1 X167.245 Y99.505 E-0.24511
G1 X168.052 Y100.194 E-0.24498
G1 X168.741 Y101.001 E-0.24498
G1 X169.295 Y101.905 E-0.24498
G1 X169.445 Y102.266 E-0.09005
G1 E-0.07000 F2100.00000
G1 Z0.400 F10800.000
G1 X160.494 Y98.424
G1 Z0.200
G1 E1.40000 F2100.00000
G1 F1200.000
G1 X160.031 Y98.613 E0.01567
G1 X159.075 Y99.199 E0.03518
G1 X158.223 Y99.927 E0.03513
G1 X157.495 Y100.778 E0.03513
G1 X156.910 Y101.734 E0.03513
G1 X156.481 Y102.769 E0.03513
G1 X156.219 Y103.858 E0.03513
G1 X156.132 Y104.975 E0.03513
G1 X156.219 Y106.092 E0.03513
G1 X156.481 Y107.181 E0.03513
G1 X156.910 Y108.216 E0.03513
G1 X157.495 Y109.171 E0.03513
G1 X158.223 Y110.023 E0.03513
G1 X159.075 Y110.751 E0.03513
G1 X160.030 Y111.337 E0.03515
G1 X160.609 Y111.575 E0.01961
G1 X149.308 Y111.574 E0.35432
G1 X149.308 Y98.426 E0.41227
G1 X160.434 Y98.424 E0.34884
G1 F8640.000
G1 X160.031 Y98.613 E-0.10271
G1 X159.075 Y99.199 E-0.25904
G1 X158.223 Y99.927 E-0.25869
G1 X157.495 Y100.778 E-0.25869
G1 X156.910 Y101.734 E-0.25869
G1 X156.591 Y102.503 E-0.19219
G1 E-0.07000 F2100.00000
