; generated by PrusaSlicer 2.2.0+win64 on 2020-06-26 at 05:50:36 UTC

; 

; external perimeters extrusion width = 0.68mm
; perimeters extrusion width = 0.68mm
; infill extrusion width = 0.68mm
; solid infill extrusion width = 0.68mm
; top infill extrusion width = 0.60mm
; support material extrusion width = 0.55mm
; first layer extrusion width = 0.65mm

M73 P0 R13
M73 Q0 S13
M201 X1000 Y1000 Z200 E5000 ; sets maximum accelerations, mm/sec^2
M203 X200 Y200 Z12 E120 ; sets maximum feedrates, mm/sec
M204 P1250 R1250 T1250 ; sets acceleration (P, T) and retract acceleration (R), mm/sec^2
M205 X8.00 Y8.00 Z0.40 E4.50 ; sets the jerk limits, mm/sec
M205 S0 T0 ; sets the minimum extruding and travel feed rate, mm/sec
M107
M862.3 P "MK3S" ; printer model check
M862.1 P0.6 ; nozzle diameter check
M115 U3.9.0 ; tell printer latest fw version
G90 ; use absolute coordinates
M83 ; extruder relative mode
M104 S240 ; set extruder temp
M140 S85 ; set bed temp
M190 S85 ; wait for bed temp
M109 S240 ; wait for extruder temp
G28 W ; home all without mesh bed level
G80 ; mesh bed leveling
G1 Y-3.0 F1000.0 ; go outside print area
G92 E0.0
G1 X60.0 E9.0 F1000.0 ; intro line
M73 Q0 S13
M73 P0 R13
G1 X100.0 E12.5 F1000.0 ; intro line
G92 E0.0
M221 S95
G21 ; set units to millimeters
G90 ; use absolute coordinates
M83 ; use relative distances for extrusion
M900 K0.05 ; Filament gcode LA 1.5
M900 K24 ; Filament gcode LA 1.0
;BEFORE_LAYER_CHANGE
G92 E0.0
;0.2


G1 E-1.40000 F2100.00000
G1 Z0.200 F10800.000
;AFTER_LAYER_CHANGE
;0.2
G1 Z0.400
G1 X49.495 Y97.299
G1 Z0.200
G1 E1.40000 F2100.00000
M204 S1000
G1 F1200.000
G1 X50.317 Y97.080 E0.04290
G1 X193.844 Y96.794 E7.24510
G1 X198.868 Y97.073 E0.25399
G1 X199.394 Y97.162 E0.02694
G1 X199.975 Y97.402 E0.03174
G1 X200.482 Y97.774 E0.03174
G1 X200.885 Y98.256 E0.03174
G1 X201.159 Y98.818 E0.03154
G1 X201.304 Y99.647 E0.04250
G1 X201.288 Y111.056 E0.57590
G1 X201.105 Y111.764 E0.03693
G1 X200.733 Y112.394 E0.03693
G1 X200.200 Y112.895 E0.03693
G1 X199.553 Y113.228 E0.03673
G1 X198.700 Y113.372 E0.04369
G1 X50.530 Y113.372 E7.47944
G1 X49.604 Y113.187 E0.04766
G1 X48.805 Y112.684 E0.04766
G1 X48.236 Y111.926 E0.04786
G1 X47.975 Y111.019 E0.04766
G1 X47.999 Y99.242 E0.59448
G1 X48.275 Y98.438 E0.04290
G1 X48.791 Y97.768 E0.04270
G1 X49.421 Y97.349 E0.03816
G1 F8640.000
G1 X50.317 Y97.080 E-0.21602
G1 X55.141 Y97.070 E-1.11398
G1 E-0.07000 F2100.00000
G1 Z0.400 F10800.000
G1 X55.795 Y102.395
G1 Z0.200
G1 E1.40000 F2100.00000
G1 F1200.000
G1 X55.795 Y102.864 E0.01980
G1 X56.470 Y102.864 E0.02846
G1 X56.470 Y102.608 E0.01079
G1 X57.145 Y102.608 E0.02846
G1 X57.145 Y102.864 E0.01079
G1 X57.820 Y102.864 E0.02846
G1 X57.820 Y102.608 E0.01079
G1 X58.494 Y102.608 E0.02846
G1 X58.494 Y102.864 E0.01079
G1 X59.169 Y102.864 E0.02846
G1 X59.169 Y102.608 E0.01079
G1 X59.844 Y102.608 E0.02846
G1 X59.844 Y102.864 E0.01079
G1 X60.519 Y102.864 E0.02846
G1 X60.519 Y102.608 E0.01079
G1 X61.194 Y102.608 E0.02846
G1 X61.194 Y102.864 E0.01079
G1 X61.869 Y102.864 E0.02846
G1 X61.869 Y102.608 E0.01079
G1 X62.544 Y102.608 E0.02846
G1 X62.544 Y102.864 E0.01079
G1 X63.219 Y102.864 E0.02846
G1 X63.219 Y102.608 E0.01079
G1 X63.894 Y102.608 E0.02846
G1 X63.894 Y102.864 E0.01079
G1 X64.568 Y102.864 E0.02846
G1 X64.568 Y102.608 E0.01079
G1 X65.243 Y102.608 E0.02846
G1 X65.243 Y102.864 E0.01079
G1 X65.918 Y102.864 E0.02846
G1 X65.918 Y102.608 E0.01079
G1 X66.593 Y102.608 E0.02846
G1 X66.593 Y102.864 E0.01079
G1 X67.268 Y102.864 E0.02846
G1 X67.268 Y102.608 E0.01079
G1 X67.943 Y102.608 E0.02846
G1 X67.943 Y102.864 E0.01079
G1 X68.618 Y102.864 E0.02846
G1 X68.618 Y102.608 E0.01079
G1 X69.293 Y102.608 E0.02846
G1 X69.293 Y102.864 E0.01079
G1 X69.968 Y102.864 E0.02846
G1 X69.968 Y102.608 E0.01079
G1 X70.642 Y102.608 E0.02846
G1 X70.642 Y102.864 E0.01079
G1 X71.317 Y102.864 E0.02846
G1 X71.317 Y102.608 E0.01079
G1 X71.992 Y102.608 E0.02846
G1 X71.992 Y102.864 E0.01079
G1 X72.667 Y102.864 E0.02846
G1 X72.667 Y102.608 E0.01079
G1 X73.342 Y102.608 E0.02846
G1 X73.342 Y102.864 E0.01079
G1 X74.017 Y102.864 E0.02846
G1 X74.017 Y102.608 E0.01079
G1 X74.692 Y102.608 E0.02846
G1 X74.692 Y102.864 E0.01079
G1 X75.367 Y102.864 E0.02846
G1 X75.367 Y102.608 E0.01079
G1 X76.042 Y102.608 E0.02846
G1 X76.042 Y102.864 E0.01079
G1 X76.716 Y102.864 E0.02846
G1 X76.716 Y102.608 E0.01079
G1 X77.391 Y102.608 E0.02846
G1 X77.391 Y102.864 E0.01079
G1 X78.066 Y102.864 E0.02846
G1 X78.066 Y102.608 E0.01079
G1 X78.741 Y102.608 E0.02846
G1 X78.741 Y102.864 E0.01079
G1 X79.416 Y102.864 E0.02846
G1 X79.416 Y102.608 E0.01079
G1 X80.091 Y102.608 E0.02846
G1 X80.091 Y102.864 E0.01079
G1 X80.766 Y102.864 E0.02846
G1 X80.766 Y102.608 E0.01079
G1 X81.441 Y102.608 E0.02846
G1 X81.441 Y102.864 E0.01079
G1 X82.116 Y102.864 E0.02846
G1 X82.116 Y102.608 E0.01079
G1 X82.790 Y102.608 E0.02846
G1 X82.790 Y102.864 E0.01079
G1 X83.465 Y102.864 E0.02846
G1 X83.465 Y102.608 E0.01079
G1 X84.140 Y102.608 E0.02846
G1 X84.140 Y102.864 E0.01079
G1 X84.815 Y102.864 E0.02846
G1 X84.815 Y102.608 E0.01079
G1 X85.490 Y102.608 E0.02846
G1 X85.490 Y102.864 E0.01079
G1 X86.165 Y102.864 E0.02846
G1 X86.165 Y102.608 E0.01079
G1 X86.840 Y102.608 E0.02846
G1 X86.840 Y102.864 E0.01079
G1 X87.515 Y102.864 E0.02846
G1 X87.515 Y102.608 E0.01079
G1 X88.190 Y102.608 E0.02846
G1 X88.190 Y102.864 E0.01079
G1 X88.864 Y102.864 E0.02846
G1 X88.864 Y102.608 E0.01079
G1 X89.539 Y102.608 E0.02846
G1 X89.539 Y102.864 E0.01079
G1 X90.214 Y102.864 E0.02846
G1 X90.214 Y102.608 E0.01079
G1 X90.889 Y102.608 E0.02846
G1 X90.889 Y102.864 E0.01079
G1 X91.564 Y102.864 E0.02846
G1 X91.564 Y102.608 E0.01079
G1 X92.239 Y102.608 E0.02846
G1 X92.239 Y102.864 E0.01079
G1 X92.914 Y102.864 E0.02846
G1 X92.914 Y102.608 E0.01079
G1 X93.589 Y102.608 E0.02846
G1 X93.589 Y102.864 E0.01079
G1 X94.264 Y102.864 E0.02846
G1 X94.264 Y102.608 E0.01079
G1 X94.938 Y102.608 E0.02846
G1 X94.938 Y102.864 E0.01079
G1 X95.613 Y102.864 E0.02846
G1 X95.613 Y102.608 E0.01079
G1 X96.288 Y102.608 E0.02846
G1 X96.288 Y102.864 E0.01079
G1 X96.963 Y102.864 E0.02846
G1 X96.963 Y102.608 E0.01079
G1 X97.638 Y102.608 E0.02846
G1 X97.638 Y102.864 E0.01079
G1 X98.313 Y102.864 E0.02846
G1 X98.313 Y102.608 E0.01079
G1 X98.988 Y102.608 E0.02846
G1 X98.988 Y102.864 E0.01079
G1 X99.663 Y102.864 E0.02846
G1 X99.663 Y102.608 E0.01079
G1 X100.338 Y102.608 E0.02846
G1 X100.338 Y102.864 E0.01079
G1 X101.012 Y102.864 E0.02846
G1 X101.012 Y102.608 E0.01079
G1 X101.687 Y102.608 E0.02846
G1 X101.687 Y102.864 E0.01079
G1 X102.362 Y102.864 E0.02846
G1 X102.362 Y102.608 E0.01079
G1 X103.037 Y102.608 E0.02846
G1 X103.037 Y102.864 E0.01079
G1 X103.712 Y102.864 E0.02846
G1 X103.712 Y102.608 E0.01079
G1 X104.387 Y102.608 E0.02846
G1 X104.387 Y102.864 E0.01079
G1 X105.062 Y102.864 E0.02846
G1 X105.062 Y102.608 E0.01079
G1 X105.737 Y102.608 E0.02846
G1 X105.737 Y102.864 E0.01079
G1 X106.412 Y102.864 E0.02846
G1 X106.412 Y102.608 E0.01079
G1 X107.086 Y102.608 E0.02846
G1 X107.086 Y102.864 E0.01079
G1 X107.761 Y102.864 E0.02846
G1 X107.761 Y102.608 E0.01079
G1 X108.436 Y102.608 E0.02846
G1 X108.436 Y102.864 E0.01079
G1 X109.111 Y102.864 E0.02846
G1 X109.111 Y102.608 E0.01079
G1 X109.786 Y102.608 E0.02846
G1 X109.786 Y102.864 E0.01079
G1 X110.461 Y102.864 E0.02846
G1 X110.461 Y102.608 E0.01079
G1 X111.136 Y102.608 E0.02846
G1 X111.136 Y102.864 E0.01079
G1 X111.811 Y102.864 E0.02846
G1 X111.811 Y102.608 E0.01079
G1 X112.486 Y102.608 E0.02846
G1 X112.486 Y102.864 E0.01079
G1 X113.160 Y102.864 E0.02846
G1 X113.160 Y102.608 E0.01079
G1 X113.835 Y102.608 E0.02846
G1 X113.835 Y102.864 E0.01079
G1 X114.510 Y102.864 E0.02846
G1 X114.510 Y102.608 E0.01079
G1 X115.185 Y102.608 E0.02846
G1 X115.185 Y102.864 E0.01079
G1 X115.860 Y102.864 E0.02846
G1 X115.860 Y102.608 E0.01079
G1 X116.535 Y102.608 E0.02846
G1 X116.535 Y102.864 E0.01079
G1 X117.210 Y102.864 E0.02846
G1 X117.210 Y102.608 E0.01079
G1 X117.885 Y102.608 E0.02846
G1 X117.885 Y102.864 E0.01079
G1 X118.560 Y102.864 E0.02846
G1 X118.560 Y102.608 E0.01079
G1 X119.234 Y102.608 E0.02846
G1 X119.234 Y102.864 E0.01079
G1 X119.909 Y102.864 E0.02846
G1 X119.909 Y102.608 E0.01079
G1 X120.584 Y102.608 E0.02846
G1 X120.584 Y102.864 E0.01080
G1 X121.259 Y102.865 E0.02846
G1 X121.259 Y102.608 E0.01080
G1 X121.934 Y102.608 E0.02846
G1 X121.934 Y102.865 E0.01081
G1 X122.609 Y102.865 E0.02846
G1 X122.609 Y102.608 E0.01081
G1 X123.284 Y102.608 E0.02846
G1 X123.284 Y102.865 E0.01082
G1 X123.959 Y102.865 E0.02846
G1 X123.959 Y102.608 E0.01082
G1 X124.634 Y102.608 E0.02846
G1 X124.634 Y102.865 E0.01083
G1 X125.308 Y102.865 E0.02846
G1 X125.308 Y102.608 E0.01083
G1 X125.983 Y102.608 E0.02846
G1 X125.983 Y102.865 E0.01084
G1 X126.658 Y102.866 E0.02846
G1 X126.658 Y102.608 E0.01084
G1 X127.333 Y102.608 E0.02846
G1 X127.333 Y102.866 E0.01085
G1 X128.008 Y102.866 E0.02846
G1 X128.008 Y102.608 E0.01085
G1 X128.683 Y102.608 E0.02846
G1 X128.683 Y102.866 E0.01085
G1 X129.358 Y102.866 E0.02846
G1 X129.358 Y102.608 E0.01086
G1 X130.033 Y102.608 E0.02846
G1 X130.033 Y102.866 E0.01086
G1 X130.708 Y102.866 E0.02846
G1 X130.708 Y102.608 E0.01087
G1 X131.382 Y102.608 E0.02846
G1 X131.382 Y102.866 E0.01087
G1 X132.057 Y102.866 E0.02846
G1 X132.057 Y102.608 E0.01088
G1 X132.732 Y102.608 E0.02846
G1 X132.732 Y102.867 E0.01088
G1 X133.407 Y102.867 E0.02846
G1 X133.407 Y102.608 E0.01089
G1 X134.082 Y102.608 E0.02846
G1 X134.082 Y102.867 E0.01089
G1 X134.757 Y102.867 E0.02846
G1 X134.757 Y102.608 E0.01090
G1 X135.432 Y102.608 E0.02846
G1 X135.432 Y102.867 E0.01090
G1 X136.107 Y102.867 E0.02846
G1 X136.107 Y102.608 E0.01091
G1 X136.782 Y102.608 E0.02846
G1 X136.782 Y102.867 E0.01091
G1 X137.456 Y102.867 E0.02846
G1 X137.456 Y102.608 E0.01092
G1 X138.131 Y102.608 E0.02846
G1 X138.131 Y102.867 E0.01092
G1 X138.806 Y102.868 E0.02846
G1 X138.806 Y102.608 E0.01093
G1 X139.481 Y102.608 E0.02846
G1 X139.481 Y102.868 E0.01093
G1 X140.156 Y102.868 E0.02846
G1 X140.156 Y102.608 E0.01094
G1 X140.831 Y102.608 E0.02846
G1 X140.831 Y102.868 E0.01094
G1 X141.506 Y102.868 E0.02846
G1 X141.506 Y102.608 E0.01095
G1 X142.181 Y102.608 E0.02846
G1 X142.181 Y102.868 E0.01095
G1 X142.856 Y102.868 E0.02846
G1 X142.856 Y102.608 E0.01096
G1 X143.530 Y102.608 E0.02846
G1 X143.530 Y102.868 E0.01096
G1 X144.205 Y102.868 E0.02846
G1 X144.205 Y102.608 E0.01097
G1 X144.880 Y102.608 E0.02846
G1 X144.880 Y102.869 E0.01097
G1 X145.555 Y102.869 E0.02846
G1 X145.555 Y102.608 E0.01098
G1 X146.230 Y102.608 E0.02846
G1 X146.230 Y102.869 E0.01098
G1 X146.905 Y102.869 E0.02846
G1 X146.905 Y102.608 E0.01099
G1 X147.580 Y102.608 E0.02846
G1 X147.580 Y102.869 E0.01099
G1 X148.255 Y102.869 E0.02846
G1 X148.255 Y102.608 E0.01099
G1 X148.930 Y102.608 E0.02846
G1 X148.930 Y102.869 E0.01100
G1 X149.604 Y102.869 E0.02846
G1 X149.604 Y102.608 E0.01100
G1 X150.279 Y102.608 E0.02846
G1 X150.279 Y102.870 E0.01101
G1 X150.954 Y102.870 E0.02846
G1 X150.954 Y102.608 E0.01101
G1 X151.629 Y102.608 E0.02846
G1 X151.629 Y102.870 E0.01102
G1 X152.304 Y102.870 E0.02846
G1 X152.304 Y102.608 E0.01102
G1 X152.979 Y102.608 E0.02846
G1 X152.979 Y102.870 E0.01103
G1 X153.654 Y102.870 E0.02846
G1 X153.654 Y102.608 E0.01103
G1 X154.329 Y102.608 E0.02846
G1 X154.329 Y102.870 E0.01104
G1 X155.004 Y102.870 E0.02846
G1 X155.004 Y102.608 E0.01104
G1 X155.678 Y102.608 E0.02846
G1 X155.678 Y102.870 E0.01105
G1 X156.353 Y102.871 E0.02846
G1 X156.353 Y102.608 E0.01105
G1 X157.028 Y102.608 E0.02846
G1 X157.028 Y102.871 E0.01106
G1 X157.703 Y102.871 E0.02846
G1 X157.703 Y102.608 E0.01106
G1 X158.378 Y102.608 E0.02846
G1 X158.378 Y102.871 E0.01107
G1 X159.053 Y102.871 E0.02846
G1 X159.053 Y102.608 E0.01107
G1 X159.728 Y102.608 E0.02846
G1 X159.728 Y102.871 E0.01108
G1 X160.403 Y102.871 E0.02846
G1 X160.403 Y102.608 E0.01108
G1 X161.078 Y102.608 E0.02846
G1 X161.078 Y102.871 E0.01109
G1 X161.752 Y102.871 E0.02846
G1 X161.752 Y102.608 E0.01109
G1 X162.427 Y102.608 E0.02846
G1 X162.427 Y102.872 E0.01110
G1 X163.102 Y102.872 E0.02846
G1 X163.102 Y102.608 E0.01110
G1 X163.777 Y102.608 E0.02846
G1 X163.777 Y102.872 E0.01111
G1 X164.452 Y102.872 E0.02846
G1 X164.452 Y102.608 E0.01111
G1 X165.127 Y102.608 E0.02846
G1 X165.127 Y102.872 E0.01112
G1 X165.802 Y102.872 E0.02846
G1 X165.802 Y102.608 E0.01112
G1 X166.477 Y102.608 E0.02846
G1 X166.477 Y102.872 E0.01113
G1 X167.152 Y102.872 E0.02846
G1 X167.152 Y102.608 E0.01113
G1 X167.826 Y102.608 E0.02846
G1 X167.826 Y102.873 E0.01114
G1 X168.501 Y102.873 E0.02846
G1 X168.501 Y102.608 E0.01114
G1 X169.176 Y102.608 E0.02846
G1 X169.176 Y102.873 E0.01114
G1 X169.851 Y102.873 E0.02846
G1 X169.851 Y102.608 E0.01115
G1 X170.526 Y102.608 E0.02846
G1 X170.526 Y102.873 E0.01115
G1 X171.201 Y102.873 E0.02846
G1 X171.201 Y102.608 E0.01116
G1 X171.876 Y102.608 E0.02846
G1 X171.876 Y102.873 E0.01116
G1 X172.551 Y102.873 E0.02846
G1 X172.551 Y102.608 E0.01117
G1 X173.226 Y102.608 E0.02846
G1 X173.226 Y102.873 E0.01117
G1 X173.900 Y102.874 E0.02846
G1 X173.900 Y102.608 E0.01118
G1 X174.575 Y102.608 E0.02846
G1 X174.575 Y102.874 E0.01118
G1 X175.250 Y102.874 E0.02846
G1 X175.250 Y102.608 E0.01119
G1 X175.925 Y102.608 E0.02846
G1 X175.925 Y102.874 E0.01119
G1 X176.600 Y102.874 E0.02846
G1 X176.600 Y102.608 E0.01120
G1 X177.275 Y102.608 E0.02846
G1 X177.275 Y102.874 E0.01120
G1 X177.950 Y102.874 E0.02846
G1 X177.950 Y102.608 E0.01121
G1 X178.625 Y102.608 E0.02846
G1 X178.625 Y102.874 E0.01121
G1 X179.300 Y102.874 E0.02846
G1 X179.300 Y102.608 E0.01122
G1 X179.974 Y102.608 E0.02846
G1 X179.974 Y102.875 E0.01122
G1 X180.649 Y102.875 E0.02846
G1 X180.649 Y102.608 E0.01123
G1 X181.324 Y102.608 E0.02846
G1 X181.324 Y102.875 E0.01123
G1 X181.999 Y102.875 E0.02846
G1 X181.999 Y102.608 E0.01124
G1 X182.674 Y102.608 E0.02846
G1 X182.674 Y102.875 E0.01124
G1 X183.349 Y102.875 E0.02846
G1 X183.349 Y102.608 E0.01125
G1 X184.024 Y102.608 E0.02846
G1 X184.024 Y102.875 E0.01125
G1 X184.699 Y102.875 E0.02846
G1 X184.699 Y102.608 E0.01126
G1 X185.374 Y102.608 E0.02846
G1 X185.374 Y102.875 E0.01126
G1 X186.048 Y102.876 E0.02846
G1 X186.048 Y102.608 E0.01127
G1 X186.723 Y102.608 E0.02846
G1 X186.723 Y102.876 E0.01127
G1 X187.398 Y102.876 E0.02846
G1 X187.398 Y102.608 E0.01128
G1 X188.073 Y102.608 E0.02846
G1 X188.073 Y102.876 E0.01128
G1 X188.748 Y102.876 E0.02846
G1 X188.748 Y102.608 E0.01128
G1 X189.423 Y102.608 E0.02846
G1 X189.423 Y102.876 E0.01129
G1 X190.098 Y102.876 E0.02846
G1 X190.098 Y102.608 E0.01129
G1 X190.773 Y102.608 E0.02846
G1 X190.773 Y102.876 E0.01130
G1 X191.448 Y102.877 E0.02846
G1 X191.448 Y102.608 E0.01130
G1 X192.122 Y102.608 E0.02846
G1 X192.122 Y102.877 E0.01131
G1 X192.797 Y102.877 E0.02846
G1 X192.797 Y102.608 E0.01131
G1 X193.472 Y102.608 E0.02846
G1 X193.472 Y103.091 E0.02033
G1 F8640.000
G1 X193.472 Y102.608 E-0.11133
G1 X192.797 Y102.608 E-0.15583
G1 X192.797 Y102.877 E-0.06196
G1 X192.122 Y102.877 E-0.15583
G1 X192.122 Y102.608 E-0.06193
G1 X191.448 Y102.608 E-0.15583
G1 X191.448 Y102.877 E-0.06191
G1 X190.773 Y102.876 E-0.15583
G1 X190.773 Y102.608 E-0.06188
G1 X190.098 Y102.608 E-0.15583
G1 X190.098 Y102.876 E-0.06185
G1 X189.535 Y102.876 E-0.12998
G1 E-0.07000 F2100.00000
G1 Z0.400 F10800.000
G1 X192.626 Y103.720
G1 Z0.200
G1 E1.40000 F2100.00000
G1 F1200.000
G1 X192.626 Y103.418 E0.01523
G1 X191.412 Y103.418 E0.06129
G1 X191.412 Y103.446 E0.00144
G1 X190.198 Y103.446 E0.06129
G1 X190.198 Y103.417 E0.00144
G1 X188.984 Y103.417 E0.06129
G1 X188.984 Y103.446 E0.00145
G1 X187.770 Y103.446 E0.06129
G1 X187.770 Y103.417 E0.00145
G1 X186.556 Y103.417 E0.06129
G1 X186.556 Y103.445 E0.00145
G1 X185.342 Y103.445 E0.06129
G1 X185.342 Y103.417 E0.00145
G1 X184.127 Y103.416 E0.06129
G1 X184.127 Y103.445 E0.00146
G1 X182.913 Y103.445 E0.06129
G1 X182.913 Y103.416 E0.00147
G1 X181.699 Y103.416 E0.06129
G1 X181.699 Y103.445 E0.00148
G1 X180.485 Y103.445 E0.06129
G1 X180.485 Y103.416 E0.00149
G1 X179.271 Y103.416 E0.06129
G1 X179.271 Y103.445 E0.00150
G1 X178.057 Y103.445 E0.06129
G1 X178.057 Y103.415 E0.00151
G1 X176.842 Y103.415 E0.06129
G1 X176.842 Y103.697 E0.01422
G1 X176.704 Y104.025 E0.01798
