; generated by PrusaSlicer 2.3.0+win64 on 2021-11-20 at 20:19:33 UTC

; 

; external perimeters extrusion width = 0.25mm
; perimeters extrusion width = 0.25mm
; infill extrusion width = 0.25mm
; solid infill extrusion width = 0.25mm
; top infill extrusion width = 0.25mm
; first layer extrusion width = 0.30mm

M73 P0 R8
M73 Q0 S8
M201 X1000 Y1000 Z200 E5000 ; sets maximum accelerations, mm/sec^2
M203 X200 Y200 Z12 E120 ; sets maximum feedrates, mm/sec
M204 P1250 R1250 T1250 ; sets acceleration (P, T) and retract acceleration (R), mm/sec^2
M205 X8.00 Y8.00 Z0.40 E4.50 ; sets the jerk limits, mm/sec
M205 S0 T0 ; sets the minimum extruding and travel feed rate, mm/sec
M107
;TYPE:Custom
M862.3 P "MK3S" ; printer model check
M862.1 P0.25 ; nozzle diameter check
M115 U3.9.1 ; tell printer latest fw version
G90 ; use absolute coordinates
M83 ; extruder relative mode
M104 S240 ; set extruder temp
M140 S85 ; set bed temp
M190 S85 ; wait for bed temp
M109 S240 ; wait for extruder temp
G28 W ; home all without mesh bed level
G80 ; mesh bed leveling
G1 Y-3.0 F1000.0 ; go outside print area
G92 E0.0
G1 X60.0 E8.0 F700.0 ; intro line
M73 P1 R8
M73 Q1 S8
G1 X100.0 E12.5 F700.0 ; intro line
G92 E0.0
M221 S95

; Don't change E value below. Excessive value can damage the printer.
M907 E430 ; set extruder motor current
G21 ; set units to millimeters
G90 ; use absolute coordinates
M83 ; use relative distances for extrusion
M900 K0.08 ; Filament gcode LA 1.5
M900 K45 ; Filament gcode LA 1.0
;LAYER_CHANGE
;Z:0.2
;HEIGHT:0.2
;BEFORE_LAYER_CHANGE
G92 E0.0
;0.2


G1 E-1.40000 F2100.000
G1 Z0.200 F10800.000
;AFTER_LAYER_CHANGE
;0.2
G1 Z0.400
G1 X115.306 Y97.201
M73 P2 R8
M73 Q2 S8
G1 Z0.200
G1 E1.40000 F2100.000
M204 S500
;TYPE:Skirt
;WIDTH:0.3
G1 F1200.000
G1 X115.835 Y96.290 E0.02251
G1 X116.295 Y95.829 E0.01392
G1 X116.865 Y95.456 E0.01457
G1 X117.452 Y95.222 E0.01350
G1 X118.124 Y95.102 E0.01460
G1 X131.640 Y95.093 E0.28891
G1 X132.211 Y95.143 E0.01227
G1 X132.768 Y95.294 E0.01232
G1 X133.327 Y95.564 E0.01328
G1 X133.790 Y95.901 E0.01223
G1 X134.214 Y96.350 E0.01321
G1 X134.519 Y96.818 E0.01194
G1 X134.739 Y97.332 E0.01194
G1 X134.878 Y97.930 E0.01314
G1 X134.905 Y111.759 E0.29561
G1 X134.695 Y112.795 E0.02260
G1 X134.168 Y113.707 E0.02251
G1 X133.686 Y114.186 E0.01453
G1 X133.077 Y114.574 E0.01543
G1 X132.394 Y114.818 E0.01549
G1 X131.723 Y114.906 E0.01447
G1 X118.202 Y114.903 E0.28903
G1 X117.217 Y114.700 E0.02150
G1 X116.301 Y114.176 E0.02256
G1 X115.828 Y113.702 E0.01431
G1 X115.434 Y113.090 E0.01556
G1 X115.188 Y112.419 E0.01529
G1 X115.094 Y111.707 E0.01535
G1 X115.096 Y98.233 E0.28803
G1 X115.299 Y97.238 E0.02171
M204 S1000
G1 X115.549 Y97.289 F10800.000
M204 S500
G1 F1200.000
G1 X116.045 Y96.438 E0.02105
G1 X116.465 Y96.023 E0.01262
G1 X116.992 Y95.680 E0.01345
G1 X117.529 Y95.468 E0.01234
M73 Q3 S8
G1 X118.146 Y95.358 E0.01339
G1 X131.640 Y95.350 E0.28845
M73 P3 R8
G1 X132.681 Y95.536 E0.02262
G1 X133.625 Y96.098 E0.02346
G1 X134.298 Y96.950 E0.02320
G1 X134.626 Y97.987 E0.02325
G1 X134.648 Y111.745 E0.29411
M73 P3 R7
G1 X134.452 Y112.711 E0.02106
G1 X133.955 Y113.562 E0.02107
G1 X133.514 Y113.994 E0.01321
G1 X132.949 Y114.350 E0.01427
G1 X132.322 Y114.571 E0.01422
G1 X131.703 Y114.649 E0.01333
G1 X118.238 Y114.647 E0.28783
M73 Q3 S7
G1 X117.308 Y114.459 E0.02029
G1 X116.447 Y113.963 E0.02124
G1 X115.982 Y113.483 E0.01428
G1 X115.660 Y112.967 E0.01301
G1 X115.435 Y112.349 E0.01404
G1 X115.350 Y111.692 E0.01417
G1 X115.352 Y98.251 E0.28732
G1 X115.541 Y97.325 E0.02019
M204 S1000
G1 X115.790 Y97.376 F10800.000
M204 S500
G1 F1200.000
G1 X116.255 Y96.588 E0.01956
G1 X116.637 Y96.214 E0.01143
G1 X117.125 Y95.900 E0.01240
G1 X117.613 Y95.711 E0.01119
G1 X118.189 Y95.613 E0.01249
G1 X131.639 Y95.607 E0.28752
G1 X132.592 Y95.777 E0.02068
G1 X133.462 Y96.297 E0.02167
G1 X134.076 Y97.080 E0.02127
G1 X134.374 Y98.037 E0.02142
G1 X134.391 Y111.729 E0.29267
M73 P4 R7
M73 Q4 S7
G1 X134.209 Y112.626 E0.01957
G1 X133.743 Y113.415 E0.01959
G1 X133.345 Y113.800 E0.01183
G1 X132.829 Y114.123 E0.01302
G1 X132.257 Y114.322 E0.01294
G1 X131.697 Y114.392 E0.01206
G1 X118.253 Y114.391 E0.28738
G1 X117.394 Y114.217 E0.01874
G1 X116.597 Y113.753 E0.01972
G1 X116.177 Y113.314 E0.01298
G1 X115.886 Y112.843 E0.01184
G1 X115.684 Y112.284 E0.01271
G1 X115.607 Y111.681 E0.01299
G1 X115.609 Y98.268 E0.28673
G1 X115.783 Y97.413 E0.01865
M204 S1000
;WIPE_START
G1 F8640.000
G1 X116.255 Y96.588 E-0.21944
G1 X116.637 Y96.214 E-0.12348
G1 X117.125 Y95.900 E-0.13392
G1 X117.613 Y95.711 E-0.12089
G1 X118.189 Y95.613 E-0.13490
G1 X120.776 Y95.611 E-0.59736
;WIPE_END
G1 E-0.07000 F2100.000
G1 Z0.400 F10800.000
G1 X118.842 Y98.842
G1 Z0.200
G1 E1.40000 F2100.000
M204 S500
;TYPE:Perimeter
G1 F1200.000
G1 X131.158 Y98.842 E0.26326
G1 X131.158 Y111.158 E0.26326
G1 X118.842 Y111.158 E0.26326
M73 Q5 S7
G1 X118.842 Y98.880 E0.26246
M204 S1000
M73 P5 R7
G1 X119.099 Y99.099 F10800.000
M204 S500
;TYPE:External perimeter
G1 F1200.000
G1 X130.901 Y99.099 E0.25227
G1 X130.901 Y110.901 E0.25227
G1 X119.099 Y110.901 E0.25227
G1 X119.099 Y99.137 E0.25147
M204 S1000
G1 X119.035 Y98.858 F10800.000
G1 X118.470 Y98.470
M204 S500
;TYPE:Perimeter
G1 F1200.000
G1 X131.530 Y98.471 E0.27918
G1 X131.530 Y111.530 E0.27916
G1 X118.470 Y111.530 E0.27918
M73 P6 R7
M73 Q6 S7
G1 X118.470 Y98.507 E0.27838
M204 S1000
G1 X118.228 Y98.303 F10800.000
M204 S500
;TYPE:External perimeter
G1 F1200.000
G1 X118.319 Y98.222 E0.00259
G1 X118.376 Y98.213 E0.00125
G1 X131.634 Y98.214 E0.28340
G1 X131.744 Y98.262 E0.00256
G1 X131.787 Y98.379 E0.00267
G1 X131.787 Y111.621 E0.28305
G1 X131.744 Y111.738 E0.00267
G1 X131.681 Y111.778 E0.00159
G1 X131.624 Y111.787 E0.00125
G1 X118.376 Y111.787 E0.28318
G1 X118.319 Y111.778 E0.00125
G1 X118.256 Y111.738 E0.00159
G1 X118.213 Y111.621 E0.00267
G1 X118.221 Y98.340 E0.28390
M204 S1000
G1 X118.349 Y98.307 F10800.000
G1 X118.666 Y98.666
M204 S500
;TYPE:Gap fill
;WIDTH:0.158122
G1 F1200.000
G1 X131.334 Y98.667 E0.12135
G1 X131.334 Y111.334 E0.12134
M73 P7 R7
M73 Q7 S7
G1 X118.666 Y111.334 E0.12135
G1 X118.656 Y98.714 E0.12089
;WIDTH:0.177875
G1 X118.658 Y98.703 E0.00013
M204 S1000
;LAYER_CHANGE
;Z:0.35
;HEIGHT:0.15
;BEFORE_LAYER_CHANGE
G92 E0.0
;0.35


;WIPE_START
G1 F8640.000
G1 X124.418 Y98.686 E-1.33000
;WIPE_END
G1 E-0.07000 F2100.000
G1 Z0.400 F10800.000
;AFTER_LAYER_CHANGE
;0.35
M104 S250 ; set temperature
M140 S90 ; set bed temperature
G1 X115.306 Y97.201
G1 Z0.350
G1 E1.40000 F2100.000
;TYPE:Skirt
;WIDTH:0.3
G1 F1743
G1 X115.835 Y96.290 E0.01759
G1 X116.295 Y95.829 E0.01088
G1 X116.865 Y95.456 E0.01138
G1 X117.452 Y95.222 E0.01055
G1 X118.124 Y95.102 E0.01141
G1 X131.640 Y95.093 E0.22573
G1 X132.211 Y95.143 E0.00958
G1 X132.768 Y95.294 E0.00963
G1 X133.327 Y95.564 E0.01038
G1 X133.790 Y95.901 E0.00956
G1 X134.214 Y96.350 E0.01032
G1 X134.519 Y96.818 E0.00933
G1 X134.739 Y97.332 E0.00933
G1 X134.878 Y97.930 E0.01027
G1 X134.905 Y111.759 E0.23096
G1 X134.695 Y112.795 E0.01765
G1 X134.168 Y113.707 E0.01759
G1 X133.686 Y114.186 E0.01136
G1 X133.077 Y114.574 E0.01205
G1 X132.394 Y114.818 E0.01211
G1 X131.723 Y114.906 E0.01130
G1 X118.202 Y114.903 E0.22582
G1 X117.217 Y114.700 E0.01680
G1 X116.301 Y114.176 E0.01762
G1 X115.828 Y113.702 E0.01118
G1 X115.434 Y113.090 E0.01216
G1 X115.188 Y112.419 E0.01195
G1 X115.094 Y111.707 E0.01199
G1 X115.096 Y98.233 E0.22504
M73 Q8 S7
G1 X115.299 Y97.238 E0.01696
G1 X115.549 Y97.289 F10800.000
G1 F1743
G1 X116.045 Y96.438 E0.01645
G1 X116.465 Y96.023 E0.00986
M73 P8 R7
G1 X116.992 Y95.680 E0.01051
G1 X117.529 Y95.468 E0.00964
G1 X118.146 Y95.358 E0.01046
G1 X131.640 Y95.350 E0.22537
G1 X132.681 Y95.536 E0.01768
G1 X133.625 Y96.098 E0.01833
G1 X134.298 Y96.950 E0.01813
G1 X134.626 Y97.987 E0.01817
G1 X134.648 Y111.745 E0.22979
G1 X134.452 Y112.711 E0.01645
G1 X133.955 Y113.562 E0.01646
G1 X133.514 Y113.994 E0.01032
G1 X132.949 Y114.350 E0.01115
G1 X132.322 Y114.571 E0.01111
G1 X131.703 Y114.649 E0.01042
G1 X118.238 Y114.647 E0.22488
G1 X117.308 Y114.459 E0.01585
G1 X116.447 Y113.963 E0.01660
G1 X115.982 Y113.483 E0.01115
G1 X115.660 Y112.967 E0.01017
G1 X115.435 Y112.349 E0.01097
G1 X115.350 Y111.692 E0.01107
G1 X115.352 Y98.251 E0.22449
G1 X115.541 Y97.325 E0.01577
G1 X115.790 Y97.376 F10800.000
G1 F1743
G1 X116.255 Y96.588 E0.01528
G1 X116.637 Y96.214 E0.00893
G1 X117.125 Y95.900 E0.00969
G1 X117.613 Y95.711 E0.00874
G1 X118.189 Y95.613 E0.00976
G1 X131.639 Y95.607 E0.22464
G1 X132.592 Y95.777 E0.01616
G1 X133.462 Y96.297 E0.01693
G1 X134.076 Y97.080 E0.01662
G1 X134.374 Y98.037 E0.01674
G1 X134.391 Y111.729 E0.22866
G1 X134.209 Y112.626 E0.01529
G1 X133.743 Y113.415 E0.01531
G1 X133.345 Y113.800 E0.00924
G1 X132.829 Y114.123 E0.01017
G1 X132.257 Y114.322 E0.01011
G1 X131.697 Y114.392 E0.00943
G1 X118.253 Y114.391 E0.22453
G1 X117.394 Y114.217 E0.01464
G1 X116.597 Y113.753 E0.01541
G1 X116.177 Y113.314 E0.01014
G1 X115.886 Y112.843 E0.00925
G1 X115.684 Y112.284 E0.00993
M73 Q9 S7
G1 X115.607 Y111.681 E0.01015
G1 X115.609 Y98.268 E0.22402
M73 P9 R7
G1 X115.783 Y97.413 E0.01457
;WIPE_START
G1 F8640.000
G1 X116.255 Y96.588 E-0.21944
G1 X116.637 Y96.214 E-0.12348
G1 X117.125 Y95.900 E-0.13392
G1 X117.613 Y95.711 E-0.12089
G1 X118.189 Y95.613 E-0.13490
G1 X120.776 Y95.611 E-0.59736
;WIPE_END
G1 E-0.07000 F2100.000
G1 Z0.550 F10800.000
G1 X131.311 Y98.689
G1 Z0.350
G1 E1.40000 F2100.000
M204 S500
;TYPE:Perimeter
;WIDTH:0.25
G1 F1743
G1 X131.311 Y111.311 E0.17146
G1 X118.689 Y111.311 E0.17146
G1 X118.689 Y98.689 E0.17146
G1 X131.274 Y98.689 E0.17095
M204 S1000
G1 X131.094 Y98.906 F10800.000
M204 S500
G1 F1743
G1 X131.094 Y111.094 E0.16554
G1 X118.906 Y111.094 E0.16554
G1 X118.906 Y98.906 E0.16554
G1 X131.056 Y98.906 E0.16503
M204 S1000
M73 Q10 S7
G1 X130.876 Y99.124 F10800.000
M204 S500
;TYPE:External perimeter
G1 F1200.000
G1 X130.876 Y110.876 E0.15962
M73 P10 R7
G1 X119.124 Y110.876 E0.15962
G1 X119.124 Y99.124 E0.15962
G1 X130.838 Y99.124 E0.15911
M204 S1000
G1 X131.117 Y99.060 F10800.000
G1 X130.838 Y98.474
M204 S500
;TYPE:Perimeter
G1 F1743
G1 X131.526 Y98.474 E0.00935
G1 X131.526 Y111.526 E0.17730
G1 X118.474 Y111.526 E0.17730
G1 X118.474 Y98.474 E0.17730
G1 X130.801 Y98.474 E0.16744
M204 S1000
G1 X131.677 Y98.270 F10800.000
M204 S500
G1 F1743
G1 X131.729 Y98.326 E0.00103
G1 X131.744 Y98.400 E0.00102
G1 X131.744 Y111.600 E0.17930
M73 P11 R7
M73 Q11 S7
G1 X131.720 Y111.694 E0.00131
G1 X131.667 Y111.732 E0.00089
G1 X131.603 Y111.744 E0.00089
G1 X118.397 Y111.744 E0.17937
G1 X118.303 Y111.717 E0.00133
G1 X118.271 Y111.674 E0.00073
G1 X118.256 Y111.600 E0.00102
G1 X118.256 Y98.400 E0.17930
G1 X118.280 Y98.306 E0.00131
G1 X118.333 Y98.268 E0.00089
G1 X118.397 Y98.256 E0.00089
G1 X131.641 Y98.263 E0.17988
M204 S1000
G1 X131.683 Y98.049 F10800.000
M204 S500
;TYPE:External perimeter
G1 F1200.000
G1 X131.759 Y98.064 E0.00105
G1 X131.848 Y98.120 E0.00144
G1 X131.932 Y98.236 E0.00194
G1 X131.962 Y98.377 E0.00196
G1 X131.962 Y111.623 E0.17992
G1 X131.931 Y111.768 E0.00201
G1 X131.881 Y111.847 E0.00127
G1 X131.755 Y111.936 E0.00210
G1 X131.624 Y111.962 E0.00182
G1 X118.376 Y111.962 E0.17994
G1 X118.241 Y111.936 E0.00187
G1 X118.152 Y111.880 E0.00144
G1 X118.068 Y111.764 E0.00194
G1 X118.038 Y111.623 E0.00196
G1 X118.038 Y98.377 E0.17992
G1 X118.069 Y98.232 E0.00201
G1 X118.119 Y98.153 E0.00127
G1 X118.245 Y98.064 E0.00210
G1 X118.376 Y98.038 E0.00182
G1 X131.646 Y98.042 E0.18024
M204 S1000
G1 X131.712 Y98.121 F10800.000
;LAYER_CHANGE
;Z:0.5
;HEIGHT:0.15
;BEFORE_LAYER_CHANGE
G92 E0.0
;0.5


;WIPE_START
G1 F8640.000
G1 X131.759 Y98.064 E-0.02659
G1 X131.848 Y98.120 E-0.02443
G1 X131.932 Y98.236 E-0.03292
G1 X131.962 Y98.377 E-0.03336
G1 X131.962 Y103.629 E-1.21269
;WIPE_END
M73 Q12 S7
G1 E-0.07000 F2100.000
G1 Z0.550 F10800.000
;AFTER_LAYER_CHANGE
;0.5
G1 X134.695 Y112.795
M73 P12 R7
G1 Z0.500
G1 E1.40000 F2100.000
;TYPE:Skirt
;WIDTH:0.3
G1 F2235
G1 X134.168 Y113.707 E0.01759
G1 X133.686 Y114.186 E0.01136
G1 X133.077 Y114.574 E0.01205
G1 X132.394 Y114.818 E0.01211
G1 X131.723 Y114.906 E0.01130
G1 X118.202 Y114.903 E0.22582
G1 X117.217 Y114.700 E0.01680
G1 X116.301 Y114.176 E0.01762
G1 X115.828 Y113.702 E0.01118
G1 X115.434 Y113.090 E0.01216
G1 X115.188 Y112.419 E0.01195
G1 X115.094 Y111.707 E0.01199
G1 X115.096 Y98.233 E0.22504
G1 X115.306 Y97.201 E0.01759
G1 X115.835 Y96.290 E0.01759
G1 X116.295 Y95.829 E0.01088
G1 X116.865 Y95.456 E0.01138
G1 X117.452 Y95.222 E0.01055
G1 X118.124 Y95.102 E0.01141
G1 X131.640 Y95.093 E0.22573
G1 X132.211 Y95.143 E0.00958
G1 X132.768 Y95.294 E0.00963
G1 X133.327 Y95.564 E0.01038
G1 X133.790 Y95.901 E0.00956
G1 X134.214 Y96.350 E0.01032
G1 X134.519 Y96.818 E0.00933
G1 X134.739 Y97.332 E0.00933
G1 X134.878 Y97.930 E0.01027
G1 X134.905 Y111.759 E0.23096
G1 X134.702 Y112.758 E0.01703
G1 X134.453 Y112.708 F10800.000
G1 F2235
G1 X133.955 Y113.562 E0.01651
G1 X133.514 Y113.994 E0.01032
G1 X132.949 Y114.350 E0.01115
G1 X132.322 Y114.571 E0.01111
G1 X131.703 Y114.649 E0.01042
G1 X118.238 Y114.647 E0.22488
G1 X117.308 Y114.459 E0.01585
G1 X116.447 Y113.963 E0.01660
G1 X115.982 Y113.483 E0.01115
G1 X115.660 Y112.967 E0.01017
G1 X115.435 Y112.349 E0.01097
G1 X115.350 Y111.692 E0.01107
G1 X115.352 Y98.251 E0.22449
G1 X115.549 Y97.286 E0.01645
G1 X116.045 Y96.438 E0.01640
G1 X116.465 Y96.023 E0.00986
G1 X116.992 Y95.680 E0.01051
G1 X117.529 Y95.468 E0.00964
G1 X118.146 Y95.358 E0.01046
G1 X131.640 Y95.350 E0.22537
G1 X132.681 Y95.536 E0.01768
G1 X133.625 Y96.098 E0.01833
G1 X134.298 Y96.950 E0.01813
G1 X134.626 Y97.987 E0.01817
G1 X134.648 Y111.745 E0.22979
G1 X134.460 Y112.671 E0.01577
G1 X134.210 Y112.620 F10800.000
G1 F2235
G1 X133.743 Y113.415 E0.01540
G1 X133.345 Y113.800 E0.00924
G1 X132.829 Y114.123 E0.01017
G1 X132.257 Y114.322 E0.01011
G1 X131.697 Y114.392 E0.00943
G1 X118.253 Y114.391 E0.22453
M73 Q13 S7
G1 X117.394 Y114.217 E0.01464
G1 X116.597 Y113.753 E0.01541
G1 X116.177 Y113.314 E0.01014
M73 P13 R7
G1 X115.886 Y112.843 E0.00925
G1 X115.684 Y112.284 E0.00993
G1 X115.607 Y111.681 E0.01015
G1 X115.609 Y98.268 E0.22402
G1 X115.791 Y97.374 E0.01523
G1 X116.255 Y96.588 E0.01524
G1 X116.637 Y96.214 E0.00893
G1 X117.125 Y95.900 E0.00969
G1 X117.613 Y95.711 E0.00874
G1 X118.189 Y95.613 E0.00976
G1 X131.639 Y95.607 E0.22464
G1 X132.592 Y95.777 E0.01616
G1 X133.462 Y96.297 E0.01693
G1 X134.076 Y97.080 E0.01662
G1 X134.374 Y98.037 E0.01674
G1 X134.391 Y111.729 E0.22866
G1 X134.218 Y112.584 E0.01457
;WIPE_START
G1 F8640.000
G1 X133.743 Y113.415 E-0.22106
G1 X133.345 Y113.800 E-0.12776
G1 X132.829 Y114.123 E-0.14065
G1 X132.257 Y114.322 E-0.13979
G1 X131.697 Y114.392 E-0.13032
G1 X129.227 Y114.392 E-0.57043
;WIPE_END
G1 E-0.07000 F2100.000
G1 Z0.700 F10800.000
G1 X131.311 Y111.311
G1 Z0.500
G1 E1.40000 F2100.000
M204 S500
;TYPE:Perimeter
;WIDTH:0.25
G1 F1800.000
G1 X118.689 Y111.311 E0.17146
G1 X118.689 Y98.689 E0.17146
G1 X131.311 Y98.689 E0.17146
G1 X131.311 Y111.274 E0.17095
M204 S1000
G1 X131.094 Y111.094 F10800.000
M204 S500
G1 F1800.000
G1 X118.906 Y111.094 E0.16554
G1 X118.906 Y98.906 E0.16554
M73 Q14 S7
G1 X131.094 Y98.906 E0.16554
M73 P14 R7
G1 X131.094 Y111.056 E0.16503
M204 S1000
G1 X130.876 Y110.876 F10800.000
M204 S500
;TYPE:External perimeter
G1 F1200.000
G1 X119.124 Y110.876 E0.15962
G1 X119.124 Y99.124 E0.15962
G1 X130.876 Y99.124 E0.15962
G1 X130.876 Y110.838 E0.15911
M204 S1000
G1 X130.940 Y111.117 F10800.000
;WIPE_START
G1 F8640.000
G1 X125.116 Y110.857 E-1.33000
;WIPE_END
G1 E-0.07000 F2100.000
G1 Z0.700 F10800.000
G1 X131.575 Y111.575
G1 Z0.500
G1 E1.40000 F2100.000
M204 S500
;TYPE:Perimeter
G1 F1800.000
G1 X118.425 Y111.575 E0.17863
G1 X118.425 Y98.425 E0.17863
M73 Q15 S7
G1 X131.575 Y98.425 E0.17863
M73 P15 R7
G1 X131.575 Y111.538 E0.17812
M204 S1000
G1 X131.695 Y111.778 F10800.000
M204 S500
G1 F1800.000
G1 X131.621 Y111.793 E0.00103
G1 X118.391 Y111.793 E0.17970
G1 X118.323 Y111.782 E0.00094
G1 X118.248 Y111.738 E0.00117
G1 X118.207 Y111.604 E0.00191
G1 X118.207 Y98.396 E0.17941
G1 X118.252 Y98.262 E0.00192
G1 X118.293 Y98.231 E0.00069
G1 X118.395 Y98.207 E0.00142
