; generated by PrusaSlicer 2.3.0+win64 on 2021-09-09 at 20:03:38 UTC

; 

; external perimeters extrusion width = 0.45mm
; perimeters extrusion width = 0.45mm
; infill extrusion width = 0.45mm
; solid infill extrusion width = 0.45mm
; top infill extrusion width = 0.40mm
; support material extrusion width = 0.35mm
; first layer extrusion width = 0.42mm

M73 P0 R130
M73 Q0 S130
M201 X1000 Y1000 Z200 E5000 ; sets maximum accelerations, mm/sec^2
M203 X200 Y200 Z12 E120 ; sets maximum feedrates, mm/sec
M204 P1250 R1250 T1250 ; sets acceleration (P, T) and retract acceleration (R), mm/sec^2
M205 X8.00 Y8.00 Z0.40 E4.50 ; sets the jerk limits, mm/sec
M205 S0 T0 ; sets the minimum extruding and travel feed rate, mm/sec
M107
;TYPE:Custom
M862.3 P "MK3S" ; printer model check
M862.1 P0.4 ; nozzle diameter check
M115 U3.9.1 ; tell printer latest fw version
G90 ; use absolute coordinates
M83 ; extruder relative mode
M104 S215 ; set extruder temp
M140 S60 ; set bed temp
M190 S60 ; wait for bed temp
M109 S215 ; wait for extruder temp
G28 W ; home all without mesh bed level
G80 ; mesh bed leveling
G1 Y-3.0 F1000.0 ; go outside print area
G92 E0.0
G1 X60.0 E9.0 F1000.0 ; intro line
G1 X100.0 E12.5 F1000.0 ; intro line
G92 E0.0
M221 S95

; Don't change E values below. Excessive value can damage the printer.
M907 E430 ; set extruder motor current
G21 ; set units to millimeters
G90 ; use absolute coordinates
M83 ; use relative distances for extrusion
M900 K0.05 ; Filament gcode LA 1.5
M900 K30 ; Filament gcode LA 1.0
;LAYER_CHANGE
;Z:0.2
;HEIGHT:0.2
;BEFORE_LAYER_CHANGE
G92 E0.0
;0.2


G1 E-0.80000 F2100.000
G1 Z0.600 F10800.000
;AFTER_LAYER_CHANGE
;0.2
G1 X103.815 Y122.034
G1 Z0.200
G1 E0.80000 F2100.000
M204 S1000
;TYPE:Skirt
;WIDTH:0.42
M73 P0 R129
G1 F1200.000
G1 X104.054 Y121.370 E0.02213
G1 X104.481 Y120.803 E0.02225
G1 X105.056 Y120.387 E0.02225
G1 X105.724 Y120.160 E0.02213
G1 X114.446 Y120.123 E0.27345
G1 X115.136 Y120.226 E0.02190
G1 X131.413 Y125.312 E0.53469
G1 X132.763 Y125.895 E0.04608
G1 X134.087 Y126.604 E0.04709
G1 X135.825 Y127.772 E0.06565
G1 X136.974 Y128.724 E0.04680
G1 X138.513 Y130.294 E0.06892
G1 X139.864 Y132.066 E0.06988
G1 X140.968 Y133.960 E0.06874
G1 X141.553 Y135.244 E0.04424
G1 X142.033 Y136.569 E0.04417
G1 X142.578 Y138.733 E0.06999
G1 X142.845 Y140.908 E0.06868
G1 X142.845 Y143.094 E0.06856
G1 X142.572 Y145.295 E0.06952
G1 X142.049 Y147.383 E0.06749
G1 X141.281 Y149.386 E0.06725
G1 X140.582 Y150.764 E0.04847
G1 X139.419 Y152.571 E0.06737
G1 X138.025 Y154.246 E0.06833
G1 X136.465 Y155.718 E0.06725
G1 X134.707 Y157.013 E0.06844
G1 X133.366 Y157.799 E0.04876
G1 X132.090 Y158.412 E0.04436
G1 X130.729 Y158.935 E0.04573
G1 X114.959 Y163.990 E0.51923
G1 X114.445 Y164.047 E0.01621
G1 X105.681 Y164.001 E0.27482
G1 X104.944 Y163.720 E0.02473
G1 X104.341 Y163.217 E0.02461
G1 X103.936 Y162.545 E0.02461
G1 X103.771 Y161.774 E0.02473
G1 X103.815 Y122.094 E1.24413
;WIPE_START
G1 F8640.000
G1 X104.054 Y121.370 E-0.17608
G1 X104.481 Y120.803 E-0.16385
G1 X105.056 Y120.387 E-0.16385
G1 X105.724 Y120.160 E-0.16298
G1 X106.128 Y120.159 E-0.09322
;WIPE_END
G1 E-0.04000 F2100.000
G1 Z0.800 F10800.000
G1 X114.442 Y126.256
G1 Z0.200
G1 E0.80000 F2100.000
;TYPE:Support material
G1 F1200.000
G1 X114.442 Y122.500 E0.11778
G1 X113.688 Y122.500 E0.02365
G1 X113.688 Y126.086 E0.11246
G1 X112.933 Y126.086 E0.02365
G1 X112.933 Y122.500 E0.11246
G1 X112.179 Y122.500 E0.02365
G1 X112.179 Y126.086 E0.11246
G1 X111.425 Y126.086 E0.02365
G1 X111.425 Y122.500 E0.11246
G1 X110.671 Y122.500 E0.02365
G1 X110.671 Y126.086 E0.11246
G1 X109.917 Y126.086 E0.02365
G1 X109.917 Y122.500 E0.11246
G1 X109.163 Y122.500 E0.02365
G1 X109.163 Y161.500 E1.22284
G1 X108.409 Y161.500 E0.02365
G1 X108.409 Y122.500 E1.22284
G1 X107.654 Y122.500 E0.02365
G1 X107.654 Y161.500 E1.22284
M73 Q0 S129
G1 X106.900 Y161.500 E0.02365
G1 X106.900 Y122.500 E1.22284
G1 X106.146 Y122.500 E0.02365
G1 X106.146 Y161.670 E1.22816
G1 X109.917 Y157.744 F10800.000
G1 F1200.000
G1 X109.917 Y161.500 E0.11778
G1 X110.671 Y161.500 E0.02365
G1 X110.671 Y157.914 E0.11246
G1 X111.425 Y157.914 E0.02365
G1 X111.425 Y161.500 E0.11246
G1 X112.179 Y161.500 E0.02365
G1 X112.179 Y157.914 E0.11246
G1 X112.933 Y157.914 E0.02365
G1 X112.933 Y161.500 E0.11246
G1 X113.688 Y161.500 E0.02365
G1 X113.688 Y157.914 E0.11246
G1 X114.442 Y157.914 E0.02365
G1 X114.442 Y161.670 E0.11778
;WIPE_START
G1 F8640.000
G1 X114.442 Y158.379 E-0.76000
;WIPE_END
G1 E-0.04000 F2100.000
G1 Z0.800 F10800.000
G1 X110.289 Y156.713
G1 Z0.200
G1 E0.80000 F2100.000
;TYPE:Perimeter
G1 F1200.000
G1 X110.289 Y127.287 E0.92263
G1 X124.996 Y127.287 E0.46114
G1 X126.201 Y127.336 E0.03781
G1 X127.392 Y127.483 E0.03763
G1 X127.982 Y127.592 E0.01882
G1 X129.147 Y127.883 E0.03763
G1 X130.284 Y128.268 E0.03763
G1 X131.385 Y128.744 E0.03763
G1 X132.444 Y129.309 E0.03763
G1 X133.454 Y129.958 E0.03763
G1 X134.408 Y130.687 E0.03763
G1 X135.298 Y131.491 E0.03763
G1 X136.121 Y132.365 E0.03763
G1 X136.869 Y133.304 E0.03763
G1 X137.214 Y133.795 E0.01882
G1 X137.842 Y134.818 E0.03763
G1 X138.385 Y135.888 E0.03763
G1 X138.838 Y136.999 E0.03763
G1 X139.200 Y138.144 E0.03763
G1 X139.345 Y138.726 E0.01882
G1 X139.467 Y139.314 E0.01882
G1 X139.638 Y140.502 E0.03763
G1 X139.711 Y141.700 E0.03763
G1 X139.687 Y142.900 E0.03763
G1 X139.638 Y143.498 E0.01882
G1 X139.467 Y144.686 E0.03763
G1 X139.200 Y145.856 E0.03763
G1 X138.838 Y147.001 E0.03763
G1 X138.623 Y147.561 E0.01882
G1 X138.124 Y148.653 E0.03763
G1 X137.842 Y149.182 E0.01882
G1 X137.216 Y150.202 E0.03751
G1 X136.687 Y150.935 E0.02835
G1 X136.118 Y151.638 E0.02835
G1 X135.298 Y152.509 E0.03751
G1 X134.408 Y153.313 E0.03763
G1 X133.454 Y154.042 E0.03763
G1 X132.444 Y154.691 E0.03763
G1 X131.385 Y155.256 E0.03763
G1 X130.284 Y155.732 E0.03763
G1 X129.147 Y156.117 E0.03763
G1 X127.982 Y156.408 E0.03763
G1 X127.392 Y156.517 E0.01882
G1 X126.201 Y156.664 E0.03763
G1 X124.994 Y156.713 E0.03788
G1 X110.349 Y156.713 E0.45918
G1 X109.912 Y157.090 F10800.000
;TYPE:External perimeter
G1 F1200.000
G1 X109.912 Y126.910 E0.94627
G1 X125.000 Y126.910 E0.47308
G1 X125.617 Y126.923 E0.01936
G1 X126.232 Y126.960 E0.01930
G1 X126.844 Y127.023 E0.01930
G1 X127.453 Y127.111 E0.01930
G1 X128.059 Y127.223 E0.01930
G1 X128.659 Y127.360 E0.01930
G1 X129.253 Y127.521 E0.01930
G1 X129.840 Y127.707 E0.01930
G1 X130.419 Y127.916 E0.01930
G1 X130.989 Y128.149 E0.01930
G1 X131.549 Y128.404 E0.01930
G1 X132.098 Y128.683 E0.01930
G1 X132.635 Y128.983 E0.01930
G1 X133.160 Y129.306 E0.01930
G1 X133.671 Y129.649 E0.01930
G1 X134.167 Y130.013 E0.01930
G1 X134.649 Y130.397 E0.01930
G1 X135.114 Y130.800 E0.01930
G1 X135.562 Y131.222 E0.01930
G1 X135.993 Y131.661 E0.01930
G1 X136.406 Y132.118 E0.01930
G1 X136.799 Y132.592 E0.01930
G1 X137.173 Y133.081 E0.01930
G1 X137.527 Y133.585 E0.01930
G1 X137.860 Y134.102 E0.01930
G1 X138.171 Y134.633 E0.01930
G1 X138.461 Y135.177 E0.01930
G1 X138.728 Y135.731 E0.01930
G1 X138.972 Y136.297 E0.01930
G1 X139.193 Y136.871 E0.01930
G1 X139.391 Y137.454 E0.01930
G1 X139.564 Y138.045 E0.01930
G1 X139.713 Y138.642 E0.01930
G1 X139.838 Y139.245 E0.01930
G1 X139.938 Y139.852 E0.01930
G1 X140.013 Y140.463 E0.01930
G1 X140.063 Y141.078 E0.01933
G1 X140.088 Y141.692 E0.01927
G1 X140.088 Y142.308 E0.01930
G1 X140.063 Y142.923 E0.01930
G1 X140.013 Y143.536 E0.01930
G1 X139.938 Y144.148 E0.01930
G1 X139.838 Y144.755 E0.01930
G1 X139.713 Y145.358 E0.01930
G1 X139.564 Y145.955 E0.01930
G1 X139.391 Y146.546 E0.01930
G1 X139.193 Y147.129 E0.01930
G1 X138.972 Y147.703 E0.01930
G1 X138.728 Y148.269 E0.01930
G1 X138.461 Y148.823 E0.01930
G1 X138.171 Y149.367 E0.01930
G1 X137.860 Y149.898 E0.01930
G1 X137.528 Y150.414 E0.01926
G1 X136.986 Y151.164 E0.02899
G1 X136.405 Y151.883 E0.02899
G1 X135.993 Y152.339 E0.01926
G1 X135.562 Y152.778 E0.01930
G1 X135.114 Y153.200 E0.01930
G1 X134.649 Y153.603 E0.01930
G1 X134.167 Y153.988 E0.01933
G1 X133.671 Y154.351 E0.01927
G1 X133.160 Y154.694 E0.01930
G1 X132.635 Y155.017 E0.01930
G1 X132.098 Y155.317 E0.01930
G1 X131.549 Y155.596 E0.01930
G1 X130.989 Y155.851 E0.01930
G1 X130.419 Y156.084 E0.01930
G1 X129.840 Y156.293 E0.01930
G1 X129.253 Y156.479 E0.01930
G1 X128.659 Y156.640 E0.01930
G1 X128.059 Y156.777 E0.01930
G1 X127.453 Y156.889 E0.01930
G1 X126.844 Y156.977 E0.01930
G1 X126.232 Y157.040 E0.01930
G1 X125.617 Y157.077 E0.01930
G1 X124.997 Y157.090 E0.01943
G1 X109.972 Y157.090 E0.47112
G1 X110.112 Y156.744 F10800.000
;WIPE_START
G1 F8640.000
G1 X109.965 Y153.799 E-0.76000
;WIPE_END
G1 E-0.04000 F2100.000
G1 Z0.800 F10800.000
G1 X136.782 Y133.376
G1 Z0.200
G1 E0.80000 F2100.000
;TYPE:Solid infill
;WIDTH:0.422399
G1 F1200.000
G1 X135.084 Y131.679 E0.07575
G1 X134.227 Y130.904 E0.03646
G1 X133.292 Y130.189 E0.03714
G1 X132.639 Y129.770 E0.02448
G1 X137.229 Y134.360 E0.20485
G1 X137.595 Y134.956 E0.02205
G1 X137.911 Y135.578 E0.02202
G1 X131.411 Y129.078 E0.29006
G1 X130.439 Y128.643 E0.03359
G1 X138.352 Y136.557 E0.35312
G1 X138.572 Y137.095 E0.01837
G1 X138.673 Y137.414 E0.01053
G1 X129.591 Y128.332 E0.40525
G1 X129.067 Y128.155 E0.01747
G1 X128.814 Y128.092 E0.00823
G1 X138.921 Y138.198 E0.45100
G1 X139.094 Y138.909 E0.02308
G1 X128.099 Y127.913 E0.49068
G1 X127.426 Y127.777 E0.02166
G1 X139.218 Y139.569 E0.52622
G1 X139.308 Y140.196 E0.01998
G1 X126.808 Y127.696 E0.55780
G1 X126.196 Y127.621 E0.01945
G1 X139.373 Y140.797 E0.58798
G1 X139.408 Y141.369 E0.01807
G1 X125.635 Y127.596 E0.61458
G1 X125.076 Y127.573 E0.01767
G1 X139.424 Y141.922 E0.64027
G1 X139.413 Y142.447 E0.01660
G1 X124.536 Y127.570 E0.66389
G1 X123.999 Y127.570 E0.01693
G1 X139.397 Y142.968 E0.68714
G1 X139.357 Y143.465 E0.01571
G1 X123.462 Y127.570 E0.70928
G1 X122.926 Y127.570 E0.01693
G1 X139.290 Y143.934 E0.73022
G1 X139.222 Y144.403 E0.01496
G1 X122.389 Y127.570 E0.75116
G1 X121.852 Y127.570 E0.01693
G1 X139.138 Y144.856 E0.77137
G1 X139.039 Y145.293 E0.01414
G1 X121.316 Y127.570 E0.79086
G1 X120.779 Y127.570 E0.01693
G1 X138.939 Y145.730 E0.81036
G1 X138.813 Y146.141 E0.01357
G1 X120.242 Y127.570 E0.82872
G1 X119.706 Y127.570 E0.01693
G1 X138.685 Y146.549 E0.84691
G1 X138.553 Y146.954 E0.01345
G1 X119.169 Y127.570 E0.86500
G1 X118.632 Y127.570 E0.01693
G1 X138.404 Y147.342 E0.88230
G1 X138.241 Y147.716 E0.01287
G1 X118.096 Y127.570 E0.89898
G1 X117.559 Y127.570 E0.01693
G1 X138.073 Y148.084 E0.91542
G1 X137.905 Y148.452 E0.01278
G1 X117.022 Y127.570 E0.93186
M73 P0 R128
G1 X116.486 Y127.570 E0.01693
G1 X137.722 Y148.806 E0.94765
G1 X137.530 Y149.151 E0.01245
G1 X115.949 Y127.570 E0.96302
G1 X115.412 Y127.570 E0.01693
G1 X137.326 Y149.483 E0.97785
G1 X137.121 Y149.816 E0.01231
G1 X114.876 Y127.570 E0.99269
G1 X114.339 Y127.570 E0.01693
G1 X136.911 Y150.142 E1.00724
G1 X136.686 Y150.453 E0.01213
G1 X113.802 Y127.570 E1.02114
M73 P1 R128
M73 Q1 S129
G1 X113.266 Y127.570 E0.01693
G1 X136.460 Y150.765 E1.03504
G1 X136.221 Y151.061 E0.01204
G1 X112.729 Y127.570 E1.04828
M73 Q1 S128
G1 X112.192 Y127.570 E0.01693
G1 X135.981 Y151.358 E1.06152
G1 X135.727 Y151.641 E0.01199
G1 X111.656 Y127.570 E1.07415
G1 X111.119 Y127.570 E0.01693
G1 X135.467 Y151.918 E1.08649
G1 X135.207 Y152.194 E0.01198
G1 X110.571 Y127.570 E1.09907
G1 X110.571 Y128.096 E0.01659
G1 X134.933 Y152.458 E1.08712
G1 X134.651 Y152.712 E0.01199
G1 X110.571 Y128.632 E1.07454
G1 X110.571 Y129.169 E0.01693
G1 X134.369 Y152.967 E1.06195
G1 X134.076 Y153.211 E0.01202
G1 X110.571 Y129.706 E1.04888
G1 X110.571 Y130.242 E0.01693
G1 X133.772 Y153.443 E1.03531
G1 X133.468 Y153.676 E0.01208
G1 X110.571 Y130.779 E1.02174
G1 X110.571 Y131.316 E0.01693
G1 X133.155 Y153.899 E1.00774
G1 X132.828 Y154.109 E0.01225
G1 X110.571 Y131.852 E0.99317
G1 X110.571 Y132.389 E0.01693
G1 X132.501 Y154.319 E0.97859
G1 X132.165 Y154.520 E0.01235
G1 X110.571 Y132.926 E0.96360
G1 X110.571 Y133.462 E0.01693
G1 X131.815 Y154.706 E0.94798
G1 X131.465 Y154.893 E0.01252
G1 X110.571 Y133.999 E0.93236
G1 X110.571 Y134.536 E0.01693
G1 X131.105 Y155.069 E0.91627
G1 X130.730 Y155.231 E0.01288
G1 X110.571 Y135.072 E0.89955
G1 X110.571 Y135.609 E0.01693
G1 X130.355 Y155.393 E0.88283
G1 X129.967 Y155.541 E0.01313
G1 X110.571 Y136.146 E0.86548
G1 X110.571 Y136.682 E0.01693
G1 X129.566 Y155.676 E0.84759
G1 X129.165 Y155.812 E0.01336
G1 X110.571 Y137.219 E0.82970
G1 X110.571 Y137.756 E0.01693
G1 X128.742 Y155.926 E0.81085
G1 X128.313 Y156.034 E0.01397
G1 X110.571 Y138.292 E0.79168
G1 X110.571 Y138.829 E0.01693
G1 X127.881 Y156.139 E0.77243
G1 X127.429 Y156.223 E0.01453
G1 X110.571 Y139.366 E0.75223
G1 X110.571 Y139.902 E0.01693
G1 X126.955 Y156.286 E0.73111
G1 X126.477 Y156.345 E0.01519
G1 X110.571 Y140.439 E0.70978
G1 X110.571 Y140.976 E0.01693
G1 X125.985 Y156.390 E0.68783
G1 X125.470 Y156.411 E0.01629
G1 X110.571 Y141.512 E0.66482
G1 X110.571 Y142.049 E0.01693
G1 X124.953 Y156.430 E0.64174
M73 P1 R127
G1 X124.416 Y156.430 E0.01693
G1 X110.571 Y142.586 E0.61779
G1 X110.571 Y143.122 E0.01693
G1 X123.879 Y156.430 E0.59385
G1 X123.343 Y156.430 E0.01693
G1 X110.571 Y143.659 E0.56990
G1 X110.571 Y144.196 E0.01693
G1 X122.806 Y156.430 E0.54595
G1 X122.269 Y156.430 E0.01693
G1 X110.571 Y144.732 E0.52200
G1 X110.571 Y145.269 E0.01693
G1 X121.733 Y156.430 E0.49805
G1 X121.196 Y156.430 E0.01693
G1 X110.571 Y145.806 E0.47411
G1 X110.571 Y146.342 E0.01693
G1 X120.659 Y156.430 E0.45016
G1 X120.123 Y156.430 E0.01693
G1 X110.571 Y146.879 E0.42621
G1 X110.571 Y147.416 E0.01693
G1 X119.586 Y156.430 E0.40226
G1 X119.049 Y156.430 E0.01693
G1 X110.571 Y147.952 E0.37831
G1 X110.571 Y148.489 E0.01693
G1 X118.513 Y156.430 E0.35437
G1 X117.976 Y156.430 E0.01693
G1 X110.571 Y149.026 E0.33042
G1 X110.571 Y149.562 E0.01693
G1 X117.439 Y156.430 E0.30647
G1 X116.903 Y156.430 E0.01693
G1 X110.571 Y150.099 E0.28252
G1 X110.571 Y150.636 E0.01693
G1 X116.366 Y156.430 E0.25857
G1 X115.829 Y156.430 E0.01693
G1 X110.571 Y151.172 E0.23463
G1 X110.571 Y151.709 E0.01693
G1 X115.293 Y156.430 E0.21068
G1 X114.756 Y156.430 E0.01693
G1 X110.571 Y152.246 E0.18673
G1 X110.571 Y152.782 E0.01693
G1 X114.219 Y156.430 E0.16278
G1 X113.683 Y156.430 E0.01693
G1 X110.571 Y153.319 E0.13883
G1 X110.571 Y153.856 E0.01693
G1 X113.146 Y156.430 E0.11489
G1 X112.609 Y156.430 E0.01693
G1 X110.571 Y154.392 E0.09094
G1 X110.571 Y154.929 E0.01693
G1 X112.073 Y156.430 E0.06699
G1 X111.536 Y156.430 E0.01693
G1 X110.571 Y155.466 E0.04304
M73 Q1 S127
G1 X110.571 Y156.002 E0.01693
G1 X111.169 Y156.600 E0.02667
M106 S232.05
;LAYER_CHANGE
;Z:0.4
;HEIGHT:0.2
;BEFORE_LAYER_CHANGE
G92 E0.0
;0.4


;WIPE_START
G1 F8640.000
G1 X110.571 Y156.002 E-0.19513
G1 X110.571 Y155.466 E-0.12392
G1 X111.536 Y156.430 E-0.31497
G1 X112.073 Y156.430 E-0.12392
G1 X112.066 Y156.424 E-0.00207
;WIPE_END
G1 E-0.04000 F2100.000
G1 Z0.800 F10800.000
;AFTER_LAYER_CHANGE
;0.4
G1 X105.681 Y164.001
G1 Z0.400
G1 E0.80000 F2100.000
;TYPE:Skirt
;WIDTH:0.42
G1 F3000.000
G1 X104.944 Y163.720 E0.02473
G1 X104.341 Y163.217 E0.02461
G1 X103.936 Y162.545 E0.02461
G1 X103.771 Y161.774 E0.02473
G1 X103.815 Y122.034 E1.24601
G1 X104.054 Y121.370 E0.02213
G1 X104.481 Y120.803 E0.02225
G1 X105.056 Y120.387 E0.02225
G1 X105.724 Y120.160 E0.02213
G1 X114.446 Y120.123 E0.27345
G1 X115.136 Y120.226 E0.02190
G1 X131.413 Y125.312 E0.53469
G1 X132.763 Y125.895 E0.04608
G1 X134.087 Y126.604 E0.04709
G1 X135.825 Y127.772 E0.06565
G1 X136.974 Y128.724 E0.04680
G1 X138.513 Y130.294 E0.06892
G1 X139.864 Y132.066 E0.06988
G1 X140.968 Y133.960 E0.06874
G1 X141.553 Y135.244 E0.04424
G1 X142.033 Y136.569 E0.04417
G1 X142.578 Y138.733 E0.06999
G1 X142.845 Y140.908 E0.06868
G1 X142.845 Y143.094 E0.06856
G1 X142.572 Y145.295 E0.06952
G1 X142.049 Y147.383 E0.06749
G1 X141.281 Y149.386 E0.06725
G1 X140.582 Y150.764 E0.04847
G1 X139.419 Y152.571 E0.06737
G1 X138.025 Y154.246 E0.06833
G1 X136.465 Y155.718 E0.06725
G1 X134.707 Y157.013 E0.06844
G1 X133.366 Y157.799 E0.04876
G1 X132.090 Y158.412 E0.04436
G1 X130.729 Y158.935 E0.04573
G1 X114.959 Y163.990 E0.51923
G1 X114.445 Y164.047 E0.01621
G1 X105.741 Y164.001 E0.27294
;WIPE_START
G1 F8640.000
G1 X104.944 Y163.720 E-0.19513
