; generated by PrusaSlicer 2.3.0+win64 on 2021-11-20 at 20:42:38 UTC

; 

; external perimeters extrusion width = 0.25mm
; perimeters extrusion width = 0.25mm
; infill extrusion width = 0.25mm
; solid infill extrusion width = 0.25mm
; top infill extrusion width = 0.25mm
; first layer extrusion width = 0.30mm

M73 P0 R85
M73 Q0 S85
M201 X1000 Y1000 Z200 E5000 ; sets maximum accelerations, mm/sec^2
M203 X200 Y200 Z12 E120 ; sets maximum feedrates, mm/sec
M204 P1250 R1250 T1250 ; sets acceleration (P, T) and retract acceleration (R), mm/sec^2
M205 X8.00 Y8.00 Z0.40 E4.50 ; sets the jerk limits, mm/sec
M205 S0 T0 ; sets the minimum extruding and travel feed rate, mm/sec
M107
;TYPE:Custom
M862.3 P "MK3S" ; printer model check
M862.1 P0.25 ; nozzle diameter check
M115 U3.9.1 ; tell printer latest fw version
G90 ; use absolute coordinates
M83 ; extruder relative mode
M104 S240 ; set extruder temp
M140 S85 ; set bed temp
M190 S85 ; wait for bed temp
M109 S240 ; wait for extruder temp
G28 W ; home all without mesh bed level
G80 ; mesh bed leveling
G1 Y-3.0 F1000.0 ; go outside print area
G92 E0.0
G1 X60.0 E8.0 F700.0 ; intro line
G1 X100.0 E12.5 F700.0 ; intro line
G92 E0.0
M221 S95

; Don't change E value below. Excessive value can damage the printer.
M907 E430 ; set extruder motor current
G21 ; set units to millimeters
G90 ; use absolute coordinates
M83 ; use relative distances for extrusion
M900 K0.08 ; Filament gcode LA 1.5
M900 K45 ; Filament gcode LA 1.0
;LAYER_CHANGE
;Z:0.2
;HEIGHT:0.2
;BEFORE_LAYER_CHANGE
G92 E0.0
;0.2


G1 E-1.40000 F2100.000
G1 Z0.200 F10800.000
;AFTER_LAYER_CHANGE
;0.2
G1 Z0.400
G1 X85.374 Y66.905
G1 Z0.200
G1 E1.40000 F2100.000
M204 S500
;TYPE:Skirt
;WIDTH:0.3
G1 F1200.000
G1 X85.937 Y66.030 E0.02225
G1 X86.358 Y65.669 E0.01183
G1 X86.811 Y65.414 E0.01113
G1 X87.359 Y65.236 E0.01230
G1 X87.909 Y65.176 E0.01183
G1 X162.071 Y65.176 E1.58531
G1 X162.589 Y65.225 E0.01113
G1 X163.100 Y65.377 E0.01139
G1 X163.574 Y65.623 E0.01142
G1 X163.985 Y65.952 E0.01126
G1 X164.335 Y66.365 E0.01156
G1 X164.604 Y66.852 E0.01190
G1 X164.759 Y67.335 E0.01084
G1 X164.824 Y67.876 E0.01165
G1 X164.824 Y142.089 E1.58640
G1 X164.626 Y143.095 E0.02192
G1 X164.063 Y143.970 E0.02224
G1 X163.639 Y144.333 E0.01191
G1 X163.175 Y144.592 E0.01136
G1 X162.627 Y144.767 E0.01231
G1 X162.069 Y144.824 E0.01199
G1 X87.911 Y144.824 E1.58523
G1 X86.928 Y144.635 E0.02138
G1 X86.445 Y144.389 E0.01159
G1 X86.031 Y144.063 E0.01127
G1 X85.667 Y143.638 E0.01197
G1 X85.392 Y143.137 E0.01221
G1 X85.236 Y142.639 E0.01116
G1 X85.176 Y142.072 E0.01220
G1 X85.176 Y67.911 E1.58528
M73 P0 R84
G1 X85.367 Y66.942 E0.02112
M204 S1000
;WIPE_START
G1 F8640.000
G1 X85.937 Y66.030 E-0.24836
G1 X86.358 Y65.669 E-0.12784
G1 X86.811 Y65.414 E-0.12018
G1 X87.359 Y65.236 E-0.13287
G1 X87.909 Y65.176 E-0.12776
G1 X90.390 Y65.176 E-0.57299
;WIPE_END
G1 E-0.07000 F2100.000
G1 Z0.400 F10800.000
G1 X149.273 Y68.411
G1 Z0.200
G1 E1.40000 F2100.000
M204 S500
;TYPE:Perimeter
G1 F1200.000
G1 X161.589 Y68.411 E0.26326
G1 X161.589 Y80.727 E0.26326
G1 X149.273 Y80.727 E0.26326
G1 X149.273 Y68.448 E0.26246
M204 S1000
G1 X149.530 Y68.668 F10800.000
M204 S500
;TYPE:External perimeter
G1 F1200.000
G1 X161.332 Y68.668 E0.25227
G1 X161.332 Y80.470 E0.25227
G1 X149.530 Y80.470 E0.25227
G1 X149.530 Y68.706 E0.25147
M204 S1000
G1 X149.466 Y68.427 F10800.000
G1 X148.901 Y68.039
M204 S500
;TYPE:Perimeter
G1 F1200.000
G1 X161.961 Y68.040 E0.27918
G1 X161.961 Y81.099 E0.27916
G1 X148.901 Y81.099 E0.27918
G1 X148.901 Y68.076 E0.27838
M204 S1000
G1 X148.660 Y67.872 F10800.000
M204 S500
;TYPE:External perimeter
G1 F1200.000
G1 X148.750 Y67.791 E0.00259
G1 X148.808 Y67.782 E0.00125
G1 X162.065 Y67.782 E0.28340
G1 X162.175 Y67.831 E0.00256
G1 X162.218 Y67.948 E0.00267
G1 X162.218 Y81.189 E0.28305
G1 X162.175 Y81.306 E0.00267
G1 X162.113 Y81.347 E0.00159
G1 X162.055 Y81.356 E0.00125
G1 X148.808 Y81.356 E0.28318
G1 X148.750 Y81.347 E0.00125
G1 X148.688 Y81.306 E0.00159
G1 X148.644 Y81.189 E0.00267
G1 X148.652 Y67.908 E0.28390
M204 S1000
G1 X148.781 Y67.876 F10800.000
G1 X149.097 Y68.235
M204 S500
;TYPE:Gap fill
;WIDTH:0.158122
G1 F1200.000
G1 X161.766 Y68.235 E0.12135
M73 Q0 S84
G1 X161.765 Y80.903 E0.12134
G1 X149.097 Y80.903 E0.12135
G1 X149.087 Y68.282 E0.12089
;WIDTH:0.177875
G1 X149.090 Y68.271 E0.00013
M204 S1000
;WIPE_START
G1 F8640.000
G1 X154.850 Y68.255 E-1.33000
;WIPE_END
G1 E-0.07000 F2100.000
G1 Z0.400 F10800.000
G1 X149.273 Y88.698
G1 Z0.200
G1 E1.40000 F2100.000
M204 S500
;TYPE:Perimeter
;WIDTH:0.3
G1 F1200.000
G1 X161.589 Y88.698 E0.26326
G1 X161.589 Y101.014 E0.26326
G1 X149.273 Y101.014 E0.26326
G1 X149.273 Y88.736 E0.26246
M204 S1000
G1 X149.530 Y88.956 F10800.000
M204 S500
;TYPE:External perimeter
G1 F1200.000
G1 X161.332 Y88.956 E0.25227
G1 X161.332 Y100.757 E0.25227
G1 X149.530 Y100.757 E0.25227
G1 X149.530 Y88.993 E0.25147
M204 S1000
G1 X149.466 Y88.714 F10800.000
G1 X148.901 Y88.326
M204 S500
;TYPE:Perimeter
G1 F1200.000
G1 X161.961 Y88.327 E0.27918
G1 X161.961 Y101.386 E0.27916
G1 X148.901 Y101.386 E0.27918
G1 X148.901 Y88.364 E0.27838
M204 S1000
G1 X148.660 Y88.159 F10800.000
M204 S500
;TYPE:External perimeter
G1 F1200.000
G1 X148.750 Y88.078 E0.00259
G1 X148.808 Y88.069 E0.00125
G1 X162.065 Y88.070 E0.28340
G1 X162.175 Y88.119 E0.00256
G1 X162.218 Y88.236 E0.00267
G1 X162.218 Y101.477 E0.28305
G1 X162.175 Y101.594 E0.00267
G1 X162.113 Y101.634 E0.00159
G1 X162.055 Y101.643 E0.00125
G1 X148.808 Y101.643 E0.28318
G1 X148.750 Y101.634 E0.00125
G1 X148.688 Y101.594 E0.00159
G1 X148.644 Y101.477 E0.00267
G1 X148.652 Y88.196 E0.28390
M204 S1000
G1 X148.781 Y88.164 F10800.000
G1 X149.097 Y88.522
M204 S500
;TYPE:Gap fill
;WIDTH:0.158122
G1 F1200.000
G1 X161.766 Y88.523 E0.12135
M73 Q1 S84
G1 X161.765 Y101.190 E0.12134
M73 P1 R84
G1 X149.097 Y101.190 E0.12135
G1 X149.087 Y88.570 E0.12089
;WIDTH:0.177875
G1 X149.090 Y88.559 E0.00013
M204 S1000
;WIPE_START
G1 F8640.000
G1 X154.850 Y88.542 E-1.33000
;WIPE_END
G1 E-0.07000 F2100.000
G1 Z0.400 F10800.000
G1 X141.302 Y88.698
G1 Z0.200
G1 E1.40000 F2100.000
M204 S500
;TYPE:Perimeter
;WIDTH:0.3
G1 F1200.000
G1 X141.302 Y101.014 E0.26326
G1 X128.986 Y101.014 E0.26326
G1 X128.986 Y88.698 E0.26326
G1 X141.264 Y88.698 E0.26246
M204 S1000
G1 X141.044 Y88.956 F10800.000
M204 S500
;TYPE:External perimeter
G1 F1200.000
G1 X141.044 Y100.757 E0.25227
G1 X129.243 Y100.757 E0.25227
G1 X129.243 Y88.956 E0.25227
G1 X141.007 Y88.956 E0.25147
M204 S1000
G1 X141.286 Y88.891 F10800.000
G1 X141.674 Y88.327
M204 S500
;TYPE:Perimeter
G1 F1200.000
G1 X141.674 Y101.386 E0.27916
G1 X128.614 Y101.386 E0.27918
G1 X128.614 Y88.326 E0.27918
G1 X141.636 Y88.327 E0.27838
M204 S1000
G1 X141.824 Y88.078 F10800.000
M204 S500
;TYPE:External perimeter
G1 F1200.000
G1 X141.915 Y88.159 E0.00261
G1 X141.931 Y88.236 E0.00167
G1 X141.931 Y101.477 E0.28305
G1 X141.887 Y101.594 E0.00267
G1 X141.825 Y101.634 E0.00159
G1 X141.767 Y101.643 E0.00125
G1 X128.520 Y101.643 E0.28318
G1 X128.462 Y101.634 E0.00125
G1 X128.400 Y101.594 E0.00159
G1 X128.357 Y101.477 E0.00267
G1 X128.357 Y88.236 E0.28305
G1 X128.400 Y88.119 E0.00267
G1 X128.462 Y88.078 E0.00159
G1 X128.520 Y88.069 E0.00125
G1 X141.787 Y88.072 E0.28360
M204 S1000
G1 X141.829 Y88.200 F10800.000
G1 X141.478 Y88.523
M204 S500
;TYPE:Gap fill
;WIDTH:0.158122
G1 F1200.000
G1 X141.488 Y101.143 E0.12089
G1 X141.478 Y101.190 E0.00047
G1 X141.430 Y101.200 E0.00047
G1 X128.810 Y101.190 E0.12089
G1 X128.800 Y88.570 E0.12089
;WIDTH:0.177875
G1 X128.810 Y88.522 E0.00055
;WIDTH:0.158122
G1 X141.441 Y88.515 E0.12100
M204 S1000
;WIPE_START
G1 F8640.000
G1 X141.463 Y94.275 E-1.33000
;WIPE_END
G1 E-0.07000 F2100.000
G1 Z0.400 F10800.000
G1 X141.302 Y80.727
G1 Z0.200
G1 E1.40000 F2100.000
M204 S500
;TYPE:Perimeter
;WIDTH:0.3
G1 F1200.000
G1 X128.986 Y80.727 E0.26326
G1 X128.986 Y68.411 E0.26326
G1 X141.302 Y68.411 E0.26326
G1 X141.302 Y80.689 E0.26246
M204 S1000
G1 X141.044 Y80.470 F10800.000
M204 S500
;TYPE:External perimeter
G1 F1200.000
G1 X129.243 Y80.470 E0.25227
G1 X129.243 Y68.668 E0.25227
G1 X141.044 Y68.668 E0.25227
G1 X141.044 Y80.432 E0.25147
M204 S1000
G1 X141.109 Y80.711 F10800.000
G1 X141.674 Y81.099
M204 S500
;TYPE:Perimeter
G1 F1200.000
G1 X128.614 Y81.099 E0.27918
G1 X128.614 Y68.039 E0.27918
G1 X141.674 Y68.040 E0.27918
G1 X141.674 Y81.061 E0.27836
M204 S1000
G1 X141.915 Y81.266 F10800.000
M204 S500
;TYPE:External perimeter
G1 F1200.000
G1 X141.825 Y81.347 E0.00259
G1 X141.767 Y81.356 E0.00125
G1 X128.520 Y81.356 E0.28318
G1 X128.462 Y81.347 E0.00125
G1 X128.400 Y81.306 E0.00159
G1 X128.357 Y81.189 E0.00267
G1 X128.357 Y67.948 E0.28305
G1 X128.400 Y67.831 E0.00267
G1 X128.462 Y67.791 E0.00159
G1 X128.520 Y67.782 E0.00125
G1 X141.778 Y67.782 E0.28340
G1 X141.887 Y67.831 E0.00256
G1 X141.931 Y67.948 E0.00267
G1 X141.923 Y81.229 E0.28390
M204 S1000
G1 X141.794 Y81.261 F10800.000
G1 X141.478 Y80.903
M204 S500
;TYPE:Gap fill
;WIDTH:0.158122
G1 F1200.000
G1 X128.810 Y80.903 E0.12135
G1 X128.800 Y68.282 E0.12089
;WIDTH:0.177875
G1 X128.810 Y68.235 E0.00055
;WIDTH:0.158122
G1 X141.478 Y68.235 E0.12135
G1 X141.485 Y80.866 E0.12099
M204 S1000
;WIPE_START
G1 F8640.000
G1 X135.725 Y80.883 E-1.33000
;WIPE_END
G1 E-0.07000 F2100.000
G1 Z0.400 F10800.000
G1 X121.014 Y80.727
G1 Z0.200
G1 E1.40000 F2100.000
M204 S500
;TYPE:Perimeter
;WIDTH:0.3
G1 F1200.000
G1 X108.698 Y80.727 E0.26326
G1 X108.698 Y68.411 E0.26326
G1 X121.014 Y68.411 E0.26326
M73 P1 R83
G1 X121.014 Y80.689 E0.26246
M204 S1000
G1 X120.757 Y80.470 F10800.000
M204 S500
;TYPE:External perimeter
G1 F1200.000
G1 X108.956 Y80.470 E0.25227
G1 X108.956 Y68.668 E0.25227
G1 X120.757 Y68.668 E0.25227
G1 X120.757 Y80.432 E0.25147
M204 S1000
G1 X120.822 Y80.711 F10800.000
G1 X121.386 Y81.099
M204 S500
;TYPE:Perimeter
G1 F1200.000
G1 X108.326 Y81.099 E0.27918
G1 X108.326 Y68.039 E0.27918
G1 X121.386 Y68.040 E0.27918
G1 X121.386 Y81.061 E0.27836
M204 S1000
G1 X121.628 Y81.266 F10800.000
M204 S500
;TYPE:External perimeter
G1 F1200.000
G1 X121.538 Y81.347 E0.00259
G1 X121.480 Y81.356 E0.00125
G1 X108.233 Y81.356 E0.28318
G1 X108.175 Y81.347 E0.00125
G1 X108.113 Y81.306 E0.00159
G1 X108.069 Y81.189 E0.00267
G1 X108.069 Y67.948 E0.28305
G1 X108.113 Y67.831 E0.00267
G1 X108.175 Y67.791 E0.00159
G1 X108.233 Y67.782 E0.00125
G1 X121.490 Y67.782 E0.28340
G1 X121.600 Y67.831 E0.00256
G1 X121.643 Y67.948 E0.00267
G1 X121.635 Y81.229 E0.28390
M204 S1000
G1 X121.507 Y81.261 F10800.000
G1 X121.190 Y80.903
M204 S500
;TYPE:Gap fill
;WIDTH:0.158122
G1 F1200.000
G1 X108.522 Y80.903 E0.12135
G1 X108.512 Y68.282 E0.12089
;WIDTH:0.177875
G1 X108.522 Y68.235 E0.00055
;WIDTH:0.158122
G1 X121.191 Y68.235 E0.12135
G1 X121.198 Y80.866 E0.12099
M204 S1000
;WIPE_START
G1 F8640.000
G1 X115.438 Y80.883 E-1.33000
;WIPE_END
G1 E-0.07000 F2100.000
G1 Z0.400 F10800.000
G1 X121.014 Y88.698
G1 Z0.200
G1 E1.40000 F2100.000
M204 S500
;TYPE:Perimeter
;WIDTH:0.3
G1 F1200.000
G1 X121.014 Y101.014 E0.26326
G1 X108.698 Y101.014 E0.26326
G1 X108.698 Y88.698 E0.26326
G1 X120.977 Y88.698 E0.26246
M204 S1000
G1 X120.757 Y88.956 F10800.000
M204 S500
;TYPE:External perimeter
G1 F1200.000
G1 X120.757 Y100.757 E0.25227
M73 Q1 S83
G1 X108.956 Y100.757 E0.25227
G1 X108.956 Y88.956 E0.25227
G1 X120.720 Y88.956 E0.25147
M204 S1000
G1 X120.998 Y88.891 F10800.000
G1 X121.386 Y88.327
M204 S500
;TYPE:Perimeter
G1 F1200.000
G1 X121.386 Y101.386 E0.27916
G1 X108.326 Y101.386 E0.27918
G1 X108.326 Y88.326 E0.27918
G1 X121.349 Y88.327 E0.27838
M204 S1000
M73 Q2 S83
G1 X121.537 Y88.078 F10800.000
M204 S500
;TYPE:External perimeter
G1 F1200.000
G1 X121.628 Y88.159 E0.00261
G1 X121.643 Y88.236 E0.00167
G1 X121.643 Y101.477 E0.28305
M73 P2 R83
G1 X121.600 Y101.594 E0.00267
G1 X121.538 Y101.634 E0.00159
G1 X121.480 Y101.643 E0.00125
G1 X108.233 Y101.643 E0.28318
G1 X108.175 Y101.634 E0.00125
G1 X108.113 Y101.594 E0.00159
G1 X108.069 Y101.477 E0.00267
G1 X108.069 Y88.236 E0.28305
G1 X108.113 Y88.119 E0.00267
G1 X108.175 Y88.078 E0.00159
G1 X108.233 Y88.069 E0.00125
G1 X121.500 Y88.072 E0.28360
M204 S1000
G1 X121.542 Y88.200 F10800.000
G1 X121.191 Y88.523
M204 S500
;TYPE:Gap fill
;WIDTH:0.158122
G1 F1200.000
G1 X121.200 Y101.143 E0.12089
G1 X121.190 Y101.190 E0.00047
G1 X121.143 Y101.200 E0.00047
G1 X108.522 Y101.190 E0.12089
G1 X108.512 Y88.570 E0.12089
;WIDTH:0.177875
G1 X108.522 Y88.522 E0.00055
;WIDTH:0.158122
G1 X121.154 Y88.515 E0.12100
M204 S1000
;WIPE_START
G1 F8640.000
G1 X121.175 Y94.275 E-1.33000
;WIPE_END
G1 E-0.07000 F2100.000
G1 Z0.400 F10800.000
G1 X100.727 Y80.727
G1 Z0.200
G1 E1.40000 F2100.000
M204 S500
;TYPE:Perimeter
;WIDTH:0.3
G1 F1200.000
G1 X88.411 Y80.727 E0.26326
G1 X88.411 Y68.411 E0.26326
G1 X100.727 Y68.411 E0.26326
G1 X100.727 Y80.689 E0.26246
M204 S1000
G1 X100.470 Y80.470 F10800.000
M204 S500
;TYPE:External perimeter
G1 F1200.000
G1 X88.668 Y80.470 E0.25227
G1 X88.668 Y68.668 E0.25227
G1 X100.470 Y68.668 E0.25227
G1 X100.470 Y80.432 E0.25147
M204 S1000
G1 X100.534 Y80.711 F10800.000
G1 X101.099 Y81.099
M204 S500
;TYPE:Perimeter
G1 F1200.000
G1 X88.039 Y81.099 E0.27918
G1 X88.039 Y68.039 E0.27918
G1 X101.099 Y68.040 E0.27918
G1 X101.099 Y81.061 E0.27836
M204 S1000
G1 X101.340 Y81.266 F10800.000
M204 S500
;TYPE:External perimeter
G1 F1200.000
G1 X101.250 Y81.347 E0.00259
G1 X101.192 Y81.356 E0.00125
G1 X87.945 Y81.356 E0.28318
G1 X87.887 Y81.347 E0.00125
G1 X87.825 Y81.306 E0.00159
G1 X87.782 Y81.189 E0.00267
G1 X87.782 Y67.948 E0.28305
G1 X87.825 Y67.831 E0.00267
G1 X87.887 Y67.791 E0.00159
G1 X87.945 Y67.782 E0.00125
G1 X101.203 Y67.782 E0.28340
G1 X101.312 Y67.831 E0.00256
G1 X101.356 Y67.948 E0.00267
G1 X101.348 Y81.229 E0.28390
M204 S1000
G1 X101.219 Y81.261 F10800.000
G1 X100.903 Y80.903
M204 S500
;TYPE:Gap fill
;WIDTH:0.158122
G1 F1200.000
G1 X88.235 Y80.903 E0.12135
G1 X88.225 Y68.282 E0.12089
;WIDTH:0.177875
G1 X88.235 Y68.235 E0.00055
;WIDTH:0.158122
G1 X100.903 Y68.235 E0.12135
G1 X100.910 Y80.866 E0.12099
M204 S1000
;WIPE_START
G1 F8640.000
G1 X95.150 Y80.883 E-1.33000
;WIPE_END
G1 E-0.07000 F2100.000
G1 Z0.400 F10800.000
G1 X100.727 Y88.698
G1 Z0.200
G1 E1.40000 F2100.000
M204 S500
;TYPE:Perimeter
;WIDTH:0.3
G1 F1200.000
G1 X100.727 Y101.014 E0.26326
G1 X88.411 Y101.014 E0.26326
G1 X88.411 Y88.698 E0.26326
G1 X100.689 Y88.698 E0.26246
M204 S1000
G1 X100.470 Y88.956 F10800.000
M204 S500
;TYPE:External perimeter
G1 F1200.000
G1 X100.470 Y100.757 E0.25227
G1 X88.668 Y100.757 E0.25227
G1 X88.668 Y88.956 E0.25227
G1 X100.432 Y88.956 E0.25147
M204 S1000
G1 X100.711 Y88.891 F10800.000
G1 X101.099 Y88.327
M204 S500
;TYPE:Perimeter
G1 F1200.000
G1 X101.099 Y101.386 E0.27916
G1 X88.039 Y101.386 E0.27918
G1 X88.039 Y88.326 E0.27918
G1 X101.061 Y88.327 E0.27838
M204 S1000
G1 X101.249 Y88.078 F10800.000
M204 S500
;TYPE:External perimeter
G1 F1200.000
G1 X101.340 Y88.159 E0.00261
G1 X101.356 Y88.236 E0.00167
G1 X101.356 Y101.477 E0.28305
G1 X101.312 Y101.594 E0.00267
G1 X101.250 Y101.634 E0.00159
G1 X101.192 Y101.643 E0.00125
G1 X87.945 Y101.643 E0.28318
G1 X87.887 Y101.634 E0.00125
G1 X87.825 Y101.594 E0.00159
G1 X87.782 Y101.477 E0.00267
G1 X87.782 Y88.236 E0.28305
G1 X87.825 Y88.119 E0.00267
G1 X87.887 Y88.078 E0.00159
G1 X87.945 Y88.069 E0.00125
G1 X101.212 Y88.072 E0.28360
M204 S1000
G1 X101.254 Y88.200 F10800.000
G1 X100.903 Y88.523
M204 S500
;TYPE:Gap fill
;WIDTH:0.158122
G1 F1200.000
G1 X100.913 Y101.143 E0.12089
G1 X100.903 Y101.190 E0.00047
G1 X100.855 Y101.200 E0.00047
G1 X88.235 Y101.190 E0.12089
G1 X88.225 Y88.570 E0.12089
;WIDTH:0.177875
G1 X88.235 Y88.522 E0.00055
;WIDTH:0.158122
G1 X100.866 Y88.515 E0.12100
M204 S1000
;WIPE_START
G1 F8640.000
G1 X100.888 Y94.275 E-1.33000
;WIPE_END
G1 E-0.07000 F2100.000
G1 Z0.400 F10800.000
G1 X100.727 Y108.986
G1 Z0.200
G1 E1.40000 F2100.000
M204 S500
;TYPE:Perimeter
;WIDTH:0.3
G1 F1200.000
G1 X100.727 Y121.302 E0.26326
G1 X88.411 Y121.302 E0.26326
G1 X88.411 Y108.986 E0.26326
G1 X100.689 Y108.986 E0.26246
M204 S1000
G1 X100.470 Y109.243 F10800.000
M204 S500
;TYPE:External perimeter
G1 F1200.000
G1 X100.470 Y121.045 E0.25227
G1 X88.668 Y121.045 E0.25227
