; generated by PrusaSlicer 2.3.3+win64 on 2022-04-09 at 00:31:36 UTC

; 

; external perimeters extrusion width = 0.45mm
; perimeters extrusion width = 0.45mm
; infill extrusion width = 0.45mm
; solid infill extrusion width = 0.45mm
; top infill extrusion width = 0.40mm
; first layer extrusion width = 0.42mm

M73 P0 R30
M73 Q0 S31
M201 X1000 Y1000 Z200 E5000 ; sets maximum accelerations, mm/sec^2
M203 X200 Y200 Z12 E120 ; sets maximum feedrates, mm/sec
M204 P1250 R1250 T1250 ; sets acceleration (P, T) and retract acceleration (R), mm/sec^2
M205 X8.00 Y8.00 Z0.40 E4.50 ; sets the jerk limits, mm/sec
M205 S0 T0 ; sets the minimum extruding and travel feed rate, mm/sec
M107
;TYPE:Custom
M862.3 P "MK3S" ; printer model check
M862.1 P0.4 ; nozzle diameter check
M115 U3.10.1 ; tell printer latest fw version
G90 ; use absolute coordinates
M83 ; extruder relative mode
M104 S240 ; set extruder temp
M140 S85 ; set bed temp
M190 S85 ; wait for bed temp
M109 S240 ; wait for extruder temp
G28 W ; home all without mesh bed level
G80 ; mesh bed leveling
G1 Y-3.0 F1000.0 ; go outside print area
G92 E0.0
G1 X60.0 E9.0 F1000.0 ; intro line
G1 X100.0 E12.5 F1000.0 ; intro line
G92 E0.0
M221 S95

; Don't change E values below. Excessive value can damage the printer.

M907 E538 ; set extruder motor current
G21 ; set units to millimeters
G90 ; use absolute coordinates
M83 ; use relative distances for extrusion
M900 K0.08 ; Filament gcode LA 1.5
M900 K45 ; Filament gcode LA 1.0
;LAYER_CHANGE
;Z:0.2
;HEIGHT:0.2
;BEFORE_LAYER_CHANGE
G92 E0.0
;0.2


M73 Q0 S30
G1 E-1.00000 F2100.000
G1 Z0.200 F10800.000
;AFTER_LAYER_CHANGE
;0.2
G1 Z0.400
G1 X98.281 Y78.854
G1 Z0.200
G1 E1.00000 F2100.000
M204 S1000
;TYPE:Skirt
;WIDTH:0.42
G1 F1200.000
G1 X99.048 Y78.319 E0.02931
G1 X99.965 Y78.120 E0.02942
G1 X150.004 Y78.120 E1.56894
G1 X150.871 Y78.285 E0.02767
G1 X151.617 Y78.755 E0.02767
G1 X152.141 Y79.465 E0.02767
G1 X152.370 Y80.317 E0.02767
G1 X152.377 Y104.515 E0.75871
G1 X152.235 Y107.283 E0.08691
G1 X151.836 Y109.917 E0.08354
G1 X151.404 Y111.738 E0.05868
G1 X150.562 Y114.306 E0.08472
G1 X149.833 Y116.029 E0.05868
G1 X148.575 Y118.421 E0.08472
G1 X147.572 Y119.996 E0.05856
G1 X146.461 Y121.501 E0.05866
G1 X144.688 Y123.526 E0.08438
G1 X142.677 Y125.409 E0.08639
G1 X140.495 Y127.073 E0.08603
G1 X138.158 Y128.511 E0.08603
G1 X135.724 Y129.692 E0.08484
G1 X133.149 Y130.639 E0.08603
G1 X131.292 Y131.147 E0.06038
G1 X128.647 Y131.636 E0.08433
G1 X125.875 Y131.866 E0.08720
G1 X123.169 Y131.819 E0.08485
G1 X120.444 Y131.499 E0.08603
G1 X117.769 Y130.908 E0.08591
G1 X115.158 Y130.050 E0.08615
G1 X112.651 Y128.937 E0.08603
G1 X110.270 Y127.580 E0.08591
G1 X108.034 Y125.990 E0.08603
G1 X105.977 Y124.192 E0.08567
G1 X104.671 Y122.840 E0.05892
G1 X102.983 Y120.775 E0.08364
G1 X101.923 Y119.233 E0.05868
G1 X100.973 Y117.625 E0.05854
G1 X99.811 Y115.227 E0.08354
G1 X99.137 Y113.482 E0.05868
G1 X98.378 Y110.888 E0.08472
G1 X98.005 Y109.059 E0.05856
G1 X97.757 Y107.204 E0.05866
G1 X97.623 Y104.535 E0.08378
G1 X97.623 Y80.474 E0.75443
G1 X97.798 Y79.601 E0.02790
G1 X98.249 Y78.905 E0.02602
; printing object ears.stl id:0 copy 0
;WIPE_START
G1 F8640.000
G1 X99.048 Y78.319 E-0.22872
G1 X99.965 Y78.120 E-0.21669
G1 X102.150 Y78.120 E-0.50460
;WIPE_END
G1 E-0.05000 F2100.000
G1 Z0.400 F10800.000
G1 X100.787 Y81.574
G1 Z0.200
G1 E1.00000 F2100.000
;TYPE:Perimeter
G1 F1200.000
G1 X102.640 Y82.135 E0.06071
G1 X104.096 Y82.539 E0.04736
G1 X105.558 Y82.916 E0.04736
G1 X107.027 Y83.266 E0.04736
G1 X108.503 Y83.588 E0.04736
G1 X109.984 Y83.883 E0.04736
G1 X111.471 Y84.150 E0.04736
G1 X112.962 Y84.389 E0.04736
G1 X114.458 Y84.600 E0.04736
G1 X115.957 Y84.783 E0.04736
G1 X117.459 Y84.938 E0.04736
G1 X118.964 Y85.065 E0.04736
G1 X120.471 Y85.163 E0.04736
M73 Q1 S30
G1 X121.980 Y85.234 E0.04736
G1 X123.490 Y85.276 E0.04736
G1 X125.000 Y85.290 E0.04736
M73 P1 R30
G1 X126.510 Y85.276 E0.04736
G1 X128.020 Y85.234 E0.04736
G1 X129.529 Y85.163 E0.04736
G1 X131.036 Y85.065 E0.04736
G1 X132.541 Y84.938 E0.04736
G1 X134.043 Y84.783 E0.04736
G1 X135.542 Y84.600 E0.04736
G1 X137.038 Y84.389 E0.04736
G1 X138.529 Y84.150 E0.04736
G1 X140.016 Y83.883 E0.04736
G1 X141.497 Y83.588 E0.04736
G1 X142.973 Y83.266 E0.04736
G1 X144.442 Y82.916 E0.04736
G1 X145.904 Y82.539 E0.04736
G1 X147.360 Y82.135 E0.04736
G1 X149.213 Y81.574 E0.06071
G1 X149.213 Y104.497 E0.71874
G1 X149.199 Y105.312 E0.02558
G1 X149.159 Y106.121 E0.02537
G1 X149.091 Y106.927 E0.02537
G1 X148.997 Y107.731 E0.02537
G1 X148.876 Y108.531 E0.02537
G1 X148.728 Y109.326 E0.02537
G1 X148.553 Y110.116 E0.02537
G1 X148.353 Y110.900 E0.02537
G1 X148.126 Y111.677 E0.02537
G1 X147.873 Y112.446 E0.02537
G1 X147.595 Y113.206 E0.02537
G1 X147.292 Y113.956 E0.02537
G1 X146.963 Y114.695 E0.02537
G1 X146.610 Y115.424 E0.02537
G1 X146.233 Y116.140 E0.02537
G1 X145.833 Y116.843 E0.02537
G1 X145.409 Y117.532 E0.02537
G1 X144.962 Y118.206 E0.02537
G1 X144.493 Y118.866 E0.02537
G1 X144.002 Y119.509 E0.02537
G1 X143.490 Y120.136 E0.02537
G1 X142.957 Y120.745 E0.02537
G1 X142.405 Y121.336 E0.02537
G1 X141.833 Y121.908 E0.02537
G1 X141.242 Y122.461 E0.02537
G1 X140.632 Y122.993 E0.02537
G1 X140.006 Y123.505 E0.02537
G1 X139.363 Y123.996 E0.02537
G1 X138.703 Y124.465 E0.02537
G1 X138.028 Y124.912 E0.02537
G1 X137.339 Y125.336 E0.02537
G1 X136.636 Y125.737 E0.02537
G1 X135.920 Y126.114 E0.02537
G1 X135.192 Y126.467 E0.02537
G1 X134.452 Y126.795 E0.02537
G1 X133.702 Y127.098 E0.02537
G1 X132.930 Y127.381 E0.02579
G1 X132.174 Y127.629 E0.02496
G1 X131.397 Y127.856 E0.02537
G1 X130.613 Y128.057 E0.02537
G1 X129.823 Y128.231 E0.02537
G1 X129.027 Y128.379 E0.02537
G1 X128.227 Y128.500 E0.02537
G1 X127.424 Y128.595 E0.02537
G1 X126.617 Y128.662 E0.02537
G1 X125.809 Y128.703 E0.02537
G1 X125.000 Y128.716 E0.02537
G1 X124.191 Y128.703 E0.02537
G1 X123.383 Y128.662 E0.02537
G1 X122.576 Y128.595 E0.02537
G1 X121.773 Y128.500 E0.02537
G1 X120.960 Y128.376 E0.02579
G1 X120.177 Y128.231 E0.02496
G1 X119.387 Y128.057 E0.02537
G1 X118.603 Y127.856 E0.02537
G1 X117.826 Y127.629 E0.02537
G1 X117.058 Y127.376 E0.02537
G1 X116.298 Y127.098 E0.02537
G1 X115.548 Y126.795 E0.02537
G1 X114.808 Y126.467 E0.02537
G1 X114.080 Y126.114 E0.02537
G1 X113.364 Y125.737 E0.02537
G1 X112.661 Y125.336 E0.02537
G1 X111.972 Y124.912 E0.02537
G1 X111.297 Y124.465 E0.02537
G1 X110.637 Y123.996 E0.02537
G1 X109.994 Y123.505 E0.02537
G1 X109.368 Y122.993 E0.02537
G1 X108.758 Y122.461 E0.02537
G1 X108.167 Y121.908 E0.02537
G1 X107.595 Y121.336 E0.02537
G1 X107.034 Y120.735 E0.02579
G1 X106.510 Y120.136 E0.02496
G1 X105.998 Y119.509 E0.02537
G1 X105.507 Y118.866 E0.02537
G1 X105.038 Y118.207 E0.02537
G1 X104.584 Y117.521 E0.02579
G1 X104.167 Y116.843 E0.02496
G1 X103.767 Y116.140 E0.02537
G1 X103.390 Y115.424 E0.02537
G1 X103.037 Y114.695 E0.02537
G1 X102.708 Y113.956 E0.02537
G1 X102.405 Y113.206 E0.02537
G1 X102.127 Y112.446 E0.02537
G1 X101.874 Y111.677 E0.02537
G1 X101.647 Y110.900 E0.02537
G1 X101.447 Y110.116 E0.02537
G1 X101.272 Y109.326 E0.02537
G1 X101.124 Y108.531 E0.02537
G1 X101.003 Y107.731 E0.02537
G1 X100.909 Y106.927 E0.02537
G1 X100.841 Y106.121 E0.02537
G1 X100.801 Y105.312 E0.02537
G1 X100.787 Y104.497 E0.02558
G1 X100.787 Y81.634 E0.71686
G1 X100.410 Y81.058 F10800.000
;TYPE:External perimeter
G1 F1200.000
G1 X102.745 Y81.772 E0.07656
G1 X104.193 Y82.175 E0.04713
G1 X105.649 Y82.550 E0.04713
G1 X107.111 Y82.898 E0.04713
G1 X108.580 Y83.219 E0.04713
G1 X110.054 Y83.512 E0.04713
G1 X111.534 Y83.778 E0.04713
G1 X113.018 Y84.016 E0.04713
G1 X114.507 Y84.226 E0.04713
G1 X115.999 Y84.408 E0.04713
G1 X117.494 Y84.562 E0.04713
G1 X118.992 Y84.689 E0.04713
G1 X120.492 Y84.787 E0.04713
G1 X121.994 Y84.857 E0.04713
G1 X123.497 Y84.899 E0.04713
G1 X125.000 Y84.913 E0.04713
G1 X126.503 Y84.899 E0.04713
G1 X128.006 Y84.857 E0.04713
G1 X129.508 Y84.787 E0.04713
G1 X131.008 Y84.689 E0.04713
G1 X132.506 Y84.562 E0.04713
G1 X134.001 Y84.408 E0.04713
G1 X135.493 Y84.226 E0.04713
G1 X136.982 Y84.016 E0.04713
G1 X138.466 Y83.778 E0.04713
G1 X139.946 Y83.512 E0.04713
G1 X141.420 Y83.219 E0.04713
G1 X142.889 Y82.898 E0.04713
G1 X144.351 Y82.550 E0.04713
G1 X145.807 Y82.175 E0.04713
G1 X147.255 Y81.772 E0.04713
G1 X149.590 Y81.058 E0.07656
G1 X149.590 Y104.500 E0.73501
G1 X149.576 Y105.325 E0.02587
G1 X149.535 Y106.146 E0.02577
G1 X149.466 Y106.965 E0.02577
G1 X149.371 Y107.781 E0.02577
G1 X149.247 Y108.593 E0.02577
G1 X149.097 Y109.401 E0.02577
G1 X148.920 Y110.204 E0.02577
G1 X148.716 Y111.000 E0.02577
G1 X148.486 Y111.789 E0.02577
G1 X148.229 Y112.569 E0.02577
G1 X147.947 Y113.341 E0.02577
G1 X147.639 Y114.103 E0.02577
G1 X147.305 Y114.854 E0.02577
G1 X146.947 Y115.594 E0.02577
G1 X146.564 Y116.321 E0.02577
G1 X146.157 Y117.035 E0.02577
G1 X145.727 Y117.735 E0.02577
G1 X145.273 Y118.420 E0.02577
G1 X144.797 Y119.090 E0.02577
G1 X144.298 Y119.743 E0.02577
G1 X143.778 Y120.379 E0.02577
G1 X143.237 Y120.998 E0.02577
G1 X142.676 Y121.598 E0.02577
G1 X142.095 Y122.179 E0.02577
G1 X141.495 Y122.740 E0.02577
G1 X140.876 Y123.281 E0.02577
G1 X140.240 Y123.801 E0.02577
G1 X139.586 Y124.300 E0.02577
G1 X138.917 Y124.776 E0.02577
G1 X138.231 Y125.230 E0.02577
G1 X137.531 Y125.661 E0.02577
G1 X136.817 Y126.067 E0.02577
G1 X136.090 Y126.450 E0.02577
G1 X135.351 Y126.809 E0.02577
G1 X134.600 Y127.142 E0.02577
G1 X133.838 Y127.450 E0.02576
G1 X133.053 Y127.737 E0.02619
G1 X132.285 Y127.989 E0.02535
G1 X131.497 Y128.220 E0.02577
G1 X130.700 Y128.423 E0.02577
G1 X129.898 Y128.600 E0.02577
G1 X129.090 Y128.751 E0.02577
G1 X128.278 Y128.874 E0.02577
G1 X127.461 Y128.970 E0.02577
G1 X126.642 Y129.038 E0.02577
G1 X125.822 Y129.079 E0.02577
G1 X125.000 Y129.093 E0.02577
G1 X124.178 Y129.079 E0.02577
G1 X123.358 Y129.038 E0.02577
G1 X122.539 Y128.970 E0.02577
G1 X121.723 Y128.874 E0.02576
G1 X120.897 Y128.748 E0.02619
G1 X120.102 Y128.600 E0.02535
G1 X119.300 Y128.423 E0.02577
G1 X118.503 Y128.220 E0.02577
G1 X117.715 Y127.989 E0.02577
G1 X116.934 Y127.733 E0.02577
G1 X116.162 Y127.450 E0.02577
G1 X115.400 Y127.142 E0.02577
G1 X114.649 Y126.809 E0.02577
G1 X113.910 Y126.450 E0.02577
G1 X113.183 Y126.067 E0.02577
G1 X112.469 Y125.661 E0.02577
G1 X111.769 Y125.230 E0.02577
G1 X111.083 Y124.776 E0.02577
G1 X110.414 Y124.300 E0.02577
G1 X109.760 Y123.801 E0.02577
G1 X109.124 Y123.281 E0.02577
G1 X108.505 Y122.740 E0.02577
G1 X107.905 Y122.179 E0.02577
G1 X107.324 Y121.598 E0.02576
G1 X106.754 Y120.988 E0.02619
G1 X106.222 Y120.379 E0.02535
G1 X105.702 Y119.743 E0.02577
G1 X105.203 Y119.090 E0.02577
G1 X104.727 Y118.420 E0.02576
G1 X104.266 Y117.723 E0.02619
G1 X103.843 Y117.035 E0.02535
G1 X103.436 Y116.321 E0.02577
G1 X103.053 Y115.594 E0.02577
G1 X102.695 Y114.854 E0.02577
G1 X102.361 Y114.103 E0.02577
G1 X102.053 Y113.341 E0.02577
G1 X101.771 Y112.569 E0.02577
G1 X101.514 Y111.789 E0.02577
G1 X101.284 Y111.000 E0.02577
G1 X101.080 Y110.204 E0.02577
G1 X100.903 Y109.401 E0.02577
G1 X100.753 Y108.593 E0.02577
G1 X100.629 Y107.781 E0.02577
G1 X100.534 Y106.965 E0.02577
G1 X100.465 Y106.146 E0.02577
G1 X100.424 Y105.325 E0.02577
G1 X100.410 Y104.500 E0.02587
G1 X100.410 Y81.118 E0.73313
G1 X100.710 Y81.322 F10800.000
;WIPE_START
G1 F8640.000
G1 X102.745 Y81.772 E-0.55989
G1 X104.193 Y82.175 E-0.34711
G1 X104.373 Y82.221 E-0.04299
;WIPE_END
G1 E-0.05000 F2100.000
G1 Z0.400 F10800.000
G1 X149.100 Y82.487
G1 Z0.200
G1 E1.00000 F2100.000
;TYPE:Solid infill
;WIDTH:0.422347
G1 F1200.000
G1 X148.652 Y82.039 E0.01998
G1 X148.240 Y82.164 E0.01358
G1 X148.930 Y82.854 E0.03079
G1 X148.930 Y83.390 E0.01693
G1 X147.828 Y82.288 E0.04917
G1 X147.416 Y82.412 E0.01359
G1 X148.930 Y83.927 E0.06757
G1 X148.930 Y84.463 E0.01693
G1 X146.996 Y82.529 E0.08630
G1 X146.576 Y82.646 E0.01375
G1 X148.930 Y85.000 E0.10504
G1 X148.930 Y85.537 E0.01693
G1 X146.156 Y82.763 E0.12377
G1 X145.732 Y82.875 E0.01383
G1 X148.930 Y86.073 E0.14268
M73 Q2 S30
G1 X148.930 Y86.610 E0.01693
G1 X145.306 Y82.985 E0.16171
M73 P2 R30
G1 X144.879 Y83.095 E0.01390
G1 X148.930 Y87.146 E0.18074
G1 X148.930 Y87.683 E0.01693
G1 X144.452 Y83.204 E0.19982
G1 X144.018 Y83.308 E0.01406
G1 X148.930 Y88.220 E0.21916
G1 X148.930 Y88.756 E0.01693
G1 X143.585 Y83.411 E0.23849
G1 X143.151 Y83.514 E0.01406
G1 X148.930 Y89.293 E0.25783
G1 X148.930 Y89.829 E0.01693
G1 X142.713 Y83.612 E0.27740
G1 X142.272 Y83.708 E0.01422
G1 X148.930 Y90.366 E0.29705
G1 X148.930 Y90.902 E0.01693
G1 X141.832 Y83.804 E0.31670
G1 X141.389 Y83.898 E0.01429
G1 X148.930 Y91.439 E0.33647
G1 X148.930 Y91.976 E0.01693
G1 X140.941 Y83.987 E0.35644
G1 X140.494 Y84.076 E0.01440
G1 X148.930 Y92.512 E0.37641
G1 X148.930 Y93.049 E0.01693
G1 X140.046 Y84.165 E0.39640
G1 X139.591 Y84.246 E0.01458
G1 X148.930 Y93.585 E0.41669
G1 X148.930 Y94.122 E0.01693
G1 X139.136 Y84.328 E0.43699
G1 X138.681 Y84.410 E0.01458
G1 X148.930 Y94.659 E0.45729
G1 X148.930 Y95.195 E0.01693
G1 X138.220 Y84.485 E0.47785
G1 X137.758 Y84.560 E0.01478
G1 X148.930 Y95.732 E0.49848
G1 X148.930 Y96.268 E0.01693
G1 X137.295 Y84.634 E0.51912
G1 X136.829 Y84.704 E0.01489
G1 X148.930 Y96.805 E0.53993
G1 X148.930 Y97.342 E0.01693
G1 X136.359 Y84.770 E0.56091
G1 X135.888 Y84.836 E0.01498
G1 X148.930 Y97.878 E0.58189
G1 X148.930 Y98.415 E0.01693
G1 X135.415 Y84.900 E0.60300
G1 X134.937 Y84.958 E0.01520
G1 X148.930 Y98.951 E0.62433
G1 X148.930 Y99.488 E0.01693
G1 X134.459 Y85.017 E0.64567
G1 X133.979 Y85.074 E0.01524
G1 X148.930 Y100.025 E0.66708
G1 X148.930 Y100.561 E0.01693
G1 X133.493 Y85.124 E0.68878
M73 P3 R30
M73 Q3 S30
G1 X133.006 Y85.174 E0.01543
G1 X148.930 Y101.098 E0.71048
G1 X148.930 Y101.634 E0.01693
G1 X132.519 Y85.223 E0.73222
G1 X132.024 Y85.265 E0.01567
G1 X148.930 Y102.171 E0.75430
M73 P3 R29
G1 X148.930 Y102.707 E0.01693
G1 X131.529 Y85.307 E0.77638
G1 X131.034 Y85.348 E0.01568
G1 X148.930 Y103.244 E0.79848
G1 X148.930 Y103.781 E0.01693
G1 X130.531 Y85.381 E0.82094
G1 X130.027 Y85.414 E0.01592
G1 X148.930 Y104.317 E0.84341
G1 X148.924 Y104.848 E0.01674
M73 Q3 S29
G1 X129.523 Y85.447 E0.86564
G1 X129.010 Y85.471 E0.01619
G1 X148.913 Y105.373 E0.88801
G1 X148.887 Y105.884 E0.01614
G1 X128.498 Y85.495 E0.90974
G1 X127.984 Y85.518 E0.01622
G1 X148.853 Y106.386 E0.93110
G1 X148.811 Y106.881 E0.01568
G1 X127.462 Y85.532 E0.95254
G1 X126.940 Y85.547 E0.01647
G1 X148.755 Y107.362 E0.97333
M73 Q4 S29
G1 X148.694 Y107.838 E0.01513
G1 X126.417 Y85.560 E0.99398
M73 P4 R29
G1 X125.885 Y85.565 E0.01677
G1 X148.624 Y108.304 E1.01455
G1 X148.545 Y108.761 E0.01465
G1 X125.353 Y85.570 E1.03475
G1 X124.818 Y85.572 E0.01688
G1 X148.461 Y109.214 E1.05487
G1 X148.365 Y109.655 E0.01424
G1 X124.277 Y85.566 E1.07478
G1 X123.735 Y85.561 E0.01709
G1 X148.267 Y110.093 E1.09456
G1 X148.158 Y110.521 E0.01391
G1 X123.188 Y85.551 E1.11410
G1 X122.636 Y85.535 E0.01742
G1 X148.045 Y110.944 E1.13370
G1 X147.924 Y111.360 E0.01365
G1 X122.084 Y85.520 E1.15292
G1 X121.523 Y85.496 E0.01771
G1 X147.797 Y111.770 E1.17230
G1 X147.665 Y112.174 E0.01341
G1 X120.960 Y85.469 E1.19150
M73 P5 R29
M73 Q5 S29
G1 X120.396 Y85.442 E0.01782
G1 X147.526 Y112.572 E1.21047
G1 X147.382 Y112.964 E0.01320
G1 X119.822 Y85.404 E1.22967
G1 X119.248 Y85.367 E0.01816
G1 X147.231 Y113.350 E1.24857
G1 X147.077 Y113.732 E0.01300
G1 X118.668 Y85.323 E1.26754
G1 X118.082 Y85.274 E0.01855
G1 X146.915 Y114.107 E1.28646
G1 X146.750 Y114.479 E0.01283
G1 X117.496 Y85.225 E1.30525
G1 X116.899 Y85.164 E0.01893
G1 X146.578 Y114.843 E1.32419
G1 X146.402 Y115.204 E0.01267
G1 X116.301 Y85.102 E1.34307
G1 X115.697 Y85.036 E0.01914
G1 X146.220 Y115.558 E1.36184
M73 P6 R29
M73 Q6 S29
G1 X146.035 Y115.910 E0.01253
G1 X115.086 Y84.961 E1.38085
G1 X114.475 Y84.887 E0.01943
G1 X145.843 Y116.254 E1.39955
G1 X145.648 Y116.596 E0.01241
G1 X113.851 Y84.800 E1.41868
G1 X113.227 Y84.711 E0.01991
G1 X145.446 Y116.931 E1.43757
M73 P6 R28
G1 X145.242 Y117.263 E0.01231
G1 X112.595 Y84.616 E1.45665
G1 X111.956 Y84.514 E0.02042
G1 X145.031 Y117.589 E1.47577
M73 Q6 S28
G1 X144.818 Y117.912 E0.01222
G1 X111.314 Y84.409 E1.49485
G1 X110.660 Y84.291 E0.02096
G1 X144.598 Y118.230 E1.51425
M73 P7 R28
M73 Q7 S28
