; generated by PrusaSlicer 2.3.0+win64 on 2021-11-18 at 20:49:47 UTC

; 

; external perimeters extrusion width = 0.25mm
; perimeters extrusion width = 0.25mm
; infill extrusion width = 0.25mm
; solid infill extrusion width = 0.25mm
; top infill extrusion width = 0.25mm
; support material extrusion width = 0.20mm
; first layer extrusion width = 0.30mm

M73 P0 R17
M73 Q0 S17
M201 X1000 Y1000 Z200 E5000 ; sets maximum accelerations, mm/sec^2
M203 X200 Y200 Z12 E120 ; sets maximum feedrates, mm/sec
M204 P1250 R1250 T1250 ; sets acceleration (P, T) and retract acceleration (R), mm/sec^2
M205 X8.00 Y8.00 Z0.40 E4.50 ; sets the jerk limits, mm/sec
M205 S0 T0 ; sets the minimum extruding and travel feed rate, mm/sec
M107
;TYPE:Custom
M862.3 P "MK3S" ; printer model check
M862.1 P0.25 ; nozzle diameter check
M115 U3.9.1 ; tell printer latest fw version
G90 ; use absolute coordinates
M83 ; extruder relative mode
M104 S240 ; set extruder temp
M140 S85 ; set bed temp
M190 S85 ; wait for bed temp
M109 S240 ; wait for extruder temp
G28 W ; home all without mesh bed level
G80 ; mesh bed leveling
G1 Y-3.0 F1000.0 ; go outside print area
G92 E0.0
G1 X60.0 E8.0 F700.0 ; intro line
M73 P0 R16
M73 Q0 S16
G1 X100.0 E12.5 F700.0 ; intro line
G92 E0.0
M221 S95

; Don't change E value below. Excessive value can damage the printer.
M907 E430 ; set extruder motor current
G21 ; set units to millimeters
G90 ; use absolute coordinates
M83 ; use relative distances for extrusion
M900 K0.08 ; Filament gcode LA 1.5
M900 K45 ; Filament gcode LA 1.0
;LAYER_CHANGE
;Z:0.2
;HEIGHT:0.2
;BEFORE_LAYER_CHANGE
G92 E0.0
;0.2


G1 E-1.40000 F2100.000
G1 Z0.200 F10800.000
;AFTER_LAYER_CHANGE
;0.2
G1 Z0.400
G1 X127.014 Y89.569
M73 Q1 S16
G1 Z0.200
G1 E1.40000 F2100.000
M204 S500
;TYPE:Skirt
;WIDTH:0.3
G1 F1200.000
G1 X127.527 Y88.883 E0.01830
G1 X128.228 Y88.385 E0.01839
G1 X132.319 Y86.929 E0.09281
M73 P1 R16
G1 X132.874 Y86.868 E0.01194
G1 X139.587 Y86.868 E0.14350
G1 X140.223 Y86.943 E0.01368
G1 X145.595 Y88.295 E0.11842
G1 X146.110 Y88.568 E0.01246
G1 X146.553 Y88.940 E0.01237
G1 X146.910 Y89.396 E0.01237
G1 X147.165 Y89.920 E0.01246
G1 X148.460 Y93.636 E0.08412
G1 X148.583 Y94.189 E0.01211
G1 X148.602 Y102.344 E0.17433
G1 X148.467 Y103.173 E0.01795
G1 X147.010 Y107.259 E0.09273
G1 X146.401 Y108.034 E0.02107
G1 X145.563 Y108.546 E0.02099
G1 X140.284 Y109.986 E0.11696
G1 X139.753 Y110.071 E0.01150
G1 X132.505 Y110.048 E0.15493
G1 X131.921 Y109.898 E0.01290
G1 X128.167 Y108.412 E0.08629
G1 X127.706 Y108.105 E0.01185
G1 X127.314 Y107.712 E0.01185
G1 X127.009 Y107.250 E0.01185
G1 X126.802 Y106.736 E0.01185
G1 X125.427 Y98.964 E0.16870
G1 X125.461 Y97.570 E0.02980
G1 X126.743 Y90.338 E0.15702
G1 X127.002 Y89.604 E0.01663
M204 S1000
G1 X127.244 Y89.690 F10800.000
M204 S500
G1 F1200.000
G1 X127.720 Y89.054 E0.01700
G1 X128.364 Y88.605 E0.01676
G1 X132.389 Y87.177 E0.09129
G1 X139.587 Y87.125 E0.15387
G1 X140.165 Y87.193 E0.01245
G1 X145.483 Y88.527 E0.11719
G1 X145.957 Y88.775 E0.01145
G1 X146.366 Y89.116 E0.01137
G1 X146.693 Y89.534 E0.01137
G1 X146.927 Y90.016 E0.01145
G1 X148.216 Y93.715 E0.08372
G1 X148.328 Y94.222 E0.01112
G1 X148.344 Y102.343 E0.17358
G1 X148.221 Y103.098 E0.01635
G1 X146.775 Y107.152 E0.09201
G1 X146.218 Y107.853 E0.01916
G1 X145.449 Y108.314 E0.01916
G1 X140.218 Y109.737 E0.11588
G1 X139.720 Y109.815 E0.01078
G1 X132.543 Y109.794 E0.15341
G1 X132.009 Y109.656 E0.01178
G1 X128.271 Y108.176 E0.08594
G1 X127.853 Y107.894 E0.01078
G1 X127.500 Y107.533 E0.01078
G1 X127.226 Y107.110 E0.01078
G1 X127.042 Y106.640 E0.01078
G1 X125.683 Y98.934 E0.16726
G1 X125.715 Y97.612 E0.02827
G1 X126.995 Y90.388 E0.15682
G1 X127.231 Y89.725 E0.01504
M204 S1000
G1 X127.472 Y89.812 F10800.000
M204 S500
G1 F1200.000
G1 X127.913 Y89.225 E0.01568
G1 X128.495 Y88.827 E0.01509
G1 X132.458 Y87.426 E0.08984
G1 X139.586 Y87.382 E0.15238
G1 X140.105 Y87.443 E0.01116
G1 X145.369 Y88.758 E0.11599
G1 X145.804 Y88.982 E0.01045
G1 X146.178 Y89.291 E0.01037
G1 X146.479 Y89.677 E0.01045
G1 X146.689 Y90.114 E0.01037
G1 X148.073 Y94.253 E0.09329
G1 X148.087 Y102.338 E0.17282
G1 X147.975 Y103.024 E0.01486
G1 X146.543 Y107.041 E0.09117
G1 X146.036 Y107.671 E0.01728
M73 Q2 S16
G1 X145.339 Y108.081 E0.01728
G1 X139.695 Y109.559 E0.12473
M73 P2 R16
G1 X132.580 Y109.539 E0.15207
G1 X132.096 Y109.414 E0.01069
G1 X128.383 Y107.944 E0.08537
G1 X127.690 Y107.359 E0.01938
G1 X127.285 Y106.552 E0.01931
G1 X125.939 Y98.905 E0.16598
G1 X125.968 Y97.656 E0.02670
G1 X127.247 Y90.439 E0.15668
G1 X127.459 Y89.847 E0.01344
M204 S1000
;WIPE_START
G1 F8640.000
G1 X127.913 Y89.225 E-0.17767
G1 X128.495 Y88.827 E-0.16302
G1 X132.458 Y87.426 E-0.97048
G1 X132.539 Y87.425 E-0.01883
;WIPE_END
G1 E-0.07000 F2100.000
G1 Z0.400 F10800.000
G1 X131.870 Y92.523
G1 Z0.200
G1 E1.40000 F2100.000
M204 S500
;TYPE:Support material
G1 F1200.000
G1 X131.870 Y104.189 E0.24937
G1 X132.384 Y104.189 E0.01099
G1 X132.384 Y92.639 E0.24689
G1 X132.899 Y92.639 E0.01099
G1 X132.899 Y104.189 E0.24689
G1 X133.413 Y104.189 E0.01099
G1 X133.413 Y92.639 E0.24689
G1 X133.927 Y92.639 E0.01099
G1 X133.927 Y104.189 E0.24689
G1 X134.441 Y104.189 E0.01099
G1 X134.441 Y92.639 E0.24689
G1 X134.955 Y92.639 E0.01099
G1 X134.955 Y104.189 E0.24689
G1 X135.469 Y104.189 E0.01099
G1 X135.469 Y92.639 E0.24689
G1 X135.984 Y92.639 E0.01099
G1 X135.984 Y104.189 E0.24689
G1 X136.498 Y104.189 E0.01099
G1 X136.498 Y92.639 E0.24689
G1 X136.762 Y92.639 E0.00566
G1 X136.762 Y94.623 E0.04240
G1 X137.012 Y94.872 E0.00754
G1 X137.012 Y101.956 E0.15143
G1 X137.057 Y101.911 E0.00137
G1 X137.526 Y101.911 E0.01002
G1 X137.526 Y94.918 E0.14948
G1 X138.040 Y94.918 E0.01099
G1 X138.040 Y101.911 E0.14948
M73 Q3 S16
G1 X138.554 Y101.911 E0.01099
G1 X138.554 Y94.918 E0.14948
M73 P3 R16
G1 X138.942 Y94.918 E0.00829
G1 X139.069 Y94.791 E0.00381
G1 X139.069 Y102.037 E0.15488
G1 X139.237 Y102.205 E0.00510
G1 X139.237 Y104.189 E0.04240
G1 X139.583 Y104.189 E0.00738
G1 X139.583 Y92.639 E0.24689
G1 X140.097 Y92.639 E0.01099
G1 X140.097 Y104.189 E0.24689
G1 X140.611 Y104.189 E0.01099
G1 X140.611 Y92.639 E0.24689
G1 X141.125 Y92.639 E0.01099
G1 X141.125 Y104.189 E0.24689
G1 X141.639 Y104.189 E0.01099
G1 X141.639 Y92.639 E0.24689
G1 X142.153 Y92.639 E0.01099
G1 X142.153 Y104.305 E0.24937
M204 S1000
;WIPE_START
G1 F8640.000
G1 X142.153 Y98.545 E-1.33000
;WIPE_END
G1 E-0.07000 F2100.000
G1 Z0.400 F10800.000
G1 X139.583 Y107.305
G1 Z0.200
G1 E1.40000 F2100.000
M204 S500
G1 F1200.000
G1 X139.583 Y106.466 E0.01792
G1 X139.069 Y106.466 E0.01099
G1 X139.069 Y107.189 E0.01545
G1 X138.554 Y107.189 E0.01099
G1 X138.554 Y106.466 E0.01545
G1 X138.040 Y106.466 E0.01099
G1 X138.040 Y107.189 E0.01545
G1 X137.526 Y107.189 E0.01099
G1 X137.526 Y106.466 E0.01545
G1 X137.012 Y106.466 E0.01099
G1 X137.012 Y107.189 E0.01545
G1 X136.498 Y107.189 E0.01099
G1 X136.498 Y106.466 E0.01545
G1 X135.984 Y106.466 E0.01099
G1 X135.984 Y107.189 E0.01545
G1 X135.469 Y107.189 E0.01099
G1 X135.469 Y106.466 E0.01545
G1 X134.955 Y106.466 E0.01099
G1 X134.955 Y107.189 E0.01545
G1 X134.441 Y107.189 E0.01099
G1 X134.441 Y106.466 E0.01545
G1 X133.927 Y106.466 E0.01099
G1 X133.927 Y107.189 E0.01545
G1 X133.413 Y107.189 E0.01099
G1 X133.413 Y106.466 E0.01545
G1 X132.899 Y106.466 E0.01099
G1 X132.899 Y107.305 E0.01792
M204 S1000
;WIPE_START
G1 F8640.000
G1 X132.899 Y106.466 E-0.19361
G1 X133.413 Y106.466 E-0.11872
G1 X133.413 Y107.189 E-0.16690
G1 X133.927 Y107.189 E-0.11872
G1 X133.927 Y106.466 E-0.16690
G1 X134.441 Y106.466 E-0.11872
G1 X134.441 Y107.189 E-0.16690
G1 X134.955 Y107.189 E-0.11872
G1 X134.955 Y106.493 E-0.16080
;WIPE_END
G1 E-0.07000 F2100.000
G1 Z0.400 F10800.000
G1 X132.899 Y90.478
G1 Z0.200
G1 E1.40000 F2100.000
M204 S500
G1 F1200.000
G1 X132.899 Y89.639 E0.01792
G1 X133.413 Y89.639 E0.01099
G1 X133.413 Y90.362 E0.01545
G1 X133.927 Y90.362 E0.01099
G1 X133.927 Y89.639 E0.01545
G1 X134.441 Y89.639 E0.01099
G1 X134.441 Y90.362 E0.01545
G1 X134.955 Y90.362 E0.01099
G1 X134.955 Y89.639 E0.01545
G1 X135.469 Y89.639 E0.01099
G1 X135.469 Y90.362 E0.01545
G1 X135.984 Y90.362 E0.01099
G1 X135.984 Y89.639 E0.01545
G1 X136.498 Y89.639 E0.01099
G1 X136.498 Y90.362 E0.01545
G1 X137.012 Y90.362 E0.01099
G1 X137.012 Y89.639 E0.01545
G1 X137.526 Y89.639 E0.01099
G1 X137.526 Y90.362 E0.01545
G1 X138.040 Y90.362 E0.01099
G1 X138.040 Y89.639 E0.01545
G1 X138.554 Y89.639 E0.01099
G1 X138.554 Y90.362 E0.01545
G1 X139.069 Y90.362 E0.01099
G1 X139.069 Y89.639 E0.01545
G1 X139.583 Y89.639 E0.01099
G1 X139.583 Y90.478 E0.01792
M204 S1000
;WIPE_START
G1 F8640.000
G1 X139.583 Y89.639 E-0.19361
G1 X139.069 Y89.639 E-0.11872
G1 X139.069 Y90.362 E-0.16690
G1 X138.554 Y90.362 E-0.11872
G1 X138.554 Y89.639 E-0.16690
G1 X138.040 Y89.639 E-0.11872
G1 X138.040 Y90.362 E-0.16690
G1 X137.526 Y90.362 E-0.11872
G1 X137.526 Y89.666 E-0.16080
;WIPE_END
G1 E-0.07000 F2100.000
G1 Z0.400 F10800.000
G1 X138.070 Y91.530
G1 Z0.200
G1 E1.40000 F2100.000
M204 S500
;TYPE:Perimeter
G1 F1200.000
G1 X138.070 Y93.750 E0.04746
G1 X137.930 Y93.750 E0.00298
G1 X137.930 Y91.530 E0.04746
G1 X138.032 Y91.530 E0.00218
M204 S1000
G1 X138.327 Y91.728 F10800.000
M204 S500
G1 F1200.000
G1 X143.697 Y91.728 E0.11481
G1 X143.697 Y105.100 E0.28583
M73 P4 R16
M73 Q4 S16
G1 X138.327 Y105.100 E0.11481
G1 X138.327 Y102.821 E0.04871
G1 X137.673 Y102.821 E0.01397
G1 X137.673 Y105.100 E0.04871
G1 X130.326 Y105.100 E0.15704
G1 X130.326 Y91.728 E0.28583
G1 X137.673 Y91.728 E0.15704
G1 X137.673 Y94.007 E0.04871
G1 X138.327 Y94.007 E0.01397
G1 X138.327 Y91.766 E0.04790
M204 S1000
G1 X138.584 Y91.986 F10800.000
M204 S500
;TYPE:External perimeter
G1 F1200.000
G1 X143.440 Y91.986 E0.10382
G1 X143.440 Y104.843 E0.27483
G1 X138.584 Y104.843 E0.10382
G1 X138.584 Y102.564 E0.04871
G1 X137.416 Y102.564 E0.02496
G1 X137.416 Y104.843 E0.04871
G1 X130.583 Y104.843 E0.14605
G1 X130.583 Y91.986 E0.27483
G1 X137.416 Y91.986 E0.14605
G1 X137.416 Y94.264 E0.04871
G1 X138.584 Y94.264 E0.02496
G1 X138.584 Y92.023 E0.04790
M204 S1000
G1 X138.623 Y91.739 F10800.000
;WIPE_START
G1 F8640.000
G1 X143.440 Y91.986 E-1.12144
G1 X143.440 Y92.889 E-0.20856
;WIPE_END
G1 E-0.07000 F2100.000
G1 Z0.400 F10800.000
G1 X138.070 Y103.078
G1 Z0.200
G1 E1.40000 F2100.000
M204 S500
;TYPE:Perimeter
G1 F1200.000
G1 X138.070 Y105.298 E0.04746
G1 X137.930 Y105.298 E0.00298
G1 X137.930 Y103.078 E0.04746
G1 X138.032 Y103.078 E0.00218
M204 S1000
;WIPE_START
G1 F8640.000
G1 X138.070 Y105.298 E-0.51272
G1 X137.930 Y105.298 E-0.03223
G1 X137.930 Y103.078 E-0.51265
G1 X138.032 Y103.078 E-0.02357
;WIPE_END
G1 E-0.31884 F2100.000
G1 Z0.400 F10800.000
G1 X144.153 Y94.662
G1 Z0.200
G1 E1.40000 F2100.000
M204 S500
G1 F1200.000
G1 X145.374 Y94.662 E0.02609
G1 X145.423 Y94.702 E0.00136
G1 X145.423 Y95.102 E0.00855
G1 X145.408 Y95.118 E0.00047
G1 X144.153 Y95.118 E0.02682
G1 X144.153 Y101.710 E0.14093
G1 X145.374 Y101.710 E0.02609
G1 X145.423 Y101.751 E0.00136
G1 X145.423 Y102.151 E0.00855
G1 X145.408 Y102.166 E0.00047
G1 X144.153 Y102.166 E0.02682
G1 X144.153 Y105.555 E0.07245
G1 X129.870 Y105.555 E0.30531
G1 X129.870 Y98.642 E0.14778
G1 X128.616 Y98.642 E0.02682
G1 X128.600 Y98.626 E0.00047
G1 X128.600 Y98.202 E0.00908
G1 X128.616 Y98.186 E0.00047
G1 X129.862 Y98.186 E0.02663
G1 X129.870 Y91.273 E0.14778
G1 X144.153 Y91.273 E0.30532
M73 P5 R16
M73 Q5 S16
G1 X144.153 Y94.624 E0.07165
M204 S1000
G1 X144.410 Y94.405 F10800.000
M204 S500
;TYPE:External perimeter
G1 F1200.000
G1 X145.465 Y94.405 E0.02255
G1 X145.680 Y94.580 E0.00593
G1 X145.680 Y95.209 E0.01344
G1 X145.514 Y95.375 E0.00502
G1 X144.410 Y95.375 E0.02360
G1 X144.410 Y101.453 E0.12994
G1 X145.465 Y101.453 E0.02255
G1 X145.680 Y101.629 E0.00593
G1 X145.680 Y102.257 E0.01344
G1 X145.514 Y102.423 E0.00502
G1 X144.410 Y102.423 E0.02360
G1 X144.410 Y105.813 E0.07245
G1 X129.613 Y105.813 E0.31630
G1 X129.613 Y98.899 E0.14778
G1 X128.510 Y98.899 E0.02360
G1 X128.343 Y98.733 E0.00502
G1 X128.343 Y98.095 E0.01363
G1 X128.510 Y97.929 E0.00502
G1 X129.605 Y97.929 E0.02342
G1 X129.613 Y91.016 E0.14778
G1 X144.410 Y91.016 E0.31631
G1 X144.410 Y94.367 E0.07165
M204 S1000
G1 X144.519 Y94.630 F10800.000
G1 X143.925 Y94.790
M204 S500
;TYPE:Gap fill
;WIDTH:0.24168
G1 F1200.000
G1 X143.925 Y91.600 E0.05273
G1 X143.908 Y91.518 E0.00139
G1 X143.826 Y91.501 E0.00139
G1 X138.198 Y91.501 E0.09301
M204 S1000
G1 X137.802 Y91.501 F10800.000
M204 S500
;WIDTH:0.241684
G1 F1200.000
G1 X130.198 Y91.501 E0.12567
G1 X130.115 Y91.518 E0.00140
G1 X130.098 Y91.600 E0.00139
G1 X130.094 Y98.315 E0.11098
G1 X130.072 Y98.411 E0.00163
M204 S1000
;WIPE_START
G1 F8640.000
G1 X130.094 Y98.315 E-0.02274
G1 X130.097 Y92.653 E-1.30726
;WIPE_END
G1 E-0.07000 F2100.000
G1 Z0.400 F10800.000
G1 X128.729 Y98.414
G1 Z0.200
G1 E1.40000 F2100.000
M204 S500
;WIDTH:0.242056
G1 F1200.000
G1 X129.999 Y98.414 E0.02103
M204 S1000
M204 S500
;WIDTH:0.268417
G1 X130.035 Y98.412 E0.00068
M204 S1000
M204 S500
;WIDTH:0.294777
G1 X130.072 Y98.411 E0.00076
M204 S1000
M204 S500
;WIDTH:0.241682
G1 X130.098 Y98.513 E0.00175
G1 X130.098 Y105.228 E0.11098
G1 X130.115 Y105.311 E0.00139
G1 X130.198 Y105.328 E0.00139
G1 X137.802 Y105.328 E0.12567
M204 S1000
G1 X138.198 Y105.328 F10800.000
M204 S500
;WIDTH:0.24168
G1 F1200.000
G1 X143.826 Y105.328 E0.09301
G1 X143.908 Y105.311 E0.00139
G1 X143.925 Y105.228 E0.00139
G1 X143.925 Y102.038 E0.05273
M204 S1000
M204 S500
;WIDTH:0.291372
G1 X143.950 Y101.938 E0.00212
M204 S1000
M204 S500
;WIDTH:0.24168
G1 X143.925 Y101.839 E0.00169
G1 X143.925 Y94.989 E0.11321
M204 S1000
M204 S500
;WIDTH:0.291371
G1 X143.950 Y94.890 E0.00212
M204 S1000
M204 S500
;WIDTH:0.291372
G1 X143.925 Y94.790 E0.00212
M204 S1000
G1 X143.950 Y94.890 F10800.000
M204 S500
;WIDTH:0.241682
G1 F1200.000
G1 X145.295 Y94.890 E0.02222
M204 S1000
;WIPE_START
G1 F8640.000
G1 X143.950 Y94.890 E-0.31046
;WIPE_END
G1 E-1.08954 F2100.000
G1 Z0.400 F10800.000
G1 X145.295 Y101.938
G1 Z0.200
G1 E1.40000 F2100.000
M204 S500
;WIDTH:0.241684
G1 F1200.000
G1 X143.950 Y101.938 E0.02222
M204 S1000
;LAYER_CHANGE
;Z:0.347377
;HEIGHT:0.147377
;BEFORE_LAYER_CHANGE
G92 E0.0
;0.347377


;WIPE_START
G1 F8640.000
G1 X145.295 Y101.938 E-0.31046
;WIPE_END
G1 E-1.08954 F2100.000
G1 Z0.400 F10800.000
;AFTER_LAYER_CHANGE
;0.347377
M104 S250 ; set temperature
M140 S90 ; set bed temperature
G1 X139.423 Y93.743
G1 Z0.347
G1 E1.40000 F2100.000
;TYPE:Support material
;WIDTH:0.2
G1 F900
G1 X139.193 Y93.743 E0.00238
G1 X139.193 Y94.604 E0.00889
G1 X138.924 Y94.873 E0.00392
G1 X137.076 Y94.873 E0.01907
G1 X136.807 Y94.604 E0.00392
G1 X136.807 Y93.743 E0.00889
G1 X135.844 Y93.743 E0.00993
G1 X135.844 Y94.911 E0.01205
G1 X134.676 Y94.911 E0.01205
G1 X139.348 Y94.911 E0.04819
G1 X139.348 Y96.078 E0.01205
G1 X134.676 Y96.078 E0.04819
M73 Q6 S16
G1 X134.676 Y97.246 E0.01205
G1 X139.348 Y97.246 E0.04819
M73 P6 R16
G1 X139.348 Y98.414 E0.01205
G1 X134.676 Y98.414 E0.04819
G1 X134.676 Y99.582 E0.01205
G1 X139.348 Y99.582 E0.04819
G1 X139.348 Y100.750 E0.01205
G1 X134.676 Y100.750 E0.04819
G1 X134.676 Y101.917 E0.01205
G1 X139.348 Y101.917 E0.04819
G1 X139.348 Y103.085 E0.01205
G1 X139.193 Y103.085 E0.00160
G1 X139.193 Y102.224 E0.00889
G1 X138.924 Y101.955 E0.00392
G1 X137.076 Y101.955 E0.01907
G1 X136.807 Y102.224 E0.00392
G1 X136.807 Y103.085 E0.00889
G1 X135.769 Y103.085 E0.01071
;LAYER_CHANGE
;Z:0.35
;HEIGHT:0.00262296
;BEFORE_LAYER_CHANGE
G92 E0.0
;0.35


;WIPE_START
G1 F8640.000
G1 X136.807 Y103.085 E-0.23979
G1 X136.807 Y102.224 E-0.19888
G1 X137.076 Y101.955 E-0.08778
G1 X138.924 Y101.955 E-0.42672
G1 X139.193 Y102.224 E-0.08778
G1 X139.193 Y103.085 E-0.19888
G1 X139.348 Y103.085 E-0.03575
G1 X139.348 Y102.850 E-0.05442
;WIPE_END
G1 E-0.07000 F2100.000
G1 Z0.547 F10800.000
;AFTER_LAYER_CHANGE
;0.35
G1 X146.401 Y108.034
G1 Z0.350
G1 E1.40000 F2100.000
;TYPE:Skirt
;WIDTH:0.3
;HEIGHT:0.15
G1 F2400.000
G1 X145.563 Y108.546 E0.01640
G1 X140.284 Y109.986 E0.09138
G1 X139.753 Y110.071 E0.00898
G1 X132.505 Y110.048 E0.12105
G1 X131.921 Y109.898 E0.01008
G1 X128.167 Y108.412 E0.06742
G1 X127.706 Y108.105 E0.00926
G1 X127.314 Y107.712 E0.00926
