; generated by PrusaSlicer 2.3.0+win64 on 2021-05-12 at 03:50:50 UTC

; 

; external perimeters extrusion width = 0.45mm
; perimeters extrusion width = 0.45mm
; infill extrusion width = 0.45mm
; solid infill extrusion width = 0.45mm
; top infill extrusion width = 0.40mm
; first layer extrusion width = 0.42mm

M73 P0 R17
M73 Q0 S18
M201 X1000 Y1000 Z200 E5000 ; sets maximum accelerations, mm/sec^2
M203 X200 Y200 Z12 E120 ; sets maximum feedrates, mm/sec
M204 P1250 R1250 T1250 ; sets acceleration (P, T) and retract acceleration (R), mm/sec^2
M205 X8.00 Y8.00 Z0.40 E4.50 ; sets the jerk limits, mm/sec
M205 S0 T0 ; sets the minimum extruding and travel feed rate, mm/sec
M107
;TYPE:Custom
M862.3 P "MK3S" ; printer model check
M862.1 P0.4 ; nozzle diameter check
M115 U3.9.1 ; tell printer latest fw version
G90 ; use absolute coordinates
M83 ; extruder relative mode
M104 S240 ; set extruder temp
M140 S85 ; set bed temp
M190 S85 ; wait for bed temp
M109 S240 ; wait for extruder temp
G28 W ; home all without mesh bed level
G80 ; mesh bed leveling
G1 Y-3.0 F1000.0 ; go outside print area
G92 E0.0
G1 X60.0 E9.0 F1000.0 ; intro line
G1 X100.0 E12.5 F1000.0 ; intro line
G92 E0.0
M221 S95

; Don't change E values below. Excessive value can damage the printer.
M907 E430 ; set extruder motor current
G21 ; set units to millimeters
G90 ; use absolute coordinates
M83 ; use relative distances for extrusion
M900 K0.08 ; Filament gcode LA 1.5
M900 K45 ; Filament gcode LA 1.0
;LAYER_CHANGE
;Z:0.2
;HEIGHT:0.2
;BEFORE_LAYER_CHANGE
G92 E0.0
;0.2


G1 E-1.40000 F2100.000
G1 Z0.200 F10800.000
;AFTER_LAYER_CHANGE
;0.2
G1 Z0.400
G1 X104.321 Y99.684
G1 Z0.200
G1 E1.40000 F2100.000
M204 S1000
;TYPE:Skirt
;WIDTH:0.42
G1 F1200.000
G1 X105.602 Y98.717 E0.05032
G1 X106.790 Y98.147 E0.04131
G1 X108.325 Y97.756 E0.04968
G1 X109.424 Y97.685 E0.03453
G1 X125.093 Y97.685 E0.49127
G1 X126.278 Y97.796 E0.03734
G1 X127.442 Y98.104 E0.03773
G1 X128.499 Y98.576 E0.03632
G1 X129.729 Y99.419 E0.04674
M73 Q0 S17
G1 X130.588 Y100.278 E0.03811
G1 X131.257 Y101.209 E0.03594
G1 X131.776 Y102.240 E0.03619
G1 X132.131 Y103.365 E0.03696
G1 X132.316 Y104.975 E0.05083
G1 X132.298 Y121.151 E0.50720
G1 X132.141 Y122.237 E0.03439
G1 X131.939 Y122.965 E0.02369
G1 X131.536 Y123.937 E0.03299
G1 X130.983 Y124.861 E0.03376
G1 X129.832 Y126.143 E0.05403
G1 X128.500 Y127.074 E0.05096
G1 X127.271 Y127.604 E0.04195
G1 X125.635 Y127.938 E0.05236
G1 X108.915 Y127.953 E0.52425
M73 P1 R17
M73 Q1 S17
G1 X107.815 Y127.804 E0.03478
G1 X106.813 Y127.512 E0.03273
G1 X106.115 Y127.212 E0.02382
G1 X105.210 Y126.684 E0.03286
G1 X103.933 Y125.570 E0.05313
G1 X102.950 Y124.199 E0.05288
G1 X102.305 Y122.632 E0.05313
G1 X102.043 Y121.032 E0.05083
G1 X102.040 Y104.655 E0.51350
G1 X102.168 Y103.594 E0.03350
G1 X102.445 Y102.579 E0.03299
G1 X102.730 Y101.884 E0.02357
G1 X103.265 Y100.936 E0.03414
G1 X104.283 Y99.730 E0.04946
G1 X104.569 Y99.972 F10800.000
G1 F1200.000
G1 X105.806 Y99.034 E0.04868
G1 X106.919 Y98.501 E0.03871
G1 X108.393 Y98.127 E0.04767
G1 X109.428 Y98.062 E0.03253
G1 X125.092 Y98.062 E0.49113
G1 X126.212 Y98.168 E0.03526
G1 X127.314 Y98.459 E0.03574
G1 X128.310 Y98.902 E0.03419
G1 X129.495 Y99.715 E0.04505
G1 X130.305 Y100.527 E0.03598
G1 X130.939 Y101.411 E0.03408
G1 X131.428 Y102.386 E0.03420
G1 X131.766 Y103.462 E0.03538
G1 X131.939 Y104.980 E0.04790
G1 X131.922 Y121.126 E0.50625
G1 X131.771 Y122.164 E0.03288
G1 X131.584 Y122.840 E0.02200
G1 X131.198 Y123.771 E0.03157
G1 X130.663 Y124.660 E0.03253
G1 X129.577 Y125.865 E0.05087
G1 X128.308 Y126.749 E0.04850
G1 X127.164 Y127.242 E0.03907
G1 X125.600 Y127.562 E0.05004
G1 X108.942 Y127.577 E0.52233
G1 X107.891 Y127.435 E0.03324
G1 X106.932 Y127.154 E0.03134
G1 X106.284 Y126.875 E0.02212
G1 X105.411 Y126.364 E0.03169
G1 X104.210 Y125.314 E0.05004
G1 X103.278 Y124.013 E0.05016
G1 X102.667 Y122.526 E0.05040
G1 X102.419 Y121.000 E0.04850
G1 X102.417 Y104.682 E0.51163
G1 X102.538 Y103.667 E0.03205
G1 X102.803 Y102.696 E0.03157
G1 X103.071 Y102.045 E0.02205
G1 X103.584 Y101.137 E0.03272
G1 X104.530 Y100.018 E0.04594
;WIPE_START
G1 F8640.000
G1 X105.806 Y99.034 E-0.37200
G1 X106.919 Y98.501 E-0.28510
G1 X108.393 Y98.127 E-0.35102
G1 X109.428 Y98.062 E-0.23955
G1 X109.785 Y98.062 E-0.08233
;WIPE_END
G1 E-0.07000 F2100.000
G1 Z0.400 F10800.000
G1 X107.437 Y102.861
G1 Z0.200
G1 E1.40000 F2100.000
;TYPE:External perimeter
G1 F1200.000
G1 X107.794 Y102.589 E0.01410
G1 X108.195 Y102.375 E0.01426
G1 X108.584 Y102.235 E0.01296
G1 X109.007 Y102.152 E0.01352
G1 X109.440 Y102.134 E0.01356
G1 X109.891 Y102.183 E0.01423
G1 X110.331 Y102.306 E0.01433
G1 X110.722 Y102.482 E0.01344
G1 X111.085 Y102.717 E0.01355
G1 X111.411 Y103.007 E0.01368
G1 X111.697 Y103.354 E0.01410
G1 X111.926 Y103.745 E0.01422
G1 X112.081 Y104.130 E0.01300
G1 X112.179 Y104.546 E0.01342
G1 X112.216 Y105.000 E0.01428
G1 X112.179 Y105.454 E0.01428
G1 X112.081 Y105.870 E0.01342
G1 X111.926 Y106.255 E0.01300
G1 X111.698 Y106.645 E0.01417
G1 X111.410 Y106.994 E0.01417
G1 X111.069 Y107.293 E0.01425
G1 X110.722 Y107.518 E0.01296
G1 X110.331 Y107.694 E0.01345
G1 X109.891 Y107.817 E0.01430
G1 X109.461 Y107.866 E0.01359
G1 X109.005 Y107.847 E0.01430
G1 X108.584 Y107.765 E0.01344
G1 X108.177 Y107.619 E0.01356
G1 X107.794 Y107.411 E0.01369
G1 X107.437 Y107.139 E0.01408
G1 X107.137 Y106.827 E0.01356
G1 X106.885 Y106.470 E0.01368
G1 X106.685 Y106.067 E0.01413
G1 X106.555 Y105.656 E0.01351
G1 X106.489 Y105.228 E0.01355
G1 X106.480 Y105.000 E0.00717
G1 X106.489 Y104.772 E0.00717
G1 X106.555 Y104.344 E0.01355
G1 X106.685 Y103.933 E0.01351
G1 X106.885 Y103.530 E0.01413
G1 X107.137 Y103.173 E0.01368
G1 X107.395 Y102.904 E0.01169
G1 X107.356 Y102.470 F10800.000
G1 X107.591 Y102.270
;TYPE:Perimeter
G1 F1200.000
G1 X107.721 Y102.181 E0.00492
G1 X108.182 Y101.960 E0.01605
G1 X108.459 Y101.870 E0.00913
G1 X108.917 Y101.773 E0.01469
G1 X109.457 Y101.748 E0.01695
G1 X109.923 Y101.795 E0.01469
G1 X110.445 Y101.936 E0.01695
G1 X110.864 Y102.119 E0.01433
G1 X111.301 Y102.395 E0.01622
G1 X111.480 Y102.539 E0.00720
G1 X111.669 Y102.732 E0.00846
G1 X111.314 Y102.416 E0.01491
G1 X110.903 Y102.150 E0.01535
G1 X110.460 Y101.950 E0.01524
G1 X109.962 Y101.812 E0.01619
G1 X109.452 Y101.756 E0.01610
G1 X108.963 Y101.777 E0.01535
G1 X108.484 Y101.871 E0.01531
G1 X108.042 Y102.029 E0.01472
G1 X107.644 Y102.242 E0.01414
;WIPE_START
G1 F8640.000
G1 X107.721 Y102.181 E-0.02248
G1 X108.182 Y101.960 E-0.11821
G1 X108.459 Y101.870 E-0.06724
G1 X108.917 Y101.773 E-0.10815
G1 X109.457 Y101.748 E-0.12482
G1 X109.923 Y101.795 E-0.10815
G1 X110.445 Y101.936 E-0.12482
G1 X110.864 Y102.119 E-0.10551
G1 X111.301 Y102.395 E-0.11944
G1 X111.480 Y102.539 E-0.05304
G1 X111.669 Y102.732 E-0.06228
G1 X111.314 Y102.416 E-0.10977
G1 X110.903 Y102.150 E-0.11307
G1 X110.535 Y101.984 E-0.09303
;WIPE_END
G1 E-0.07000 F2100.000
G1 Z0.400 F10800.000
G1 X111.693 Y102.756
G1 Z0.200
G1 E1.40000 F2100.000
G1 F1200.000
G1 X111.841 Y102.908 E0.00666
G1 X111.994 Y103.121 E0.00822
G1 X111.731 Y102.802 E0.01296
G1 X112.015 Y103.151 F10800.000
G1 F1200.000
G1 X112.135 Y103.318 E0.00645
G1 X112.265 Y103.578 E0.00913
G1 X112.046 Y103.203 E0.01365
G1 X112.266 Y103.579 F10800.000
G1 F1200.000
G1 X112.366 Y103.779 E0.00704
G1 X112.445 Y103.995 E0.00720
G1 X112.564 Y104.497 E0.01618
G1 X112.604 Y105.011 E0.01618
G1 X112.595 Y105.241 E0.00720
G1 X112.554 Y105.505 E0.00839
G1 X112.595 Y105.000 E0.01589
G1 X112.553 Y104.487 E0.01613
G1 X112.442 Y104.015 E0.01521
G1 X112.288 Y103.634 E0.01288
;WIPE_START
G1 F8640.000
G1 X112.366 Y103.779 E-0.03805
G1 X112.445 Y103.995 E-0.05304
G1 X112.564 Y104.497 E-0.11913
G1 X112.604 Y105.011 E-0.11913
G1 X112.595 Y105.241 E-0.05304
G1 X112.554 Y105.505 E-0.06176
G1 X112.595 Y105.000 E-0.11704
G1 X112.553 Y104.487 E-0.11880
G1 X112.442 Y104.015 E-0.11200
M73 Q2 S17
G1 X112.288 Y103.634 E-0.09482
;WIPE_END
G1 E-0.51319 F2100.000
G1 Z0.400 F10800.000
G1 X112.551 Y105.520
G1 Z0.200
M73 P2 R17
G1 E1.40000 F2100.000
G1 F1200.000
G1 X112.513 Y105.762 E0.00768
G1 X112.452 Y105.983 E0.00720
G1 X112.257 Y106.461 E0.01618
G1 X111.996 Y106.893 E0.01582
G1 X111.664 Y107.288 E0.01618
G1 X111.489 Y107.453 E0.00756
G1 X111.301 Y107.605 E0.00756
G1 X110.865 Y107.880 E0.01618
G1 X110.395 Y108.083 E0.01605
G1 X110.115 Y108.162 E0.00913
G1 X109.664 Y108.240 E0.01433
G1 X109.484 Y108.243 E0.00565
G1 X109.964 Y108.188 E0.01515
G1 X110.459 Y108.050 E0.01612
G1 X110.903 Y107.850 E0.01524
G1 X111.297 Y107.595 E0.01472
G1 X111.682 Y107.257 E0.01606
G1 X112.008 Y106.862 E0.01607
G1 X112.266 Y106.421 E0.01599
G1 X112.442 Y105.985 E0.01476
G1 X112.538 Y105.578 E0.01310
;WIPE_START
G1 F8640.000
G1 X112.513 Y105.762 E-0.04276
G1 X112.452 Y105.983 E-0.05304
G1 X112.257 Y106.461 E-0.11913
G1 X111.996 Y106.893 E-0.11648
G1 X111.664 Y107.288 E-0.11913
G1 X111.489 Y107.453 E-0.05567
G1 X111.301 Y107.605 E-0.05568
G1 X110.865 Y107.880 E-0.11913
G1 X110.395 Y108.083 E-0.11820
G1 X110.115 Y108.162 E-0.06724
G1 X109.664 Y108.240 E-0.10551
G1 X109.484 Y108.243 E-0.04164
G1 X109.964 Y108.188 E-0.11156
G1 X110.459 Y108.050 E-0.11872
G1 X110.799 Y107.897 E-0.08612
;WIPE_END
G1 E-0.07000 F2100.000
G1 Z0.400 F10800.000
G1 X109.460 Y108.244
G1 Z0.200
G1 E1.40000 F2100.000
G1 F1200.000
G1 X109.147 Y108.250 E0.00980
G1 X108.919 Y108.227 E0.00720
G1 X108.414 Y108.118 E0.01618
G1 X107.944 Y107.937 E0.01582
G1 X107.497 Y107.679 E0.01618
G1 X107.187 Y107.423 E0.01261
G1 X107.588 Y107.728 E0.01583
G1 X108.023 Y107.964 E0.01550
G1 X108.484 Y108.129 E0.01535
G1 X108.961 Y108.223 E0.01524
G1 X109.400 Y108.241 E0.01378
;WIPE_START
G1 F8640.000
G1 X109.147 Y108.250 E-0.05835
G1 X108.919 Y108.227 E-0.05304
G1 X108.414 Y108.118 E-0.11913
G1 X107.944 Y107.937 E-0.11648
G1 X107.497 Y107.679 E-0.11913
G1 X107.187 Y107.423 E-0.09288
G1 X107.588 Y107.728 E-0.11655
G1 X108.023 Y107.964 E-0.11413
G1 X108.484 Y108.129 E-0.11307
G1 X108.961 Y108.223 E-0.11223
G1 X109.400 Y108.241 E-0.10147
;WIPE_END
G1 E-0.28354 F2100.000
G1 Z0.400 F10800.000
G1 X107.181 Y107.417
G1 Z0.200
G1 E1.40000 F2100.000
G1 F1200.000
G1 X106.938 Y107.187 E0.01051
G1 X106.624 Y106.783 E0.01605
G1 X106.477 Y106.531 E0.00913
G1 X106.285 Y106.104 E0.01469
G1 X106.214 Y105.884 E0.00724
G1 X106.115 Y105.378 E0.01618
G1 X106.095 Y104.874 E0.01582
G1 X106.154 Y104.373 E0.01582
G1 X106.292 Y103.876 E0.01618
G1 X106.492 Y103.437 E0.01511
G1 X106.775 Y103.006 E0.01618
G1 X107.122 Y102.624 E0.01618
G1 X107.295 Y102.473 E0.00720
G1 X107.587 Y102.272 E0.01111
G1 X107.185 Y102.579 E0.01586
G1 X106.845 Y102.932 E0.01538
G1 X106.560 Y103.336 E0.01549
G1 X106.334 Y103.792 E0.01595
G1 X106.187 Y104.258 E0.01532
G1 X106.113 Y104.735 E0.01514
G1 X106.113 Y105.265 E0.01660
G1 X106.187 Y105.742 E0.01514
G1 X106.334 Y106.208 E0.01532
G1 X106.560 Y106.664 E0.01595
G1 X106.845 Y107.068 E0.01550
G1 X107.140 Y107.374 E0.01333
G1 X106.657 Y107.442 F10800.000
;TYPE:External perimeter
G1 F1200.000
G1 X106.311 Y106.994 E0.01774
G1 X106.141 Y106.704 E0.01054
G1 X105.932 Y106.239 E0.01598
G1 X105.849 Y105.978 E0.00859
G1 X105.739 Y105.422 E0.01778
G1 X105.718 Y104.859 E0.01766
G1 X105.783 Y104.300 E0.01766
G1 X105.935 Y103.753 E0.01778
G1 X106.040 Y103.496 E0.00871
G1 X106.165 Y103.248 E0.00871
G1 X106.476 Y102.774 E0.01778
G1 X106.857 Y102.354 E0.01778
G1 X107.064 Y102.174 E0.00858
G1 X107.531 Y101.854 E0.01778
G1 X108.042 Y101.609 E0.01774
G1 X108.361 Y101.505 E0.01054
G1 X108.860 Y101.399 E0.01598
G1 X109.135 Y101.373 E0.00868
G1 X109.475 Y101.371 E0.01066
G1 X109.983 Y101.422 E0.01598
G1 X110.253 Y101.481 E0.00868
G1 X110.577 Y101.583 E0.01066
G1 X111.041 Y101.785 E0.01585
G1 X111.521 Y102.088 E0.01780
G1 X111.734 Y102.260 E0.00858
G1 X112.131 Y102.665 E0.01778
G1 X112.459 Y103.123 E0.01766
G1 X112.713 Y103.630 E0.01778
G1 X112.807 Y103.887 E0.00858
G1 X112.938 Y104.439 E0.01778
G1 X112.982 Y105.004 E0.01778
G1 X112.971 Y105.278 E0.00858
G1 X112.883 Y105.842 E0.01791
G1 X112.809 Y106.106 E0.00858
G1 X112.595 Y106.631 E0.01778
G1 X112.304 Y107.113 E0.01766
G1 X111.939 Y107.547 E0.01778
G1 X111.737 Y107.738 E0.00871
G1 X111.521 Y107.912 E0.00871
G1 X111.041 Y108.215 E0.01778
G1 X110.522 Y108.439 E0.01774
G1 X110.199 Y108.531 E0.01054
G1 X109.700 Y108.616 E0.01585
G1 X109.133 Y108.627 E0.01780
G1 X108.860 Y108.601 E0.00858
G1 X108.306 Y108.481 E0.01778
G1 X107.781 Y108.278 E0.01766
G1 X107.289 Y107.994 E0.01778
G1 X107.070 Y107.831 E0.00858
G1 X106.701 Y107.483 E0.01590
G1 X106.785 Y107.062 F10800.000
;WIPE_START
G1 F8640.000
G1 X106.311 Y106.994 E-0.14434
G1 X106.141 Y106.704 E-0.07759
G1 X105.932 Y106.239 E-0.11770
G1 X105.849 Y105.978 E-0.06329
G1 X105.739 Y105.422 E-0.13096
G1 X105.718 Y104.859 E-0.13002
G1 X105.783 Y104.300 E-0.13002
G1 X105.935 Y103.753 E-0.13096
G1 X106.040 Y103.496 E-0.06412
G1 X106.165 Y103.248 E-0.06412
G1 X106.476 Y102.774 E-0.13096
G1 X106.857 Y102.354 E-0.13096
G1 X106.906 Y102.312 E-0.01494
;WIPE_END
G1 E-0.07000 F2100.000
G1 Z0.400 F10800.000
G1 X108.584 Y117.885
G1 Z0.200
G1 E1.40000 F2100.000
G1 F1200.000
G1 X109.007 Y117.803 E0.01352
G1 X109.440 Y117.784 E0.01356
G1 X109.891 Y117.833 E0.01423
G1 X110.331 Y117.956 E0.01433
G1 X110.722 Y118.132 E0.01344
G1 X111.085 Y118.367 E0.01355
G1 X111.411 Y118.657 E0.01368
G1 X111.697 Y119.004 E0.01410
G1 X111.926 Y119.395 E0.01422
G1 X112.081 Y119.780 E0.01300
G1 X112.179 Y120.196 E0.01342
G1 X112.216 Y120.650 E0.01428
G1 X112.179 Y121.104 E0.01428
G1 X112.081 Y121.521 E0.01342
G1 X111.926 Y121.905 E0.01300
G1 X111.698 Y122.295 E0.01417
G1 X111.410 Y122.644 E0.01417
G1 X111.069 Y122.944 E0.01425
G1 X110.722 Y123.168 E0.01296
G1 X110.331 Y123.344 E0.01345
G1 X109.891 Y123.467 E0.01430
G1 X109.461 Y123.516 E0.01359
G1 X109.005 Y123.497 E0.01430
G1 X108.584 Y123.415 E0.01344
G1 X108.177 Y123.269 E0.01356
G1 X107.794 Y123.061 E0.01369
G1 X107.437 Y122.789 E0.01408
G1 X107.137 Y122.477 E0.01356
G1 X106.885 Y122.121 E0.01368
G1 X106.685 Y121.717 E0.01413
G1 X106.555 Y121.306 E0.01351
G1 X106.489 Y120.879 E0.01355
G1 X106.480 Y120.650 E0.00717
G1 X106.489 Y120.422 E0.00717
G1 X106.555 Y119.995 E0.01355
G1 X106.685 Y119.584 E0.01351
G1 X106.885 Y119.180 E0.01413
G1 X107.137 Y118.823 E0.01368
G1 X107.437 Y118.511 E0.01357
G1 X107.794 Y118.239 E0.01410
G1 X108.195 Y118.025 E0.01426
G1 X108.528 Y117.906 E0.01108
G1 X108.685 Y117.498 F10800.000
G1 X107.591 Y117.920
;TYPE:Perimeter
G1 F1200.000
G1 X107.721 Y117.831 E0.00492
G1 X108.182 Y117.610 E0.01605
G1 X108.459 Y117.520 E0.00913
G1 X108.917 Y117.423 E0.01469
G1 X109.457 Y117.398 E0.01695
G1 X109.923 Y117.445 E0.01469
G1 X110.445 Y117.587 E0.01695
G1 X110.864 Y117.770 E0.01433
G1 X111.301 Y118.045 E0.01622
G1 X111.480 Y118.190 E0.00720
G1 X111.669 Y118.382 E0.00846
G1 X111.314 Y118.066 E0.01491
G1 X110.903 Y117.800 E0.01535
G1 X110.460 Y117.601 E0.01524
G1 X109.962 Y117.462 E0.01619
G1 X109.452 Y117.406 E0.01610
G1 X108.963 Y117.427 E0.01535
G1 X108.484 Y117.521 E0.01531
G1 X108.042 Y117.679 E0.01472
G1 X107.644 Y117.892 E0.01414
;WIPE_START
G1 F8640.000
G1 X107.721 Y117.831 E-0.02248
G1 X108.182 Y117.610 E-0.11821
G1 X108.459 Y117.520 E-0.06724
G1 X108.917 Y117.423 E-0.10815
G1 X109.457 Y117.398 E-0.12482
G1 X109.923 Y117.445 E-0.10815
G1 X110.445 Y117.587 E-0.12482
G1 X110.864 Y117.770 E-0.10551
G1 X111.301 Y118.045 E-0.11944
G1 X111.480 Y118.190 E-0.05304
G1 X111.669 Y118.382 E-0.06228
G1 X111.314 Y118.066 E-0.10977
G1 X110.903 Y117.800 E-0.11307
G1 X110.535 Y117.635 E-0.09303
;WIPE_END
G1 E-0.07000 F2100.000
G1 Z0.400 F10800.000
G1 X111.693 Y118.406
G1 Z0.200
G1 E1.40000 F2100.000
G1 F1200.000
G1 X111.841 Y118.558 E0.00666
G1 X111.994 Y118.771 E0.00822
G1 X111.731 Y118.453 E0.01296
G1 X112.015 Y118.801 F10800.000
G1 F1200.000
G1 X112.135 Y118.968 E0.00645
G1 X112.265 Y119.229 E0.00913
G1 X112.046 Y118.853 E0.01365
G1 X112.266 Y119.229 F10800.000
G1 F1200.000
G1 X112.366 Y119.429 E0.00704
G1 X112.445 Y119.645 E0.00720
G1 X112.564 Y120.147 E0.01618
G1 X112.604 Y120.662 E0.01618
G1 X112.595 Y120.891 E0.00720
G1 X112.554 Y121.155 E0.00839
G1 X112.595 Y120.650 E0.01589
G1 X112.553 Y120.137 E0.01613
G1 X112.442 Y119.665 E0.01521
