; generated by PrusaSlicer 2.3.0+win64 on 2021-11-26 at 19:58:58 UTC

; 

; external perimeters extrusion width = 0.25mm
; perimeters extrusion width = 0.25mm
; infill extrusion width = 0.25mm
; solid infill extrusion width = 0.25mm
; top infill extrusion width = 0.25mm
; support material extrusion width = 0.20mm
; first layer extrusion width = 0.30mm

M73 P0 R138
M73 Q0 S139
M201 X1000 Y1000 Z200 E5000 ; sets maximum accelerations, mm/sec^2
M203 X200 Y200 Z12 E120 ; sets maximum feedrates, mm/sec
M204 P1250 R1250 T1250 ; sets acceleration (P, T) and retract acceleration (R), mm/sec^2
M205 X8.00 Y8.00 Z0.40 E4.50 ; sets the jerk limits, mm/sec
M205 S0 T0 ; sets the minimum extruding and travel feed rate, mm/sec
M107
;TYPE:Custom
M862.3 P "MK3S" ; printer model check
M862.1 P0.25 ; nozzle diameter check
M115 U3.9.1 ; tell printer latest fw version
G90 ; use absolute coordinates
M83 ; extruder relative mode
M104 S240 ; set extruder temp
M140 S85 ; set bed temp
M190 S85 ; wait for bed temp
M109 S240 ; wait for extruder temp
G28 W ; home all without mesh bed level
G80 ; mesh bed leveling
G1 Y-3.0 F1000.0 ; go outside print area
G92 E0.0
G1 X60.0 E8.0 F700.0 ; intro line
G1 X100.0 E12.5 F700.0 ; intro line
G92 E0.0
M221 S95

; Don't change E value below. Excessive value can damage the printer.
M907 E430 ; set extruder motor current
G21 ; set units to millimeters
G90 ; use absolute coordinates
M83 ; use relative distances for extrusion
M900 K0.08 ; Filament gcode LA 1.5
M900 K45 ; Filament gcode LA 1.0
;LAYER_CHANGE
;Z:0.2
;HEIGHT:0.2
;BEFORE_LAYER_CHANGE
G92 E0.0
;0.2


G1 E-1.40000 F2100.000
G1 Z0.200 F10800.000
;AFTER_LAYER_CHANGE
;0.2
G1 Z0.400
G1 X103.962 Y75.118
G1 Z0.200
G1 E1.40000 F2100.000
M204 S500
;TYPE:Skirt
;WIDTH:0.3
G1 F1200.000
G1 X104.265 Y74.748 E0.01022
G1 X104.642 Y74.448 E0.01029
G1 X105.071 Y74.236 E0.01022
G1 X105.538 Y74.119 E0.01029
G1 X116.381 Y73.373 E0.23233
G1 X145.354 Y73.371 E0.61935
G1 X146.201 Y73.538 E0.01845
G1 X146.924 Y74.010 E0.01845
G1 X147.416 Y74.719 E0.01845
G1 X147.607 Y75.561 E0.01845
G1 X147.608 Y134.502 E1.25996
G1 X147.512 Y135.139 E0.01376
G1 X147.238 Y135.725 E0.01384
G1 X146.892 Y136.136 E0.01148
G1 X146.456 Y136.455 E0.01156
G1 X145.960 Y136.661 E0.01148
G1 X145.426 Y136.743 E0.01156
G1 X116.464 Y136.745 E0.61909
G1 X105.620 Y135.891 E0.23251
G1 X105.093 Y135.772 E0.01156
G1 X104.612 Y135.533 E0.01148
G1 X104.003 Y134.942 E0.01814
G1 X103.654 Y134.165 E0.01822
G1 X102.523 Y126.703 E0.16133
G1 X102.524 Y83.259 E0.92867
G1 X103.628 Y75.961 E0.15778
G1 X103.949 Y75.153 E0.01858
M204 S1000
;WIPE_START
G1 F8640.000
G1 X104.265 Y74.748 E-0.11863
G1 X104.642 Y74.448 E-0.11120
G1 X105.071 Y74.236 E-0.11035
G1 X105.538 Y74.119 E-0.11120
G1 X109.334 Y73.858 E-0.87862
;WIPE_END
G1 E-0.07000 F2100.000
G1 Z0.400 F10800.000
G1 X116.475 Y118.161
G1 Z0.200
G1 E1.40000 F2100.000
M204 S500
;TYPE:Support material
G1 F1200.000
G1 X116.475 Y117.822 E0.00724
G1 X116.989 Y117.822 E0.01099
G1 X116.989 Y118.045 E0.00476
G1 X117.503 Y118.045 E0.01099
G1 X117.503 Y117.822 E0.00476
G1 X118.018 Y117.822 E0.01099
G1 X118.018 Y118.045 E0.00476
G1 X118.532 Y118.045 E0.01099
G1 X118.532 Y117.822 E0.00476
G1 X119.046 Y117.822 E0.01099
G1 X119.046 Y118.045 E0.00476
G1 X119.560 Y118.045 E0.01099
G1 X119.560 Y117.822 E0.00476
G1 X120.074 Y117.822 E0.01099
G1 X120.074 Y118.045 E0.00476
G1 X120.588 Y118.045 E0.01099
M73 Q0 S138
G1 X120.588 Y117.822 E0.00476
G1 X121.103 Y117.822 E0.01099
G1 X121.103 Y118.045 E0.00476
G1 X121.156 Y118.045 E0.00114
G1 X121.451 Y118.340 E0.00892
G1 X121.451 Y121.434 E0.06614
G1 X121.617 Y121.434 E0.00354
G1 X121.617 Y117.822 E0.07721
G1 X122.131 Y117.822 E0.01099
G1 X122.131 Y121.557 E0.07983
M204 S1000
;WIPE_START
G1 F8640.000
G1 X122.131 Y117.822 E-0.86233
G1 X121.617 Y117.822 E-0.11872
G1 X121.617 Y119.333 E-0.34895
;WIPE_END
G1 E-0.07000 F2100.000
G1 Z0.400 F10800.000
G1 X116.475 Y134.488
G1 Z0.200
G1 E1.40000 F2100.000
M204 S500
G1 F1200.000
G1 X116.475 Y134.149 E0.00724
G1 X116.989 Y134.149 E0.01099
G1 X116.989 Y134.372 E0.00476
G1 X117.503 Y134.372 E0.01099
G1 X117.503 Y134.149 E0.00476
G1 X118.018 Y134.149 E0.01099
G1 X118.018 Y134.372 E0.00476
G1 X118.532 Y134.372 E0.01099
G1 X118.532 Y134.149 E0.00476
G1 X119.046 Y134.149 E0.01099
G1 X119.046 Y134.372 E0.00476
G1 X119.560 Y134.372 E0.01099
G1 X119.560 Y134.149 E0.00476
G1 X120.074 Y134.149 E0.01099
G1 X120.074 Y134.372 E0.00476
G1 X120.588 Y134.372 E0.01099
G1 X120.588 Y134.149 E0.00476
G1 X121.103 Y134.149 E0.01099
G1 X121.103 Y134.372 E0.00476
G1 X121.617 Y134.372 E0.01099
G1 X121.617 Y130.760 E0.07721
G1 X122.064 Y130.760 E0.00955
G1 X122.131 Y130.732 E0.00156
G1 X122.131 Y134.488 E0.08028
M204 S1000
;WIPE_START
G1 F8640.000
G1 X122.131 Y130.732 E-0.86719
G1 X122.064 Y130.760 E-0.01682
G1 X121.617 Y130.760 E-0.10318
G1 X121.617 Y132.244 E-0.34281
;WIPE_END
G1 E-0.07000 F2100.000
G1 Z0.400 F10800.000
G1 X122.131 Y128.605
G1 Z0.200
G1 E1.40000 F2100.000
M204 S500
G1 F1200.000
G1 X122.131 Y123.683 E0.10521
G1 X122.064 Y123.711 E0.00156
G1 X121.617 Y123.711 E0.00955
G1 X121.617 Y128.598 E0.10447
M204 S1000
;WIPE_START
G1 F8640.000
G1 X121.617 Y123.711 E-1.12845
G1 X122.064 Y123.711 E-0.10318
G1 X122.131 Y123.683 E-0.01682
G1 X122.131 Y124.037 E-0.08155
;WIPE_END
G1 E-0.07000 F2100.000
G1 Z0.400 F10800.000
G1 X119.046 Y131.488
G1 Z0.200
G1 E1.40000 F2100.000
M204 S500
G1 F1200.000
G1 X119.046 Y120.822 E0.22799
G1 X118.532 Y120.822 E0.01099
G1 X118.532 Y131.372 E0.22552
G1 X118.018 Y131.372 E0.01099
G1 X118.018 Y120.822 E0.22552
G1 X117.503 Y120.822 E0.01099
G1 X117.503 Y131.372 E0.22552
G1 X116.989 Y131.372 E0.01099
G1 X116.989 Y120.822 E0.22552
G1 X116.475 Y120.822 E0.01099
G1 X116.475 Y131.372 E0.22552
G1 X115.961 Y131.372 E0.01099
G1 X115.961 Y120.822 E0.22552
G1 X115.624 Y120.822 E0.00720
G1 X115.624 Y122.306 E0.03171
G1 X115.447 Y122.483 E0.00537
G1 X115.447 Y129.711 E0.15450
G1 X115.329 Y129.593 E0.00355
G1 X114.933 Y129.593 E0.00848
G1 X114.933 Y122.601 E0.14948
G1 X114.419 Y122.601 E0.01099
G1 X114.419 Y129.593 E0.14948
G1 X113.904 Y129.593 E0.01099
G1 X113.904 Y122.601 E0.14948
G1 X113.444 Y122.601 E0.00983
G1 X113.390 Y122.546 E0.00164
G1 X113.390 Y129.648 E0.15180
G1 X113.149 Y129.888 E0.00728
G1 X113.149 Y131.372 E0.03171
G1 X112.876 Y131.372 E0.00584
G1 X112.876 Y120.822 E0.22552
G1 X112.362 Y120.822 E0.01099
G1 X112.362 Y131.372 E0.22552
G1 X111.848 Y131.372 E0.01099
G1 X111.848 Y120.822 E0.22552
G1 X111.334 Y120.822 E0.01099
G1 X111.334 Y131.372 E0.22552
G1 X110.819 Y131.372 E0.01099
G1 X110.819 Y120.822 E0.22552
G1 X110.305 Y120.822 E0.01099
G1 X110.305 Y131.372 E0.22552
G1 X109.791 Y131.372 E0.01099
G1 X109.791 Y120.822 E0.22552
G1 X109.277 Y120.822 E0.01099
G1 X109.277 Y131.372 E0.22552
G1 X108.763 Y131.372 E0.01099
G1 X108.763 Y120.822 E0.22552
G1 X108.249 Y120.822 E0.01099
G1 X108.249 Y131.488 E0.22799
M204 S1000
;WIPE_START
G1 F8640.000
G1 X108.249 Y125.728 E-1.33000
;WIPE_END
G1 E-0.07000 F2100.000
G1 Z0.400 F10800.000
G1 X114.457 Y132.540
G1 Z0.200
G1 E1.40000 F2100.000
M204 S500
;TYPE:Perimeter
G1 F1200.000
G1 X120.283 Y132.540 E0.12455
G1 X120.283 Y132.981 E0.00944
G1 X106.515 Y132.981 E0.29432
G1 X106.515 Y132.540 E0.00944
G1 X114.317 Y132.540 E0.16679
G1 X114.317 Y130.761 E0.03802
G1 X114.457 Y130.761 E0.00298
G1 X114.457 Y132.502 E0.03722
M204 S1000
;WIPE_START
G1 F8640.000
G1 X120.217 Y132.539 E-1.33000
;WIPE_END
G1 E-0.07000 F2100.000
G1 Z0.400 F10800.000
G1 X114.457 Y121.433
G1 Z0.200
G1 E1.40000 F2100.000
M204 S500
G1 F1200.000
G1 X114.317 Y121.433 E0.00298
G1 X114.317 Y119.654 E0.03802
G1 X106.513 Y119.654 E0.16682
G1 X106.514 Y119.213 E0.00944
G1 X120.283 Y119.213 E0.29434
G1 X120.283 Y119.654 E0.00944
G1 X114.457 Y119.654 E0.12455
G1 X114.457 Y121.395 E0.03722
M204 S1000
;WIPE_START
G1 F8640.000
G1 X114.317 Y121.433 E-0.03337
G1 X114.317 Y119.654 E-0.41066
G1 X110.480 Y119.654 E-0.88597
;WIPE_END
G1 E-0.07000 F2100.000
G1 Z0.400 F10800.000
G1 X106.713 Y119.911
G1 Z0.200
G1 E1.40000 F2100.000
M204 S500
G1 F1200.000
G1 X114.060 Y119.911 E0.15704
G1 X114.060 Y121.690 E0.03802
G1 X114.714 Y121.690 E0.01397
G1 X114.714 Y119.911 E0.03802
G1 X120.085 Y119.911 E0.11481
G1 X120.085 Y132.283 E0.26445
G1 X114.714 Y132.283 E0.11481
G1 X114.714 Y130.504 E0.03802
G1 X114.060 Y130.504 E0.01397
G1 X114.060 Y132.283 E0.03802
G1 X106.713 Y132.283 E0.15704
G1 X106.713 Y119.949 E0.26365
M204 S1000
G1 X106.970 Y120.168 F10800.000
M204 S500
;TYPE:External perimeter
G1 F1200.000
G1 X113.803 Y120.168 E0.14605
G1 X113.803 Y121.947 E0.03802
G1 X114.971 Y121.947 E0.02496
G1 X114.971 Y120.168 E0.03802
G1 X119.827 Y120.168 E0.10382
G1 X119.827 Y132.025 E0.25346
G1 X114.971 Y132.025 E0.10382
G1 X114.971 Y130.247 E0.03802
G1 X113.803 Y130.247 E0.02496
G1 X113.803 Y132.025 E0.03802
G1 X106.970 Y132.025 E0.14605
G1 X106.970 Y120.206 E0.25266
M204 S1000
G1 X106.927 Y119.922 F10800.000
;WIPE_START
G1 F8640.000
G1 X112.730 Y120.174 E-1.33000
;WIPE_END
G1 E-0.07000 F2100.000
G1 Z0.400 F10800.000
G1 X120.540 Y122.345
G1 Z0.200
G1 E1.40000 F2100.000
M204 S500
;TYPE:Perimeter
G1 F1200.000
G1 X121.593 Y122.345 E0.02250
G1 X121.593 Y122.801 E0.00974
G1 X120.540 Y122.801 E0.02250
G1 X120.540 Y129.393 E0.14093
G1 X121.593 Y129.393 E0.02250
G1 X121.593 Y129.849 E0.00974
G1 X120.540 Y129.849 E0.02250
G1 X120.540 Y133.238 E0.07245
G1 X106.258 Y133.238 E0.30531
G1 X106.258 Y126.325 E0.14778
G1 X105.188 Y126.325 E0.02287
G1 X105.188 Y125.869 E0.00974
G1 X106.249 Y125.869 E0.02269
G1 X106.257 Y118.956 E0.14778
G1 X120.540 Y118.956 E0.30532
G1 X120.540 Y122.307 E0.07165
M204 S1000
G1 X120.797 Y122.088 F10800.000
M204 S500
;TYPE:External perimeter
G1 F1200.000
G1 X121.850 Y122.088 E0.02250
G1 X121.850 Y123.058 E0.02073
G1 X120.797 Y123.058 E0.02250
G1 X120.797 Y129.136 E0.12994
G1 X121.850 Y129.136 E0.02250
G1 X121.850 Y130.106 E0.02073
G1 X120.797 Y130.106 E0.02250
G1 X120.797 Y133.495 E0.07245
G1 X106.000 Y133.495 E0.31630
G1 X106.000 Y126.582 E0.14778
G1 X104.930 Y126.582 E0.02287
G1 X104.930 Y125.612 E0.02073
M73 P0 R137
G1 X105.992 Y125.612 E0.02270
G1 X106.000 Y118.698 E0.14778
G1 X120.797 Y118.698 E0.31631
G1 X120.797 Y122.050 E0.07165
M204 S1000
G1 X120.906 Y122.313 F10800.000
G1 X120.312 Y122.473
M204 S500
;TYPE:Gap fill
;WIDTH:0.24168
G1 F1200.000
G1 X120.312 Y119.783 E0.04447
M204 S1000
G1 X120.155 Y119.433 F10800.000
M204 S500
;WIDTH:0.227526
G1 F1200.000
G1 X106.642 Y119.433 E0.20742
M204 S1000
G1 X106.485 Y119.783 F10800.000
M204 S500
;WIDTH:0.250301
G1 F1200.000
G1 X106.481 Y125.998 E0.10717
M204 S1000
M204 S500
;WIDTH:0.294777
G1 X106.459 Y126.094 E0.00206
M204 S1000
M204 S500
;WIDTH:0.241688
G1 X106.485 Y126.196 E0.00175
G1 X106.485 Y132.411 E0.10271
M204 S1000
G1 X106.643 Y132.760 F10800.000
M204 S500
;WIDTH:0.227524
G1 F1200.000
G1 X120.155 Y132.760 E0.20740
M204 S1000
G1 X120.312 Y132.411 F10800.000
M204 S500
;WIDTH:0.24168
G1 F1200.000
G1 X120.312 Y129.721 E0.04447
M204 S1000
M204 S500
;WIDTH:0.291372
G1 X120.337 Y129.621 E0.00212
M204 S1000
M204 S500
;WIDTH:0.24168
G1 X120.312 Y129.522 E0.00169
G1 X120.312 Y122.672 E0.11321
M204 S1000
M204 S500
;WIDTH:0.291371
G1 X120.337 Y122.573 E0.00212
M204 S1000
G1 X120.312 Y122.473 F10800.000
M204 S500
;WIDTH:0.291372
G1 F1200.000
G1 X120.337 Y122.573 E0.00212
M204 S1000
M204 S500
;WIDTH:0.241682
G1 X121.464 Y122.573 E0.01863
M204 S1000
;WIPE_START
G1 F8640.000
G1 X120.337 Y122.573 E-0.26025
;WIPE_END
G1 E-1.13975 F2100.000
G1 Z0.400 F10800.000
G1 X121.464 Y129.621
G1 Z0.200
G1 E1.40000 F2100.000
M204 S500
;WIDTH:0.241684
G1 F1200.000
G1 X120.337 Y129.621 E0.01863
M204 S1000
;WIPE_START
G1 F8640.000
G1 X121.464 Y129.621 E-0.26025
;WIPE_END
G1 E-1.13975 F2100.000
G1 Z0.400 F10800.000
G1 X106.459 Y126.094
G1 Z0.200
G1 E1.40000 F2100.000
M204 S500
;WIDTH:0.294777
G1 F1200.000
G1 X106.422 Y126.095 E0.00076
M204 S1000
M204 S500
;WIDTH:0.268417
G1 X106.386 Y126.097 E0.00068
M204 S1000
M204 S500
;WIDTH:0.242056
G1 X105.316 Y126.097 E0.01772
M204 S1000
;WIPE_START
G1 F8640.000
G1 X106.386 Y126.097 E-0.24707
;WIPE_END
G1 E-1.15293 F2100.000
G1 Z0.400 F10800.000
G1 X108.249 Y110.391
G1 Z0.200
G1 E1.40000 F2100.000
M204 S500
;TYPE:Support material
;WIDTH:0.3
G1 F1200.000
G1 X108.249 Y99.725 E0.22799
G1 X108.763 Y99.725 E0.01099
G1 X108.763 Y110.275 E0.22552
G1 X109.277 Y110.275 E0.01099
G1 X109.277 Y99.725 E0.22552
G1 X109.791 Y99.725 E0.01099
G1 X109.791 Y110.275 E0.22552
G1 X110.305 Y110.275 E0.01099
G1 X110.305 Y99.725 E0.22552
G1 X110.819 Y99.725 E0.01099
G1 X110.819 Y110.275 E0.22552
G1 X111.334 Y110.275 E0.01099
G1 X111.334 Y99.725 E0.22552
G1 X111.848 Y99.725 E0.01099
G1 X111.848 Y110.275 E0.22552
G1 X112.362 Y110.275 E0.01099
G1 X112.362 Y99.725 E0.22552
G1 X112.876 Y99.725 E0.01099
G1 X112.876 Y110.275 E0.22552
G1 X113.149 Y110.275 E0.00584
G1 X113.149 Y108.791 E0.03171
G1 X113.390 Y108.551 E0.00728
G1 X113.390 Y101.449 E0.15180
G1 X113.444 Y101.504 E0.00164
G1 X113.904 Y101.504 E0.00983
G1 X113.904 Y108.496 E0.14948
G1 X114.419 Y108.496 E0.01099
G1 X114.419 Y101.504 E0.14948
G1 X114.933 Y101.504 E0.01099
G1 X114.933 Y108.496 E0.14948
G1 X115.329 Y108.496 E0.00848
G1 X115.447 Y108.614 E0.00355
G1 X115.447 Y101.386 E0.15450
G1 X115.624 Y101.209 E0.00537
G1 X115.624 Y99.725 E0.03171
G1 X115.961 Y99.725 E0.00720
G1 X115.961 Y110.275 E0.22552
G1 X116.475 Y110.275 E0.01099
G1 X116.475 Y99.725 E0.22552
G1 X116.989 Y99.725 E0.01099
G1 X116.989 Y110.275 E0.22552
G1 X117.503 Y110.275 E0.01099
G1 X117.503 Y99.725 E0.22552
G1 X118.018 Y99.725 E0.01099
G1 X118.018 Y110.275 E0.22552
G1 X118.532 Y110.275 E0.01099
G1 X118.532 Y99.725 E0.22552
G1 X119.046 Y99.725 E0.01099
G1 X119.046 Y110.391 E0.22799
M204 S1000
;WIPE_START
G1 F8640.000
G1 X119.046 Y104.631 E-1.33000
;WIPE_END
G1 E-0.07000 F2100.000
G1 Z0.400 F10800.000
G1 X121.617 Y107.501
G1 Z0.200
G1 E1.40000 F2100.000
M204 S500
G1 F1200.000
G1 X121.617 Y102.614 E0.10447
G1 X122.064 Y102.614 E0.00955
G1 X122.131 Y102.586 E0.00156
G1 X122.131 Y107.508 E0.10521
M204 S1000
;WIPE_START
G1 F8640.000
G1 X122.131 Y102.586 E-1.13646
G1 X122.064 Y102.614 E-0.01682
G1 X121.617 Y102.614 E-0.10318
G1 X121.617 Y102.933 E-0.07354
;WIPE_END
G1 E-0.07000 F2100.000
G1 Z0.400 F10800.000
G1 X122.131 Y113.391
G1 Z0.200
G1 E1.40000 F2100.000
M204 S500
G1 F1200.000
G1 X122.131 Y109.635 E0.08028
G1 X122.064 Y109.663 E0.00156
G1 X121.617 Y109.663 E0.00955
G1 X121.617 Y113.275 E0.07721
G1 X121.103 Y113.275 E0.01099
G1 X121.103 Y113.052 E0.00476
G1 X120.588 Y113.052 E0.01099
G1 X120.588 Y113.275 E0.00476
G1 X120.074 Y113.275 E0.01099
G1 X120.074 Y113.052 E0.00476
G1 X119.560 Y113.052 E0.01099
G1 X119.560 Y113.275 E0.00476
G1 X119.046 Y113.275 E0.01099
G1 X119.046 Y113.052 E0.00476
G1 X118.532 Y113.052 E0.01099
G1 X118.532 Y113.275 E0.00476
G1 X118.018 Y113.275 E0.01099
G1 X118.018 Y113.052 E0.00476
G1 X117.503 Y113.052 E0.01099
G1 X117.503 Y113.275 E0.00476
G1 X116.989 Y113.275 E0.01099
G1 X116.989 Y113.052 E0.00476
G1 X116.475 Y113.052 E0.01099
G1 X116.475 Y113.391 E0.00724
M204 S1000
;WIPE_START
G1 F8640.000
G1 X116.475 Y113.052 E-0.07816
G1 X116.989 Y113.052 E-0.11872
G1 X116.989 Y113.275 E-0.05145
G1 X117.503 Y113.275 E-0.11872
G1 X117.503 Y113.052 E-0.05145
G1 X118.018 Y113.052 E-0.11872
G1 X118.018 Y113.275 E-0.05145
G1 X118.532 Y113.275 E-0.11872
G1 X118.532 Y113.052 E-0.05145
G1 X119.046 Y113.052 E-0.11872
G1 X119.046 Y113.275 E-0.05145
G1 X119.560 Y113.275 E-0.11872
G1 X119.560 Y113.052 E-0.05145
G1 X120.074 Y113.052 E-0.11872
G1 X120.074 Y113.275 E-0.05145
G1 X120.337 Y113.275 E-0.06064
;WIPE_END
G1 E-0.07000 F2100.000
G1 Z0.400 F10800.000
G1 X122.131 Y100.460
G1 Z0.200
G1 E1.40000 F2100.000
M204 S500
G1 F1200.000
G1 X122.131 Y96.725 E0.07983
G1 X121.617 Y96.725 E0.01099
G1 X121.617 Y100.337 E0.07721
G1 X121.451 Y100.337 E0.00354
G1 X121.451 Y97.243 E0.06614
G1 X121.156 Y96.948 E0.00892
G1 X121.103 Y96.948 E0.00114
G1 X121.103 Y96.725 E0.00476
G1 X120.588 Y96.725 E0.01099
G1 X120.588 Y96.948 E0.00476
G1 X120.074 Y96.948 E0.01099
G1 X120.074 Y96.725 E0.00476
G1 X119.560 Y96.725 E0.01099
G1 X119.560 Y96.948 E0.00476
