; generated by PrusaSlicer 2.3.0+win64 on 2021-06-24 at 23:07:04 UTC

; 

; external perimeters extrusion width = 0.25mm
; perimeters extrusion width = 0.25mm
; infill extrusion width = 0.25mm
; solid infill extrusion width = 0.25mm
; top infill extrusion width = 0.25mm
; first layer extrusion width = 0.30mm

M73 P0 R42
M73 Q0 S42
M201 X1000 Y1000 Z200 E5000 ; sets maximum accelerations, mm/sec^2
M203 X200 Y200 Z12 E120 ; sets maximum feedrates, mm/sec
M204 P1250 R1250 T1250 ; sets acceleration (P, T) and retract acceleration (R), mm/sec^2
M205 X8.00 Y8.00 Z0.40 E4.50 ; sets the jerk limits, mm/sec
M205 S0 T0 ; sets the minimum extruding and travel feed rate, mm/sec
M107
;TYPE:Custom
M862.3 P "MK3S" ; printer model check
M862.1 P0.25 ; nozzle diameter check
M115 U3.9.1 ; tell printer latest fw version
G90 ; use absolute coordinates
M83 ; extruder relative mode
M104 S240 ; set extruder temp
M140 S85 ; set bed temp
M190 S85 ; wait for bed temp
M109 S240 ; wait for extruder temp
G28 W ; home all without mesh bed level
G80 ; mesh bed leveling
G1 Y-3.0 F1000.0 ; go outside print area
G92 E0.0
G1 X60.0 E8.0 F700.0 ; intro line
G1 X100.0 E12.5 F700.0 ; intro line
G92 E0.0
M221 S95

; Don't change E value below. Excessive value can damage the printer.
M907 E430 ; set extruder motor current
G21 ; set units to millimeters
G90 ; use absolute coordinates
M83 ; use relative distances for extrusion
M900 K0.08 ; Filament gcode LA 1.5
M900 K45 ; Filament gcode LA 1.0
;LAYER_CHANGE
;Z:0.2
;HEIGHT:0.2
;BEFORE_LAYER_CHANGE
G92 E0.0
;0.2


G1 E-1.40000 F2100.000
G1 Z0.200 F10800.000
;AFTER_LAYER_CHANGE
;0.2
G1 Z0.400
G1 X92.489 Y111.678
G1 Z0.200
G1 E1.40000 F2100.000
M204 S500
;TYPE:Skirt
;WIDTH:0.3
G1 F1200.000
G1 X93.042 Y110.767 E0.02279
G1 X93.488 Y110.352 E0.01303
G1 X93.992 Y110.044 E0.01262
G1 X94.535 Y109.845 E0.01236
G1 X95.176 Y109.748 E0.01386
G1 X113.340 Y109.744 E0.38829
G1 X145.395 Y110.727 E0.68553
G1 X146.105 Y110.882 E0.01552
G1 X149.557 Y112.292 E0.07972
G1 X150.075 Y112.663 E0.01361
G1 X150.485 Y113.156 E0.01370
G1 X150.756 Y113.732 E0.01361
G1 X150.874 Y114.358 E0.01361
G1 X150.878 Y128.649 E0.30550
G1 X150.796 Y129.238 E0.01270
G1 X150.577 Y129.794 E0.01278
G1 X149.950 Y130.553 E0.02105
G1 X149.079 Y131.012 E0.02105
G1 X141.840 Y132.382 E0.15748
G1 X113.372 Y133.808 E0.60930
G1 X95.209 Y133.807 E0.38828
G1 X94.221 Y133.607 E0.02153
G1 X93.310 Y133.054 E0.02279
G1 X92.885 Y132.595 E0.01336
G1 X92.571 Y132.069 E0.01311
G1 X92.356 Y131.428 E0.01444
G1 X92.288 Y130.823 E0.01303
G1 X92.289 Y112.666 E0.38813
G1 X92.482 Y111.715 E0.02073
M204 S1000
G1 X92.729 Y111.770 F10800.000
M204 S500
G1 F1200.000
G1 X93.244 Y110.925 E0.02115
G1 X93.652 Y110.550 E0.01186
G1 X94.115 Y110.271 E0.01154
G1 X94.608 Y110.092 E0.01122
G1 X95.200 Y110.004 E0.01278
G1 X113.340 Y110.002 E0.38778
G1 X145.379 Y110.984 E0.68518
G1 X146.018 Y111.124 E0.01399
G1 X149.421 Y112.511 E0.07856
G1 X149.895 Y112.847 E0.01242
G1 X150.266 Y113.290 E0.01234
G1 X150.513 Y113.816 E0.01242
G1 X150.618 Y114.384 E0.01234
G1 X150.621 Y128.639 E0.30473
G1 X150.550 Y129.164 E0.01132
G1 X150.357 Y129.661 E0.01140
G1 X149.785 Y130.356 E0.01923
G1 X148.991 Y130.770 E0.01915
G1 X141.824 Y132.126 E0.15591
G1 X113.372 Y133.551 E0.60897
G1 X95.225 Y133.550 E0.38792
G1 X94.313 Y133.367 E0.01987
G1 X93.468 Y132.852 E0.02116
G1 X93.086 Y132.435 E0.01209
G1 X92.800 Y131.951 E0.01202
G1 X92.606 Y131.366 E0.01318
G1 X92.545 Y130.815 E0.01186
G1 X92.546 Y112.682 E0.38762
M73 P1 R42
M73 Q1 S42
G1 X92.722 Y111.807 E0.01907
M204 S1000
;WIPE_START
G1 F8640.000
G1 X93.244 Y110.925 E-0.23663
G1 X93.652 Y110.550 E-0.12809
G1 X94.115 Y110.271 E-0.12470
G1 X94.608 Y110.092 E-0.12122
G1 X95.200 Y110.004 E-0.13807
G1 X97.717 Y110.004 E-0.58130
;WIPE_END
G1 E-0.07000 F2100.000
G1 Z0.400 F10800.000
G1 X96.004 Y114.612
G1 Z0.200
G1 E1.40000 F2100.000
M204 S500
;TYPE:Perimeter
G1 F1200.000
G1 X97.155 Y113.461 E0.03480
G1 X111.484 Y113.461 E0.30632
G1 X112.635 Y114.612 E0.03480
G1 X112.635 Y128.941 E0.30632
G1 X111.484 Y130.092 E0.03480
G1 X97.155 Y130.092 E0.30632
G1 X96.004 Y128.941 E0.03480
G1 X96.004 Y114.649 E0.30551
M204 S1000
G1 X96.261 Y114.718 F10800.000
M204 S500
G1 F1200.000
G1 X97.261 Y113.718 E0.03024
G1 X111.378 Y113.718 E0.30176
G1 X112.378 Y114.718 E0.03024
G1 X112.378 Y128.835 E0.30176
G1 X111.378 Y129.835 E0.03024
G1 X97.261 Y129.835 E0.30176
G1 X96.261 Y128.835 E0.03024
G1 X96.261 Y114.756 E0.30096
M204 S1000
G1 X96.518 Y114.825 F10800.000
M204 S500
;TYPE:External perimeter
G1 F1200.000
G1 X97.368 Y113.975 E0.02569
G1 X111.271 Y113.975 E0.29721
G1 X112.121 Y114.825 E0.02569
G1 X112.121 Y128.728 E0.29721
G1 X111.271 Y129.578 E0.02569
G1 X97.368 Y129.578 E0.29721
G1 X96.518 Y128.728 E0.02569
G1 X96.518 Y114.862 E0.29641
M204 S1000
G1 X96.389 Y114.611 F10800.000
;WIPE_START
G1 F8640.000
G1 X97.368 Y113.975 E-0.28371
G1 X101.899 Y113.975 E-1.04629
;WIPE_END
G1 E-0.07000 F2100.000
G1 Z0.400 F10800.000
G1 X95.665 Y113.122
G1 Z0.200
G1 E1.40000 F2100.000
M204 S500
;TYPE:Perimeter
G1 F1200.000
G1 X112.974 Y113.125 E0.37002
M73 P1 R41
G1 X112.974 Y130.431 E0.36995
G1 X95.665 Y130.431 E0.37002
G1 X95.665 Y113.159 E0.36922
M204 S1000
G1 X95.408 Y112.865 F10800.000
M204 S500
G1 F1200.000
G1 X113.232 Y112.868 E0.38101
G1 X113.232 Y130.689 E0.38094
G1 X95.408 Y130.689 E0.38101
G1 X95.408 Y112.902 E0.38021
M204 S1000
G1 X95.159 Y112.719 F10800.000
M204 S500
;TYPE:External perimeter
G1 F1200.000
G1 X95.229 Y112.629 E0.00244
G1 X95.320 Y112.607 E0.00200
G1 X113.357 Y112.611 E0.38557
G1 X113.438 Y112.650 E0.00191
G1 X113.489 Y112.771 E0.00282
G1 X113.489 Y130.782 E0.38499
G1 X113.441 Y130.898 E0.00269
G1 X113.325 Y130.946 E0.00269
G1 X95.314 Y130.946 E0.38499
G1 X95.198 Y130.898 E0.00269
G1 X95.150 Y130.782 E0.00269
G1 X95.153 Y112.756 E0.38532
M204 S1000
G1 X95.273 Y112.710 F10800.000
;WIPE_START
G1 F8640.000
G1 X95.229 Y112.629 E-0.03422
G1 X95.320 Y112.607 E-0.02158
G1 X100.839 Y112.608 E-1.27420
;WIPE_END
G1 E-0.07000 F2100.000
G1 Z0.400 F10800.000
G1 X96.513 Y113.199
M73 Q1 S41
G1 Z0.200
G1 E1.40000 F2100.000
M204 S500
;TYPE:Solid infill
;WIDTH:0.315472
G1 F1200.000
G1 X96.828 Y113.515 E0.01012
G1 X96.635 Y113.707 E0.00618
G1 X96.243 Y113.315 E0.01259
G1 X95.857 Y113.314 E0.00873
G1 X96.443 Y113.900 E0.01876
G1 X96.250 Y114.093 E0.00618
G1 X95.857 Y113.700 E0.01258
G1 X95.857 Y114.086 E0.00874
G1 X96.139 Y114.367 E0.00903
M204 S1000
G1 X95.834 Y114.599 F10800.000
M204 S500
;TYPE:Gap fill
;WIDTH:0.124862
G1 F1200.000
G1 X95.834 Y128.954 E0.09780
M204 S1000
G1 X95.801 Y129.031 F10800.000
M204 S500
;TYPE:Solid infill
;WIDTH:0.327482
G1 F1200.000
G1 X96.950 Y130.180 E0.03844
G1 X96.950 Y130.239 E0.00140
G1 X96.606 Y130.239 E0.00812
G1 X95.857 Y129.490 E0.02506
G1 X95.857 Y129.892 E0.00952
G1 X96.320 Y130.354 E0.01547
M204 S1000
G1 X97.142 Y130.262 F10800.000
M204 S500
;TYPE:Gap fill
;WIDTH:0.124856
G1 F1200.000
G1 X111.497 Y130.262 E0.09780
M204 S1000
;WIPE_START
G1 F8640.000
G1 X105.737 Y130.262 E-1.33000
;WIPE_END
G1 E-0.07000 F2100.000
G1 Z0.400 F10800.000
G1 X112.897 Y129.583
G1 Z0.200
G1 E1.40000 F2100.000
M204 S500
;TYPE:Solid infill
;WIDTH:0.315521
G1 F1200.000
G1 X112.582 Y129.268 E0.01012
G1 X112.389 Y129.460 E0.00618
G1 X112.782 Y129.853 E0.01259
G1 X112.782 Y130.239 E0.00874
G1 X112.196 Y129.653 E0.01877
G1 X112.003 Y129.846 E0.00618
G1 X112.396 Y130.239 E0.01259
G1 X112.011 Y130.239 E0.00874
G1 X111.729 Y129.957 E0.00903
M204 S1000
;WIPE_START
G1 F8640.000
G1 X112.011 Y130.239 E-0.09198
G1 X112.396 Y130.239 E-0.08902
G1 X112.003 Y129.846 E-0.12821
G1 X112.196 Y129.653 E-0.06294
G1 X112.782 Y130.239 E-0.19117
G1 X112.782 Y129.853 E-0.08900
G1 X112.389 Y129.460 E-0.12824
G1 X112.582 Y129.268 E-0.06294
G1 X112.897 Y129.583 E-0.10307
;WIPE_END
M73 Q2 S41
G1 E-0.45342 F2100.000
G1 Z0.400 F10800.000
G1 X112.805 Y128.954
G1 Z0.200
G1 E1.40000 F2100.000
M204 S500
;TYPE:Gap fill
;WIDTH:0.12486
M73 P2 R41
G1 F1200.000
G1 X112.805 Y114.599 E0.09780
M204 S1000
;WIPE_START
G1 F8640.000
G1 X112.805 Y120.359 E-1.33000
;WIPE_END
G1 E-0.07000 F2100.000
G1 Z0.400 F10800.000
G1 X112.321 Y113.202
G1 Z0.200
G1 E1.40000 F2100.000
M204 S500
;TYPE:Solid infill
;WIDTH:0.326885
G1 F1200.000
G1 X112.782 Y113.663 E0.01540
G1 X112.782 Y114.065 E0.00948
G1 X112.035 Y113.318 E0.02495
G1 X111.691 Y113.318 E0.00811
G1 X111.691 Y113.376 E0.00137
G1 X112.838 Y114.522 E0.03829
M204 S1000
;WIPE_START
G1 F8640.000
G1 X111.691 Y113.376 E-0.37445
G1 X111.691 Y113.318 E-0.01341
G1 X112.035 Y113.318 E-0.07933
G1 X112.782 Y114.065 E-0.24397
G1 X112.782 Y113.663 E-0.09273
G1 X112.321 Y113.202 E-0.15059
;WIPE_END
G1 E-0.44552 F2100.000
G1 Z0.400 F10800.000
G1 X111.498 Y113.293
G1 Z0.200
G1 E1.40000 F2100.000
M204 S500
;TYPE:Gap fill
;WIDTH:0.124496
G1 F1200.000
G1 X97.142 Y113.291 E0.09738
M204 S1000
;WIPE_START
G1 F8640.000
G1 X102.902 Y113.292 E-1.33000
;WIPE_END
G1 E-0.07000 F2100.000
G1 Z0.400 F10800.000
G1 X119.065 Y115.101
G1 Z0.200
G1 E1.40000 F2100.000
M204 S500
;TYPE:External perimeter
;WIDTH:0.3
G1 F1200.000
G1 X131.366 Y115.101 E0.26296
G1 X131.366 Y127.402 E0.26296
G1 X119.065 Y127.402 E0.26296
G1 X119.065 Y115.138 E0.26216
M204 S1000
G1 X119.000 Y114.859 F10800.000
G1 X118.448 Y114.545
M204 S500
G1 F1200.000
G1 X118.507 Y114.486 E0.00177
G1 X118.597 Y114.464 E0.00200
G1 X131.872 Y114.467 E0.28376
G1 X131.953 Y114.506 E0.00192
G1 X131.994 Y114.573 E0.00168
G1 X132.003 Y114.628 E0.00119
G1 X132.003 Y127.875 E0.28318
G1 X131.956 Y127.992 E0.00269
G1 X131.839 Y128.039 E0.00269
G1 X118.591 Y128.039 E0.28319
G1 X118.470 Y127.989 E0.00282
G1 X118.428 Y127.870 E0.00270
G1 X118.440 Y114.581 E0.28405
M204 S1000
G1 X118.532 Y114.544 F10800.000
G1 X118.779 Y114.815
M204 S500
;TYPE:Gap fill
;WIDTH:0.422928
G1 F1200.000
G1 X118.936 Y114.782 E0.00508
G1 X131.495 Y114.784 E0.39682
G1 X131.653 Y114.817 E0.00511
G1 X131.685 Y114.972 E0.00500
G1 X131.685 Y127.531 E0.39682
G1 X131.652 Y127.688 E0.00508
G1 X131.495 Y127.721 E0.00508
G1 X118.936 Y127.721 E0.39682
G1 X118.779 Y127.688 E0.00508
G1 X118.746 Y127.531 E0.00508
G1 X118.746 Y114.972 E0.39682
;WIDTH:0.455512
G1 X118.762 Y114.894 E0.00276
;WIDTH:0.488095
G1 X118.771 Y114.852 E0.00159
M204 S1000
;WIPE_START
G1 F8640.000
G1 X118.936 Y114.782 E-0.04133
G1 X124.517 Y114.783 E-1.28867
;WIPE_END
G1 E-0.07000 F2100.000
G1 Z0.400 F10800.000
G1 X139.996 Y121.554
G1 Z0.200
G1 E1.40000 F2100.000
M204 S500
;TYPE:Perimeter
;WIDTH:0.3
G1 F1200.000
G1 X140.335 Y121.350 E0.00846
G1 X140.302 Y121.738 E0.00832
G1 X140.028 Y121.573 E0.00683
M204 S1000
;WIPE_START
G1 F8640.000
G1 X140.335 Y121.350 E-0.08762
G1 X140.302 Y121.738 E-0.08982
G1 X140.028 Y121.573 E-0.07381
;WIPE_END
G1 E-1.14875 F2100.000
G1 Z0.400 F10800.000
G1 X142.288 Y121.762
G1 Z0.200
G1 E1.40000 F2100.000
M204 S500
G1 F1200.000
G1 X142.321 Y121.571 E0.00414
G1 X142.302 Y121.354 E0.00466
G1 X142.635 Y121.554 E0.00829
G1 X142.320 Y121.743 E0.00784
M204 S1000
;WIPE_START
G1 F8640.000
G1 X142.321 Y121.571 E-0.03959
G1 X142.302 Y121.354 E-0.05030
G1 X142.635 Y121.554 E-0.08952
G1 X142.320 Y121.743 E-0.08470
;WIPE_END
G1 E-1.13589 F2100.000
G1 Z0.400 F10800.000
G1 X135.130 Y115.368
G1 Z0.200
G1 E1.40000 F2100.000
M204 S500
G1 F1200.000
G1 X147.501 Y115.368 E0.26445
G1 X147.501 Y127.739 E0.26445
G1 X135.130 Y127.739 E0.26445
G1 X135.130 Y115.406 E0.26365
M204 S1000
;WIPE_START
G1 F8640.000
G1 X140.890 Y115.388 E-1.33000
;WIPE_END
G1 E-0.07000 F2100.000
G1 Z0.400 F10800.000
G1 X140.871 Y120.952
G1 Z0.200
G1 E1.40000 F2100.000
M204 S500
;TYPE:External perimeter
G1 F1200.000
G1 X141.091 Y120.842 E0.00526
G1 X141.227 Y120.812 E0.00298
G1 X141.473 Y120.823 E0.00526
G1 X141.707 Y120.917 E0.00540
G1 X141.892 Y121.080 E0.00526
G1 X141.970 Y121.195 E0.00298
G1 X142.050 Y121.421 E0.00512
G1 X142.062 Y121.560 E0.00298
G1 X142.020 Y121.803 E0.00526
G1 X141.897 Y122.024 E0.00540
G1 X141.707 Y122.191 E0.00540
G1 X141.473 Y122.285 E0.00540
G1 X141.227 Y122.295 E0.00526
G1 X141.091 Y122.266 E0.00298
G1 X140.871 Y122.155 E0.00526
G1 X140.696 Y121.972 E0.00540
G1 X140.594 Y121.748 E0.00526
G1 X140.571 Y121.611 E0.00298
G1 X140.592 Y121.365 E0.00526
G1 X140.696 Y121.135 E0.00540
G1 X140.845 Y120.980 E0.00460
M204 S1000
G1 X140.843 Y120.708 F10800.000
;WIPE_START
G1 F8640.000
G1 X141.091 Y120.842 E-0.06509
G1 X141.227 Y120.812 E-0.03220
G1 X141.473 Y120.823 E-0.05686
G1 X141.707 Y120.917 E-0.05836
G1 X141.892 Y121.080 E-0.05686
G1 X141.970 Y121.195 E-0.03220
G1 X142.050 Y121.421 E-0.05535
G1 X142.062 Y121.560 E-0.03220
G1 X142.020 Y121.803 E-0.05686
G1 X141.897 Y122.024 E-0.05836
G1 X141.707 Y122.191 E-0.05836
G1 X141.473 Y122.285 E-0.05836
G1 X141.227 Y122.295 E-0.05686
G1 X141.091 Y122.266 E-0.03220
G1 X140.871 Y122.155 E-0.05686
G1 X140.696 Y121.972 E-0.05836
G1 X140.594 Y121.748 E-0.05686
G1 X140.571 Y121.611 E-0.03220
G1 X140.592 Y121.365 E-0.05686
G1 X140.696 Y121.135 E-0.05837
G1 X140.845 Y120.980 E-0.04971
;WIPE_END
G1 E-0.32065 F2100.000
G1 Z0.400 F10800.000
G1 X135.387 Y121.658
G1 Z0.200
G1 E1.40000 F2100.000
M204 S500
G1 F1200.000
G1 X139.289 Y121.658 E0.08342
G1 X139.502 Y121.674 E0.00456
G1 X139.715 Y121.724 E0.00469
G1 X139.918 Y121.807 E0.00467
G1 X140.107 Y121.920 E0.00470
G1 X140.275 Y122.061 E0.00468
G1 X140.545 Y122.366 E0.00873
G1 X140.692 Y122.484 E0.00402
G1 X140.857 Y122.575 E0.00403
G1 X141.035 Y122.638 E0.00403
G1 X141.221 Y122.669 E0.00403
G1 X141.410 Y122.669 E0.00403
G1 X141.595 Y122.638 E0.00403
G1 X141.773 Y122.575 E0.00403
G1 X141.938 Y122.484 E0.00403
G1 X142.085 Y122.366 E0.00402
G1 X142.356 Y122.061 E0.00873
G1 X142.524 Y121.920 E0.00468
G1 X142.713 Y121.807 E0.00470
G1 X142.915 Y121.724 E0.00467
G1 X143.129 Y121.674 E0.00469
G1 X143.342 Y121.658 E0.00456
G1 X147.244 Y121.658 E0.08342
G1 X147.244 Y127.482 E0.12451
G1 X135.387 Y127.482 E0.25346
G1 X135.387 Y121.695 E0.12370
M204 S1000
G1 X135.296 Y121.425 F10800.000
G1 X135.387 Y121.450
M204 S500
G1 F1200.000
G1 X135.387 Y115.625 E0.12451
G1 X147.244 Y115.625 E0.25346
G1 X147.244 Y121.450 E0.12451
G1 X143.342 Y121.450 E0.08342
G1 X143.129 Y121.433 E0.00456
G1 X142.915 Y121.383 E0.00469
G1 X142.713 Y121.301 E0.00467
G1 X142.524 Y121.187 E0.00470
G1 X142.356 Y121.047 E0.00468
G1 X142.085 Y120.741 E0.00873
G1 X141.938 Y120.624 E0.00402
G1 X141.773 Y120.532 E0.00403
G1 X141.595 Y120.470 E0.00403
G1 X141.410 Y120.438 E0.00403
G1 X141.221 Y120.438 E0.00403
G1 X141.035 Y120.470 E0.00403
G1 X140.857 Y120.532 E0.00403
G1 X140.692 Y120.624 E0.00403
G1 X140.545 Y120.741 E0.00402
G1 X140.275 Y121.047 E0.00873
G1 X140.107 Y121.187 E0.00468
G1 X139.918 Y121.301 E0.00470
G1 X139.715 Y121.383 E0.00467
G1 X139.502 Y121.433 E0.00469
G1 X139.289 Y121.450 E0.00456
G1 X135.424 Y121.450 E0.08261
M204 S1000
G1 X135.137 Y121.450 F10800.000
;WIPE_START
G1 F8640.000
G1 X135.387 Y115.690 E-1.33000
;WIPE_END
G1 E-0.07000 F2100.000
G1 Z0.400 F10800.000
G1 X138.019 Y114.912
G1 Z0.200
G1 E1.40000 F2100.000
M204 S500
;TYPE:Perimeter
G1 F1200.000
G1 X144.612 Y114.912 E0.14093
G1 X144.612 Y113.642 E0.02715
G1 X145.067 Y113.642 E0.00974
G1 X145.067 Y114.912 E0.02715
G1 X147.957 Y114.912 E0.06176
G1 X147.957 Y128.195 E0.28394
G1 X141.543 Y128.195 E0.13710
G1 X141.543 Y129.465 E0.02715
G1 X141.087 Y129.465 E0.00974
G1 X141.087 Y128.195 E0.02715
G1 X134.674 Y128.195 E0.13710
G1 X134.674 Y114.912 E0.28394
G1 X137.563 Y114.912 E0.06176
G1 X137.563 Y113.642 E0.02715
G1 X138.019 Y113.642 E0.00974
G1 X138.019 Y114.875 E0.02635
M204 S1000
G1 X138.276 Y114.655 F10800.000
M204 S500
;TYPE:External perimeter
G1 F1200.000
G1 X144.355 Y114.655 E0.12994
G1 X144.355 Y113.551 E0.02360
G1 X144.521 Y113.385 E0.00502
G1 X145.158 Y113.385 E0.01363
G1 X145.325 Y113.551 E0.00502
G1 X145.325 Y114.655 E0.02360
G1 X148.214 Y114.655 E0.06176
G1 X148.214 Y128.452 E0.29493
M73 P3 R41
M73 Q3 S41
G1 X141.800 Y128.452 E0.13710
G1 X141.800 Y129.556 E0.02360
G1 X141.634 Y129.722 E0.00502
G1 X140.996 Y129.722 E0.01363
G1 X140.830 Y129.556 E0.00502
G1 X140.830 Y128.452 E0.02360
G1 X134.417 Y128.452 E0.13710
G1 X134.417 Y114.655 E0.29493
G1 X137.306 Y114.655 E0.06176
G1 X137.306 Y113.551 E0.02360
