; generated by PrusaSlicer 2.3.0+win64 on 2021-11-18 at 21:27:07 UTC

; 

; external perimeters extrusion width = 0.25mm
; perimeters extrusion width = 0.25mm
; infill extrusion width = 0.25mm
; solid infill extrusion width = 0.25mm
; top infill extrusion width = 0.25mm
; support material extrusion width = 0.20mm
; first layer extrusion width = 0.30mm

M73 P0 R27
M73 Q0 S27
M201 X1000 Y1000 Z200 E5000 ; sets maximum accelerations, mm/sec^2
M203 X200 Y200 Z12 E120 ; sets maximum feedrates, mm/sec
M204 P1250 R1250 T1250 ; sets acceleration (P, T) and retract acceleration (R), mm/sec^2
M205 X8.00 Y8.00 Z0.40 E4.50 ; sets the jerk limits, mm/sec
M205 S0 T0 ; sets the minimum extruding and travel feed rate, mm/sec
M107
;TYPE:Custom
M862.3 P "MK3S" ; printer model check
M862.1 P0.25 ; nozzle diameter check
M115 U3.9.1 ; tell printer latest fw version
G90 ; use absolute coordinates
M83 ; extruder relative mode
M104 S240 ; set extruder temp
M140 S85 ; set bed temp
M190 S85 ; wait for bed temp
M109 S240 ; wait for extruder temp
G28 W ; home all without mesh bed level
G80 ; mesh bed leveling
G1 Y-3.0 F1000.0 ; go outside print area
G92 E0.0
G1 X60.0 E8.0 F700.0 ; intro line
M73 P0 R26
G1 X100.0 E12.5 F700.0 ; intro line
G92 E0.0
M221 S95

; Don't change E value below. Excessive value can damage the printer.
M907 E430 ; set extruder motor current
G21 ; set units to millimeters
G90 ; use absolute coordinates
M83 ; use relative distances for extrusion
M900 K0.08 ; Filament gcode LA 1.5
M900 K45 ; Filament gcode LA 1.0
;LAYER_CHANGE
;Z:0.2
;HEIGHT:0.2
;BEFORE_LAYER_CHANGE
G92 E0.0
;0.2


M73 Q0 S26
G1 E-1.40000 F2100.000
G1 Z0.200 F10800.000
;AFTER_LAYER_CHANGE
;0.2
G1 Z0.400
G1 X115.375 Y95.626
G1 Z0.200
G1 E1.40000 F2100.000
M204 S500
;TYPE:Skirt
;WIDTH:0.3
G1 F1200.000
G1 X116.201 Y94.983 E0.02237
G1 X116.694 Y94.788 E0.01132
G1 X117.211 Y94.692 E0.01124
G1 X127.962 Y93.957 E0.23035
G1 X133.745 Y93.954 E0.12362
G1 X134.742 Y94.141 E0.02168
G1 X135.604 Y94.674 E0.02168
G1 X136.217 Y95.482 E0.02168
G1 X136.499 Y96.456 E0.02168
G1 X136.510 Y113.489 E0.36410
G1 X136.316 Y114.414 E0.02021
G1 X135.825 Y115.217 E0.02012
G1 X135.031 Y115.843 E0.02159
G1 X134.071 Y116.142 E0.02151
G1 X128.007 Y116.161 E0.12962
G1 X117.123 Y115.299 E0.23339
G1 X116.329 Y115.078 E0.01761
G1 X115.636 Y114.634 E0.01761
G1 X115.078 Y113.964 E0.01865
G1 X114.756 Y113.153 E0.01865
G1 X113.619 Y105.621 E0.16283
G1 X113.642 Y104.066 E0.03323
G1 X114.730 Y96.974 E0.15338
G1 X114.960 Y96.256 E0.01613
G1 X115.355 Y95.657 E0.01532
M204 S1000
;WIPE_START
G1 F8640.000
G1 X116.201 Y94.983 E-0.24986
G1 X116.694 Y94.788 E-0.12232
G1 X117.211 Y94.692 E-0.12137
G1 X120.825 Y94.444 E-0.83645
;WIPE_END
G1 E-0.07000 F2100.000
G1 Z0.400 F10800.000
G1 X116.333 Y95.204
G1 Z0.200
G1 E1.40000 F2100.000
M204 S500
G1 F1200.000
G1 X117.244 Y94.947 E0.02023
G1 X127.972 Y94.214 E0.22987
G1 X133.745 Y94.211 E0.12339
G1 X134.652 Y94.382 E0.01973
G1 X135.436 Y94.869 E0.01973
G1 X135.994 Y95.609 E0.01982
G1 X136.245 Y96.498 E0.01973
G1 X136.253 Y113.477 E0.36295
M73 P1 R26
M73 Q1 S26
G1 X136.075 Y114.324 E0.01850
G1 X135.621 Y115.060 E0.01850
G1 X134.899 Y115.622 E0.01957
G1 X134.019 Y115.889 E0.01965
G1 X128.007 Y115.903 E0.12852
G1 X117.160 Y115.045 E0.23258
G1 X116.431 Y114.842 E0.01618
G1 X115.792 Y114.429 E0.01627
G1 X115.291 Y113.820 E0.01685
G1 X115.003 Y113.083 E0.01693
G1 X113.876 Y105.608 E0.16159
G1 X113.897 Y104.099 E0.03226
G1 X114.983 Y97.023 E0.15301
G1 X115.195 Y96.362 E0.01486
G1 X115.580 Y95.783 E0.01486
G1 X116.303 Y95.227 E0.01951
M204 S1000
G1 X116.457 Y95.430 F10800.000
M204 S500
G1 F1200.000
G1 X117.276 Y95.202 E0.01818
G1 X127.983 Y94.470 E0.22940
G1 X133.744 Y94.468 E0.12316
G1 X134.564 Y94.623 E0.01783
G1 X135.271 Y95.066 E0.01783
G1 X135.771 Y95.738 E0.01791
G1 X135.990 Y96.543 E0.01783
G1 X135.997 Y113.461 E0.36165
G1 X135.836 Y114.231 E0.01681
G1 X135.417 Y114.901 E0.01689
G1 X134.761 Y115.404 E0.01767
G1 X133.968 Y115.636 E0.01767
G1 X128.007 Y115.646 E0.12741
G1 X117.197 Y114.790 E0.23180
G1 X116.527 Y114.604 E0.01486
G1 X115.949 Y114.225 E0.01478
G1 X115.503 Y113.673 E0.01517
G1 X115.252 Y113.013 E0.01509
G1 X114.133 Y105.602 E0.16022
G1 X114.152 Y104.130 E0.03146
G1 X115.235 Y97.072 E0.15264
G1 X115.428 Y96.470 E0.01352
G1 X115.783 Y95.942 E0.01360
G1 X116.427 Y95.453 E0.01730
M204 S1000
;WIPE_START
G1 F8640.000
G1 X117.276 Y95.202 E-0.20443
G1 X122.140 Y94.870 E-1.12557
;WIPE_END
G1 E-0.07000 F2100.000
G1 Z0.400 F10800.000
G1 X128.085 Y97.064
G1 Z0.200
G1 E1.40000 F2100.000
M204 S500
;TYPE:Support material
G1 F1200.000
G1 X128.085 Y96.725 E0.00724
G1 X128.599 Y96.725 E0.01099
G1 X128.599 Y96.948 E0.00476
G1 X129.113 Y96.948 E0.01099
G1 X129.113 Y96.725 E0.00476
G1 X129.627 Y96.725 E0.01099
G1 X129.627 Y96.948 E0.00476
G1 X130.142 Y96.948 E0.01099
G1 X130.142 Y96.725 E0.00476
G1 X130.656 Y96.725 E0.01099
G1 X130.656 Y96.948 E0.00476
G1 X131.170 Y96.948 E0.01099
G1 X131.170 Y96.725 E0.00476
G1 X131.684 Y96.725 E0.01099
G1 X131.684 Y96.948 E0.00476
G1 X132.198 Y96.948 E0.01099
G1 X132.198 Y96.725 E0.00476
G1 X132.712 Y96.725 E0.01099
G1 X132.712 Y96.948 E0.00476
G1 X132.766 Y96.948 E0.00114
G1 X133.061 Y97.243 E0.00892
G1 X133.061 Y100.337 E0.06614
G1 X133.227 Y100.337 E0.00354
G1 X133.227 Y96.725 E0.07721
G1 X133.741 Y96.725 E0.01099
G1 X133.741 Y100.460 E0.07983
M204 S1000
;WIPE_START
G1 F8640.000
G1 X133.741 Y96.725 E-0.86233
G1 X133.227 Y96.725 E-0.11872
G1 X133.227 Y98.236 E-0.34895
;WIPE_END
G1 E-0.07000 F2100.000
G1 Z0.400 F10800.000
G1 X128.085 Y113.391
G1 Z0.200
G1 E1.40000 F2100.000
M204 S500
G1 F1200.000
G1 X128.085 Y113.052 E0.00724
G1 X128.599 Y113.052 E0.01099
G1 X128.599 Y113.275 E0.00476
G1 X129.113 Y113.275 E0.01099
G1 X129.113 Y113.052 E0.00476
G1 X129.627 Y113.052 E0.01099
G1 X129.627 Y113.275 E0.00476
G1 X130.142 Y113.275 E0.01099
G1 X130.142 Y113.052 E0.00476
G1 X130.656 Y113.052 E0.01099
G1 X130.656 Y113.275 E0.00476
G1 X131.170 Y113.275 E0.01099
G1 X131.170 Y113.052 E0.00476
G1 X131.684 Y113.052 E0.01099
G1 X131.684 Y113.275 E0.00476
G1 X132.198 Y113.275 E0.01099
G1 X132.198 Y113.052 E0.00476
G1 X132.712 Y113.052 E0.01099
G1 X132.712 Y113.275 E0.00476
G1 X133.227 Y113.275 E0.01099
G1 X133.227 Y109.663 E0.07721
G1 X133.673 Y109.663 E0.00955
G1 X133.741 Y109.635 E0.00156
G1 X133.741 Y113.391 E0.08028
M204 S1000
;WIPE_START
G1 F8640.000
G1 X133.741 Y109.635 E-0.86719
G1 X133.673 Y109.663 E-0.01682
G1 X133.227 Y109.663 E-0.10318
G1 X133.227 Y111.147 E-0.34281
;WIPE_END
G1 E-0.07000 F2100.000
G1 Z0.400 F10800.000
G1 X133.741 Y107.508
G1 Z0.200
G1 E1.40000 F2100.000
M204 S500
G1 F1200.000
G1 X133.741 Y102.586 E0.10521
G1 X133.673 Y102.614 E0.00156
G1 X133.227 Y102.614 E0.00955
G1 X133.227 Y107.501 E0.10447
M204 S1000
;WIPE_START
G1 F8640.000
G1 X133.227 Y102.614 E-1.12845
G1 X133.673 Y102.614 E-0.10318
G1 X133.741 Y102.586 E-0.01682
G1 X133.741 Y102.940 E-0.08155
;WIPE_END
G1 E-0.07000 F2100.000
G1 Z0.400 F10800.000
G1 X130.656 Y110.391
G1 Z0.200
G1 E1.40000 F2100.000
M204 S500
G1 F1200.000
G1 X130.656 Y99.725 E0.22799
G1 X130.142 Y99.725 E0.01099
G1 X130.142 Y110.275 E0.22552
G1 X129.627 Y110.275 E0.01099
G1 X129.627 Y99.725 E0.22552
G1 X129.113 Y99.725 E0.01099
G1 X129.113 Y110.275 E0.22552
G1 X128.599 Y110.275 E0.01099
G1 X128.599 Y99.725 E0.22552
G1 X128.085 Y99.725 E0.01099
G1 X128.085 Y110.275 E0.22552
G1 X127.571 Y110.275 E0.01099
G1 X127.571 Y99.725 E0.22552
G1 X127.234 Y99.725 E0.00720
G1 X127.234 Y101.209 E0.03171
G1 X127.057 Y101.386 E0.00537
G1 X127.057 Y108.614 E0.15450
M73 Q2 S26
G1 X126.939 Y108.496 E0.00355
G1 X126.542 Y108.496 E0.00848
G1 X126.542 Y101.504 E0.14948
M73 P2 R26
G1 X126.028 Y101.504 E0.01099
G1 X126.028 Y108.496 E0.14948
G1 X125.514 Y108.496 E0.01099
G1 X125.514 Y101.504 E0.14948
G1 X125.054 Y101.504 E0.00983
G1 X125.000 Y101.449 E0.00164
G1 X125.000 Y108.551 E0.15180
G1 X124.759 Y108.791 E0.00728
G1 X124.759 Y110.275 E0.03171
G1 X124.486 Y110.275 E0.00584
G1 X124.486 Y99.725 E0.22552
G1 X123.972 Y99.725 E0.01099
G1 X123.972 Y110.275 E0.22552
G1 X123.458 Y110.275 E0.01099
G1 X123.458 Y99.725 E0.22552
G1 X122.943 Y99.725 E0.01099
G1 X122.943 Y110.275 E0.22552
G1 X122.429 Y110.275 E0.01099
G1 X122.429 Y99.725 E0.22552
G1 X121.915 Y99.725 E0.01099
G1 X121.915 Y110.275 E0.22552
G1 X121.401 Y110.275 E0.01099
G1 X121.401 Y99.725 E0.22552
G1 X120.887 Y99.725 E0.01099
G1 X120.887 Y110.275 E0.22552
G1 X120.373 Y110.275 E0.01099
G1 X120.373 Y99.725 E0.22552
G1 X119.858 Y99.725 E0.01099
G1 X119.858 Y110.391 E0.22799
M204 S1000
;WIPE_START
G1 F8640.000
G1 X119.858 Y104.631 E-1.33000
;WIPE_END
G1 E-0.07000 F2100.000
G1 Z0.400 F10800.000
G1 X126.066 Y111.443
G1 Z0.200
G1 E1.40000 F2100.000
M204 S500
;TYPE:Perimeter
G1 F1200.000
G1 X131.893 Y111.443 E0.12455
G1 X131.893 Y111.884 E0.00944
G1 X118.124 Y111.884 E0.29432
G1 X118.124 Y111.443 E0.00944
G1 X125.927 Y111.443 E0.16679
G1 X125.927 Y109.664 E0.03802
G1 X126.066 Y109.664 E0.00298
G1 X126.066 Y111.405 E0.03722
M204 S1000
;WIPE_START
G1 F8640.000
G1 X131.826 Y111.442 E-1.33000
;WIPE_END
G1 E-0.07000 F2100.000
G1 Z0.400 F10800.000
G1 X126.066 Y100.336
G1 Z0.200
G1 E1.40000 F2100.000
M204 S500
G1 F1200.000
G1 X125.927 Y100.336 E0.00298
G1 X125.927 Y98.557 E0.03802
G1 X118.123 Y98.557 E0.16682
G1 X118.124 Y98.116 E0.00944
G1 X131.893 Y98.116 E0.29434
G1 X131.893 Y98.557 E0.00944
G1 X126.066 Y98.557 E0.12455
G1 X126.066 Y100.298 E0.03722
M204 S1000
;WIPE_START
G1 F8640.000
G1 X125.927 Y100.336 E-0.03337
G1 X125.927 Y98.557 E-0.41066
G1 X122.090 Y98.557 E-0.88597
;WIPE_END
G1 E-0.07000 F2100.000
G1 Z0.400 F10800.000
G1 X118.323 Y98.814
G1 Z0.200
G1 E1.40000 F2100.000
M204 S500
G1 F1200.000
G1 X125.670 Y98.814 E0.15704
G1 X125.670 Y100.593 E0.03802
G1 X126.324 Y100.593 E0.01397
G1 X126.324 Y98.814 E0.03802
G1 X131.694 Y98.814 E0.11481
G1 X131.694 Y111.186 E0.26445
G1 X126.324 Y111.186 E0.11481
G1 X126.324 Y109.407 E0.03802
G1 X125.670 Y109.407 E0.01397
G1 X125.670 Y111.186 E0.03802
G1 X118.323 Y111.186 E0.15704
G1 X118.323 Y98.852 E0.26365
M204 S1000
G1 X118.580 Y99.072 F10800.000
M204 S500
;TYPE:External perimeter
G1 F1200.000
G1 X125.413 Y99.072 E0.14605
M73 Q3 S26
G1 X125.413 Y100.850 E0.03802
G1 X126.581 Y100.850 E0.02496
M73 P3 R26
G1 X126.581 Y99.072 E0.03802
G1 X131.437 Y99.072 E0.10382
G1 X131.437 Y110.929 E0.25346
G1 X126.581 Y110.929 E0.10382
G1 X126.581 Y109.150 E0.03802
G1 X125.413 Y109.150 E0.02496
G1 X125.413 Y110.929 E0.03802
G1 X118.580 Y110.929 E0.14605
G1 X118.580 Y99.109 E0.25266
M204 S1000
G1 X118.537 Y98.825 F10800.000
;WIPE_START
G1 F8640.000
G1 X124.340 Y99.077 E-1.33000
;WIPE_END
G1 E-0.07000 F2100.000
G1 Z0.400 F10800.000
G1 X132.150 Y101.248
G1 Z0.200
G1 E1.40000 F2100.000
M204 S500
;TYPE:Perimeter
G1 F1200.000
G1 X133.203 Y101.248 E0.02250
G1 X133.203 Y101.704 E0.00974
G1 X132.150 Y101.704 E0.02250
G1 X132.150 Y108.296 E0.14093
G1 X133.203 Y108.296 E0.02250
G1 X133.203 Y108.752 E0.00974
G1 X132.150 Y108.752 E0.02250
G1 X132.150 Y112.141 E0.07245
G1 X117.867 Y112.141 E0.30531
G1 X117.867 Y105.228 E0.14778
G1 X116.797 Y105.228 E0.02287
G1 X116.797 Y104.772 E0.00974
G1 X117.859 Y104.772 E0.02269
G1 X117.867 Y97.859 E0.14778
G1 X132.150 Y97.859 E0.30532
G1 X132.150 Y101.210 E0.07165
M204 S1000
G1 X132.407 Y100.991 F10800.000
M204 S500
;TYPE:External perimeter
G1 F1200.000
G1 X133.460 Y100.991 E0.02250
G1 X133.460 Y101.961 E0.02073
G1 X132.407 Y101.961 E0.02250
G1 X132.407 Y108.039 E0.12994
G1 X133.460 Y108.039 E0.02250
G1 X133.460 Y109.009 E0.02073
G1 X132.407 Y109.009 E0.02250
G1 X132.407 Y112.398 E0.07245
G1 X117.610 Y112.398 E0.31630
G1 X117.610 Y105.485 E0.14778
G1 X116.540 Y105.485 E0.02287
G1 X116.540 Y104.515 E0.02073
G1 X117.602 Y104.515 E0.02270
G1 X117.610 Y97.602 E0.14778
G1 X132.407 Y97.602 E0.31631
G1 X132.407 Y100.953 E0.07165
M204 S1000
G1 X132.516 Y101.216 F10800.000
G1 X131.922 Y101.376
M204 S500
;TYPE:Gap fill
;WIDTH:0.24168
G1 F1200.000
G1 X131.922 Y98.686 E0.04447
M204 S1000
G1 X131.765 Y98.337 F10800.000
M204 S500
;WIDTH:0.227526
G1 F1200.000
G1 X118.252 Y98.337 E0.20742
M204 S1000
G1 X118.095 Y98.686 F10800.000
M204 S500
;WIDTH:0.250301
G1 F1200.000
G1 X118.091 Y104.901 E0.10717
M204 S1000
M204 S500
;WIDTH:0.294777
G1 X118.069 Y104.997 E0.00206
M204 S1000
M204 S500
;WIDTH:0.241688
G1 X118.095 Y105.099 E0.00175
G1 X118.095 Y111.314 E0.10271
M204 S1000
G1 X118.253 Y111.663 F10800.000
M204 S500
;WIDTH:0.227524
G1 F1200.000
G1 X131.765 Y111.663 E0.20740
M204 S1000
G1 X131.922 Y111.314 F10800.000
M204 S500
;WIDTH:0.24168
G1 F1200.000
G1 X131.922 Y108.624 E0.04447
M204 S1000
M204 S500
;WIDTH:0.291372
G1 X131.947 Y108.524 E0.00212
M204 S1000
M204 S500
;WIDTH:0.24168
G1 X131.922 Y108.425 E0.00169
G1 X131.922 Y101.575 E0.11321
M204 S1000
M204 S500
;WIDTH:0.291371
G1 X131.947 Y101.476 E0.00212
M204 S1000
G1 X131.922 Y101.376 F10800.000
M204 S500
;WIDTH:0.291372
G1 F1200.000
G1 X131.947 Y101.476 E0.00212
M204 S1000
M204 S500
;WIDTH:0.241682
G1 X133.074 Y101.476 E0.01863
M204 S1000
;WIPE_START
G1 F8640.000
G1 X131.947 Y101.476 E-0.26025
;WIPE_END
G1 E-1.13975 F2100.000
G1 Z0.400 F10800.000
G1 X133.074 Y108.524
G1 Z0.200
G1 E1.40000 F2100.000
M204 S500
;WIDTH:0.241684
G1 F1200.000
G1 X131.947 Y108.524 E0.01863
M204 S1000
;WIPE_START
G1 F8640.000
G1 X133.074 Y108.524 E-0.26025
;WIPE_END
G1 E-1.13975 F2100.000
G1 Z0.400 F10800.000
G1 X118.069 Y104.997
G1 Z0.200
G1 E1.40000 F2100.000
M204 S500
;WIDTH:0.294777
G1 F1200.000
G1 X118.032 Y104.998 E0.00076
M204 S1000
M204 S500
;WIDTH:0.268417
G1 X117.996 Y105.000 E0.00068
M204 S1000
M204 S500
;WIDTH:0.242056
G1 X116.926 Y105.000 E0.01772
M204 S1000
;LAYER_CHANGE
;Z:0.349395
;HEIGHT:0.149395
;BEFORE_LAYER_CHANGE
G92 E0.0
;0.349395


;WIPE_START
G1 F8640.000
G1 X117.996 Y105.000 E-0.24707
;WIPE_END
G1 E-1.15293 F2100.000
G1 Z0.400 F10800.000
;AFTER_LAYER_CHANGE
;0.349395
M104 S250 ; set temperature
M140 S90 ; set bed temperature
G1 X127.411 Y100.329
G1 Z0.349
G1 E1.40000 F2100.000
;TYPE:Support material
;WIDTH:0.2
G1 F900
G1 X127.190 Y100.329 E0.00231
G1 X127.190 Y101.190 E0.00898
G1 X126.921 Y101.459 E0.00397
G1 X125.073 Y101.459 E0.01928
G1 X124.804 Y101.190 E0.00397
G1 X124.804 Y100.329 E0.00898
G1 X123.832 Y100.329 E0.01014
G1 X123.832 Y101.497 E0.01218
G1 X122.664 Y101.497 E0.01218
G1 X127.336 Y101.497 E0.04873
G1 X127.336 Y102.664 E0.01218
G1 X122.664 Y102.664 E0.04873
M73 Q4 S26
G1 X122.664 Y103.832 E0.01218
G1 X127.336 Y103.832 E0.04873
M73 P4 R26
G1 X127.336 Y105.000 E0.01218
G1 X122.664 Y105.000 E0.04873
G1 X122.664 Y106.168 E0.01218
G1 X127.336 Y106.168 E0.04873
G1 X127.336 Y107.336 E0.01218
G1 X122.664 Y107.336 E0.04873
M73 P4 R25
G1 X122.664 Y108.503 E0.01218
G1 X127.336 Y108.503 E0.04873
G1 X127.336 Y109.671 E0.01218
G1 X127.190 Y109.671 E0.00152
G1 X127.190 Y108.810 E0.00898
G1 X126.921 Y108.541 E0.00397
G1 X125.073 Y108.541 E0.01928
G1 X124.804 Y108.810 E0.00397
G1 X124.804 Y109.671 E0.00898
G1 X123.757 Y109.671 E0.01092
;LAYER_CHANGE
;Z:0.35
;HEIGHT:0.000605285
;BEFORE_LAYER_CHANGE
G92 E0.0
;0.35


;WIPE_START
G1 F8640.000
G1 X124.804 Y109.671 E-0.24180
G1 X124.804 Y108.810 E-0.19888
G1 X125.073 Y108.541 E-0.08778
G1 X126.921 Y108.541 E-0.42672
G1 X127.190 Y108.810 E-0.08778
G1 X127.190 Y109.671 E-0.19888
G1 X127.336 Y109.671 E-0.03374
G1 X127.336 Y109.436 E-0.05442
;WIPE_END
M73 Q4 S25
G1 E-0.07000 F2100.000
G1 Z0.549 F10800.000
;AFTER_LAYER_CHANGE
;0.35
G1 X135.031 Y115.843
G1 Z0.350
G1 E1.40000 F2100.000
;TYPE:Skirt
;WIDTH:0.3
;HEIGHT:0.15
G1 F2400.000
G1 X134.071 Y116.142 E0.01680
G1 X128.007 Y116.161 E0.10128
G1 X117.123 Y115.299 E0.18235
G1 X116.329 Y115.078 E0.01376
G1 X115.636 Y114.634 E0.01376
G1 X115.078 Y113.964 E0.01457
G1 X114.756 Y113.153 E0.01457
G1 X113.619 Y105.621 E0.12722
G1 X113.642 Y104.066 E0.02597
G1 X114.730 Y96.974 E0.11984
G1 X114.960 Y96.256 E0.01260
G1 X115.375 Y95.626 E0.01260
G1 X116.201 Y94.983 E0.01748
G1 X116.694 Y94.788 E0.00885
G1 X117.211 Y94.692 E0.00878
G1 X127.962 Y93.957 E0.17997
G1 X133.745 Y93.954 E0.09659
G1 X134.742 Y94.141 E0.01694
G1 X135.604 Y94.674 E0.01694
G1 X136.217 Y95.482 E0.01694
G1 X136.499 Y96.456 E0.01694
