; generated by PrusaSlicer 2.3.0+win64 on 2021-04-19 at 22:39:49 UTC

; 

; external perimeters extrusion width = 0.45mm
; perimeters extrusion width = 0.45mm
; infill extrusion width = 0.45mm
; solid infill extrusion width = 0.45mm
; top infill extrusion width = 0.40mm
; first layer extrusion width = 0.42mm

M73 P0 R69
M73 Q0 S70
M201 X1000 Y1000 Z200 E5000 ; sets maximum accelerations, mm/sec^2
M203 X200 Y200 Z12 E120 ; sets maximum feedrates, mm/sec
M204 P1250 R1250 T1250 ; sets acceleration (P, T) and retract acceleration (R), mm/sec^2
M205 X8.00 Y8.00 Z0.40 E4.50 ; sets the jerk limits, mm/sec
M205 S0 T0 ; sets the minimum extruding and travel feed rate, mm/sec
M107
;TYPE:Custom
M862.3 P "MK3S" ; printer model check
M862.1 P0.4 ; nozzle diameter check
M115 U3.9.1 ; tell printer latest fw version
G90 ; use absolute coordinates
M83 ; extruder relative mode
M104 S230 ; set extruder temp
M140 S85 ; set bed temp
M190 S85 ; wait for bed temp
M109 S230 ; wait for extruder temp
G28 W ; home all without mesh bed level
G80 ; mesh bed leveling
G1 Y-3.0 F1000.0 ; go outside print area
G92 E0.0
G1 X60.0 E9.0 F1000.0 ; intro line
G1 X100.0 E12.5 F1000.0 ; intro line
G92 E0.0
M221 S95

; Don't change E values below. Excessive value can damage the printer.
M907 E430 ; set extruder motor current
G21 ; set units to millimeters
G90 ; use absolute coordinates
M83 ; use relative distances for extrusion
M900 K0.08 ; Filament gcode LA 1.5
M900 K45 ; Filament gcode LA 1.0
;LAYER_CHANGE
;Z:0.2
;HEIGHT:0.2
;BEFORE_LAYER_CHANGE
G92 E0.0
;0.2


G1 E-1.40000 F2100.000
G1 Z0.200 F10800.000
;AFTER_LAYER_CHANGE
;0.2
G1 Z0.400
G1 X96.154 Y74.844
G1 Z0.200
G1 E1.40000 F2100.000
M204 S1000
;TYPE:Skirt
;WIDTH:0.42
G1 F1200.000
G1 X96.632 Y74.433 E0.01977
G1 X97.205 Y74.161 E0.01989
G1 X97.830 Y74.050 E0.01989
G1 X127.400 Y74.048 E0.92715
G1 X128.288 Y74.222 E0.02837
G1 X129.049 Y74.717 E0.02849
G1 X129.568 Y75.459 E0.02837
G1 X129.771 Y76.340 E0.02837
G1 X129.773 Y133.586 E1.79492
M73 Q0 S69
G1 X129.709 Y134.122 E0.01692
G1 X129.526 Y134.630 E0.01692
G1 X129.166 Y135.161 E0.02012
G1 X128.680 Y135.575 E0.02000
G1 X128.102 Y135.845 E0.02000
G1 X127.473 Y135.951 E0.02000
G1 X97.911 Y135.952 E0.92691
G1 X97.379 Y135.887 E0.01680
G1 X96.875 Y135.705 E0.01680
G1 X96.338 Y135.340 E0.02036
G1 X95.921 Y134.847 E0.02024
G1 X95.653 Y134.259 E0.02024
G1 X95.553 Y133.618 E0.02036
G1 X95.553 Y76.414 E1.79360
G1 X95.616 Y75.878 E0.01692
G1 X95.800 Y75.370 E0.01692
G1 X96.121 Y74.894 E0.01800
;WIPE_START
G1 F8640.000
G1 X96.632 Y74.433 E-0.15897
G1 X97.205 Y74.161 E-0.14644
G1 X97.830 Y74.050 E-0.14644
G1 X101.633 Y74.050 E-0.87814
;WIPE_END
G1 E-0.07000 F2100.000
G1 Z0.400 F10800.000
G1 X123.639 Y77.212
G1 Z0.200
G1 E1.40000 F2100.000
;TYPE:Perimeter
G1 F1200.000
G1 X126.361 Y77.212 E0.08536
G1 X126.361 Y132.788 E1.74254
G1 X123.639 Y132.788 E0.08536
G1 X123.639 Y77.272 E1.74066
G1 X123.262 Y76.835 F10800.000
;TYPE:External perimeter
G1 F1200.000
G1 X126.738 Y76.835 E0.10900
G1 X126.738 Y133.165 E1.76619
G1 X123.262 Y133.165 E0.10900
G1 X123.262 Y76.895 E1.76431
G1 X123.612 Y77.028 F10800.000
;WIPE_START
G1 F8640.000
G1 X126.738 Y76.835 E-0.80285
G1 X126.738 Y79.118 E-0.52715
;WIPE_END
G1 E-0.07000 F2100.000
G1 Z0.400 F10800.000
G1 X125.481 Y77.325
G1 Z0.200
G1 E1.40000 F2100.000
;TYPE:Solid infill
;WIDTH:0.422146
G1 F1200.000
G1 X126.078 Y77.922 E0.02663
G1 X126.078 Y78.459 E0.01691
G1 X125.115 Y77.495 E0.04298
G1 X124.578 Y77.495 E0.01691
G1 X126.078 Y78.995 E0.06689
G1 X126.078 Y79.531 E0.01691
G1 X124.042 Y77.495 E0.09081
G1 X123.922 Y77.495 E0.00380
G1 X123.922 Y77.911 E0.01312
G1 X126.078 Y80.068 E0.09618
G1 X126.078 Y80.604 E0.01691
G1 X123.922 Y78.447 E0.09618
G1 X123.922 Y78.983 E0.01691
G1 X126.078 Y81.140 E0.09618
G1 X126.078 Y81.676 E0.01691
G1 X123.922 Y79.520 E0.09618
G1 X123.922 Y80.056 E0.01691
G1 X126.078 Y82.213 E0.09618
G1 X126.078 Y82.749 E0.01691
G1 X123.922 Y80.592 E0.09618
G1 X123.922 Y81.129 E0.01691
G1 X126.078 Y83.285 E0.09618
G1 X126.078 Y83.822 E0.01691
G1 X123.922 Y81.665 E0.09618
G1 X123.922 Y82.201 E0.01691
G1 X126.078 Y84.358 E0.09618
G1 X126.078 Y84.894 E0.01691
G1 X123.922 Y82.738 E0.09618
G1 X123.922 Y83.274 E0.01691
G1 X126.078 Y85.431 E0.09618
G1 X126.078 Y85.967 E0.01691
G1 X123.922 Y83.810 E0.09618
G1 X123.922 Y84.346 E0.01691
G1 X126.078 Y86.503 E0.09618
G1 X126.078 Y87.040 E0.01691
G1 X123.922 Y84.883 E0.09618
G1 X123.922 Y85.419 E0.01691
G1 X126.078 Y87.576 E0.09618
G1 X126.078 Y88.112 E0.01691
G1 X123.922 Y85.955 E0.09618
G1 X123.922 Y86.492 E0.01691
G1 X126.078 Y88.648 E0.09618
G1 X126.078 Y89.185 E0.01691
G1 X123.922 Y87.028 E0.09618
G1 X123.922 Y87.564 E0.01691
G1 X126.078 Y89.721 E0.09618
G1 X126.078 Y90.257 E0.01691
G1 X123.922 Y88.101 E0.09618
G1 X123.922 Y88.637 E0.01691
G1 X126.078 Y90.794 E0.09618
G1 X126.078 Y91.330 E0.01691
G1 X123.922 Y89.173 E0.09618
G1 X123.922 Y89.710 E0.01691
G1 X126.078 Y91.866 E0.09618
G1 X126.078 Y92.403 E0.01691
G1 X123.922 Y90.246 E0.09618
G1 X123.922 Y90.782 E0.01691
G1 X126.078 Y92.939 E0.09618
G1 X126.078 Y93.475 E0.01691
G1 X123.922 Y91.318 E0.09618
G1 X123.922 Y91.855 E0.01691
G1 X126.078 Y94.012 E0.09618
G1 X126.078 Y94.548 E0.01691
G1 X123.922 Y92.391 E0.09618
G1 X123.922 Y92.927 E0.01691
G1 X126.078 Y95.084 E0.09618
G1 X126.078 Y95.620 E0.01691
G1 X123.922 Y93.464 E0.09618
G1 X123.922 Y94.000 E0.01691
G1 X126.078 Y96.157 E0.09618
G1 X126.078 Y96.693 E0.01691
G1 X123.922 Y94.536 E0.09618
G1 X123.922 Y95.073 E0.01691
G1 X126.078 Y97.229 E0.09618
G1 X126.078 Y97.766 E0.01691
G1 X123.922 Y95.609 E0.09618
G1 X123.922 Y96.145 E0.01691
G1 X126.078 Y98.302 E0.09618
G1 X126.078 Y98.838 E0.01691
G1 X123.922 Y96.682 E0.09618
G1 X123.922 Y97.218 E0.01691
G1 X126.078 Y99.375 E0.09618
G1 X126.078 Y99.911 E0.01691
G1 X123.922 Y97.754 E0.09618
G1 X123.922 Y98.290 E0.01691
G1 X126.078 Y100.447 E0.09618
M73 P0 R68
G1 X126.078 Y100.984 E0.01691
G1 X123.922 Y98.827 E0.09618
G1 X123.922 Y99.363 E0.01691
G1 X126.078 Y101.520 E0.09618
G1 X126.078 Y102.056 E0.01691
G1 X123.922 Y99.899 E0.09618
G1 X123.922 Y100.436 E0.01691
G1 X126.078 Y102.592 E0.09618
G1 X126.078 Y103.129 E0.01691
G1 X123.922 Y100.972 E0.09618
G1 X123.922 Y101.508 E0.01691
G1 X126.078 Y103.665 E0.09618
G1 X126.078 Y104.201 E0.01691
G1 X123.922 Y102.045 E0.09618
G1 X123.922 Y102.581 E0.01691
G1 X126.078 Y104.738 E0.09618
G1 X126.078 Y105.274 E0.01691
G1 X123.922 Y103.117 E0.09618
G1 X123.922 Y103.654 E0.01691
G1 X126.078 Y105.810 E0.09618
G1 X126.078 Y106.347 E0.01691
G1 X123.922 Y104.190 E0.09618
G1 X123.922 Y104.726 E0.01691
G1 X126.078 Y106.883 E0.09618
G1 X126.078 Y107.419 E0.01691
G1 X123.922 Y105.262 E0.09618
G1 X123.922 Y105.799 E0.01691
G1 X126.078 Y107.955 E0.09618
G1 X126.078 Y108.492 E0.01691
G1 X123.922 Y106.335 E0.09618
G1 X123.922 Y106.871 E0.01691
G1 X126.078 Y109.028 E0.09618
G1 X126.078 Y109.564 E0.01691
G1 X123.922 Y107.408 E0.09618
G1 X123.922 Y107.944 E0.01691
G1 X126.078 Y110.101 E0.09618
G1 X126.078 Y110.637 E0.01691
G1 X123.922 Y108.480 E0.09618
G1 X123.922 Y109.017 E0.01691
G1 X126.078 Y111.173 E0.09618
G1 X126.078 Y111.710 E0.01691
G1 X123.922 Y109.553 E0.09618
G1 X123.922 Y110.089 E0.01691
G1 X126.078 Y112.246 E0.09618
M73 P1 R68
M73 Q1 S69
G1 X126.078 Y112.782 E0.01691
G1 X123.922 Y110.626 E0.09618
G1 X123.922 Y111.162 E0.01691
G1 X126.078 Y113.319 E0.09618
G1 X126.078 Y113.855 E0.01691
G1 X123.922 Y111.698 E0.09618
G1 X123.922 Y112.234 E0.01691
G1 X126.078 Y114.391 E0.09618
G1 X126.078 Y114.927 E0.01691
G1 X123.922 Y112.771 E0.09618
G1 X123.922 Y113.307 E0.01691
G1 X126.078 Y115.464 E0.09618
G1 X126.078 Y116.000 E0.01691
G1 X123.922 Y113.843 E0.09618
G1 X123.922 Y114.380 E0.01691
G1 X126.078 Y116.536 E0.09618
G1 X126.078 Y117.073 E0.01691
G1 X123.922 Y114.916 E0.09618
G1 X123.922 Y115.452 E0.01691
G1 X126.078 Y117.609 E0.09618
G1 X126.078 Y118.145 E0.01691
G1 X123.922 Y115.989 E0.09618
G1 X123.922 Y116.525 E0.01691
G1 X126.078 Y118.682 E0.09618
G1 X126.078 Y119.218 E0.01691
G1 X123.922 Y117.061 E0.09618
G1 X123.922 Y117.597 E0.01691
G1 X126.078 Y119.754 E0.09618
G1 X126.078 Y120.291 E0.01691
G1 X123.922 Y118.134 E0.09618
G1 X123.922 Y118.670 E0.01691
G1 X126.078 Y120.827 E0.09618
G1 X126.078 Y121.363 E0.01691
G1 X123.922 Y119.206 E0.09618
G1 X123.922 Y119.743 E0.01691
G1 X126.078 Y121.899 E0.09618
G1 X126.078 Y122.436 E0.01691
G1 X123.922 Y120.279 E0.09618
G1 X123.922 Y120.815 E0.01691
G1 X126.078 Y122.972 E0.09618
G1 X126.078 Y123.508 E0.01691
G1 X123.922 Y121.352 E0.09618
G1 X123.922 Y121.888 E0.01691
G1 X126.078 Y124.045 E0.09618
G1 X126.078 Y124.581 E0.01691
G1 X123.922 Y122.424 E0.09618
G1 X123.922 Y122.961 E0.01691
G1 X126.078 Y125.117 E0.09618
G1 X126.078 Y125.654 E0.01691
G1 X123.922 Y123.497 E0.09618
G1 X123.922 Y124.033 E0.01691
G1 X126.078 Y126.190 E0.09618
G1 X126.078 Y126.726 E0.01691
G1 X123.922 Y124.569 E0.09618
G1 X123.922 Y125.106 E0.01691
G1 X126.078 Y127.263 E0.09618
G1 X126.078 Y127.799 E0.01691
G1 X123.922 Y125.642 E0.09618
G1 X123.922 Y126.178 E0.01691
G1 X126.078 Y128.335 E0.09618
G1 X126.078 Y128.871 E0.01691
G1 X123.922 Y126.715 E0.09618
G1 X123.922 Y127.251 E0.01691
G1 X126.078 Y129.408 E0.09618
G1 X126.078 Y129.944 E0.01691
G1 X123.922 Y127.787 E0.09618
G1 X123.922 Y128.324 E0.01691
G1 X126.078 Y130.480 E0.09618
G1 X126.078 Y131.017 E0.01691
G1 X123.922 Y128.860 E0.09618
G1 X123.922 Y129.396 E0.01691
G1 X126.078 Y131.553 E0.09618
G1 X126.078 Y132.089 E0.01691
G1 X123.922 Y129.933 E0.09618
G1 X123.922 Y130.469 E0.01691
G1 X125.958 Y132.505 E0.09081
G1 X125.422 Y132.505 E0.01691
G1 X123.922 Y131.005 E0.06689
G1 X123.922 Y131.541 E0.01691
G1 X124.885 Y132.505 E0.04297
G1 X124.349 Y132.505 E0.01691
G1 X123.752 Y131.908 E0.02662
;WIPE_START
G1 F8640.000
G1 X124.349 Y132.505 E-0.19496
G1 X124.885 Y132.505 E-0.12383
G1 X123.922 Y131.541 E-0.31468
G1 X123.922 Y131.005 E-0.12383
G1 X125.422 Y132.505 E-0.48980
G1 X125.781 Y132.505 E-0.08289
;WIPE_END
G1 E-0.07000 F2100.000
G1 Z0.400 F10800.000
G1 X114.024 Y132.788
G1 Z0.200
G1 E1.40000 F2100.000
;TYPE:Perimeter
;WIDTH:0.42
G1 F1200.000
G1 X111.302 Y132.788 E0.08536
G1 X111.302 Y77.212 E1.74254
G1 X114.024 Y77.212 E0.08536
G1 X114.024 Y132.728 E1.74066
G1 X114.401 Y133.165 F10800.000
;TYPE:External perimeter
G1 F1200.000
G1 X110.924 Y133.165 E0.10900
G1 X110.924 Y76.835 E1.76619
G1 X114.401 Y76.835 E0.10900
G1 X114.401 Y133.105 E1.76431
G1 X114.051 Y132.972 F10800.000
;WIPE_START
G1 F8640.000
G1 X110.924 Y133.165 E-0.80285
G1 X110.924 Y130.882 E-0.52715
;WIPE_END
G1 E-0.07000 F2100.000
G1 Z0.400 F10800.000
G1 X113.144 Y77.325
G1 Z0.200
G1 E1.40000 F2100.000
;TYPE:Solid infill
;WIDTH:0.422146
G1 F1200.000
G1 X113.741 Y77.922 E0.02663
G1 X113.741 Y78.459 E0.01691
G1 X112.777 Y77.495 E0.04298
G1 X112.241 Y77.495 E0.01691
G1 X113.741 Y78.995 E0.06689
G1 X113.741 Y79.531 E0.01691
G1 X111.705 Y77.495 E0.09081
G1 X111.584 Y77.495 E0.00380
G1 X111.584 Y77.911 E0.01312
G1 X113.741 Y80.068 E0.09618
G1 X113.741 Y80.604 E0.01691
G1 X111.584 Y78.447 E0.09618
G1 X111.584 Y78.983 E0.01691
G1 X113.741 Y81.140 E0.09618
G1 X113.741 Y81.676 E0.01691
G1 X111.584 Y79.520 E0.09618
G1 X111.584 Y80.056 E0.01691
G1 X113.741 Y82.213 E0.09618
G1 X113.741 Y82.749 E0.01691
G1 X111.584 Y80.592 E0.09618
G1 X111.584 Y81.129 E0.01691
G1 X113.741 Y83.285 E0.09618
G1 X113.741 Y83.822 E0.01691
G1 X111.584 Y81.665 E0.09618
G1 X111.584 Y82.201 E0.01691
G1 X113.741 Y84.358 E0.09618
G1 X113.741 Y84.894 E0.01691
G1 X111.584 Y82.738 E0.09618
G1 X111.584 Y83.274 E0.01691
G1 X113.741 Y85.431 E0.09618
G1 X113.741 Y85.967 E0.01691
G1 X111.584 Y83.810 E0.09618
G1 X111.584 Y84.346 E0.01691
G1 X113.741 Y86.503 E0.09618
G1 X113.741 Y87.040 E0.01691
G1 X111.584 Y84.883 E0.09618
G1 X111.584 Y85.419 E0.01691
G1 X113.741 Y87.576 E0.09618
G1 X113.741 Y88.112 E0.01691
G1 X111.584 Y85.955 E0.09618
G1 X111.584 Y86.492 E0.01691
G1 X113.741 Y88.648 E0.09618
G1 X113.741 Y89.185 E0.01691
G1 X111.584 Y87.028 E0.09618
G1 X111.584 Y87.564 E0.01691
G1 X113.741 Y89.721 E0.09618
G1 X113.741 Y90.257 E0.01691
G1 X111.584 Y88.101 E0.09618
G1 X111.584 Y88.637 E0.01691
G1 X113.741 Y90.794 E0.09618
G1 X113.741 Y91.330 E0.01691
G1 X111.584 Y89.173 E0.09618
G1 X111.584 Y89.710 E0.01691
G1 X113.741 Y91.866 E0.09618
G1 X113.741 Y92.403 E0.01691
G1 X111.584 Y90.246 E0.09618
G1 X111.584 Y90.782 E0.01691
G1 X113.741 Y92.939 E0.09618
G1 X113.741 Y93.475 E0.01691
G1 X111.584 Y91.318 E0.09618
G1 X111.584 Y91.855 E0.01691
G1 X113.741 Y94.012 E0.09618
G1 X113.741 Y94.548 E0.01691
G1 X111.584 Y92.391 E0.09618
G1 X111.584 Y92.927 E0.01691
G1 X113.741 Y95.084 E0.09618
G1 X113.741 Y95.620 E0.01691
G1 X111.584 Y93.464 E0.09618
G1 X111.584 Y94.000 E0.01691
G1 X113.741 Y96.157 E0.09618
G1 X113.741 Y96.693 E0.01691
G1 X111.584 Y94.536 E0.09618
G1 X111.584 Y95.073 E0.01691
G1 X113.741 Y97.229 E0.09618
G1 X113.741 Y97.766 E0.01691
G1 X111.584 Y95.609 E0.09618
G1 X111.584 Y96.145 E0.01691
G1 X113.741 Y98.302 E0.09618
G1 X113.741 Y98.838 E0.01691
G1 X111.584 Y96.682 E0.09618
G1 X111.584 Y97.218 E0.01691
G1 X113.741 Y99.375 E0.09618
G1 X113.741 Y99.911 E0.01691
G1 X111.584 Y97.754 E0.09618
M73 Q1 S68
G1 X111.584 Y98.290 E0.01691
G1 X113.741 Y100.447 E0.09618
G1 X113.741 Y100.984 E0.01691
G1 X111.584 Y98.827 E0.09618
G1 X111.584 Y99.363 E0.01691
G1 X113.741 Y101.520 E0.09618
G1 X113.741 Y102.056 E0.01691
G1 X111.584 Y99.899 E0.09618
G1 X111.584 Y100.436 E0.01691
G1 X113.741 Y102.592 E0.09618
G1 X113.741 Y103.129 E0.01691
G1 X111.584 Y100.972 E0.09618
G1 X111.584 Y101.508 E0.01691
G1 X113.741 Y103.665 E0.09618
G1 X113.741 Y104.201 E0.01691
G1 X111.584 Y102.045 E0.09618
G1 X111.584 Y102.581 E0.01691
G1 X113.741 Y104.738 E0.09618
G1 X113.741 Y105.274 E0.01691
G1 X111.584 Y103.117 E0.09618
G1 X111.584 Y103.654 E0.01691
G1 X113.741 Y105.810 E0.09618
G1 X113.741 Y106.347 E0.01691
G1 X111.584 Y104.190 E0.09618
G1 X111.584 Y104.726 E0.01691
G1 X113.741 Y106.883 E0.09618
G1 X113.741 Y107.419 E0.01691
G1 X111.584 Y105.262 E0.09618
G1 X111.584 Y105.799 E0.01691
G1 X113.741 Y107.955 E0.09618
G1 X113.741 Y108.492 E0.01691
G1 X111.584 Y106.335 E0.09618
G1 X111.584 Y106.871 E0.01691
G1 X113.741 Y109.028 E0.09618
G1 X113.741 Y109.564 E0.01691
G1 X111.584 Y107.408 E0.09618
G1 X111.584 Y107.944 E0.01691
G1 X113.741 Y110.101 E0.09618
G1 X113.741 Y110.637 E0.01691
G1 X111.584 Y108.480 E0.09618
G1 X111.584 Y109.017 E0.01691
G1 X113.741 Y111.173 E0.09618
G1 X113.741 Y111.710 E0.01691
G1 X111.584 Y109.553 E0.09618
G1 X111.584 Y110.089 E0.01691
G1 X113.741 Y112.246 E0.09618
G1 X113.741 Y112.782 E0.01691
G1 X111.584 Y110.626 E0.09618
G1 X111.584 Y111.162 E0.01691
G1 X113.741 Y113.319 E0.09618
G1 X113.741 Y113.855 E0.01691
G1 X111.584 Y111.698 E0.09618
G1 X111.584 Y112.234 E0.01691
G1 X113.741 Y114.391 E0.09618
G1 X113.741 Y114.927 E0.01691
G1 X111.584 Y112.771 E0.09618
G1 X111.584 Y113.307 E0.01691
G1 X113.741 Y115.464 E0.09618
G1 X113.741 Y116.000 E0.01691
G1 X111.584 Y113.843 E0.09618
G1 X111.584 Y114.380 E0.01691
G1 X113.741 Y116.536 E0.09618
G1 X113.741 Y117.073 E0.01691
G1 X111.584 Y114.916 E0.09618
G1 X111.584 Y115.452 E0.01691
G1 X113.741 Y117.609 E0.09618
G1 X113.741 Y118.145 E0.01691
G1 X111.584 Y115.989 E0.09618
G1 X111.584 Y116.525 E0.01691
G1 X113.741 Y118.682 E0.09618
G1 X113.741 Y119.218 E0.01691
G1 X111.584 Y117.061 E0.09618
G1 X111.584 Y117.597 E0.01691
G1 X113.741 Y119.754 E0.09618
G1 X113.741 Y120.291 E0.01691
G1 X111.584 Y118.134 E0.09618
G1 X111.584 Y118.670 E0.01691
G1 X113.741 Y120.827 E0.09618
G1 X113.741 Y121.363 E0.01691
G1 X111.584 Y119.206 E0.09618
G1 X111.584 Y119.743 E0.01691
G1 X113.741 Y121.899 E0.09618
G1 X113.741 Y122.436 E0.01691
G1 X111.584 Y120.279 E0.09618
G1 X111.584 Y120.815 E0.01691
G1 X113.741 Y122.972 E0.09618
G1 X113.741 Y123.508 E0.01691
G1 X111.584 Y121.352 E0.09618
G1 X111.584 Y121.888 E0.01691
G1 X113.741 Y124.045 E0.09618
G1 X113.741 Y124.581 E0.01691
G1 X111.584 Y122.424 E0.09618
G1 X111.584 Y122.961 E0.01691
G1 X113.741 Y125.117 E0.09618
G1 X113.741 Y125.654 E0.01691
G1 X111.584 Y123.497 E0.09618
G1 X111.584 Y124.033 E0.01691
G1 X113.741 Y126.190 E0.09618
G1 X113.741 Y126.726 E0.01691
