; generated by PrusaSlicer 2.3.0+win64 on 2021-08-21 at 03:23:38 UTC

; 

; external perimeters extrusion width = 0.60mm
; perimeters extrusion width = 0.50mm
; infill extrusion width = 0.50mm
; solid infill extrusion width = 0.50mm
; top infill extrusion width = 0.45mm
; support material extrusion width = 0.38mm
; first layer extrusion width = 0.42mm

M73 P0 R36
M73 Q0 S36
M201 X1000 Y1000 Z200 E5000 ; sets maximum accelerations, mm/sec^2
M203 X200 Y200 Z12 E120 ; sets maximum feedrates, mm/sec
M204 P1250 R1250 T1250 ; sets acceleration (P, T) and retract acceleration (R), mm/sec^2
M205 X8.00 Y8.00 Z0.40 E4.50 ; sets the jerk limits, mm/sec
M205 S0 T0 ; sets the minimum extruding and travel feed rate, mm/sec
M107
;TYPE:Custom
M862.3 P "MK3S" ; printer model check
M862.1 P0.4 ; nozzle diameter check
M115 U3.9.1 ; tell printer latest fw version
G90 ; use absolute coordinates
M83 ; extruder relative mode
M104 S215 ; set extruder temp
M140 S60 ; set bed temp
M190 S60 ; wait for bed temp
M109 S215 ; wait for extruder temp
G28 W ; home all without mesh bed level
G80 ; mesh bed leveling
G1 Y-3.0 F1000.0 ; go outside print area
G92 E0.0
G1 X60.0 E9.0 F1000.0 ; intro line
M73 P0 R35
G1 X100.0 E12.5 F1000.0 ; intro line
G92 E0.0
M221 S95

; Don't change E values below. Excessive value can damage the printer.

M907 E538 ; set extruder motor current
G21 ; set units to millimeters
G90 ; use absolute coordinates
M83 ; use relative distances for extrusion
M900 K0.05 ; Filament gcode LA 1.5
M900 K30 ; Filament gcode LA 1.0
;LAYER_CHANGE
;Z:0.2
;HEIGHT:0.2
;BEFORE_LAYER_CHANGE
G92 E0.0
;0.2


G1 E-0.80000 F2100.000
G1 Z0.600 F10800.000
;AFTER_LAYER_CHANGE
;0.2
G1 X81.832 Y74.104
G1 Z0.200
G1 E0.80000 F2100.000
M204 S1000
;TYPE:Skirt
;WIDTH:0.42
G1 F1200.000
G1 X82.305 Y73.734 E0.01882
G1 X82.855 Y73.494 E0.01882
G1 X83.448 Y73.400 E0.01882
G1 X118.971 Y73.399 E1.11379
G1 X162.108 Y81.857 E1.37829
G1 X163.032 Y82.085 E0.02985
G1 X163.881 Y82.428 E0.02870
G1 X164.941 Y83.053 E0.03859
G1 X165.884 Y83.879 E0.03930
G1 X166.478 Y84.585 E0.02894
G1 X166.960 Y85.359 E0.02859
G1 X167.452 Y86.495 E0.03882
G1 X167.724 Y87.684 E0.03823
G1 X167.791 Y88.620 E0.02942
G1 X167.791 Y106.919 E0.57376
G1 X167.706 Y107.521 E0.01906
G1 X167.469 Y108.085 E0.01917
G1 X167.007 Y108.653 E0.02296
G1 X166.394 Y109.055 E0.02296
G1 X121.969 Y128.675 E1.52274
G1 X102.369 Y136.311 E0.65951
G1 X101.659 Y136.431 E0.02260
G1 X83.517 Y136.601 E0.56885
G1 X82.900 Y136.518 E0.01953
G1 X82.325 Y136.278 E0.01953
G1 X81.840 Y135.905 E0.01917
G1 X81.469 Y135.424 E0.01906
G1 X81.231 Y134.860 E0.01917
G1 X81.144 Y134.259 E0.01906
G1 X81.144 Y75.765 E1.83405
M73 Q0 S35
G1 X81.228 Y75.151 E0.01941
G1 X81.467 Y74.580 E0.01941
G1 X81.795 Y74.151 E0.01694
;WIPE_START
G1 F8640.000
G1 X82.305 Y73.734 E-0.15204
G1 X82.855 Y73.494 E-0.13859
G1 X83.448 Y73.400 E-0.13859
G1 X84.880 Y73.400 E-0.33077
;WIPE_END
G1 E-0.04000 F2100.000
G1 Z0.800 F10800.000
G1 X83.521 Y75.776
G1 Z0.200
G1 E0.80000 F2100.000
;TYPE:Support material
G1 F1200.000
G1 X83.521 Y134.224 E1.83260
;WIPE_START
M73 P1 R35
M73 Q1 S35
G1 F8640.000
G1 X83.521 Y130.933 E-0.76000
;WIPE_END
G1 E-0.04000 F2100.000
G1 Z0.800 F10800.000
G1 X98.604 Y131.224
G1 Z0.200
G1 E0.80000 F2100.000
G1 F1200.000
G1 X98.604 Y123.904 E0.22953
G1 X97.850 Y123.904 E0.02365
G1 X97.850 Y131.054 E0.22421
G1 X97.096 Y131.054 E0.02365
G1 X97.096 Y123.904 E0.22421
G1 X96.342 Y123.904 E0.02365
G1 X96.342 Y131.054 E0.22421
G1 X95.588 Y131.054 E0.02365
G1 X95.588 Y123.904 E0.22421
G1 X94.834 Y123.904 E0.02365
G1 X94.834 Y131.054 E0.22421
G1 X94.079 Y131.054 E0.02365
G1 X94.079 Y123.904 E0.22421
G1 X93.325 Y123.904 E0.02365
G1 X93.325 Y131.054 E0.22421
G1 X92.571 Y131.054 E0.02365
G1 X92.571 Y123.904 E0.22421
G1 X91.817 Y123.904 E0.02365
G1 X91.817 Y131.054 E0.22421
G1 X91.063 Y131.054 E0.02365
G1 X91.063 Y123.904 E0.22421
G1 X90.309 Y123.904 E0.02365
G1 X90.309 Y131.054 E0.22421
G1 X89.555 Y131.054 E0.02365
G1 X89.555 Y123.904 E0.22421
G1 X88.800 Y123.904 E0.02365
G1 X88.800 Y131.054 E0.22421
G1 X88.046 Y131.054 E0.02365
G1 X88.046 Y123.904 E0.22421
G1 X87.292 Y123.904 E0.02365
G1 X87.292 Y131.054 E0.22421
G1 X86.538 Y131.054 E0.02365
G1 X86.538 Y123.734 E0.22953
;WIPE_START
G1 F8640.000
G1 X86.538 Y127.025 E-0.76000
;WIPE_END
G1 E-0.04000 F2100.000
G1 Z0.800 F10800.000
G1 X86.538 Y122.233
G1 Z0.200
G1 E0.80000 F2100.000
G1 F1200.000
G1 X86.538 Y114.912 E0.22953
G1 X87.292 Y114.912 E0.02365
G1 X87.292 Y122.063 E0.22421
G1 X88.046 Y122.063 E0.02365
G1 X88.046 Y114.912 E0.22421
G1 X88.800 Y114.912 E0.02365
G1 X88.800 Y122.063 E0.22421
G1 X89.555 Y122.063 E0.02365
G1 X89.555 Y114.912 E0.22421
G1 X90.309 Y114.912 E0.02365
G1 X90.309 Y122.063 E0.22421
G1 X91.063 Y122.063 E0.02365
G1 X91.063 Y114.912 E0.22421
G1 X91.817 Y114.912 E0.02365
G1 X91.817 Y122.063 E0.22421
G1 X92.571 Y122.063 E0.02365
G1 X92.571 Y114.912 E0.22421
G1 X93.325 Y114.912 E0.02365
G1 X93.325 Y122.063 E0.22421
G1 X94.079 Y122.063 E0.02365
G1 X94.079 Y114.912 E0.22421
G1 X94.834 Y114.912 E0.02365
G1 X94.834 Y122.063 E0.22421
G1 X95.588 Y122.063 E0.02365
G1 X95.588 Y114.912 E0.22421
G1 X96.342 Y114.912 E0.02365
G1 X96.342 Y122.063 E0.22421
G1 X97.096 Y122.063 E0.02365
G1 X97.096 Y114.912 E0.22421
G1 X97.850 Y114.912 E0.02365
G1 X97.850 Y122.063 E0.22421
G1 X98.604 Y122.063 E0.02365
G1 X98.604 Y114.912 E0.22421
G1 X99.359 Y114.912 E0.02365
G1 X99.359 Y122.063 E0.22421
G1 X100.113 Y122.063 E0.02365
G1 X100.113 Y81.019 E1.28691
G1 X100.867 Y81.019 E0.02365
G1 X100.867 Y122.233 E1.29223
M73 P2 R35
M73 Q2 S35
G1 X115.950 Y114.742 F10800.000
G1 F1200.000
G1 X115.950 Y122.063 E0.22953
G1 X115.196 Y122.063 E0.02365
G1 X115.196 Y114.912 E0.22421
G1 X114.442 Y114.912 E0.02365
G1 X114.442 Y122.063 E0.22421
G1 X113.688 Y122.063 E0.02365
G1 X113.688 Y114.912 E0.22421
G1 X112.933 Y114.912 E0.02365
G1 X112.933 Y122.063 E0.22421
G1 X112.179 Y122.063 E0.02365
G1 X112.179 Y114.912 E0.22421
G1 X111.425 Y114.912 E0.02365
G1 X111.425 Y122.063 E0.22421
G1 X110.671 Y122.063 E0.02365
G1 X110.671 Y114.912 E0.22421
G1 X109.917 Y114.912 E0.02365
G1 X109.917 Y122.063 E0.22421
G1 X109.163 Y122.063 E0.02365
G1 X109.163 Y114.912 E0.22421
G1 X108.409 Y114.912 E0.02365
G1 X108.409 Y122.063 E0.22421
G1 X107.654 Y122.063 E0.02365
G1 X107.654 Y114.912 E0.22421
G1 X106.900 Y114.912 E0.02365
G1 X106.900 Y122.063 E0.22421
G1 X106.146 Y122.063 E0.02365
G1 X106.146 Y114.912 E0.22421
G1 X105.392 Y114.912 E0.02365
G1 X105.392 Y122.063 E0.22421
G1 X104.638 Y122.063 E0.02365
G1 X104.638 Y114.912 E0.22421
G1 X103.884 Y114.912 E0.02365
G1 X103.884 Y122.063 E0.22421
G1 X103.129 Y122.063 E0.02365
G1 X103.129 Y114.912 E0.22421
G1 X102.375 Y114.912 E0.02365
G1 X102.375 Y122.063 E0.22421
G1 X101.621 Y122.063 E0.02365
G1 X101.621 Y81.019 E1.28691
G1 X102.375 Y81.019 E0.02365
G1 X102.375 Y86.096 E0.15920
G1 X102.290 Y86.096 E0.00266
G1 X102.004 Y86.383 E0.01269
G1 X102.004 Y87.651 E0.03977
G1 X102.290 Y87.937 E0.01269
G1 X102.375 Y87.937 E0.00266
G1 X102.375 Y95.088 E0.22421
G1 X103.129 Y95.088 E0.02365
G1 X103.129 Y87.937 E0.22421
G1 X103.884 Y87.937 E0.02365
G1 X103.884 Y95.088 E0.22421
G1 X104.638 Y95.088 E0.02365
G1 X104.638 Y87.937 E0.22421
G1 X105.392 Y87.937 E0.02365
G1 X105.392 Y95.088 E0.22421
G1 X106.146 Y95.088 E0.02365
G1 X106.146 Y87.937 E0.22421
G1 X106.900 Y87.937 E0.02365
G1 X106.900 Y95.088 E0.22421
G1 X107.654 Y95.088 E0.02365
G1 X107.654 Y87.937 E0.22421
G1 X108.409 Y87.937 E0.02365
G1 X108.409 Y95.088 E0.22421
G1 X109.163 Y95.088 E0.02365
G1 X109.163 Y87.937 E0.22421
G1 X109.917 Y87.937 E0.02365
G1 X109.917 Y95.088 E0.22421
G1 X110.671 Y95.088 E0.02365
G1 X110.671 Y87.937 E0.22421
G1 X111.425 Y87.937 E0.02365
G1 X111.425 Y95.088 E0.22421
G1 X112.179 Y95.088 E0.02365
G1 X112.179 Y87.937 E0.22421
G1 X112.933 Y87.937 E0.02365
G1 X112.933 Y95.088 E0.22421
G1 X113.688 Y95.088 E0.02365
G1 X113.688 Y87.937 E0.22421
G1 X114.442 Y87.937 E0.02365
G1 X114.442 Y95.088 E0.22421
G1 X115.196 Y95.088 E0.02365
G1 X115.196 Y87.937 E0.22421
G1 X115.950 Y87.937 E0.02365
G1 X115.950 Y95.088 E0.22421
G1 X116.704 Y95.088 E0.02365
G1 X116.704 Y87.937 E0.22421
M73 P2 R34
G1 X117.458 Y87.937 E0.02365
G1 X117.458 Y110.461 E0.70621
G1 X116.704 Y110.461 F10800.000
G1 F1200.000
G1 X116.704 Y105.920 E0.14236
G1 X115.950 Y105.920 E0.02365
G1 X115.950 Y113.071 E0.22421
G1 X115.196 Y113.071 E0.02365
G1 X115.196 Y105.920 E0.22421
M73 P3 R34
M73 Q3 S35
G1 X114.442 Y105.920 E0.02365
G1 X114.442 Y113.071 E0.22421
G1 X113.688 Y113.071 E0.02365
G1 X113.688 Y105.920 E0.22421
G1 X112.933 Y105.920 E0.02365
G1 X112.933 Y113.071 E0.22421
G1 X112.179 Y113.071 E0.02365
G1 X112.179 Y105.920 E0.22421
G1 X111.425 Y105.920 E0.02365
G1 X111.425 Y113.071 E0.22421
G1 X110.671 Y113.071 E0.02365
G1 X110.671 Y105.920 E0.22421
G1 X109.917 Y105.920 E0.02365
G1 X109.917 Y113.071 E0.22421
G1 X109.163 Y113.071 E0.02365
G1 X109.163 Y105.920 E0.22421
G1 X108.409 Y105.920 E0.02365
G1 X108.409 Y113.071 E0.22421
G1 X107.654 Y113.071 E0.02365
G1 X107.654 Y105.920 E0.22421
G1 X106.900 Y105.920 E0.02365
G1 X106.900 Y113.071 E0.22421
G1 X106.146 Y113.071 E0.02365
G1 X106.146 Y105.920 E0.22421
G1 X105.392 Y105.920 E0.02365
G1 X105.392 Y113.071 E0.22421
G1 X104.638 Y113.071 E0.02365
G1 X104.638 Y105.920 E0.22421
G1 X103.884 Y105.920 E0.02365
G1 X103.884 Y113.071 E0.22421
G1 X103.129 Y113.071 E0.02365
G1 X103.129 Y105.920 E0.22421
G1 X102.375 Y105.920 E0.02365
G1 X102.375 Y113.241 E0.22953
G1 X99.359 Y113.241 F10800.000
G1 F1200.000
G1 X99.359 Y105.920 E0.22953
G1 X98.604 Y105.920 E0.02365
G1 X98.604 Y113.071 E0.22421
G1 X97.850 Y113.071 E0.02365
G1 X97.850 Y105.920 E0.22421
G1 X97.096 Y105.920 E0.02365
G1 X97.096 Y113.071 E0.22421
G1 X96.342 Y113.071 E0.02365
G1 X96.342 Y105.920 E0.22421
G1 X95.588 Y105.920 E0.02365
G1 X95.588 Y113.071 E0.22421
G1 X94.834 Y113.071 E0.02365
G1 X94.834 Y105.920 E0.22421
G1 X94.079 Y105.920 E0.02365
G1 X94.079 Y113.071 E0.22421
G1 X93.325 Y113.071 E0.02365
G1 X93.325 Y105.920 E0.22421
G1 X92.571 Y105.920 E0.02365
G1 X92.571 Y113.071 E0.22421
G1 X91.817 Y113.071 E0.02365
G1 X91.817 Y105.920 E0.22421
G1 X91.063 Y105.920 E0.02365
G1 X91.063 Y113.071 E0.22421
G1 X90.309 Y113.071 E0.02365
G1 X90.309 Y105.920 E0.22421
G1 X89.555 Y105.920 E0.02365
G1 X89.555 Y113.071 E0.22421
G1 X88.800 Y113.071 E0.02365
G1 X88.800 Y105.920 E0.22421
G1 X88.046 Y105.920 E0.02365
G1 X88.046 Y113.071 E0.22421
G1 X87.292 Y113.071 E0.02365
G1 X87.292 Y105.920 E0.22421
M73 Q3 S34
G1 X86.538 Y105.920 E0.02365
G1 X86.538 Y113.241 E0.22953
;WIPE_START
G1 F8640.000
G1 X86.538 Y109.950 E-0.76000
;WIPE_END
G1 E-0.04000 F2100.000
G1 Z0.800 F10800.000
G1 X99.359 Y95.258
G1 Z0.200
G1 E0.80000 F2100.000
G1 F1200.000
G1 X99.359 Y87.937 E0.22953
G1 X98.604 Y87.937 E0.02365
G1 X98.604 Y95.088 E0.22421
G1 X97.850 Y95.088 E0.02365
G1 X97.850 Y87.937 E0.22421
G1 X97.096 Y87.937 E0.02365
G1 X97.096 Y95.088 E0.22421
G1 X96.342 Y95.088 E0.02365
G1 X96.342 Y87.937 E0.22421
G1 X95.588 Y87.937 E0.02365
G1 X95.588 Y95.088 E0.22421
G1 X94.834 Y95.088 E0.02365
G1 X94.834 Y87.937 E0.22421
G1 X94.079 Y87.937 E0.02365
G1 X94.079 Y95.088 E0.22421
G1 X93.325 Y95.088 E0.02365
G1 X93.325 Y87.937 E0.22421
G1 X92.571 Y87.937 E0.02365
G1 X92.571 Y95.088 E0.22421
G1 X91.817 Y95.088 E0.02365
G1 X91.817 Y87.937 E0.22421
G1 X91.063 Y87.937 E0.02365
G1 X91.063 Y95.088 E0.22421
G1 X90.309 Y95.088 E0.02365
G1 X90.309 Y87.937 E0.22421
G1 X89.555 Y87.937 E0.02365
G1 X89.555 Y95.088 E0.22421
G1 X88.800 Y95.088 E0.02365
G1 X88.800 Y87.937 E0.22421
G1 X88.046 Y87.937 E0.02365
M73 P4 R34
G1 X88.046 Y95.088 E0.22421
M73 Q4 S34
G1 X87.292 Y95.088 E0.02365
G1 X87.292 Y87.937 E0.22421
G1 X86.538 Y87.937 E0.02365
G1 X86.538 Y95.258 E0.22953
;WIPE_START
G1 F8640.000
G1 X86.538 Y91.966 E-0.76000
;WIPE_END
G1 E-0.04000 F2100.000
G1 Z0.800 F10800.000
G1 X86.538 Y104.249
G1 Z0.200
G1 E0.80000 F2100.000
G1 F1200.000
G1 X86.538 Y96.929 E0.22953
G1 X87.292 Y96.929 E0.02365
G1 X87.292 Y104.080 E0.22421
G1 X88.046 Y104.080 E0.02365
G1 X88.046 Y96.929 E0.22421
G1 X88.800 Y96.929 E0.02365
G1 X88.800 Y104.080 E0.22421
G1 X89.555 Y104.080 E0.02365
G1 X89.555 Y96.929 E0.22421
G1 X90.309 Y96.929 E0.02365
G1 X90.309 Y104.080 E0.22421
G1 X91.063 Y104.080 E0.02365
G1 X91.063 Y96.929 E0.22421
G1 X91.817 Y96.929 E0.02365
G1 X91.817 Y104.080 E0.22421
G1 X92.571 Y104.080 E0.02365
G1 X92.571 Y96.929 E0.22421
G1 X93.325 Y96.929 E0.02365
G1 X93.325 Y104.080 E0.22421
G1 X94.079 Y104.080 E0.02365
G1 X94.079 Y96.929 E0.22421
G1 X94.834 Y96.929 E0.02365
G1 X94.834 Y104.080 E0.22421
G1 X95.588 Y104.080 E0.02365
G1 X95.588 Y96.929 E0.22421
G1 X96.342 Y96.929 E0.02365
G1 X96.342 Y104.080 E0.22421
G1 X97.096 Y104.080 E0.02365
G1 X97.096 Y96.929 E0.22421
G1 X97.850 Y96.929 E0.02365
G1 X97.850 Y104.080 E0.22421
G1 X98.604 Y104.080 E0.02365
G1 X98.604 Y96.929 E0.22421
G1 X99.359 Y96.929 E0.02365
G1 X99.359 Y104.249 E0.22953
G1 X102.375 Y104.249 F10800.000
G1 F1200.000
G1 X102.375 Y96.929 E0.22953
G1 X103.129 Y96.929 E0.02365
G1 X103.129 Y104.080 E0.22421
G1 X103.884 Y104.080 E0.02365
G1 X103.884 Y96.929 E0.22421
G1 X104.638 Y96.929 E0.02365
G1 X104.638 Y104.080 E0.22421
G1 X105.392 Y104.080 E0.02365
G1 X105.392 Y96.929 E0.22421
G1 X106.146 Y96.929 E0.02365
G1 X106.146 Y104.080 E0.22421
G1 X106.900 Y104.080 E0.02365
G1 X106.900 Y96.929 E0.22421
G1 X107.654 Y96.929 E0.02365
G1 X107.654 Y104.080 E0.22421
G1 X108.409 Y104.080 E0.02365
G1 X108.409 Y96.929 E0.22421
G1 X109.163 Y96.929 E0.02365
G1 X109.163 Y104.080 E0.22421
G1 X109.917 Y104.080 E0.02365
G1 X109.917 Y96.929 E0.22421
G1 X110.671 Y96.929 E0.02365
G1 X110.671 Y104.080 E0.22421
G1 X111.425 Y104.080 E0.02365
G1 X111.425 Y96.929 E0.22421
G1 X112.179 Y96.929 E0.02365
G1 X112.179 Y104.080 E0.22421
G1 X112.933 Y104.080 E0.02365
G1 X112.933 Y96.929 E0.22421
G1 X113.688 Y96.929 E0.02365
G1 X113.688 Y104.080 E0.22421
G1 X114.442 Y104.080 E0.02365
G1 X114.442 Y96.929 E0.22421
G1 X115.196 Y96.929 E0.02365
G1 X115.196 Y104.080 E0.22421
G1 X115.950 Y104.080 E0.02365
G1 X115.950 Y96.929 E0.22421
G1 X116.704 Y96.929 E0.02365
G1 X116.704 Y104.249 E0.22953
;WIPE_START
G1 F8640.000
G1 X116.704 Y100.958 E-0.76000
;WIPE_END
G1 E-0.04000 F2100.000
G1 Z0.800 F10800.000
G1 X121.229 Y105.408
G1 Z0.200
G1 E0.80000 F2100.000
G1 F1200.000
G1 X121.229 Y87.752 E0.55361
G1 X121.330 Y87.651 E0.00446
G1 X121.330 Y86.778 E0.02736
G1 X121.983 Y86.778 E0.02049
G1 X121.983 Y105.238 E0.57880
G1 X122.738 Y105.238 E0.02365
G1 X122.738 Y86.778 E0.57880
G1 X123.492 Y86.778 E0.02365
G1 X123.492 Y105.238 E0.57880
M73 P5 R34
M73 Q5 S34
G1 X124.246 Y105.238 E0.02365
G1 X124.246 Y86.778 E0.57880
G1 X125.000 Y86.778 E0.02365
G1 X125.000 Y105.408 E0.58412
;WIPE_START
G1 F8640.000
G1 X125.000 Y102.117 E-0.76000
;WIPE_END
G1 E-0.04000 F2100.000
G1 Z0.800 F10800.000
G1 X125.000 Y110.454
G1 Z0.200
G1 E0.80000 F2100.000
G1 F1200.000
G1 X125.000 Y107.378 E0.09648
G1 X124.246 Y107.378 E0.02365
G1 X124.246 Y110.285 E0.09116
G1 X123.492 Y110.285 E0.02365
G1 X123.492 Y107.378 E0.09116
G1 X122.738 Y107.378 E0.02365
G1 X122.738 Y112.600 E0.16376
G1 X121.983 Y112.600 E0.02365
G1 X121.983 Y107.378 E0.16376
G1 X121.229 Y107.378 E0.02365
G1 X121.229 Y112.600 E0.16376
G1 X121.022 Y112.600 E0.00649
G1 X121.022 Y126.494 E0.43563
G1 X120.475 Y126.494 E0.01716
G1 X120.475 Y107.274 E0.60263
G1 X120.292 Y107.091 E0.00810
G1 X120.292 Y105.525 E0.04912
G1 X120.475 Y105.342 E0.00810
G1 X120.475 Y87.937 E0.54571
G1 X119.721 Y87.937 E0.02365
G1 X119.721 Y126.494 E1.20893
G1 X118.967 Y126.494 E0.02365
G1 X118.967 Y87.937 E1.20893
G1 X118.213 Y87.937 E0.02365
G1 X118.213 Y126.494 E1.20893
G1 X117.458 Y126.494 E0.02365
G1 X117.458 Y123.802 E0.08441
G1 X116.704 Y123.802 E0.02365
G1 X116.704 Y126.494 E0.08441
G1 X115.950 Y126.494 E0.02365
G1 X115.950 Y123.802 E0.08441
G1 X115.196 Y123.802 E0.02365
G1 X115.196 Y126.494 E0.08441
G1 X114.442 Y126.494 E0.02365
G1 X114.442 Y123.802 E0.08441
G1 X113.688 Y123.802 E0.02365
G1 X113.688 Y126.494 E0.08441
G1 X112.933 Y126.494 E0.02365
G1 X112.933 Y123.802 E0.08441
G1 X112.179 Y123.802 E0.02365
G1 X112.179 Y126.494 E0.08441
