; generated by PrusaSlicer 2.3.0+win64 on 2021-05-02 at 21:06:56 UTC

; 

; external perimeters extrusion width = 0.60mm
; perimeters extrusion width = 0.50mm
; infill extrusion width = 0.50mm
; solid infill extrusion width = 0.50mm
; top infill extrusion width = 0.45mm
; support material extrusion width = 0.38mm
; first layer extrusion width = 0.42mm

M73 P0 R96
M73 Q0 S97
M201 X1000 Y1000 Z200 E5000 ; sets maximum accelerations, mm/sec^2
M203 X200 Y200 Z12 E120 ; sets maximum feedrates, mm/sec
M204 P1250 R1250 T1250 ; sets acceleration (P, T) and retract acceleration (R), mm/sec^2
M205 X8.00 Y8.00 Z0.40 E4.50 ; sets the jerk limits, mm/sec
M205 S0 T0 ; sets the minimum extruding and travel feed rate, mm/sec
M107
;TYPE:Custom
M862.3 P "MK3S" ; printer model check
M862.1 P0.4 ; nozzle diameter check
M115 U3.9.1 ; tell printer latest fw version
G90 ; use absolute coordinates
M83 ; extruder relative mode
M104 S240 ; set extruder temp
M140 S85 ; set bed temp
M190 S85 ; wait for bed temp
M109 S240 ; wait for extruder temp
G28 W ; home all without mesh bed level
G80 ; mesh bed leveling
G1 Y-3.0 F1000.0 ; go outside print area
G92 E0.0
G1 X60.0 E9.0 F1000.0 ; intro line
G1 X100.0 E12.5 F1000.0 ; intro line
G92 E0.0
M221 S95

; Don't change E values below. Excessive value can damage the printer.

M907 E538 ; set extruder motor current
G21 ; set units to millimeters
G90 ; use absolute coordinates
M83 ; use relative distances for extrusion
M900 K0.08 ; Filament gcode LA 1.5
M900 K45 ; Filament gcode LA 1.0
;LAYER_CHANGE
;Z:0.2
;HEIGHT:0.2
;BEFORE_LAYER_CHANGE
G92 E0.0
;0.2


M73 Q0 S96
G1 E-1.40000 F2100.000
G1 Z0.200 F10800.000
;AFTER_LAYER_CHANGE
;0.2
G1 Z0.400
G1 X75.012 Y105.480
G1 Z0.200
G1 E1.40000 F2100.000
M204 S1000
;TYPE:Skirt
;WIDTH:0.42
G1 F1200.000
G1 X75.465 Y105.208 E0.01656
G1 X118.101 Y85.606 E1.47134
G1 X118.585 Y85.446 E0.01597
G1 X119.088 Y85.393 E0.01585
G1 X119.756 Y85.491 E0.02119
G1 X120.367 Y85.770 E0.02107
G1 X135.719 Y96.080 E0.57981
G1 X136.366 Y96.754 E0.02931
G1 X136.704 Y97.626 E0.02931
G1 X138.407 Y114.096 E0.51917
G1 X138.405 Y125.144 E0.34641
G1 X134.230 Y159.560 E1.08699
G1 X134.000 Y160.251 E0.02284
G1 X133.572 Y160.841 E0.02284
G1 X132.985 Y161.272 E0.02284
G1 X132.291 Y161.507 E0.02296
G1 X113.650 Y161.651 E0.58449
G1 X112.865 Y161.518 E0.02496
G1 X74.262 Y142.550 E1.34860
G1 X73.792 Y142.233 E0.01778
G1 X73.418 Y141.834 E0.01716
G1 X73.144 Y141.356 E0.01728
G1 X72.987 Y140.827 E0.01728
G1 X74.048 Y107.461 E1.04669
G1 X74.221 Y106.563 E0.02867
G1 X74.629 Y105.849 E0.02579
G1 X74.969 Y105.522 E0.01480
;WIPE_START
G1 F8640.000
G1 X75.465 Y105.208 E-0.13549
G1 X80.165 Y103.047 E-1.19451
;WIPE_END
G1 E-0.07000 F2100.000
G1 Z0.400 F10800.000
G1 X136.034 Y124.981
G1 Z0.200
G1 E1.40000 F2100.000
;TYPE:Support material
G1 F1200.000
G1 X136.034 Y114.241 E0.33672
G1 X135.280 Y114.241 E0.02365
G1 X135.280 Y124.811 E0.33140
G1 X134.526 Y124.811 E0.02365
G1 X134.526 Y114.241 E0.33140
G1 X134.362 Y114.241 E0.00514
G1 X134.362 Y98.032 E0.50823
G1 X133.771 Y98.032 E0.01851
G1 X133.771 Y124.811 E0.83964
G1 X133.017 Y124.811 E0.02365
G1 X133.017 Y98.032 E0.83964
G1 X132.263 Y98.032 E0.02365
G1 X132.263 Y120.307 E0.69841
G1 X131.906 Y119.958 E0.01565
G1 X131.509 Y119.963 E0.01245
G1 X131.509 Y98.032 E0.68763
G1 X130.755 Y98.032 E0.02365
G1 X130.755 Y119.972 E0.68791
G1 X130.001 Y119.981 E0.02365
G1 X130.001 Y98.032 E0.68819
G1 X129.247 Y98.032 E0.02365
G1 X129.247 Y119.990 E0.68848
G1 X128.492 Y119.999 E0.02365
G1 X128.492 Y98.032 E0.68876
G1 X127.738 Y98.032 E0.02365
G1 X127.738 Y120.008 E0.68905
G1 X126.984 Y120.017 E0.02365
G1 X126.984 Y98.032 E0.68933
M73 P0 R95
G1 X126.230 Y98.032 E0.02365
G1 X126.230 Y120.026 E0.68962
G1 X125.476 Y120.035 E0.02365
G1 X125.476 Y98.032 E0.68990
G1 X125.099 Y98.032 E0.01180
G1 X125.099 Y93.401 E0.14521
G1 X124.722 Y93.401 E0.01184
G1 X124.722 Y120.044 E0.83539
G1 X123.967 Y120.054 E0.02365
G1 X123.967 Y93.401 E0.83568
G1 X123.213 Y93.401 E0.02365
G1 X123.213 Y120.063 E0.83596
G1 X122.459 Y120.072 E0.02365
G1 X122.459 Y91.085 E0.90885
G1 X121.705 Y91.085 E0.02365
G1 X121.705 Y120.081 E0.90913
G1 X120.951 Y120.090 E0.02365
G1 X120.951 Y90.916 E0.91474
;LAYER_CHANGE
;Z:0.448
;HEIGHT:0.248
;BEFORE_LAYER_CHANGE
G92 E0.0
;0.448


;WIPE_START
G1 F8640.000
G1 X120.951 Y96.676 E-1.33000
;WIPE_END
G1 E-0.07000 F2100.000
G1 Z0.400 F10800.000
G1 Z0.448
;AFTER_LAYER_CHANGE
;0.448
M104 S250 ; set temperature
M140 S90 ; set bed temperature
G1 Z0.648
G1 X131.452 Y121.842
G1 Z0.448
G1 E1.40000 F2100.000
;WIDTH:0.38
G1 F900
G1 X133.708 Y121.842 E0.07601
G1 X133.708 Y119.526 E0.07802
G1 X119.624 Y119.526 E0.47453
G1 X119.814 Y119.526 E0.00641
G1 X119.814 Y117.211 E0.07802
G1 X133.708 Y117.211 E0.46812
G1 X131.393 Y117.211 E0.07802
G1 X131.393 Y114.895 E0.07802
G1 X119.568 Y114.895 E0.39839
G1 X119.541 Y112.579 E0.07803
G1 X131.393 Y112.579 E0.39933
G1 X131.393 Y110.264 E0.07802
G1 X119.513 Y110.264 E0.40027
G1 X119.814 Y110.264 E0.01017
G1 X119.814 Y107.948 E0.07802
G1 X131.393 Y107.948 E0.39010
G1 X131.393 Y105.633 E0.07802
G1 X119.457 Y105.633 E0.40215
G1 X119.429 Y103.317 E0.07803
G1 X131.393 Y103.317 E0.40309
G1 X131.393 Y101.001 E0.07802
G1 X119.401 Y101.001 E0.40403
G1 X119.373 Y98.686 E0.07803
G1 X122.130 Y98.686 E0.09289
G1 X122.130 Y96.370 E0.07802
G1 X119.345 Y96.370 E0.09383
G1 X119.317 Y94.054 E0.07803
G1 X119.956 Y94.054 E0.02153
;LAYER_CHANGE
;Z:0.696
;HEIGHT:0.248
;BEFORE_LAYER_CHANGE
G92 E0.0
;0.696


;WIPE_START
G1 F8640.000
G1 X119.317 Y94.054 E-0.14757
G1 X119.345 Y96.370 E-0.53472
G1 X122.130 Y96.370 E-0.64301
G1 X122.130 Y96.390 E-0.00470
;WIPE_END
G1 E-0.07000 F2100.000
G1 Z0.648 F10800.000
G1 Z0.696
;AFTER_LAYER_CHANGE
;0.696
G1 Z0.896
G1 X131.452 Y121.842
G1 Z0.696
G1 E1.40000 F2100.000
G1 F900
G1 X133.708 Y121.842 E0.07601
M73 Q1 S96
G1 X133.708 Y119.526 E0.07802
G1 X119.624 Y119.526 E0.47453
M73 P1 R95
G1 X119.814 Y119.526 E0.00641
G1 X119.814 Y117.211 E0.07802
G1 X133.708 Y117.211 E0.46812
G1 X131.393 Y117.211 E0.07802
G1 X131.393 Y114.895 E0.07802
G1 X119.568 Y114.895 E0.39839
G1 X119.541 Y112.579 E0.07803
G1 X131.393 Y112.579 E0.39933
G1 X131.393 Y110.264 E0.07802
G1 X119.513 Y110.264 E0.40027
G1 X119.814 Y110.264 E0.01017
G1 X119.814 Y107.948 E0.07802
G1 X131.393 Y107.948 E0.39010
G1 X131.393 Y105.633 E0.07802
G1 X119.457 Y105.633 E0.40215
G1 X119.429 Y103.317 E0.07803
G1 X131.393 Y103.317 E0.40309
M73 Q1 S95
G1 X131.393 Y101.001 E0.07802
G1 X119.401 Y101.001 E0.40403
G1 X119.373 Y98.686 E0.07803
G1 X122.130 Y98.686 E0.09289
G1 X122.130 Y96.370 E0.07802
G1 X119.345 Y96.370 E0.09383
G1 X119.317 Y94.054 E0.07803
G1 X119.956 Y94.054 E0.02153
M106 S127.5
;LAYER_CHANGE
;Z:0.944
;HEIGHT:0.248
;BEFORE_LAYER_CHANGE
G92 E0.0
;0.944


;WIPE_START
G1 F8640.000
G1 X119.317 Y94.054 E-0.14757
G1 X119.345 Y96.370 E-0.53472
G1 X122.130 Y96.370 E-0.64301
G1 X122.130 Y96.390 E-0.00470
;WIPE_END
G1 E-0.07000 F2100.000
G1 Z0.896 F10800.000
G1 Z0.944
;AFTER_LAYER_CHANGE
;0.944
G1 Z1.144
G1 X133.850 Y121.842
G1 Z0.944
G1 E1.40000 F2100.000
G1 F900
G1 X132.594 Y121.842 E0.04232
G1 X132.580 Y120.659 E0.03986
G1 X131.894 Y119.989 E0.03232
G1 X120.631 Y120.124 E0.37949
G1 X120.624 Y119.526 E0.02015
G1 X133.708 Y119.526 E0.44084
G1 X133.708 Y117.211 E0.07802
G1 X120.596 Y117.211 E0.44178
G1 X120.568 Y114.895 E0.07803
G1 X131.393 Y114.895 E0.36470
G1 X131.393 Y112.579 E0.07802
G1 X120.540 Y112.579 E0.36564
G1 X120.513 Y110.264 E0.07803
G1 X131.393 Y110.264 E0.36658
G1 X131.393 Y107.948 E0.07802
G1 X120.485 Y107.948 E0.36752
G1 X120.457 Y105.633 E0.07803
G1 X131.393 Y105.633 E0.36846
G1 X131.393 Y103.317 E0.07802
G1 X120.429 Y103.317 E0.36940
G1 X120.401 Y101.001 E0.07803
G1 X131.393 Y101.001 E0.37033
G1 X122.130 Y101.001 E0.31208
G1 X122.130 Y98.686 E0.07802
G1 X120.373 Y98.686 E0.05919
G1 X120.345 Y96.370 E0.07803
G1 X122.272 Y96.370 E0.06492
M107
;LAYER_CHANGE
;Z:1.1
;HEIGHT:1.1
;BEFORE_LAYER_CHANGE
G92 E0.0
;1.1


;WIPE_START
G1 F8640.000
G1 X120.345 Y96.370 E-0.44491
G1 X120.373 Y98.686 E-0.53472
G1 X121.891 Y98.686 E-0.35037
;WIPE_END
G1 E-0.07000 F2100.000
G1 Z1.144 F10800.000
;AFTER_LAYER_CHANGE
;1.1
G1 X118.929 Y121.868
G1 Z1.100
G1 E1.40000 F2100.000
;TYPE:Perimeter
;WIDTH:0.42
;HEIGHT:0.3
G1 F1200.000
G1 X130.869 Y121.725 E0.52966
G1 X131.313 Y158.582 E1.63489
G1 X114.178 Y158.684 E0.76002
G1 X114.032 Y139.623 E0.84546
G1 X75.914 Y139.851 E1.69075
G1 X76.976 Y107.940 E1.41622
G1 X118.531 Y88.835 E2.02862
G1 X118.928 Y121.808 E1.46264
G1 X119.280 Y121.509 F10800.000
;TYPE:External perimeter
G1 F1200.000
G1 X131.221 Y121.365 E0.52966
G1 X131.673 Y158.935 E1.66653
G1 X113.826 Y159.042 E0.79164
G1 X113.679 Y139.981 E0.84546
M73 P1 R94
G1 X75.546 Y140.209 E1.69141
G1 X76.628 Y107.708 E1.44236
G1 X118.880 Y88.283 E2.06265
G1 X119.279 Y121.449 E1.47115
G1 X119.446 Y121.873 F10800.000
;WIPE_START
G1 F8640.000
G1 X125.039 Y121.408 E-1.33000
;WIPE_END
G1 E-0.07000 F2100.000
G1 Z1.300 F10800.000
G1 X117.939 Y89.224
G1 Z1.100
G1 E1.40000 F2100.000
;TYPE:Solid infill
;WIDTH:0.420711
G1 F1200.000
G1 X118.273 Y89.558 E0.02097
G1 X118.279 Y90.068 E0.02267
G1 X117.715 Y89.504 E0.03547
G1 X117.369 Y89.662 E0.01689
G1 X118.285 Y90.578 E0.05756
G1 X118.291 Y91.088 E0.02267
G1 X117.024 Y89.821 E0.07964
G1 X116.679 Y89.980 E0.01689
G1 X118.297 Y91.598 E0.10172
G1 X118.304 Y92.108 E0.02267
G1 X116.334 Y90.139 E0.12381
G1 X115.989 Y90.297 E0.01689
G1 X118.310 Y92.619 E0.14589
G1 X118.316 Y93.129 E0.02267
G1 X115.643 Y90.456 E0.16798
G1 X115.298 Y90.615 E0.01689
G1 X118.322 Y93.639 E0.19006
G1 X118.328 Y94.149 E0.02267
G1 X114.953 Y90.773 E0.21214
G1 X114.608 Y90.932 E0.01689
G1 X118.334 Y94.659 E0.23423
G1 X118.340 Y95.169 E0.02267
G1 X114.262 Y91.091 E0.25631
G1 X113.917 Y91.250 E0.01689
G1 X118.347 Y95.679 E0.27839
G1 X118.353 Y96.189 E0.02267
G1 X113.572 Y91.408 E0.30048
G1 X113.227 Y91.567 E0.01689
G1 X118.359 Y96.699 E0.32256
G1 X118.365 Y97.209 E0.02267
G1 X112.882 Y91.726 E0.34465
G1 X112.536 Y91.884 E0.01689
G1 X118.371 Y97.719 E0.36673
G1 X118.377 Y98.229 E0.02267
G1 X112.191 Y92.043 E0.38881
G1 X111.846 Y92.202 E0.01689
G1 X118.383 Y98.739 E0.41090
G1 X118.390 Y99.249 E0.02267
G1 X111.501 Y92.361 E0.43298
G1 X111.156 Y92.519 E0.01689
G1 X118.396 Y99.760 E0.45506
G1 X118.402 Y100.270 E0.02267
G1 X110.810 Y92.678 E0.47715
G1 X110.465 Y92.837 E0.01689
G1 X118.408 Y100.780 E0.49923
G1 X118.414 Y101.290 E0.02267
G1 X110.120 Y92.995 E0.52132
G1 X109.775 Y93.154 E0.01689
G1 X118.420 Y101.800 E0.54340
G1 X118.426 Y102.310 E0.02267
G1 X109.429 Y93.313 E0.56548
G1 X109.084 Y93.472 E0.01689
G1 X118.433 Y102.820 E0.58757
G1 X118.439 Y103.330 E0.02267
G1 X108.739 Y93.630 E0.60965
G1 X108.394 Y93.789 E0.01689
G1 X118.445 Y103.840 E0.63173
G1 X118.451 Y104.350 E0.02267
G1 X108.049 Y93.948 E0.65382
M73 P2 R94
M73 Q2 S95
G1 X107.703 Y94.106 E0.01689
G1 X118.457 Y104.860 E0.67590
G1 X118.463 Y105.370 E0.02267
G1 X107.358 Y94.265 E0.69799
G1 X107.013 Y94.424 E0.01689
G1 X118.469 Y105.880 E0.72007
G1 X118.476 Y106.390 E0.02267
G1 X106.668 Y94.583 E0.74215
G1 X106.323 Y94.741 E0.01689
G1 X118.482 Y106.900 E0.76424
G1 X118.488 Y107.411 E0.02267
G1 X105.977 Y94.900 E0.78632
G1 X105.632 Y95.059 E0.01689
G1 X118.494 Y107.921 E0.80840
G1 X118.500 Y108.431 E0.02267
G1 X105.287 Y95.217 E0.83049
G1 X104.942 Y95.376 E0.01689
G1 X118.506 Y108.941 E0.85257
G1 X118.512 Y109.451 E0.02267
G1 X104.596 Y95.535 E0.87466
G1 X104.251 Y95.694 E0.01689
G1 X118.519 Y109.961 E0.89674
M73 Q2 S94
G1 X118.525 Y110.471 E0.02267
G1 X103.906 Y95.852 E0.91882
G1 X103.561 Y96.011 E0.01689
G1 X118.531 Y110.981 E0.94091
G1 X118.537 Y111.491 E0.02267
G1 X103.216 Y96.170 E0.96299
G1 X102.870 Y96.328 E0.01689
G1 X118.543 Y112.001 E0.98507
G1 X118.549 Y112.511 E0.02267
G1 X102.525 Y96.487 E1.00716
G1 X102.180 Y96.646 E0.01689
G1 X118.555 Y113.021 E1.02924
G1 X118.562 Y113.531 E0.02267
G1 X101.835 Y96.805 E1.05133
G1 X101.490 Y96.963 E0.01689
G1 X118.568 Y114.041 E1.07341
G1 X118.574 Y114.552 E0.02267
G1 X101.144 Y97.122 E1.09549
G1 X100.799 Y97.281 E0.01689
G1 X118.580 Y115.062 E1.11758
G1 X118.586 Y115.572 E0.02267
G1 X100.454 Y97.439 E1.13966
G1 X100.109 Y97.598 E0.01689
G1 X118.592 Y116.082 E1.16175
G1 X118.598 Y116.592 E0.02267
G1 X99.763 Y97.757 E1.18383
G1 X99.418 Y97.916 E0.01689
G1 X118.605 Y117.102 E1.20591
G1 X118.611 Y117.612 E0.02267
G1 X99.073 Y98.074 E1.22800
G1 X98.728 Y98.233 E0.01689
G1 X118.617 Y118.122 E1.25008
G1 X118.623 Y118.632 E0.02267
G1 X98.383 Y98.392 E1.27216
G1 X98.037 Y98.550 E0.01689
G1 X118.629 Y119.142 E1.29425
G1 X118.635 Y119.652 E0.02267
G1 X97.692 Y98.709 E1.31633
G1 X97.347 Y98.868 E0.01689
G1 X118.641 Y120.162 E1.33842
G1 X118.648 Y120.672 E0.02267
G1 X97.002 Y99.026 E1.36050
G1 X96.657 Y99.185 E0.01689
G1 X118.816 Y121.344 E1.39276
;WIPE_START
M73 P2 R93
G1 F8640.000
G1 X114.743 Y117.272 E-1.33000
;WIPE_END
G1 E-0.07000 F2100.000
G1 Z1.300 F10800.000
G1 X130.395 Y121.837
G1 Z1.100
G1 E1.40000 F2100.000
G1 F1200.000
G1 X130.606 Y122.049 E0.01329
G1 X130.613 Y122.559 E0.02267
G1 X130.055 Y122.001 E0.03503
G1 X129.557 Y122.007 E0.02213
G1 X130.619 Y123.069 E0.06672
G1 X130.625 Y123.579 E0.02267
G1 X129.059 Y122.013 E0.09840
G1 X128.561 Y122.019 E0.02213
G1 X130.631 Y124.089 E0.13008
G1 X130.637 Y124.599 E0.02267
G1 X128.063 Y122.025 E0.16176
G1 X127.565 Y122.031 E0.02213
G1 X130.643 Y125.109 E0.19345
G1 X130.649 Y125.619 E0.02267
G1 X127.068 Y122.037 E0.22513
G1 X126.570 Y122.043 E0.02213
G1 X130.656 Y126.129 E0.25681
G1 X130.662 Y126.639 E0.02267
G1 X126.072 Y122.049 E0.28850
G1 X125.574 Y122.055 E0.02213
G1 X130.668 Y127.149 E0.32018
G1 X130.674 Y127.659 E0.02267
G1 X125.076 Y122.061 E0.35186
G1 X124.578 Y122.067 E0.02213
G1 X130.680 Y128.170 E0.38355
G1 X130.686 Y128.680 E0.02267
G1 X124.080 Y122.073 E0.41523
G1 X123.582 Y122.079 E0.02213
G1 X130.692 Y129.190 E0.44691
G1 X130.699 Y129.700 E0.02267
G1 X123.084 Y122.085 E0.47860
G1 X122.586 Y122.091 E0.02213
G1 X130.705 Y130.210 E0.51028
G1 X130.711 Y130.720 E0.02267
G1 X122.088 Y122.097 E0.54196
G1 X121.590 Y122.103 E0.02213
G1 X130.717 Y131.230 E0.57365
G1 X130.723 Y131.740 E0.02267
G1 X121.092 Y122.109 E0.60533
G1 X120.594 Y122.115 E0.02213
G1 X130.729 Y132.250 E0.63701
G1 X130.735 Y132.760 E0.02267
G1 X120.096 Y122.121 E0.66870
G1 X119.598 Y122.127 E0.02213
G1 X130.742 Y133.270 E0.70038
G1 X130.748 Y133.780 E0.02267
G1 X119.100 Y122.133 E0.73206
G1 X118.665 Y122.138 E0.01934
G1 X118.660 Y121.693 E0.01981
G1 X96.311 Y99.344 E1.40467
G1 X95.966 Y99.503 E0.01689
G1 X130.754 Y134.290 E2.18650
G1 X130.760 Y134.800 E0.02267
G1 X95.621 Y99.661 E2.20858
M73 P3 R93
G1 X95.276 Y99.820 E0.01689
G1 X130.766 Y135.311 E2.23067
M73 Q3 S94
G1 X130.772 Y135.821 E0.02267
G1 X94.930 Y99.979 E2.25275
G1 X94.585 Y100.137 E0.01689
G1 X130.778 Y136.331 E2.27484
G1 X130.785 Y136.841 E0.02267
G1 X94.240 Y100.296 E2.29692
G1 X93.895 Y100.455 E0.01689
G1 X130.791 Y137.351 E2.31900
M73 Q3 S93
G1 X130.797 Y137.861 E0.02267
G1 X93.550 Y100.614 E2.34109
G1 X93.204 Y100.772 E0.01689
G1 X130.803 Y138.371 E2.36317
G1 X130.809 Y138.881 E0.02267
G1 X92.859 Y100.931 E2.38525
G1 X92.514 Y101.090 E0.01689
G1 X130.815 Y139.391 E2.40734
G1 X130.821 Y139.901 E0.02267
G1 X92.169 Y101.248 E2.42942
G1 X91.824 Y101.407 E0.01689
G1 X130.828 Y140.411 E2.45151
G1 X130.834 Y140.921 E0.02267
G1 X91.478 Y101.566 E2.47359
G1 X91.133 Y101.725 E0.01689
G1 X130.840 Y141.431 E2.49567
G1 X130.846 Y141.941 E0.02267
G1 X90.788 Y101.883 E2.51776
G1 X90.443 Y102.042 E0.01689
G1 X130.852 Y142.452 E2.53984
G1 X130.858 Y142.962 E0.02267
G1 X90.097 Y102.201 E2.56192
M73 P3 R92
G1 X89.752 Y102.359 E0.01689
G1 X130.864 Y143.472 E2.58401
G1 X130.871 Y143.982 E0.02267
G1 X89.407 Y102.518 E2.60609
G1 X89.062 Y102.677 E0.01689
G1 X130.877 Y144.492 E2.62818
G1 X130.883 Y145.002 E0.02267
G1 X88.717 Y102.836 E2.65026
G1 X88.371 Y102.994 E0.01689
G1 X130.889 Y145.512 E2.67234
M73 P4 R92
M73 Q4 S93
G1 X130.895 Y146.022 E0.02267
G1 X88.026 Y103.153 E2.69443
G1 X87.681 Y103.312 E0.01689
G1 X130.901 Y146.532 E2.71651
G1 X130.907 Y147.042 E0.02267
G1 X87.336 Y103.470 E2.73860
G1 X86.990 Y103.629 E0.01689
