; generated by PrusaSlicer 2.3.0+win64 on 2021-05-02 at 21:19:55 UTC

; 

; external perimeters extrusion width = 0.60mm
; perimeters extrusion width = 0.50mm
; infill extrusion width = 0.50mm
; solid infill extrusion width = 0.50mm
; top infill extrusion width = 0.45mm
; support material extrusion width = 0.38mm
; first layer extrusion width = 0.42mm

M73 P0 R94
M73 Q0 S94
M201 X1000 Y1000 Z200 E5000 ; sets maximum accelerations, mm/sec^2
M203 X200 Y200 Z12 E120 ; sets maximum feedrates, mm/sec
M204 P1250 R1250 T1250 ; sets acceleration (P, T) and retract acceleration (R), mm/sec^2
M205 X8.00 Y8.00 Z0.40 E4.50 ; sets the jerk limits, mm/sec
M205 S0 T0 ; sets the minimum extruding and travel feed rate, mm/sec
M107
;TYPE:Custom
M862.3 P "MK3S" ; printer model check
M862.1 P0.4 ; nozzle diameter check
M115 U3.9.1 ; tell printer latest fw version
G90 ; use absolute coordinates
M83 ; extruder relative mode
M104 S240 ; set extruder temp
M140 S85 ; set bed temp
M190 S85 ; wait for bed temp
M109 S240 ; wait for extruder temp
G28 W ; home all without mesh bed level
G80 ; mesh bed leveling
G1 Y-3.0 F1000.0 ; go outside print area
G92 E0.0
G1 X60.0 E9.0 F1000.0 ; intro line
M73 P0 R93
G1 X100.0 E12.5 F1000.0 ; intro line
G92 E0.0
M221 S95

; Don't change E values below. Excessive value can damage the printer.

M907 E538 ; set extruder motor current
G21 ; set units to millimeters
G90 ; use absolute coordinates
M83 ; use relative distances for extrusion
M900 K0.08 ; Filament gcode LA 1.5
M900 K45 ; Filament gcode LA 1.0
;LAYER_CHANGE
;Z:0.2
;HEIGHT:0.2
;BEFORE_LAYER_CHANGE
G92 E0.0
;0.2


G1 E-1.40000 F2100.000
G1 Z0.200 F10800.000
;AFTER_LAYER_CHANGE
;0.2
G1 Z0.400
G1 X93.672 Y88.874
G1 Z0.200
G1 E1.40000 F2100.000
M204 S1000
;TYPE:Skirt
;WIDTH:0.42
G1 F1200.000
G1 X94.083 Y88.166 E0.02567
G1 X94.468 Y87.800 E0.01668
G1 X94.922 Y87.530 E0.01655
G1 X137.676 Y68.167 E1.47159
G1 X138.153 Y68.012 E0.01574
G1 X138.648 Y67.960 E0.01562
G1 X139.494 Y68.116 E0.02696
G1 X143.178 Y69.545 E0.12388
G1 X143.790 Y69.919 E0.02249
G1 X153.056 Y79.388 E0.41542
G1 X153.443 Y79.952 E0.02142
G1 X153.653 Y80.606 E0.02154
G1 X153.686 Y102.837 E0.69704
G1 X153.419 Y141.855 E1.22341
G1 X153.252 Y142.649 E0.02543
G1 X152.831 Y143.337 E0.02532
G1 X152.203 Y143.845 E0.02532
G1 X151.438 Y144.114 E0.02543
G1 X132.788 Y144.153 E0.58475
G1 X132.004 Y144.016 E0.02496
G1 X93.512 Y124.830 E1.34849
G1 X93.046 Y124.514 E0.01766
G1 X92.673 Y124.113 E0.01716
G1 X92.401 Y123.634 E0.01728
G1 X92.246 Y123.101 E0.01740
G1 X93.495 Y89.758 E1.04618
G1 X93.660 Y88.933 E0.02639
;WIPE_START
G1 F8640.000
G1 X94.083 Y88.166 E-0.20219
G1 X94.468 Y87.800 E-0.12287
G1 X94.922 Y87.530 E-0.12185
G1 X98.406 Y85.952 E-0.88309
;WIPE_END
G1 E-0.07000 F2100.000
G1 Z0.400 F10800.000
G1 X151.309 Y102.829
G1 Z0.200
G1 E1.40000 F2100.000
;TYPE:Support material
G1 F1200.000
G1 X151.309 Y81.000 E0.68445
G1 X150.555 Y81.000 E0.02365
G1 X150.555 Y102.572 E0.67640
G1 X149.801 Y102.577 E0.02365
G1 X149.801 Y81.000 E0.67655
G1 X149.046 Y81.000 E0.02365
G1 X149.046 Y102.582 E0.67670
G1 X148.292 Y102.587 E0.02365
G1 X148.292 Y81.000 E0.67686
G1 X147.538 Y81.000 E0.02365
G1 X147.538 Y102.592 E0.67701
G1 X146.784 Y102.596 E0.02365
G1 X146.784 Y81.000 E0.67716
G1 X146.030 Y81.000 E0.02365
G1 X146.030 Y102.601 E0.67731
G1 X145.276 Y102.606 E0.02365
G1 X145.276 Y81.000 E0.67746
G1 X144.521 Y81.000 E0.02365
G1 X144.521 Y102.611 E0.67761
G1 X143.767 Y102.616 E0.02365
G1 X143.767 Y81.000 E0.67776
G1 X143.013 Y81.000 E0.02365
G1 X143.013 Y102.620 E0.67791
M73 Q0 S93
G1 X142.259 Y102.625 E0.02365
G1 X142.259 Y71.737 E0.96848
G1 X141.505 Y71.737 E0.02365
G1 X141.505 Y102.630 E0.96863
G1 X140.751 Y102.635 E0.02365
G1 X140.751 Y71.737 E0.96878
G1 X139.997 Y71.737 E0.02365
G1 X139.997 Y102.809 E0.97425
;WIPE_START
G1 F8640.000
G1 X139.997 Y97.049 E-1.33000
;WIPE_END
G1 E-0.07000 F2100.000
G1 Z0.400 F10800.000
G1 X138.078 Y104.627
G1 Z0.200
G1 E1.40000 F2100.000
;TYPE:Perimeter
G1 F1200.000
G1 X150.019 Y104.552 E0.37442
G1 X150.251 Y140.964 E1.14172
G1 X133.556 Y140.969 E0.52345
G1 X133.519 Y121.908 E0.59766
G1 X95.408 Y121.920 E1.19494
G1 X96.637 Y90.399 E0.98907
G1 X137.868 Y71.725 E1.41918
G1 X138.077 Y104.567 E1.02976
G1 X138.452 Y104.248 F10800.000
;TYPE:External perimeter
G1 F1200.000
G1 X150.394 Y104.172 E0.37442
G1 X150.631 Y141.341 E1.16544
G1 X133.180 Y141.347 E0.54715
G1 X133.143 Y122.285 E0.59766
M73 Q1 S93
G1 X95.016 Y122.297 E1.19544
M73 P1 R93
G1 X96.269 Y90.151 E1.00867
G1 X138.241 Y71.142 E1.44469
M73 P1 R92
G1 X138.452 Y104.188 E1.03615
G1 X138.616 Y104.613 F10800.000
;WIPE_START
G1 F8640.000
G1 X144.212 Y104.180 E-1.33000
;WIPE_END
G1 E-0.07000 F2100.000
G1 Z0.400 F10800.000
G1 X137.761 Y72.662
G1 Z0.200
G1 E1.40000 F2100.000
;TYPE:Solid infill
;WIDTH:0.422055
G1 F1200.000
G1 X137.363 Y72.264 E0.01771
G1 X136.994 Y72.431 E0.01277
G1 X137.593 Y73.030 E0.02671
G1 X137.597 Y73.570 E0.01701
G1 X136.625 Y72.599 E0.04331
G1 X136.256 Y72.766 E0.01277
G1 X137.600 Y74.110 E0.05992
G1 X137.604 Y74.649 E0.01701
G1 X135.887 Y72.933 E0.07653
G1 X135.518 Y73.100 E0.01277
G1 X137.607 Y75.189 E0.09313
G1 X137.611 Y75.729 E0.01701
G1 X135.149 Y73.267 E0.10974
G1 X134.780 Y73.434 E0.01277
G1 X137.614 Y76.268 E0.12635
G1 X137.618 Y76.808 E0.01701
G1 X134.411 Y73.601 E0.14295
G1 X134.042 Y73.768 E0.01277
G1 X137.621 Y77.347 E0.15956
G1 X137.624 Y77.887 E0.01701
G1 X133.673 Y73.936 E0.17617
G1 X133.304 Y74.103 E0.01277
G1 X137.628 Y78.427 E0.19277
G1 X137.631 Y78.966 E0.01701
G1 X132.935 Y74.270 E0.20938
G1 X132.566 Y74.437 E0.01277
G1 X137.635 Y79.506 E0.22599
G1 X137.638 Y80.045 E0.01701
G1 X132.197 Y74.604 E0.24259
G1 X131.828 Y74.771 E0.01277
G1 X137.642 Y80.585 E0.25920
G1 X137.645 Y81.125 E0.01701
G1 X131.459 Y74.938 E0.27580
G1 X131.090 Y75.106 E0.01277
G1 X137.649 Y81.664 E0.29241
G1 X137.652 Y82.204 E0.01701
G1 X130.721 Y75.273 E0.30902
G1 X130.352 Y75.440 E0.01277
G1 X137.655 Y82.744 E0.32562
G1 X137.659 Y83.283 E0.01701
G1 X129.983 Y75.607 E0.34223
G1 X129.614 Y75.774 E0.01277
G1 X137.662 Y83.823 E0.35884
G1 X137.666 Y84.362 E0.01701
G1 X129.245 Y75.941 E0.37544
G1 X128.876 Y76.108 E0.01277
G1 X137.669 Y84.902 E0.39205
G1 X137.673 Y85.442 E0.01701
G1 X128.506 Y76.275 E0.40866
G1 X128.137 Y76.443 E0.01277
G1 X137.676 Y85.981 E0.42526
G1 X137.679 Y86.521 E0.01701
G1 X127.768 Y76.610 E0.44187
G1 X127.399 Y76.777 E0.01277
G1 X137.683 Y87.060 E0.45848
G1 X137.686 Y87.600 E0.01701
G1 X127.030 Y76.944 E0.47508
G1 X126.661 Y77.111 E0.01277
G1 X137.690 Y88.140 E0.49169
G1 X137.693 Y88.679 E0.01701
G1 X126.292 Y77.278 E0.50830
G1 X125.923 Y77.445 E0.01277
G1 X137.697 Y89.219 E0.52490
G1 X137.700 Y89.759 E0.01701
G1 X125.554 Y77.613 E0.54151
G1 X125.185 Y77.780 E0.01277
G1 X137.704 Y90.298 E0.55811
G1 X137.707 Y90.838 E0.01701
G1 X124.816 Y77.947 E0.57472
G1 X124.447 Y78.114 E0.01277
G1 X137.710 Y91.377 E0.59133
G1 X137.714 Y91.917 E0.01701
G1 X124.078 Y78.281 E0.60793
G1 X123.709 Y78.448 E0.01277
G1 X137.717 Y92.457 E0.62454
G1 X137.721 Y92.996 E0.01701
G1 X123.340 Y78.615 E0.64115
G1 X122.971 Y78.783 E0.01277
G1 X137.724 Y93.536 E0.65775
G1 X137.728 Y94.075 E0.01701
G1 X122.602 Y78.950 E0.67436
G1 X122.233 Y79.117 E0.01277
G1 X137.731 Y94.615 E0.69097
G1 X137.734 Y95.155 E0.01701
G1 X121.864 Y79.284 E0.70757
G1 X121.495 Y79.451 E0.01277
G1 X137.738 Y95.694 E0.72418
G1 X137.741 Y96.234 E0.01701
G1 X121.126 Y79.618 E0.74079
M73 Q1 S92
G1 X120.757 Y79.785 E0.01277
G1 X137.745 Y96.774 E0.75739
G1 X137.748 Y97.313 E0.01701
G1 X120.388 Y79.952 E0.77400
G1 X120.018 Y80.120 E0.01277
G1 X137.752 Y97.853 E0.79061
G1 X137.755 Y98.392 E0.01701
G1 X119.649 Y80.287 E0.80721
G1 X119.280 Y80.454 E0.01277
G1 X137.759 Y98.932 E0.82382
G1 X137.762 Y99.472 E0.01701
G1 X118.911 Y80.621 E0.84043
G1 X118.542 Y80.788 E0.01277
G1 X137.765 Y100.011 E0.85703
G1 X137.769 Y100.551 E0.01701
G1 X118.173 Y80.955 E0.87364
G1 X117.804 Y81.122 E0.01277
G1 X137.772 Y101.090 E0.89024
G1 X137.776 Y101.630 E0.01701
G1 X117.435 Y81.290 E0.90685
G1 X117.066 Y81.457 E0.01277
G1 X137.779 Y102.170 E0.92346
G1 X137.783 Y102.709 E0.01701
G1 X116.697 Y81.624 E0.94006
G1 X116.328 Y81.791 E0.01277
G1 X137.786 Y103.249 E0.95667
G1 X137.790 Y103.789 E0.01701
G1 X115.959 Y81.958 E0.97328
G1 X115.590 Y82.125 E0.01277
M73 P2 R92
G1 X137.964 Y104.499 E0.99750
;WIPE_START
M73 Q2 S92
G1 F8640.000
G1 X133.891 Y100.426 E-1.33000
;WIPE_END
G1 E-0.07000 F2100.000
G1 Z0.400 F10800.000
G1 X149.393 Y104.669
G1 Z0.200
G1 E1.40000 F2100.000
G1 F1200.000
G1 X149.739 Y105.015 E0.01543
G1 X149.743 Y105.554 E0.01701
G1 X149.029 Y104.841 E0.03182
G1 X148.496 Y104.844 E0.01680
G1 X149.746 Y106.094 E0.05572
G1 X149.749 Y106.634 E0.01701
G1 X147.963 Y104.847 E0.07963
G1 X147.431 Y104.851 E0.01680
G1 X149.753 Y107.173 E0.10354
G1 X149.756 Y107.713 E0.01701
G1 X146.898 Y104.854 E0.12745
G1 X146.365 Y104.858 E0.01680
G1 X149.760 Y108.252 E0.15135
G1 X149.763 Y108.792 E0.01701
G1 X145.832 Y104.861 E0.17526
G1 X145.299 Y104.864 E0.01680
G1 X149.767 Y109.332 E0.19917
G1 X149.770 Y109.871 E0.01701
G1 X144.767 Y104.868 E0.22307
G1 X144.234 Y104.871 E0.01680
G1 X149.774 Y110.411 E0.24698
G1 X149.777 Y110.950 E0.01701
G1 X143.701 Y104.875 E0.27089
G1 X143.168 Y104.878 E0.01680
G1 X149.780 Y111.490 E0.29479
G1 X149.784 Y112.030 E0.01701
G1 X142.635 Y104.881 E0.31870
G1 X142.103 Y104.885 E0.01680
G1 X149.787 Y112.569 E0.34261
G1 X149.791 Y113.109 E0.01701
G1 X141.570 Y104.888 E0.36651
G1 X141.037 Y104.891 E0.01680
G1 X149.794 Y113.649 E0.39042
G1 X149.798 Y114.188 E0.01701
G1 X140.504 Y104.895 E0.41433
G1 X139.972 Y104.898 E0.01680
G1 X149.801 Y114.728 E0.43823
M73 P2 R91
G1 X149.804 Y115.267 E0.01701
G1 X139.439 Y104.902 E0.46214
G1 X138.906 Y104.905 E0.01680
G1 X149.808 Y115.807 E0.48605
G1 X149.811 Y116.347 E0.01701
G1 X138.205 Y104.740 E0.51747
;WIPE_START
G1 F8640.000
G1 X142.277 Y108.813 E-1.33000
;WIPE_END
G1 E-0.07000 F2100.000
G1 Z0.400 F10800.000
G1 X149.986 Y117.057
G1 Z0.200
G1 E1.40000 F2100.000
G1 F1200.000
G1 X115.221 Y82.292 E1.54993
G1 X114.852 Y82.459 E0.01277
G1 X149.818 Y117.426 E1.55892
G1 X149.822 Y117.965 E0.01701
G1 X114.483 Y82.627 E1.57552
G1 X114.114 Y82.794 E0.01277
G1 X149.825 Y118.505 E1.59213
G1 X149.829 Y119.045 E0.01701
G1 X113.745 Y82.961 E1.60874
G1 X113.376 Y83.128 E0.01277
G1 X149.832 Y119.584 E1.62534
G1 X149.835 Y120.124 E0.01701
G1 X113.007 Y83.295 E1.64195
G1 X112.638 Y83.462 E0.01277
G1 X149.839 Y120.664 E1.65856
G1 X149.842 Y121.203 E0.01701
G1 X112.269 Y83.629 E1.67516
G1 X111.900 Y83.797 E0.01277
G1 X149.846 Y121.743 E1.69177
G1 X149.849 Y122.282 E0.01701
G1 X111.531 Y83.964 E1.70838
M73 Q2 S91
G1 X111.161 Y84.131 E0.01277
G1 X149.853 Y122.822 E1.72498
G1 X149.856 Y123.362 E0.01701
G1 X110.792 Y84.298 E1.74159
G1 X110.423 Y84.465 E0.01277
G1 X149.860 Y123.901 E1.75820
G1 X149.863 Y124.441 E0.01701
G1 X110.054 Y84.632 E1.77480
G1 X109.685 Y84.799 E0.01277
G1 X149.866 Y124.980 E1.79141
G1 X149.870 Y125.520 E0.01701
G1 X109.316 Y84.967 E1.80802
M73 P3 R91
M73 Q3 S91
G1 X108.947 Y85.134 E0.01277
G1 X149.873 Y126.060 E1.82462
G1 X149.877 Y126.599 E0.01701
G1 X108.578 Y85.301 E1.84123
G1 X108.209 Y85.468 E0.01277
G1 X149.880 Y127.139 E1.85783
G1 X149.884 Y127.679 E0.01701
G1 X107.840 Y85.635 E1.87444
M73 P3 R90
G1 X107.471 Y85.802 E0.01277
G1 X149.887 Y128.218 E1.89105
G1 X149.890 Y128.758 E0.01701
G1 X107.102 Y85.969 E1.90765
G1 X106.733 Y86.136 E0.01277
G1 X149.894 Y129.297 E1.92426
G1 X149.897 Y129.837 E0.01701
G1 X106.364 Y86.304 E1.94087
G1 X105.995 Y86.471 E0.01277
G1 X149.901 Y130.377 E1.95747
G1 X149.904 Y130.916 E0.01701
G1 X105.626 Y86.638 E1.97408
G1 X105.257 Y86.805 E0.01277
G1 X149.908 Y131.456 E1.99069
G1 X149.911 Y131.995 E0.01701
G1 X104.888 Y86.972 E2.00729
G1 X104.519 Y87.139 E0.01277
G1 X149.915 Y132.535 E2.02390
G1 X149.918 Y133.075 E0.01701
G1 X104.150 Y87.306 E2.04051
M73 Q3 S90
G1 X103.781 Y87.474 E0.01277
G1 X149.921 Y133.614 E2.05711
G1 X149.925 Y134.154 E0.01701
G1 X103.412 Y87.641 E2.07372
G1 X103.043 Y87.808 E0.01277
G1 X149.928 Y134.694 E2.09033
G1 X149.932 Y135.233 E0.01701
G1 X102.673 Y87.975 E2.10693
M73 P4 R90
M73 Q4 S90
G1 X102.304 Y88.142 E0.01277
G1 X149.935 Y135.773 E2.12354
G1 X149.939 Y136.312 E0.01701
G1 X101.935 Y88.309 E2.14015
G1 X101.566 Y88.476 E0.01277
G1 X149.942 Y136.852 E2.15675
G1 X149.945 Y137.392 E0.01701
G1 X101.197 Y88.643 E2.17336
G1 X100.828 Y88.811 E0.01277
G1 X149.949 Y137.931 E2.18996
M73 P4 R89
G1 X149.952 Y138.471 E0.01701
G1 X133.803 Y122.321 E0.72000
G1 X133.804 Y122.859 E0.01694
G1 X149.956 Y139.011 E0.72011
G1 X149.959 Y139.550 E0.01701
G1 X133.805 Y123.396 E0.72021
G1 X133.806 Y123.933 E0.01694
G1 X149.963 Y140.090 E0.72032
G1 X149.966 Y140.629 E0.01701
G1 X133.807 Y124.470 E0.72042
G1 X133.808 Y125.008 E0.01694
G1 X149.482 Y140.682 E0.69881
G1 X148.946 Y140.682 E0.01690
G1 X133.809 Y125.545 E0.67486
G1 X133.810 Y126.082 E0.01694
G1 X148.410 Y140.682 E0.65092
G1 X147.874 Y140.682 E0.01690
G1 X133.811 Y126.619 E0.62697
G1 X133.812 Y127.156 E0.01694
G1 X147.338 Y140.682 E0.60303
G1 X146.802 Y140.682 E0.01690
G1 X133.813 Y127.694 E0.57909
G1 X133.814 Y128.231 E0.01694
G1 X146.266 Y140.683 E0.55514
G1 X145.730 Y140.683 E0.01690
G1 X133.815 Y128.768 E0.53120
G1 X133.816 Y129.305 E0.01694
G1 X145.194 Y140.683 E0.50725
G1 X144.658 Y140.683 E0.01690
G1 X133.818 Y129.843 E0.48331
G1 X133.819 Y130.380 E0.01694
G1 X144.122 Y140.683 E0.45937
G1 X143.586 Y140.683 E0.01690
G1 X133.820 Y130.917 E0.43542
G1 X133.821 Y131.454 E0.01694
G1 X143.050 Y140.684 E0.41148
G1 X142.514 Y140.684 E0.01690
G1 X133.822 Y131.991 E0.38753
G1 X133.823 Y132.529 E0.01694
G1 X141.978 Y140.684 E0.36359
G1 X141.442 Y140.684 E0.01690
G1 X133.824 Y133.066 E0.33965
G1 X133.825 Y133.603 E0.01694
G1 X140.906 Y140.684 E0.31570
G1 X140.370 Y140.684 E0.01690
G1 X133.826 Y134.140 E0.29176
G1 X133.827 Y134.678 E0.01694
G1 X139.834 Y140.685 E0.26781
G1 X139.298 Y140.685 E0.01690
G1 X133.828 Y135.215 E0.24387
G1 X133.829 Y135.752 E0.01694
G1 X138.762 Y140.685 E0.21993
G1 X138.226 Y140.685 E0.01690
G1 X133.830 Y136.289 E0.19598
G1 X133.831 Y136.827 E0.01694
G1 X137.690 Y140.685 E0.17204
G1 X137.154 Y140.685 E0.01690
G1 X133.832 Y137.364 E0.14809
G1 X133.833 Y137.901 E0.01694
G1 X136.618 Y140.686 E0.12415
G1 X136.082 Y140.686 E0.01690
G1 X133.834 Y138.438 E0.10021
G1 X133.835 Y138.975 E0.01694
G1 X135.546 Y140.686 E0.07626
G1 X135.010 Y140.686 E0.01690
G1 X133.836 Y139.513 E0.05232
G1 X133.837 Y140.050 E0.01694
G1 X134.474 Y140.686 E0.02837
G1 X133.938 Y140.686 E0.01690
G1 X133.668 Y140.417 E0.01201
;WIPE_START
G1 F8640.000
G1 X133.938 Y140.686 E-0.08796
G1 X134.474 Y140.686 E-0.12377
G1 X133.837 Y140.050 E-0.20782
G1 X133.836 Y139.513 E-0.12405
G1 X135.010 Y140.686 E-0.38319
G1 X135.546 Y140.686 E-0.12377
G1 X134.690 Y139.830 E-0.27944
;WIPE_END
G1 E-0.07000 F2100.000
G1 Z0.400 F10800.000
G1 X133.276 Y121.795
G1 Z0.200
G1 E1.40000 F2100.000
G1 F1200.000
G1 X100.459 Y88.978 E1.46309
G1 X100.090 Y89.145 E0.01277
G1 X132.571 Y121.625 E1.44809
M73 Q4 S89
G1 X132.035 Y121.625 E0.01690
G1 X99.721 Y89.312 E1.44064
G1 X99.352 Y89.479 E0.01277
G1 X131.499 Y121.626 E1.43320
G1 X130.963 Y121.626 E0.01690
G1 X98.983 Y89.646 E1.42575
G1 X98.614 Y89.813 E0.01277
M73 P5 R89
G1 X130.427 Y121.626 E1.41831
M73 Q5 S89
G1 X129.891 Y121.626 E0.01690
G1 X98.245 Y89.981 E1.41087
G1 X97.876 Y90.148 E0.01277
G1 X129.355 Y121.626 E1.40342
G1 X128.819 Y121.626 E0.01690
G1 X97.507 Y90.315 E1.39598
G1 X97.138 Y90.482 E0.01277
G1 X128.283 Y121.627 E1.38853
G1 X127.746 Y121.627 E0.01690
G1 X96.905 Y90.785 E1.37504
G1 X96.884 Y91.301 E0.01628
G1 X127.210 Y121.627 E1.35204
G1 X126.674 Y121.627 E0.01690
G1 X96.864 Y91.817 E1.32904
G1 X96.844 Y92.333 E0.01628
G1 X126.138 Y121.627 E1.30604
G1 X125.602 Y121.627 E0.01690
G1 X96.824 Y92.849 E1.28303
M73 P5 R88
G1 X96.804 Y93.365 E0.01628
G1 X125.066 Y121.628 E1.26003
G1 X124.530 Y121.628 E0.01690
G1 X96.784 Y93.881 E1.23703
G1 X96.764 Y94.397 E0.01628
G1 X123.994 Y121.628 E1.21403
G1 X123.458 Y121.628 E0.01690
G1 X96.744 Y94.913 E1.19103
G1 X96.724 Y95.429 E0.01628
G1 X122.922 Y121.628 E1.16803
