; generated by PrusaSlicer 2.3.0+win64 on 2021-08-21 at 03:24:05 UTC

; 

; external perimeters extrusion width = 0.60mm
; perimeters extrusion width = 0.50mm
; infill extrusion width = 0.50mm
; solid infill extrusion width = 0.50mm
; top infill extrusion width = 0.45mm
; support material extrusion width = 0.38mm
; first layer extrusion width = 0.42mm

M73 P0 R35
M73 Q0 S36
M201 X1000 Y1000 Z200 E5000 ; sets maximum accelerations, mm/sec^2
M203 X200 Y200 Z12 E120 ; sets maximum feedrates, mm/sec
M204 P1250 R1250 T1250 ; sets acceleration (P, T) and retract acceleration (R), mm/sec^2
M205 X8.00 Y8.00 Z0.40 E4.50 ; sets the jerk limits, mm/sec
M205 S0 T0 ; sets the minimum extruding and travel feed rate, mm/sec
M107
;TYPE:Custom
M862.3 P "MK3S" ; printer model check
M862.1 P0.4 ; nozzle diameter check
M115 U3.9.1 ; tell printer latest fw version
G90 ; use absolute coordinates
M83 ; extruder relative mode
M104 S215 ; set extruder temp
M140 S60 ; set bed temp
M190 S60 ; wait for bed temp
M109 S215 ; wait for extruder temp
G28 W ; home all without mesh bed level
G80 ; mesh bed leveling
G1 Y-3.0 F1000.0 ; go outside print area
G92 E0.0
G1 X60.0 E9.0 F1000.0 ; intro line
G1 X100.0 E12.5 F1000.0 ; intro line
G92 E0.0
M221 S95

; Don't change E values below. Excessive value can damage the printer.

M907 E538 ; set extruder motor current
G21 ; set units to millimeters
G90 ; use absolute coordinates
M83 ; use relative distances for extrusion
M900 K0.05 ; Filament gcode LA 1.5
M900 K30 ; Filament gcode LA 1.0
;LAYER_CHANGE
;Z:0.2
;HEIGHT:0.2
;BEFORE_LAYER_CHANGE
G92 E0.0
;0.2


G1 E-0.80000 F2100.000
G1 Z0.600 F10800.000
;AFTER_LAYER_CHANGE
;0.2
G1 X82.385 Y107.786
M73 Q0 S35
G1 Z0.200
G1 E0.80000 F2100.000
M204 S1000
;TYPE:Skirt
;WIDTH:0.42
G1 F1200.000
G1 X82.209 Y106.899 E0.02837
G1 X82.209 Y88.616 E0.57323
G1 X82.297 Y87.534 E0.03406
G1 X82.536 Y86.534 E0.03221
G1 X82.888 Y85.657 E0.02965
G1 X83.619 Y84.461 E0.04394
G1 X84.232 Y83.758 E0.02925
G1 X85.040 Y83.066 E0.03336
G1 X85.940 Y82.513 E0.03312
G1 X86.789 Y82.151 E0.02894
G1 X87.927 Y81.850 E0.03692
G1 X130.778 Y73.582 E1.36834
G1 X166.479 Y73.569 E1.11936
G1 X167.381 Y73.746 E0.02884
G1 X168.146 Y74.251 E0.02872
G1 X168.664 Y75.011 E0.02884
G1 X168.856 Y75.910 E0.02884
G1 X168.855 Y134.281 E1.83018
G1 X168.740 Y134.958 E0.02154
G1 X168.435 Y135.574 E0.02154
G1 X167.967 Y136.077 E0.02154
G1 X167.375 Y136.426 E0.02154
G1 X166.727 Y136.588 E0.02095
G1 X165.709 Y136.601 E0.03191
G1 X147.879 Y136.431 E0.55909
G1 X147.157 Y136.307 E0.02296
G1 X128.589 Y128.849 E0.62739
G1 X83.628 Y109.065 E1.54017
G1 X82.882 Y108.547 E0.02849
G1 X82.417 Y107.837 E0.02661
;WIPE_START
G1 F8640.000
G1 X82.209 Y106.899 E-0.22183
G1 X82.209 Y104.568 E-0.53817
;WIPE_END
G1 E-0.04000 F2100.000
G1 Z0.800 F10800.000
G1 X125.000 Y107.208
M73 Q1 S35
G1 Z0.200
G1 E0.80000 F2100.000
;TYPE:Support material
G1 F1200.000
G1 X125.000 Y110.285 E0.09648
M73 P1 R35
G1 X125.754 Y110.285 E0.02365
G1 X125.754 Y107.378 E0.09116
G1 X126.508 Y107.378 E0.02365
G1 X126.508 Y110.285 E0.09116
G1 X126.662 Y110.285 E0.00482
G1 X126.662 Y112.600 E0.07260
G1 X127.262 Y112.600 E0.01883
G1 X127.262 Y107.378 E0.16376
G1 X128.017 Y107.378 E0.02365
G1 X128.017 Y112.600 E0.16376
G1 X128.771 Y112.600 E0.02365
G1 X128.771 Y107.378 E0.16376
G1 X129.422 Y107.378 E0.02040
G1 X129.525 Y107.274 E0.00459
G1 X129.525 Y126.664 E0.60795
G1 X131.787 Y126.664 F10800.000
G1 F1200.000
G1 X131.787 Y87.937 E1.21425
G1 X131.033 Y87.937 E0.02365
G1 X131.033 Y126.494 E1.20893
G1 X130.279 Y126.494 E0.02365
G1 X130.279 Y87.937 E1.20893
G1 X129.525 Y87.937 E0.02365
G1 X129.525 Y105.342 E0.54571
G1 X129.422 Y105.238 E0.00459
G1 X128.771 Y105.238 E0.02040
G1 X128.771 Y87.752 E0.54829
G1 X128.670 Y87.651 E0.00446
G1 X128.670 Y86.778 E0.02736
G1 X128.017 Y86.778 E0.02049
G1 X128.017 Y105.238 E0.57880
G1 X127.262 Y105.238 E0.02365
G1 X127.262 Y86.778 E0.57880
G1 X126.508 Y86.778 E0.02365
G1 X126.508 Y105.238 E0.57880
G1 X125.754 Y105.238 E0.02365
G1 X125.754 Y86.778 E0.57880
G1 X125.000 Y86.778 E0.02365
G1 X125.000 Y105.408 E0.58412
;WIPE_START
G1 F8640.000
G1 X125.000 Y102.117 E-0.76000
;WIPE_END
G1 E-0.04000 F2100.000
G1 Z0.800 F10800.000
G1 X133.296 Y104.249
G1 Z0.200
G1 E0.80000 F2100.000
G1 F1200.000
G1 X133.296 Y96.929 E0.22953
G1 X134.050 Y96.929 E0.02365
G1 X134.050 Y104.080 E0.22421
G1 X134.804 Y104.080 E0.02365
G1 X134.804 Y96.929 E0.22421
G1 X135.558 Y96.929 E0.02365
G1 X135.558 Y104.080 E0.22421
G1 X136.312 Y104.080 E0.02365
G1 X136.312 Y96.929 E0.22421
G1 X137.067 Y96.929 E0.02365
G1 X137.067 Y104.080 E0.22421
G1 X137.821 Y104.080 E0.02365
G1 X137.821 Y96.929 E0.22421
G1 X138.575 Y96.929 E0.02365
G1 X138.575 Y104.080 E0.22421
G1 X139.329 Y104.080 E0.02365
G1 X139.329 Y96.929 E0.22421
G1 X140.083 Y96.929 E0.02365
G1 X140.083 Y104.080 E0.22421
G1 X140.837 Y104.080 E0.02365
G1 X140.837 Y96.929 E0.22421
G1 X141.591 Y96.929 E0.02365
G1 X141.591 Y104.080 E0.22421
G1 X142.346 Y104.080 E0.02365
G1 X142.346 Y96.929 E0.22421
M73 Q2 S35
G1 X143.100 Y96.929 E0.02365
M73 P2 R35
G1 X143.100 Y104.080 E0.22421
G1 X143.854 Y104.080 E0.02365
G1 X143.854 Y96.929 E0.22421
G1 X144.608 Y96.929 E0.02365
G1 X144.608 Y104.080 E0.22421
G1 X145.362 Y104.080 E0.02365
G1 X145.362 Y96.929 E0.22421
G1 X146.116 Y96.929 E0.02365
G1 X146.116 Y104.080 E0.22421
G1 X146.871 Y104.080 E0.02365
G1 X146.871 Y96.929 E0.22421
G1 X147.625 Y96.929 E0.02365
G1 X147.625 Y104.249 E0.22953
G1 X150.641 Y104.249 F10800.000
G1 F1200.000
G1 X150.641 Y96.929 E0.22953
G1 X151.396 Y96.929 E0.02365
G1 X151.396 Y104.080 E0.22421
G1 X152.150 Y104.080 E0.02365
G1 X152.150 Y96.929 E0.22421
G1 X152.904 Y96.929 E0.02365
G1 X152.904 Y104.080 E0.22421
G1 X153.658 Y104.080 E0.02365
G1 X153.658 Y96.929 E0.22421
G1 X154.412 Y96.929 E0.02365
G1 X154.412 Y104.080 E0.22421
G1 X155.166 Y104.080 E0.02365
G1 X155.166 Y96.929 E0.22421
G1 X155.921 Y96.929 E0.02365
G1 X155.921 Y104.080 E0.22421
G1 X156.675 Y104.080 E0.02365
G1 X156.675 Y96.929 E0.22421
G1 X157.429 Y96.929 E0.02365
G1 X157.429 Y104.080 E0.22421
G1 X158.183 Y104.080 E0.02365
G1 X158.183 Y96.929 E0.22421
G1 X158.937 Y96.929 E0.02365
G1 X158.937 Y104.080 E0.22421
G1 X159.691 Y104.080 E0.02365
G1 X159.691 Y96.929 E0.22421
G1 X160.445 Y96.929 E0.02365
G1 X160.445 Y104.080 E0.22421
G1 X161.200 Y104.080 E0.02365
G1 X161.200 Y96.929 E0.22421
G1 X161.954 Y96.929 E0.02365
G1 X161.954 Y104.080 E0.22421
G1 X162.708 Y104.080 E0.02365
G1 X162.708 Y96.929 E0.22421
M73 P2 R34
G1 X163.462 Y96.929 E0.02365
G1 X163.462 Y104.249 E0.22953
;WIPE_START
G1 F8640.000
G1 X163.462 Y100.958 E-0.76000
;WIPE_END
G1 E-0.04000 F2100.000
G1 Z0.800 F10800.000
G1 X163.462 Y95.258
G1 Z0.200
G1 E0.80000 F2100.000
G1 F1200.000
G1 X163.462 Y87.937 E0.22953
G1 X162.708 Y87.937 E0.02365
G1 X162.708 Y95.088 E0.22421
G1 X161.954 Y95.088 E0.02365
G1 X161.954 Y87.937 E0.22421
G1 X161.200 Y87.937 E0.02365
G1 X161.200 Y95.088 E0.22421
G1 X160.445 Y95.088 E0.02365
G1 X160.445 Y87.937 E0.22421
G1 X159.691 Y87.937 E0.02365
G1 X159.691 Y95.088 E0.22421
G1 X158.937 Y95.088 E0.02365
G1 X158.937 Y87.937 E0.22421
G1 X158.183 Y87.937 E0.02365
G1 X158.183 Y95.088 E0.22421
G1 X157.429 Y95.088 E0.02365
G1 X157.429 Y87.937 E0.22421
G1 X156.675 Y87.937 E0.02365
G1 X156.675 Y95.088 E0.22421
G1 X155.921 Y95.088 E0.02365
G1 X155.921 Y87.937 E0.22421
G1 X155.166 Y87.937 E0.02365
G1 X155.166 Y95.088 E0.22421
G1 X154.412 Y95.088 E0.02365
G1 X154.412 Y87.937 E0.22421
G1 X153.658 Y87.937 E0.02365
G1 X153.658 Y95.088 E0.22421
G1 X152.904 Y95.088 E0.02365
G1 X152.904 Y87.937 E0.22421
G1 X152.150 Y87.937 E0.02365
G1 X152.150 Y95.088 E0.22421
G1 X151.396 Y95.088 E0.02365
G1 X151.396 Y87.937 E0.22421
G1 X150.641 Y87.937 E0.02365
G1 X150.641 Y95.258 E0.22953
;WIPE_START
G1 F8640.000
G1 X150.641 Y91.966 E-0.76000
;WIPE_END
G1 E-0.04000 F2100.000
G1 Z0.800 F10800.000
G1 X163.462 Y86.266
G1 Z0.200
G1 E0.80000 F2100.000
G1 F1200.000
G1 X163.462 Y78.946 E0.22953
G1 X162.708 Y78.946 E0.02365
G1 X162.708 Y86.096 E0.22421
G1 X161.954 Y86.096 E0.02365
G1 X161.954 Y78.946 E0.22421
G1 X161.200 Y78.946 E0.02365
G1 X161.200 Y86.096 E0.22421
G1 X160.445 Y86.096 E0.02365
G1 X160.445 Y78.946 E0.22421
G1 X159.691 Y78.946 E0.02365
G1 X159.691 Y86.096 E0.22421
M73 Q3 S35
G1 X158.937 Y86.096 E0.02365
G1 X158.937 Y78.946 E0.22421
M73 P3 R34
G1 X158.183 Y78.946 E0.02365
G1 X158.183 Y86.096 E0.22421
G1 X157.429 Y86.096 E0.02365
G1 X157.429 Y78.946 E0.22421
G1 X156.675 Y78.946 E0.02365
G1 X156.675 Y86.096 E0.22421
G1 X155.921 Y86.096 E0.02365
G1 X155.921 Y78.946 E0.22421
G1 X155.166 Y78.946 E0.02365
G1 X155.166 Y86.096 E0.22421
G1 X154.412 Y86.096 E0.02365
G1 X154.412 Y78.946 E0.22421
G1 X153.658 Y78.946 E0.02365
G1 X153.658 Y86.096 E0.22421
M73 Q3 S34
G1 X152.904 Y86.096 E0.02365
G1 X152.904 Y78.946 E0.22421
G1 X152.150 Y78.946 E0.02365
G1 X152.150 Y86.096 E0.22421
G1 X151.396 Y86.096 E0.02365
G1 X151.396 Y78.946 E0.22421
G1 X150.917 Y78.946 E0.01501
G1 X150.917 Y80.733 E0.05603
G1 X150.641 Y81.008 E0.01221
G1 X150.641 Y86.266 E0.16487
G1 X146.871 Y86.266 F10800.000
G1 F1200.000
G1 X146.871 Y78.946 E0.22953
G1 X146.116 Y78.946 E0.02365
G1 X146.116 Y86.096 E0.22421
G1 X145.362 Y86.096 E0.02365
G1 X145.362 Y78.946 E0.22421
G1 X144.608 Y78.946 E0.02365
G1 X144.608 Y86.096 E0.22421
G1 X143.854 Y86.096 E0.02365
G1 X143.854 Y78.946 E0.22421
G1 X143.100 Y78.946 E0.02365
G1 X143.100 Y86.096 E0.22421
G1 X142.346 Y86.096 E0.02365
G1 X142.346 Y78.946 E0.22421
G1 X141.591 Y78.946 E0.02365
G1 X141.591 Y86.096 E0.22421
G1 X140.837 Y86.096 E0.02365
G1 X140.837 Y78.946 E0.22421
G1 X140.083 Y78.946 E0.02365
G1 X140.083 Y86.096 E0.22421
G1 X139.329 Y86.096 E0.02365
G1 X139.329 Y78.946 E0.22421
G1 X138.575 Y78.946 E0.02365
G1 X138.575 Y86.096 E0.22421
G1 X137.821 Y86.096 E0.02365
G1 X137.821 Y78.946 E0.22421
G1 X137.067 Y78.946 E0.02365
G1 X137.067 Y86.096 E0.22421
G1 X136.312 Y86.096 E0.02365
G1 X136.312 Y78.946 E0.22421
G1 X135.558 Y78.946 E0.02365
G1 X135.558 Y86.096 E0.22421
G1 X134.804 Y86.096 E0.02365
G1 X134.804 Y78.946 E0.22421
G1 X134.050 Y78.946 E0.02365
G1 X134.050 Y86.266 E0.22953
;WIPE_START
G1 F8640.000
G1 X134.050 Y82.975 E-0.76000
;WIPE_END
G1 E-0.04000 F2100.000
G1 Z0.800 F10800.000
G1 X131.033 Y83.182
G1 Z0.200
G1 E0.80000 F2100.000
G1 F1200.000
G1 X131.033 Y75.946 E0.22689
G1 X131.787 Y75.946 E0.02365
G1 X131.787 Y81.946 E0.18812
G1 X131.861 Y81.787 E0.00547
G1 X131.988 Y81.314 E0.01537
G1 X132.033 Y80.804 E0.01604
G1 X132.033 Y77.493 E0.10384
G1 X132.319 Y77.206 E0.01269
G1 X132.542 Y77.206 E0.00698
G1 X132.542 Y75.946 E0.03953
G1 X133.296 Y75.946 E0.02365
G1 X133.296 Y77.206 E0.03953
G1 X134.050 Y77.206 E0.02365
G1 X134.050 Y75.946 E0.03953
G1 X134.804 Y75.946 E0.02365
G1 X134.804 Y77.206 E0.03953
G1 X135.558 Y77.206 E0.02365
G1 X135.558 Y75.946 E0.03953
G1 X136.312 Y75.946 E0.02365
G1 X136.312 Y77.206 E0.03953
G1 X137.067 Y77.206 E0.02365
G1 X137.067 Y75.946 E0.03953
G1 X137.821 Y75.946 E0.02365
G1 X137.821 Y77.206 E0.03953
G1 X138.575 Y77.206 E0.02365
G1 X138.575 Y75.946 E0.03953
G1 X139.329 Y75.946 E0.02365
G1 X139.329 Y77.206 E0.03953
G1 X140.083 Y77.206 E0.02365
G1 X140.083 Y75.946 E0.03953
G1 X140.837 Y75.946 E0.02365
G1 X140.837 Y77.206 E0.03953
G1 X141.591 Y77.206 E0.02365
G1 X141.592 Y75.946 E0.03953
G1 X142.346 Y75.946 E0.02365
G1 X142.346 Y77.206 E0.03953
G1 X143.100 Y77.206 E0.02365
G1 X143.100 Y75.946 E0.03953
G1 X143.854 Y75.946 E0.02365
G1 X143.854 Y77.206 E0.03953
G1 X144.608 Y77.206 E0.02365
G1 X144.608 Y75.946 E0.03953
G1 X145.362 Y75.946 E0.02365
G1 X145.362 Y77.206 E0.03953
G1 X146.116 Y77.206 E0.02365
G1 X146.116 Y75.946 E0.03953
G1 X146.871 Y75.946 E0.02365
G1 X146.871 Y77.206 E0.03953
G1 X147.625 Y77.206 E0.02365
G1 X147.625 Y75.946 E0.03953
G1 X148.379 Y75.946 E0.02365
G1 X148.379 Y77.206 E0.03953
G1 X149.133 Y77.206 E0.02365
G1 X149.133 Y75.946 E0.03953
G1 X149.887 Y75.946 E0.02365
G1 X149.887 Y77.206 E0.03953
G1 X150.641 Y77.206 E0.02365
G1 X150.641 Y75.946 E0.03953
G1 X151.396 Y75.946 E0.02365
G1 X151.396 Y77.206 E0.03953
G1 X152.150 Y77.206 E0.02365
G1 X152.150 Y75.946 E0.03953
G1 X152.904 Y75.946 E0.02365
G1 X152.904 Y77.206 E0.03953
G1 X153.658 Y77.206 E0.02365
G1 X153.658 Y75.946 E0.03953
G1 X154.412 Y75.946 E0.02365
G1 X154.412 Y77.206 E0.03953
G1 X155.166 Y77.206 E0.02365
G1 X155.166 Y75.946 E0.03953
G1 X155.921 Y75.946 E0.02365
G1 X155.921 Y77.206 E0.03953
G1 X156.675 Y77.206 E0.02365
G1 X156.675 Y75.946 E0.03953
G1 X157.429 Y75.946 E0.02365
G1 X157.429 Y77.206 E0.03953
G1 X158.183 Y77.206 E0.02365
G1 X158.183 Y75.946 E0.03953
G1 X158.937 Y75.946 E0.02365
G1 X158.937 Y77.206 E0.03953
G1 X159.691 Y77.206 E0.02365
G1 X159.691 Y75.946 E0.03953
G1 X160.445 Y75.946 E0.02365
G1 X160.445 Y77.206 E0.03953
G1 X161.200 Y77.206 E0.02365
G1 X161.200 Y75.946 E0.03953
G1 X161.954 Y75.946 E0.02365
G1 X161.954 Y77.206 E0.03953
G1 X162.708 Y77.206 E0.02365
G1 X162.708 Y75.946 E0.03953
G1 X163.462 Y75.946 E0.02365
G1 X163.462 Y77.206 E0.03953
G1 X164.216 Y77.206 E0.02365
G1 X164.216 Y75.946 E0.03953
G1 X164.970 Y75.946 E0.02365
G1 X164.970 Y77.206 E0.03953
G1 X165.617 Y77.206 E0.02026
G1 X165.725 Y77.315 E0.00479
G1 X165.725 Y75.946 E0.04292
G1 X166.479 Y75.946 E0.02365
G1 X166.479 Y134.224 E1.82728
M73 P4 R34
M73 Q4 S34
G1 X165.725 Y134.224 F10800.000
G1 F1200.000
G1 X165.725 Y132.685 E0.04824
G1 X165.617 Y132.794 E0.00479
G1 X164.970 Y132.794 E0.02026
G1 X164.970 Y134.054 E0.03953
G1 X164.216 Y134.054 E0.02365
G1 X164.216 Y132.794 E0.03953
G1 X163.462 Y132.794 E0.02365
G1 X163.462 Y134.054 E0.03953
G1 X162.708 Y134.054 E0.02365
G1 X162.708 Y132.794 E0.03953
G1 X161.954 Y132.794 E0.02365
G1 X161.954 Y134.054 E0.03953
G1 X161.200 Y134.054 E0.02365
G1 X161.200 Y132.794 E0.03953
G1 X160.445 Y132.794 E0.02365
G1 X160.445 Y134.054 E0.03953
G1 X159.691 Y134.054 E0.02365
G1 X159.691 Y132.794 E0.03953
G1 X158.937 Y132.794 E0.02365
G1 X158.937 Y134.054 E0.03953
G1 X158.183 Y134.054 E0.02365
G1 X158.183 Y132.794 E0.03953
G1 X157.429 Y132.794 E0.02365
G1 X157.429 Y134.054 E0.03953
G1 X156.675 Y134.054 E0.02365
G1 X156.675 Y132.794 E0.03953
G1 X155.921 Y132.794 E0.02365
G1 X155.921 Y134.054 E0.03953
G1 X155.166 Y134.054 E0.02365
G1 X155.166 Y132.794 E0.03953
G1 X154.412 Y132.794 E0.02365
G1 X154.412 Y134.054 E0.03953
G1 X153.658 Y134.054 E0.02365
G1 X153.658 Y132.794 E0.03953
G1 X152.904 Y132.794 E0.02365
G1 X152.904 Y134.054 E0.03953
G1 X152.150 Y134.054 E0.02365
G1 X152.150 Y132.794 E0.03953
G1 X151.396 Y132.794 E0.02365
G1 X151.396 Y134.054 E0.03953
G1 X150.641 Y134.054 E0.02365
G1 X150.641 Y132.794 E0.03953
G1 X149.887 Y132.794 E0.02365
G1 X149.887 Y134.054 E0.03953
G1 X149.133 Y134.054 E0.02365
G1 X149.133 Y126.127 E0.24855
G1 X149.006 Y125.654 E0.01537
G1 X148.799 Y125.210 E0.01537
G1 X148.518 Y124.808 E0.01537
G1 X148.379 Y124.669 E0.00617
G1 X148.379 Y134.054 E0.29427
G1 X147.917 Y134.054 E0.01449
G1 X147.917 Y126.494 E0.23704
G1 X147.625 Y126.494 E0.00916
G1 X147.625 Y124.113 E0.07467
G1 X147.326 Y123.973 E0.01034
G1 X146.871 Y123.851 E0.01478
G1 X146.871 Y126.494 E0.08286
G1 X146.116 Y126.494 E0.02365
G1 X146.116 Y123.802 E0.08441
G1 X145.362 Y123.802 E0.02365
G1 X145.362 Y126.494 E0.08441
G1 X144.608 Y126.494 E0.02365
G1 X144.608 Y123.802 E0.08441
G1 X143.854 Y123.802 E0.02365
G1 X143.854 Y126.494 E0.08441
G1 X143.100 Y126.494 E0.02365
G1 X143.100 Y123.802 E0.08441
G1 X142.346 Y123.802 E0.02365
G1 X142.346 Y126.494 E0.08441
G1 X141.591 Y126.494 E0.02365
G1 X141.591 Y123.802 E0.08441
G1 X140.837 Y123.802 E0.02365
G1 X140.837 Y126.494 E0.08441
G1 X140.083 Y126.494 E0.02365
G1 X140.083 Y123.802 E0.08441
G1 X139.329 Y123.802 E0.02365
G1 X139.329 Y126.494 E0.08441
G1 X138.575 Y126.494 E0.02365
G1 X138.575 Y123.802 E0.08441
G1 X137.821 Y123.802 E0.02365
G1 X137.821 Y126.494 E0.08441
G1 X137.067 Y126.494 E0.02365
G1 X137.067 Y123.802 E0.08441
G1 X136.312 Y123.802 E0.02365
G1 X136.312 Y126.494 E0.08441
G1 X135.558 Y126.494 E0.02365
G1 X135.558 Y123.802 E0.08441
G1 X134.804 Y123.802 E0.02365
G1 X134.804 Y126.494 E0.08441
G1 X134.050 Y126.494 E0.02365
G1 X134.050 Y123.802 E0.08441
G1 X133.296 Y123.802 E0.02365
