; generated by PrusaSlicer 2.3.3+win64 on 2022-04-11 at 09:05:06 UTC

; 

; external perimeters extrusion width = 0.60mm
; perimeters extrusion width = 0.50mm
; infill extrusion width = 0.50mm
; solid infill extrusion width = 0.50mm
; top infill extrusion width = 0.45mm
; support material extrusion width = 0.38mm
; first layer extrusion width = 0.42mm

M73 P0 R163
M73 Q0 S165
M201 X1000 Y1000 Z200 E5000 ; sets maximum accelerations, mm/sec^2
M203 X200 Y200 Z12 E120 ; sets maximum feedrates, mm/sec
M204 P1250 R1250 T1250 ; sets acceleration (P, T) and retract acceleration (R), mm/sec^2
M205 X8.00 Y8.00 Z0.40 E4.50 ; sets the jerk limits, mm/sec
M205 S0 T0 ; sets the minimum extruding and travel feed rate, mm/sec
M107
;TYPE:Custom
M862.3 P "MK3S" ; printer model check
M862.1 P0.4 ; nozzle diameter check
M115 U3.10.1 ; tell printer latest fw version
G90 ; use absolute coordinates
M83 ; extruder relative mode
M104 S240 ; set extruder temp
M140 S85 ; set bed temp
M190 S85 ; wait for bed temp
M109 S240 ; wait for extruder temp
G28 W ; home all without mesh bed level
G80 ; mesh bed leveling
G1 Y-3.0 F1000.0 ; go outside print area
G92 E0.0
G1 X60.0 E9.0 F1000.0 ; intro line
G1 X100.0 E12.5 F1000.0 ; intro line
G92 E0.0
M221 S95

; Don't change E values below. Excessive value can damage the printer.

M907 E538 ; set extruder motor current
G21 ; set units to millimeters
G90 ; use absolute coordinates
M83 ; use relative distances for extrusion
M900 K0.08 ; Filament gcode LA 1.5
M900 K45 ; Filament gcode LA 1.0
;LAYER_CHANGE
;Z:0.2
;HEIGHT:0.2
;BEFORE_LAYER_CHANGE
G92 E0.0
;0.2


G1 E-1.00000 F2100.000
G1 Z0.200 F10800.000
;AFTER_LAYER_CHANGE
;0.2
G1 Z0.400
G1 X42.749 Y72.813
G1 Z0.200
G1 E1.00000 F2100.000
M204 S1000
;TYPE:Skirt
;WIDTH:0.42
G1 F1200.000
G1 X43.641 Y72.640 E0.02849
G1 X208.818 Y74.045 E5.17921
G1 X209.708 Y74.228 E0.02849
G1 X210.300 Y74.583 E0.02166
G1 X210.767 Y75.097 E0.02178
G1 X211.066 Y75.724 E0.02178
G1 X211.170 Y76.407 E0.02166
G1 X210.285 Y141.230 E2.03267
G1 X210.101 Y142.109 E0.02813
G1 X209.811 Y142.617 E0.01835
G1 X209.405 Y143.038 E0.01835
G1 X208.912 Y143.346 E0.01823
G1 X208.356 Y143.526 E0.01835
G1 X202.878 Y143.495 E0.17174
G1 X42.673 Y135.214 E5.02983
G1 X41.882 Y135.035 E0.02543
G1 X41.289 Y134.679 E0.02166
G1 X40.824 Y134.169 E0.02166
G1 X40.526 Y133.546 E0.02166
G1 X40.419 Y132.863 E0.02166
G1 X41.262 Y74.949 E1.81607
M73 P0 R162
G1 X41.463 Y74.059 E0.02860
G1 X41.984 Y73.310 E0.02860
G1 X42.699 Y72.846 E0.02672
; printing object b-c.stl id:0 copy 0
;WIPE_START
G1 F8640.000
G1 X43.641 Y72.640 E-0.22268
G1 X46.791 Y72.667 E-0.72732
;WIPE_END
G1 E-0.05000 F2100.000
G1 Z0.400 F10800.000
G1 X101.473 Y98.731
G1 Z0.200
G1 E1.00000 F2100.000
;TYPE:Perimeter
G1 F1200.000
G1 X101.608 Y98.205 E0.01703
G1 X101.802 Y97.749 E0.01554
G1 X102.077 Y97.307 E0.01631
G1 X102.418 Y96.912 E0.01637
G1 X102.818 Y96.575 E0.01642
G1 X103.267 Y96.304 E0.01643
G1 X103.756 Y96.106 E0.01655
G1 X104.290 Y95.987 E0.01713
G1 X104.755 Y95.954 E0.01461
G1 X160.887 Y96.432 E1.76005
G1 X161.377 Y96.474 E0.01543
G1 X161.860 Y96.595 E0.01561
G1 X162.366 Y96.805 E0.01719
G1 X162.811 Y97.085 E0.01648
G1 X163.187 Y97.411 E0.01560
G1 X163.540 Y97.828 E0.01713
G1 X163.808 Y98.276 E0.01639
G1 X164.003 Y98.759 E0.01633
G1 X164.120 Y99.266 E0.01630
G1 X164.154 Y99.756 E0.01539
G1 X163.911 Y128.339 E0.89624
G1 X163.869 Y128.829 E0.01542
G1 X163.742 Y129.335 E0.01638
G1 X163.539 Y129.816 E0.01637
G1 X163.262 Y130.260 E0.01639
G1 X162.919 Y130.654 E0.01638
G1 X162.519 Y130.990 E0.01638
G1 X162.071 Y131.259 E0.01638
G1 X161.587 Y131.455 E0.01638
G1 X161.078 Y131.573 E0.01638
G1 X160.587 Y131.607 E0.01541
G1 X104.455 Y131.130 E1.76004
G1 X103.966 Y131.087 E0.01542
G1 X103.459 Y130.961 E0.01637
G1 X102.978 Y130.757 E0.01639
G1 X102.535 Y130.480 E0.01638
G1 X102.140 Y130.137 E0.01639
G1 X101.804 Y129.737 E0.01637
G1 X101.535 Y129.290 E0.01638
G1 X101.339 Y128.805 E0.01639
G1 X101.222 Y128.296 E0.01638
G1 X101.187 Y127.806 E0.01541
G1 X101.430 Y99.222 E0.89624
G1 X101.468 Y98.791 E0.01358
G1 X101.843 Y98.824 F10800.000
;TYPE:External perimeter
G1 F1200.000
G1 X101.966 Y98.326 E0.01606
G1 X102.137 Y97.923 E0.01373
G1 X102.381 Y97.531 E0.01447
G1 X102.684 Y97.182 E0.01451
G1 X103.039 Y96.882 E0.01455
G1 X103.436 Y96.642 E0.01456
G1 X103.869 Y96.467 E0.01463
G1 X104.344 Y96.361 E0.01527
G1 X104.766 Y96.332 E0.01326
G1 X160.869 Y96.808 E1.75912
G1 X161.314 Y96.847 E0.01403
G1 X161.741 Y96.954 E0.01379
G1 X162.192 Y97.141 E0.01532
G1 X162.586 Y97.389 E0.01458
G1 X162.918 Y97.677 E0.01378
G1 X163.232 Y98.048 E0.01526
G1 X163.470 Y98.445 E0.01449
G1 X163.643 Y98.873 E0.01448
G1 X163.746 Y99.322 E0.01444
G1 X163.777 Y99.767 E0.01400
G1 X163.535 Y128.321 E0.89531
G1 X163.496 Y128.766 E0.01402
G1 X163.384 Y129.216 E0.01452
G1 X163.203 Y129.642 E0.01451
G1 X162.958 Y130.035 E0.01452
G1 X162.654 Y130.384 E0.01452
G1 X162.299 Y130.682 E0.01452
G1 X161.902 Y130.921 E0.01452
G1 X161.473 Y131.094 E0.01452
G1 X161.022 Y131.198 E0.01452
G1 X160.576 Y131.230 E0.01402
G1 X104.473 Y130.753 E1.75912
G1 X104.028 Y130.714 E0.01402
G1 X103.579 Y130.602 E0.01451
G1 X103.152 Y130.421 E0.01453
G1 X102.760 Y130.176 E0.01452
G1 X102.410 Y129.872 E0.01453
G1 X102.112 Y129.517 E0.01451
G1 X101.873 Y129.121 E0.01452
G1 X101.700 Y128.691 E0.01452
G1 X101.596 Y128.240 E0.01452
G1 X101.564 Y127.794 E0.01401
G1 X101.807 Y99.240 E0.89531
M73 Q0 S164
G1 X101.838 Y98.883 E0.01124
G1 X101.534 Y98.570 F10800.000
;WIPE_START
G1 F8640.000
G1 X101.966 Y98.326 E-0.13199
G1 X102.137 Y97.923 E-0.10110
G1 X102.381 Y97.531 E-0.10654
G1 X102.684 Y97.182 E-0.10685
G1 X103.039 Y96.882 E-0.10718
G1 X103.436 Y96.642 E-0.10725
G1 X103.869 Y96.467 E-0.10775
G1 X104.344 Y96.361 E-0.11243
G1 X104.642 Y96.340 E-0.06891
;WIPE_END
G1 E-0.05000 F2100.000
G1 Z0.400 F10800.000
G1 X91.700 Y83.431
G1 Z0.200
G1 E1.00000 F2100.000
;TYPE:Perimeter
G1 F1200.000
G1 X91.220 Y83.707 E0.01738
G1 X90.679 Y83.916 E0.01818
G1 X90.113 Y84.040 E0.01816
G1 X89.535 Y84.076 E0.01817
G1 X88.957 Y84.023 E0.01818
G1 X88.395 Y83.883 E0.01816
G1 X87.859 Y83.657 E0.01822
G1 X87.365 Y83.353 E0.01819
G1 X86.924 Y82.977 E0.01818
G1 X86.545 Y82.539 E0.01817
G1 X86.251 Y82.070 E0.01735
G1 X86.009 Y81.516 E0.01898
G1 X85.864 Y80.952 E0.01823
G1 X85.807 Y80.375 E0.01819
G1 X85.838 Y79.796 E0.01817
G1 X85.952 Y79.254 E0.01736
G1 X86.163 Y78.688 E0.01897
G1 X86.449 Y78.181 E0.01824
G1 X86.809 Y77.727 E0.01816
G1 X87.213 Y77.349 E0.01735
G1 X87.713 Y77.007 E0.01900
G1 X88.238 Y76.758 E0.01822
G1 X88.794 Y76.594 E0.01816
G1 X89.341 Y76.517 E0.01733
G1 X89.921 Y76.524 E0.01818
G1 X90.518 Y76.625 E0.01899
G1 X91.044 Y76.800 E0.01737
G1 X91.559 Y77.062 E0.01814
G1 X92.030 Y77.401 E0.01819
G1 X92.444 Y77.809 E0.01823
G1 X92.803 Y78.297 E0.01899
G1 X93.060 Y78.787 E0.01735
G1 X93.250 Y79.334 E0.01815
G1 X93.353 Y79.905 E0.01819
G1 X93.368 Y80.487 E0.01824
G1 X93.287 Y81.087 E0.01898
G1 X93.133 Y81.618 E0.01735
G1 X92.889 Y82.144 E0.01817
G1 X92.567 Y82.626 E0.01819
G1 X92.174 Y83.055 E0.01824
G1 X91.747 Y83.393 E0.01708
G1 X91.513 Y83.098 F10800.000
;TYPE:External perimeter
G1 F1200.000
G1 X91.057 Y83.366 E0.01659
G1 X90.570 Y83.554 E0.01637
G1 X90.060 Y83.665 E0.01635
G1 X89.540 Y83.698 E0.01635
G1 X89.020 Y83.650 E0.01637
G1 X88.514 Y83.524 E0.01635
G1 X88.032 Y83.321 E0.01640
G1 X87.588 Y83.047 E0.01637
G1 X87.190 Y82.709 E0.01636
G1 X86.849 Y82.314 E0.01636
G1 X86.585 Y81.894 E0.01557
G1 X86.366 Y81.392 E0.01715
G1 X86.236 Y80.886 E0.01638
G1 X86.185 Y80.367 E0.01637
G1 X86.213 Y79.846 E0.01636
G1 X86.315 Y79.359 E0.01557
G1 X86.506 Y78.847 E0.01714
G1 X86.763 Y78.392 E0.01639
G1 X87.087 Y77.983 E0.01636
G1 X87.449 Y77.644 E0.01556
G1 X87.901 Y77.335 E0.01717
G1 X88.373 Y77.112 E0.01637
G1 X88.874 Y76.963 E0.01636
G1 X89.365 Y76.895 E0.01556
G1 X89.887 Y76.900 E0.01636
G1 X90.426 Y76.992 E0.01715
G1 X90.898 Y77.149 E0.01558
G1 X91.362 Y77.385 E0.01635
G1 X91.786 Y77.690 E0.01637
G1 X92.158 Y78.057 E0.01638
G1 X92.483 Y78.498 E0.01716
G1 X92.713 Y78.937 E0.01557
G1 X92.884 Y79.430 E0.01635
G1 X92.977 Y79.944 E0.01637
G1 X92.991 Y80.466 E0.01639
G1 X92.918 Y81.009 E0.01715
G1 X92.779 Y81.485 E0.01557
G1 X92.559 Y81.959 E0.01636
G1 X92.270 Y82.393 E0.01637
G1 X91.916 Y82.779 E0.01639
G1 X91.560 Y83.061 E0.01425
G1 X91.545 Y83.496 F10800.000
;WIPE_START
G1 F8640.000
G1 X91.057 Y83.366 E-0.13592
G1 X90.570 Y83.554 E-0.12053
G1 X90.060 Y83.665 E-0.12038
G1 X89.540 Y83.698 E-0.12041
G1 X89.020 Y83.650 E-0.12053
G1 X88.514 Y83.524 E-0.12039
G1 X88.032 Y83.321 E-0.12078
G1 X87.696 Y83.114 E-0.09105
;WIPE_END
G1 E-0.05000 F2100.000
G1 Z0.400 F10800.000
G1 X83.871 Y91.510
G1 Z0.200
G1 E1.00000 F2100.000
;TYPE:Perimeter
G1 F1200.000
G1 X84.230 Y91.998 E0.01898
G1 X84.488 Y92.488 E0.01736
G1 X84.677 Y93.035 E0.01816
G1 X84.780 Y93.606 E0.01818
G1 X84.795 Y94.188 E0.01825
G1 X84.714 Y94.787 E0.01898
G1 X84.560 Y95.319 E0.01735
G1 X84.316 Y95.844 E0.01816
G1 X83.995 Y96.327 E0.01819
G1 X83.601 Y96.756 E0.01826
G1 X83.127 Y97.131 E0.01897
G1 X82.647 Y97.408 E0.01737
G1 X82.106 Y97.616 E0.01817
G1 X81.540 Y97.740 E0.01818
G1 X80.961 Y97.776 E0.01816
G1 X80.384 Y97.723 E0.01818
G1 X79.822 Y97.583 E0.01817
G1 X79.287 Y97.358 E0.01820
G1 X78.792 Y97.054 E0.01820
G1 X78.351 Y96.678 E0.01818
G1 X77.972 Y96.240 E0.01817
G1 X77.678 Y95.771 E0.01736
G1 X77.436 Y95.216 E0.01897
G1 X77.291 Y94.652 E0.01825
G1 X77.234 Y94.075 E0.01818
G1 X77.266 Y93.497 E0.01815
G1 X77.379 Y92.956 E0.01735
G1 X77.590 Y92.388 E0.01900
G1 X77.877 Y91.882 E0.01823
G1 X78.236 Y91.427 E0.01816
G1 X78.640 Y91.049 E0.01737
G1 X79.140 Y90.707 E0.01899
G1 X79.666 Y90.459 E0.01823
G1 X80.220 Y90.294 E0.01814
G1 X80.768 Y90.218 E0.01733
G1 X81.348 Y90.224 E0.01818
G1 X81.945 Y90.326 E0.01901
G1 X82.471 Y90.500 E0.01736
G1 X82.987 Y90.763 E0.01815
G1 X83.457 Y91.102 E0.01818
G1 X83.829 Y91.468 E0.01635
G1 X83.564 Y91.737 F10800.000
;TYPE:External perimeter
G1 F1200.000
G1 X83.910 Y92.198 E0.01808
G1 X84.141 Y92.638 E0.01557
G1 X84.311 Y93.131 E0.01636
G1 X84.404 Y93.644 E0.01636
G1 X84.417 Y94.167 E0.01639
G1 X84.344 Y94.709 E0.01715
G1 X84.206 Y95.186 E0.01557
G1 X83.986 Y95.659 E0.01636
G1 X83.697 Y96.094 E0.01637
G1 X83.344 Y96.479 E0.01640
G1 X82.915 Y96.818 E0.01715
G1 X82.484 Y97.066 E0.01559
G1 X81.997 Y97.254 E0.01636
G1 X81.487 Y97.366 E0.01636
G1 X80.967 Y97.398 E0.01635
G1 X80.447 Y97.351 E0.01637
G1 X79.941 Y97.224 E0.01635
G1 X79.460 Y97.022 E0.01638
G1 X79.015 Y96.748 E0.01638
G1 X78.617 Y96.410 E0.01636
G1 X78.276 Y96.015 E0.01636
G1 X78.012 Y95.594 E0.01557
G1 X77.793 Y95.093 E0.01715
G1 X77.663 Y94.587 E0.01639
G1 X77.612 Y94.067 E0.01636
G1 X77.641 Y93.546 E0.01636
G1 X77.742 Y93.060 E0.01556
G1 X77.933 Y92.548 E0.01716
G1 X78.191 Y92.093 E0.01638
G1 X78.514 Y91.684 E0.01636
G1 X78.877 Y91.344 E0.01557
G1 X79.328 Y91.036 E0.01715
G1 X79.801 Y90.812 E0.01639
G1 X80.301 Y90.664 E0.01635
G1 X80.792 Y90.595 E0.01556
G1 X81.314 Y90.601 E0.01636
G1 X81.854 Y90.692 E0.01717
G1 X82.325 Y90.849 E0.01557
G1 X82.790 Y91.086 E0.01636
G1 X83.213 Y91.391 E0.01636
G1 X83.521 Y91.694 E0.01356
G1 X83.957 Y91.659 F10800.000
;WIPE_START
G1 F8640.000
G1 X83.910 Y92.198 E-0.14685
G1 X84.141 Y92.638 E-0.11467
G1 X84.311 Y93.131 E-0.12048
G1 X84.404 Y93.644 E-0.12049
G1 X84.417 Y94.167 E-0.12073
G1 X84.344 Y94.709 E-0.12629
G1 X84.206 Y95.186 E-0.11463
G1 X84.049 Y95.523 E-0.08587
;WIPE_END
G1 E-0.05000 F2100.000
G1 Z0.400 F10800.000
G1 X64.315 Y81.879
G1 Z0.200
G1 E1.00000 F2100.000
;TYPE:Perimeter
G1 F1200.000
G1 X63.993 Y82.361 E0.01819
G1 X63.601 Y82.790 E0.01824
G1 X63.126 Y83.166 E0.01896
G1 X62.645 Y83.442 E0.01739
G1 X62.105 Y83.651 E0.01816
G1 X61.539 Y83.775 E0.01817
G1 X60.960 Y83.811 E0.01818
G1 X60.383 Y83.758 E0.01816
G1 X59.847 Y83.624 E0.01735
G1 X59.288 Y83.394 E0.01894
G1 X58.792 Y83.089 E0.01828
G1 X58.350 Y82.713 E0.01819
G1 X57.971 Y82.274 E0.01818
G1 X57.677 Y81.805 E0.01734
G1 X57.435 Y81.251 E0.01896
G1 X57.290 Y80.687 E0.01824
G1 X57.233 Y80.110 E0.01819
G1 X57.265 Y79.531 E0.01817
G1 X57.378 Y78.990 E0.01735
G1 X57.589 Y78.422 E0.01898
G1 X57.876 Y77.916 E0.01824
G1 X58.235 Y77.462 E0.01816
G1 X58.639 Y77.084 E0.01736
G1 X59.139 Y76.742 E0.01899
G1 X59.665 Y76.493 E0.01824
G1 X60.220 Y76.329 E0.01815
G1 X60.767 Y76.252 E0.01733
G1 X61.347 Y76.259 E0.01818
G1 X61.944 Y76.360 E0.01899
G1 X62.470 Y76.535 E0.01738
G1 X62.986 Y76.797 E0.01815
G1 X63.456 Y77.136 E0.01818
G1 X63.870 Y77.544 E0.01823
G1 X64.230 Y78.032 E0.01900
G1 X64.487 Y78.522 E0.01735
G1 X64.676 Y79.070 E0.01816
G1 X64.779 Y79.641 E0.01819
G1 X64.794 Y80.222 E0.01822
G1 X64.714 Y80.822 E0.01898
G1 X64.559 Y81.353 E0.01736
G1 X64.341 Y81.824 E0.01629
G1 X63.999 Y81.666 F10800.000
;TYPE:External perimeter
G1 F1200.000
G1 X63.696 Y82.128 E0.01733
G1 X63.343 Y82.514 E0.01639
G1 X62.914 Y82.853 E0.01714
G1 X62.483 Y83.101 E0.01560
G1 X61.996 Y83.289 E0.01635
G1 X61.487 Y83.400 E0.01635
G1 X60.966 Y83.433 E0.01637
G1 X60.447 Y83.385 E0.01635
G1 X59.965 Y83.265 E0.01558
G1 X59.460 Y83.057 E0.01711
G1 X59.014 Y82.783 E0.01642
G1 X58.616 Y82.444 E0.01638
G1 X58.275 Y82.049 E0.01637
G1 X58.012 Y81.628 E0.01556
G1 X57.793 Y81.127 E0.01714
G1 X57.662 Y80.621 E0.01639
G1 X57.611 Y80.102 E0.01637
G1 X57.640 Y79.581 E0.01636
G1 X57.741 Y79.095 E0.01557
G1 X57.932 Y78.582 E0.01715
G1 X58.190 Y78.127 E0.01639
G1 X58.513 Y77.718 E0.01636
G1 X58.876 Y77.379 E0.01557
G1 X59.327 Y77.070 E0.01715
G1 X59.800 Y76.847 E0.01639
G1 X60.300 Y76.698 E0.01636
G1 X60.791 Y76.630 E0.01556
G1 X61.313 Y76.635 E0.01636
G1 X61.853 Y76.727 E0.01715
G1 X62.324 Y76.884 E0.01558
G1 X62.789 Y77.120 E0.01635
G1 X63.212 Y77.425 E0.01636
G1 X63.584 Y77.792 E0.01639
G1 X63.909 Y78.233 E0.01716
G1 X64.140 Y78.672 E0.01557
G1 X64.310 Y79.165 E0.01636
G1 X64.403 Y79.679 E0.01637
G1 X64.416 Y80.201 E0.01638
G1 X64.344 Y80.743 E0.01715
G1 X64.205 Y81.220 E0.01557
G1 X64.024 Y81.611 E0.01351
G1 X64.205 Y82.008 F10800.000
;WIPE_START
G1 F8640.000
G1 X63.696 Y82.128 E-0.14135
G1 X63.343 Y82.514 E-0.12070
G1 X62.914 Y82.853 E-0.12623
G1 X62.483 Y83.101 E-0.11492
G1 X61.996 Y83.289 E-0.12041
G1 X61.487 Y83.400 E-0.12040
G1 X60.966 Y83.433 E-0.12052
G1 X60.597 Y83.399 E-0.08547
;WIPE_END
G1 E-0.05000 F2100.000
G1 Z0.400 F10800.000
G1 X165.118 Y124.316
G1 Z0.200
G1 E1.00000 F2100.000
;TYPE:Perimeter
G1 F1200.000
G1 X165.405 Y123.810 E0.01824
G1 X165.764 Y123.356 E0.01816
G1 X166.168 Y122.977 E0.01735
G1 X166.669 Y122.635 E0.01900
G1 X167.194 Y122.387 E0.01821
G1 X167.749 Y122.222 E0.01816
G1 X168.296 Y122.146 E0.01733
G1 X168.876 Y122.152 E0.01818
G1 X169.474 Y122.254 E0.01903
G1 X170.024 Y122.439 E0.01819
G1 X170.515 Y122.691 E0.01732
G1 X170.985 Y123.030 E0.01816
G1 X171.399 Y123.438 E0.01823
G1 X171.759 Y123.926 E0.01899
G1 X172.016 Y124.416 E0.01735
G1 X172.205 Y124.963 E0.01815
G1 X172.309 Y125.534 E0.01819
G1 X172.324 Y126.115 E0.01824
G1 X172.243 Y126.715 E0.01898
G1 X172.088 Y127.247 E0.01735
G1 X171.844 Y127.772 E0.01817
G1 X171.522 Y128.255 E0.01819
G1 X171.129 Y128.684 E0.01824
G1 X170.655 Y129.059 E0.01896
G1 X170.175 Y129.336 E0.01738
G1 X169.634 Y129.544 E0.01818
G1 X169.068 Y129.668 E0.01816
G1 X168.489 Y129.704 E0.01818
G1 X167.912 Y129.651 E0.01817
G1 X167.376 Y129.518 E0.01733
G1 X166.817 Y129.288 E0.01895
G1 X166.321 Y128.982 E0.01829
G1 X165.879 Y128.606 E0.01818
G1 X165.500 Y128.168 E0.01817
G1 X165.206 Y127.699 E0.01735
G1 X164.964 Y127.144 E0.01898
G1 X164.819 Y126.581 E0.01823
G1 X164.762 Y126.004 E0.01819
G1 X164.794 Y125.425 E0.01817
G1 X164.907 Y124.883 E0.01736
G1 X165.097 Y124.372 E0.01709
G1 X165.451 Y124.504 F10800.000
;TYPE:External perimeter
G1 F1200.000
G1 X165.719 Y124.021 E0.01732
G1 X166.042 Y123.612 E0.01636
G1 X166.405 Y123.272 E0.01556
G1 X166.857 Y122.964 E0.01716
G1 X167.329 Y122.740 E0.01637
G1 X167.829 Y122.592 E0.01636
G1 X168.320 Y122.523 E0.01556
G1 X168.842 Y122.529 E0.01636
G1 X169.382 Y122.620 E0.01717
G1 X169.877 Y122.787 E0.01637
G1 X170.318 Y123.014 E0.01555
G1 X170.741 Y123.319 E0.01636
G1 X171.114 Y123.686 E0.01638
G1 X171.438 Y124.126 E0.01716
G1 X171.669 Y124.566 E0.01557
