; generated by PrusaSlicer 2.3.0+win64 on 2021-04-21 at 23:34:09 UTC

; 

; external perimeters extrusion width = 0.60mm
; perimeters extrusion width = 0.50mm
; infill extrusion width = 0.50mm
; solid infill extrusion width = 0.50mm
; top infill extrusion width = 0.45mm
; first layer extrusion width = 0.42mm

M73 P0 R56
M73 Q0 S57
M201 X1000 Y1000 Z200 E5000 ; sets maximum accelerations, mm/sec^2
M203 X200 Y200 Z12 E120 ; sets maximum feedrates, mm/sec
M204 P1250 R1250 T1250 ; sets acceleration (P, T) and retract acceleration (R), mm/sec^2
M205 X8.00 Y8.00 Z0.40 E4.50 ; sets the jerk limits, mm/sec
M205 S0 T0 ; sets the minimum extruding and travel feed rate, mm/sec
M107
;TYPE:Custom
M862.3 P "MK3S" ; printer model check
M862.1 P0.4 ; nozzle diameter check
M115 U3.9.1 ; tell printer latest fw version
G90 ; use absolute coordinates
M83 ; extruder relative mode
M104 S240 ; set extruder temp
M140 S85 ; set bed temp
M190 S85 ; wait for bed temp
M109 S240 ; wait for extruder temp
G28 W ; home all without mesh bed level
G80 ; mesh bed leveling
G1 Y-3.0 F1000.0 ; go outside print area
G92 E0.0
G1 X60.0 E9.0 F1000.0 ; intro line
G1 X100.0 E12.5 F1000.0 ; intro line
G92 E0.0
M221 S95

; Don't change E values below. Excessive value can damage the printer.

M907 E538 ; set extruder motor current
G21 ; set units to millimeters
G90 ; use absolute coordinates
M83 ; use relative distances for extrusion
M900 K0.08 ; Filament gcode LA 1.5
M900 K45 ; Filament gcode LA 1.0
;LAYER_CHANGE
;Z:0.2
;HEIGHT:0.2
;BEFORE_LAYER_CHANGE
G92 E0.0
;0.2


G1 E-1.40000 F2100.000
G1 Z0.200 F10800.000
;AFTER_LAYER_CHANGE
;0.2
G1 Z0.400
G1 X75.263 Y90.244
G1 Z0.200
G1 E1.40000 F2100.000
M204 S1000
;TYPE:Skirt
;WIDTH:0.42
G1 F1200.000
G1 X75.740 Y89.574 E0.02579
G1 X76.807 Y88.709 E0.04307
G1 X78.698 Y87.439 E0.07140
G1 X80.608 Y86.426 E0.06782
G1 X81.681 Y85.959 E0.03667
G1 X82.813 Y85.540 E0.03786
G1 X84.200 Y85.144 E0.04522
G1 X107.909 Y83.577 E0.74500
G1 X141.950 Y83.573 E1.06732
G1 X142.848 Y83.751 E0.02872
G1 X143.613 Y84.255 E0.02872
G1 X145.465 Y86.153 E0.08314
G1 X145.786 Y86.777 E0.02201
G1 X145.910 Y87.465 E0.02190
G1 X145.903 Y118.019 E0.95801
G1 X145.741 Y118.706 E0.02213
G1 X145.385 Y119.316 E0.02213
G1 X143.589 Y121.131 E0.08007
G1 X143.123 Y121.478 E0.01823
G1 X131.274 Y125.488 E0.39219
G1 X128.867 Y126.074 E0.07768
G1 X127.507 Y126.280 E0.04312
G1 X125.021 Y126.427 E0.07809
G1 X94.863 Y126.546 E0.94561
G1 X84.497 Y126.546 E0.32500
G1 X83.924 Y126.472 E0.01811
G1 X81.657 Y125.700 E0.07510
G1 X79.702 Y124.793 E0.06758
G1 X78.702 Y124.232 E0.03595
G1 X76.726 Y122.898 E0.07474
G1 X75.767 Y122.121 E0.03869
G1 X75.344 Y121.580 E0.02154
G1 X75.113 Y121.022 E0.01894
G1 X75.031 Y120.424 E0.01894
G1 X75.042 Y91.036 E0.92143
G1 X75.247 Y90.302 E0.02390
;WIPE_START
G1 F8640.000
G1 X75.740 Y89.574 E-0.20297
G1 X76.807 Y88.709 E-0.31714
G1 X78.698 Y87.439 E-0.52582
G1 X79.784 Y86.863 E-0.28406
;WIPE_END
G1 E-0.07000 F2100.000
G1 Z0.400 F10800.000
G1 X138.512 Y113.578
G1 Z0.200
G1 E1.40000 F2100.000
;TYPE:External perimeter
;WIDTH:0.486904
G1 F1200.000
G1 X139.005 Y113.546 E0.01826
;WIDTH:0.508783
G1 X139.311 Y113.558 E0.01183
G1 X139.322 Y113.574 E0.00077
;WIDTH:0.405226
G1 X139.481 Y113.823 E0.00890
;WIPE_START
G1 F8640.000
G1 X139.322 Y113.574 E-0.06822
;WIPE_END
G1 E-1.33178 F2100.000
G1 Z0.400 F10800.000
G1 X111.435 Y113.829
G1 Z0.200
G1 E1.40000 F2100.000
;WIDTH:0.430228
G1 F1200.000
G1 X111.268 Y113.564 E0.01009
G1 X110.902 Y113.550 E0.01177
G1 X110.442 Y113.578 E0.01485
;WIPE_START
G1 F8640.000
G1 X110.902 Y113.550 E-0.10649
G1 X111.268 Y113.564 E-0.08437
G1 X111.435 Y113.829 E-0.07236
;WIPE_END
G1 E-1.13678 F2100.000
G1 Z0.400 F10800.000
G1 X109.047 Y114.073
G1 Z0.200
G1 E1.40000 F2100.000
;TYPE:Perimeter
;WIDTH:0.42
G1 F1200.000
G1 X108.767 Y114.668 E0.02062
G1 X108.679 Y115.176 E0.01618
G1 X108.713 Y115.679 E0.01578
G1 X108.854 Y116.155 E0.01559
G1 X109.096 Y116.591 E0.01562
G1 X109.448 Y116.978 E0.01640
G1 X109.822 Y117.251 E0.01452
G1 X110.275 Y117.450 E0.01552
G1 X110.764 Y117.549 E0.01565
G1 X111.260 Y117.539 E0.01554
G1 X111.741 Y117.423 E0.01553
G1 X112.187 Y117.206 E0.01555
G1 X112.576 Y116.898 E0.01554
G1 X112.889 Y116.514 E0.01553
G1 X113.112 Y116.071 E0.01554
G1 X113.227 Y115.618 E0.01466
G1 X113.249 Y115.088 E0.01665
G1 X113.137 Y114.577 E0.01639
G1 X112.860 Y114.057 E0.01848
G1 X113.160 Y114.093 E0.00947
G1 X113.675 Y114.110 E0.01618
G1 X117.841 Y114.112 E0.13061
G1 X117.841 Y89.536 E0.77057
G1 X113.175 Y89.550 E0.14631
G1 X112.781 Y89.589 E0.01239
G1 X112.976 Y89.359 E0.00943
G1 X113.183 Y88.872 E0.01661
G1 X113.256 Y88.365 E0.01606
G1 X113.211 Y87.865 E0.01575
G1 X113.056 Y87.387 E0.01574
G1 X112.791 Y86.952 E0.01597
G1 X112.555 Y86.722 E0.01034
G1 X113.030 Y86.735 E0.01489
G1 X136.468 Y86.737 E0.73487
M73 Q0 S56
G1 X137.482 Y86.723 E0.03180
G1 X137.248 Y86.950 E0.01023
G1 X136.970 Y87.414 E0.01696
G1 X136.821 Y87.895 E0.01581
G1 X136.782 Y88.395 E0.01572
G1 X136.861 Y88.899 E0.01597
G1 X137.058 Y89.355 E0.01559
G1 X137.265 Y89.606 E0.01020
G1 X136.820 Y89.570 E0.01401
G1 X132.159 Y89.562 E0.14614
G1 X132.159 Y114.112 E0.76977
G1 X135.839 Y114.112 E0.11538
G1 X136.836 Y114.093 E0.03126
G1 X137.117 Y114.060 E0.00889
G1 X136.828 Y114.713 E0.02238
G1 X136.750 Y115.190 E0.01517
G1 X136.787 Y115.691 E0.01573
G1 X136.934 Y116.175 E0.01588
G1 X137.180 Y116.607 E0.01558
G1 X137.512 Y116.975 E0.01554
G1 X137.915 Y117.264 E0.01555
G1 X138.371 Y117.458 E0.01553
G1 X138.857 Y117.550 E0.01553
G1 X139.348 Y117.536 E0.01540
G1 X139.828 Y117.416 E0.01551
G1 X140.275 Y117.195 E0.01565
G1 X140.679 Y116.861 E0.01642
G1 X140.969 Y116.499 E0.01453
G1 X141.188 Y116.056 E0.01551
G1 X141.308 Y115.573 E0.01560
G1 X141.318 Y115.069 E0.01582
G1 X141.203 Y114.562 E0.01628
G1 X140.936 Y114.073 E0.01749
G1 X141.592 Y114.107 E0.02061
G1 X142.746 Y114.110 E0.03619
G1 X142.746 Y117.499 E0.10624
G1 X141.620 Y118.625 E0.04995
G1 X137.177 Y118.625 E0.13929
G1 X136.101 Y119.502 E0.04352
G1 X135.221 Y120.135 E0.03399
G1 X134.304 Y120.715 E0.03401
G1 X133.355 Y121.239 E0.03401
G1 X132.376 Y121.707 E0.03401
G1 X131.371 Y122.115 E0.03401
G1 X130.344 Y122.463 E0.03401
G1 X129.298 Y122.750 E0.03401
G1 X128.237 Y122.973 E0.03401
G1 X127.164 Y123.134 E0.03401
G1 X126.084 Y123.230 E0.03401
G1 X125.000 Y123.263 E0.03401
G1 X123.916 Y123.230 E0.03401
G1 X122.836 Y123.134 E0.03401
G1 X121.763 Y122.973 E0.03401
G1 X120.702 Y122.750 E0.03401
G1 X119.656 Y122.463 E0.03401
G1 X118.629 Y122.115 E0.03401
G1 X117.624 Y121.707 E0.03401
G1 X116.645 Y121.239 E0.03401
G1 X115.696 Y120.715 E0.03401
G1 X114.779 Y120.135 E0.03401
G1 X113.899 Y119.501 E0.03401
G1 X112.823 Y118.625 E0.04351
G1 X108.380 Y118.625 E0.13929
G1 X107.254 Y117.499 E0.04995
G1 X107.254 Y114.110 E0.10624
G1 X108.408 Y114.107 E0.03620
G1 X108.987 Y114.076 E0.01818
;WIPE_START
G1 F8640.000
G1 X108.767 Y114.668 E-0.14577
G1 X108.679 Y115.176 E-0.11916
G1 X108.713 Y115.679 E-0.11620
G1 X108.854 Y116.155 E-0.11482
G1 X109.096 Y116.591 E-0.11503
G1 X109.448 Y116.978 E-0.12077
G1 X109.822 Y117.251 E-0.10691
G1 X110.275 Y117.450 E-0.11426
G1 X110.764 Y117.549 E-0.11523
G1 X111.260 Y117.539 E-0.11446
G1 X111.741 Y117.423 E-0.11436
G1 X111.870 Y117.360 E-0.03304
;WIPE_END
G1 E-0.07000 F2100.000
G1 Z0.400 F10800.000
G1 X109.091 Y89.571
G1 Z0.200
G1 E1.40000 F2100.000
G1 F1200.000
G1 X108.405 Y89.541 E0.02153
G1 X107.254 Y89.539 E0.03610
G1 X107.254 Y87.864 E0.05254
G1 X108.384 Y86.733 E0.05014
G1 X109.364 Y86.715 E0.03071
G1 X109.033 Y87.105 E0.01603
G1 X108.808 Y87.558 E0.01587
G1 X108.692 Y88.046 E0.01571
G1 X108.688 Y88.550 E0.01581
G1 X108.807 Y89.053 E0.01620
G1 X109.062 Y89.519 E0.01664
;WIPE_START
G1 F8640.000
G1 X108.405 Y89.541 E-0.15184
G1 X107.254 Y89.539 E-0.26582
G1 X107.254 Y87.864 E-0.38690
G1 X108.384 Y86.733 E-0.36925
G1 X109.061 Y86.721 E-0.15619
;WIPE_END
G1 E-0.07000 F2100.000
G1 Z0.400 F10800.000
G1 X140.673 Y86.721
G1 Z0.200
G1 E1.40000 F2100.000
G1 F1200.000
G1 X141.619 Y86.736 E0.02966
G1 X142.746 Y87.864 E0.05000
G1 X142.746 Y89.564 E0.05331
G1 X141.595 Y89.566 E0.03611
G1 X140.938 Y89.595 E0.02062
G1 X141.241 Y89.023 E0.02031
G1 X141.351 Y88.518 E0.01621
G1 X141.340 Y88.015 E0.01578
G1 X141.218 Y87.531 E0.01564
G1 X141.003 Y87.107 E0.01490
G1 X140.712 Y86.766 E0.01406
;WIPE_START
G1 F8640.000
G1 X141.619 Y86.736 E-0.20953
G1 X142.746 Y87.864 E-0.36823
G1 X142.746 Y89.564 E-0.39262
G1 X141.595 Y89.566 E-0.26590
G1 X141.189 Y89.584 E-0.09373
;WIPE_END
G1 E-0.07000 F2100.000
G1 Z0.400 F10800.000
G1 X132.536 Y89.939
G1 Z0.200
G1 E1.40000 F2100.000
;TYPE:External perimeter
G1 F1200.000
G1 X132.536 Y113.735 E0.74610
G1 X135.835 Y113.735 E0.10345
G1 X136.810 Y113.717 E0.03057
G1 X137.313 Y113.658 E0.01586
G1 X137.786 Y113.552 E0.01520
G1 X138.280 Y113.534 E0.01550
G1 X138.330 Y113.702 E0.00551
G1 X137.661 Y114.101 E0.02442
G1 X137.375 Y114.410 E0.01320
G1 X137.192 Y114.821 E0.01411
G1 X137.130 Y115.207 E0.01226
G1 X137.160 Y115.621 E0.01302
G1 X137.283 Y116.026 E0.01325
G1 X137.487 Y116.385 E0.01298
G1 X137.764 Y116.692 E0.01297
G1 X138.101 Y116.933 E0.01298
G1 X138.481 Y117.095 E0.01296
G1 X138.887 Y117.172 E0.01296
G1 X139.297 Y117.160 E0.01285
G1 X139.697 Y117.060 E0.01295
G1 X140.069 Y116.876 E0.01300
G1 X140.409 Y116.595 E0.01383
G1 X140.649 Y116.295 E0.01204
G1 X140.832 Y115.925 E0.01295
G1 X140.932 Y115.524 E0.01298
G1 X140.940 Y115.107 E0.01306
G1 X140.847 Y114.697 E0.01319
G1 X140.642 Y114.320 E0.01344
G1 X140.329 Y114.044 E0.01308
G1 X139.730 Y113.703 E0.02159
G1 X139.775 Y113.535 E0.00546
G1 X140.143 Y113.535 E0.01154
G1 X140.610 Y113.632 E0.01494
G1 X141.107 Y113.704 E0.01575
G1 X141.603 Y113.730 E0.01557
G1 X143.124 Y113.734 E0.04768
G1 X143.124 Y117.655 E0.12293
M73 Q1 S56
G1 X141.776 Y119.002 E0.05974
G1 X137.311 Y119.002 E0.13999
M73 P1 R56
G1 X136.330 Y119.801 E0.03967
G1 X135.432 Y120.447 E0.03469
G1 X134.496 Y121.039 E0.03471
G1 X133.528 Y121.575 E0.03471
G1 X132.529 Y122.052 E0.03471
G1 X131.503 Y122.469 E0.03471
G1 X130.455 Y122.824 E0.03471
G1 X129.387 Y123.116 E0.03471
G1 X128.304 Y123.345 E0.03471
G1 X127.209 Y123.508 E0.03471
G1 X126.106 Y123.607 E0.03471
G1 X125.000 Y123.640 E0.03471
G1 X123.894 Y123.607 E0.03471
G1 X122.791 Y123.508 E0.03471
G1 X121.696 Y123.345 E0.03471
G1 X120.613 Y123.116 E0.03471
G1 X119.545 Y122.824 E0.03471
G1 X118.497 Y122.469 E0.03471
G1 X117.471 Y122.052 E0.03471
G1 X116.472 Y121.575 E0.03471
G1 X115.504 Y121.039 E0.03471
G1 X114.568 Y120.447 E0.03471
G1 X113.670 Y119.801 E0.03471
G1 X112.689 Y119.002 E0.03966
G1 X108.224 Y119.002 E0.13999
G1 X106.876 Y117.655 E0.05974
G1 X106.876 Y113.734 E0.12293
G1 X108.397 Y113.730 E0.04769
G1 X108.893 Y113.704 E0.01558
G1 X109.390 Y113.632 E0.01575
G1 X109.856 Y113.535 E0.01491
G1 X110.214 Y113.537 E0.01121
G1 X110.258 Y113.704 E0.00540
G1 X109.599 Y114.092 E0.02399
G1 X109.311 Y114.398 E0.01319
G1 X109.129 Y114.783 E0.01332
G1 X109.058 Y115.196 E0.01316
G1 X109.086 Y115.611 E0.01304
G1 X109.204 Y116.008 E0.01298
G1 X109.405 Y116.370 E0.01296
G1 X109.701 Y116.696 E0.01382
G1 X110.011 Y116.922 E0.01203
G1 X110.389 Y117.089 E0.01295
G1 X110.798 Y117.171 E0.01307
G1 X111.211 Y117.163 E0.01296
G1 X111.613 Y117.066 E0.01296
G1 X111.985 Y116.885 E0.01298
G1 X112.309 Y116.628 E0.01297
G1 X112.570 Y116.307 E0.01296
G1 X112.757 Y115.938 E0.01296
G1 X112.852 Y115.563 E0.01213
G1 X112.871 Y115.121 E0.01388
G1 X112.780 Y114.709 E0.01323
G1 X112.579 Y114.332 E0.01340
G1 X112.271 Y114.051 E0.01306
G1 X111.683 Y113.715 E0.02123
G1 X111.728 Y113.547 E0.00547
G1 X112.217 Y113.550 E0.01533
G1 X112.687 Y113.657 E0.01511
G1 X113.188 Y113.717 E0.01583
G1 X113.682 Y113.733 E0.01549
G1 X117.464 Y113.735 E0.11859
G1 X117.464 Y89.914 E0.74688
G1 X113.193 Y89.927 E0.13390
G1 X112.691 Y89.976 E0.01582
G1 X112.211 Y90.075 E0.01537
G1 X111.567 Y90.115 E0.02022
G1 X111.533 Y89.930 E0.00590
G1 X111.740 Y89.850 E0.00695
G1 X112.376 Y89.484 E0.02299
G1 X112.651 Y89.159 E0.01337
G1 X112.817 Y88.769 E0.01327
G1 X112.877 Y88.355 E0.01313
G1 X112.839 Y87.941 E0.01304
G1 X112.711 Y87.546 E0.01303
G1 X112.494 Y87.189 E0.01310
G1 X112.193 Y86.894 E0.01320
G1 X111.824 Y86.699 E0.01309
G1 X111.441 Y86.611 E0.01230
G1 X111.080 Y86.577 E0.01139
G1 X110.733 Y86.584 E0.01086
G1 X110.353 Y86.635 E0.01203
G1 X109.970 Y86.759 E0.01263
G1 X109.622 Y86.994 E0.01316
G1 X109.350 Y87.314 E0.01316
G1 X109.165 Y87.687 E0.01307
G1 X109.069 Y88.091 E0.01302
G1 X109.066 Y88.508 E0.01306
G1 X109.162 Y88.917 E0.01317
G1 X109.366 Y89.289 E0.01333
G1 X109.673 Y89.576 E0.01317
G1 X110.376 Y89.939 E0.02478
G1 X110.333 Y90.112 E0.00558
G1 X109.858 Y90.110 E0.01489
G1 X109.391 Y90.007 E0.01503
G1 X108.891 Y89.940 E0.01580
G1 X108.396 Y89.919 E0.01553
G1 X106.876 Y89.915 E0.04765
G1 X106.876 Y87.707 E0.06923
G1 X108.225 Y86.358 E0.05981
G1 X109.563 Y86.335 E0.04196
G1 X110.562 Y86.218 E0.03152
G1 X111.041 Y86.201 E0.01502
G1 X111.522 Y86.235 E0.01511
G1 X112.019 Y86.301 E0.01572
G1 X112.528 Y86.344 E0.01603
G1 X113.035 Y86.358 E0.01591
G1 X136.465 Y86.360 E0.73462
G1 X137.472 Y86.346 E0.03158
G1 X138.963 Y86.201 E0.04696
G1 X139.439 Y86.214 E0.01493
G1 X140.434 Y86.332 E0.03141
G1 X140.944 Y86.356 E0.01602
G1 X141.776 Y86.360 E0.02608
G1 X143.124 Y87.707 E0.05976
G1 X143.124 Y89.940 E0.07001
G1 X141.604 Y89.943 E0.04765
G1 X141.109 Y89.965 E0.01553
G1 X140.610 Y90.032 E0.01578
G1 X140.141 Y90.134 E0.01504
G1 X139.615 Y90.141 E0.01648
G1 X139.585 Y89.946 E0.00617
G1 X139.736 Y89.901 E0.00493
G1 X140.369 Y89.580 E0.02227
G1 X140.673 Y89.291 E0.01313
G1 X140.884 Y88.892 E0.01414
G1 X140.973 Y88.482 E0.01318
G1 X140.964 Y88.066 E0.01304
G1 X140.862 Y87.664 E0.01299
G1 X140.687 Y87.318 E0.01216
G1 X140.397 Y86.978 E0.01401
G1 X140.046 Y86.749 E0.01314
G1 X139.665 Y86.631 E0.01250
G1 X139.299 Y86.584 E0.01158
G1 X138.941 Y86.578 E0.01120
G1 X138.593 Y86.611 E0.01099
G1 X138.214 Y86.699 E0.01219
G1 X137.848 Y86.893 E0.01300
G1 X137.546 Y87.186 E0.01318
G1 X137.317 Y87.569 E0.01400
G1 X137.193 Y87.967 E0.01305
G1 X137.161 Y88.381 E0.01302
G1 X137.226 Y88.793 E0.01309
G1 X137.383 Y89.156 E0.01239
G1 X137.670 Y89.503 E0.01415
G1 X138.311 Y89.857 E0.02293
G1 X138.568 Y89.954 E0.00863
G1 X138.535 Y90.140 E0.00593
G1 X138.253 Y90.140 E0.00883
G1 X137.792 Y90.080 E0.01459
G1 X137.305 Y89.987 E0.01552
G1 X136.805 Y89.947 E0.01575
G1 X132.596 Y89.939 E0.13196
G1 X132.136 Y89.938 F10800.000
;WIPE_START
G1 F8640.000
G1 X132.582 Y95.699 E-1.33000
;WIPE_END
G1 E-0.07000 F2100.000
G1 Z0.400 F10800.000
G1 X136.799 Y87.585
G1 Z0.200
G1 E1.40000 F2100.000
;TYPE:Solid infill
;WIDTH:0.422555
G1 F1200.000
G1 X136.233 Y87.020 E0.02523
G1 X135.696 Y87.020 E0.01695
G1 X136.540 Y87.863 E0.03764
G1 X136.501 Y88.361 E0.01578
G1 X135.160 Y87.020 E0.05989
G1 X134.623 Y87.020 E0.01695
G1 X136.591 Y88.988 E0.08788
G1 X136.720 Y89.287 E0.01029
G1 X136.353 Y89.286 E0.01161
G1 X134.086 Y87.020 E0.10120
G1 X133.549 Y87.019 E0.01695
G1 X135.815 Y89.285 E0.10116
G1 X135.277 Y89.285 E0.01698
G1 X133.012 Y87.019 E0.10112
G1 X132.475 Y87.019 E0.01695
G1 X134.739 Y89.284 E0.10108
G1 X134.201 Y89.283 E0.01698
G1 X131.938 Y87.019 E0.10103
G1 X131.401 Y87.019 E0.01695
G1 X133.663 Y89.282 E0.10099
G1 X133.125 Y89.281 E0.01698
G1 X130.864 Y87.019 E0.10095
G1 X130.327 Y87.019 E0.01695
G1 X132.587 Y89.280 E0.10091
G1 X132.050 Y89.279 E0.01698
G1 X129.790 Y87.019 E0.10087
G1 X129.253 Y87.019 E0.01695
G1 X131.876 Y89.642 E0.11710
G1 X131.876 Y90.179 E0.01695
G1 X128.716 Y87.019 E0.14107
G1 X128.179 Y87.019 E0.01695
G1 X131.876 Y90.716 E0.16504
G1 X131.876 Y91.253 E0.01695
G1 X127.642 Y87.019 E0.18901
G1 X127.105 Y87.019 E0.01695
G1 X131.876 Y91.790 E0.21298
G1 X131.876 Y92.326 E0.01695
G1 X126.569 Y87.019 E0.23695
G1 X126.032 Y87.019 E0.01695
G1 X131.876 Y92.863 E0.26092
G1 X131.876 Y93.400 E0.01695
G1 X125.495 Y87.019 E0.28489
G1 X124.958 Y87.019 E0.01695
G1 X131.876 Y93.937 E0.30886
G1 X131.876 Y94.474 E0.01695
G1 X124.421 Y87.019 E0.33283
G1 X123.884 Y87.019 E0.01695
G1 X131.876 Y95.011 E0.35680
G1 X131.876 Y95.548 E0.01695
G1 X123.347 Y87.018 E0.38077
G1 X122.810 Y87.018 E0.01695
G1 X131.876 Y96.085 E0.40474
