; generated by PrusaSlicer 2.3.0+win64 on 2021-05-17 at 10:21:42 UTC

; 

; external perimeters extrusion width = 0.60mm
; perimeters extrusion width = 0.50mm
; infill extrusion width = 0.50mm
; solid infill extrusion width = 0.50mm
; top infill extrusion width = 0.45mm
; support material extrusion width = 0.38mm
; first layer extrusion width = 0.42mm

M73 P0 R26
M73 Q0 S26
M201 X1000 Y1000 Z200 E5000 ; sets maximum accelerations, mm/sec^2
M203 X200 Y200 Z12 E120 ; sets maximum feedrates, mm/sec
M204 P1250 R1250 T1250 ; sets acceleration (P, T) and retract acceleration (R), mm/sec^2
M205 X8.00 Y8.00 Z0.40 E4.50 ; sets the jerk limits, mm/sec
M205 S0 T0 ; sets the minimum extruding and travel feed rate, mm/sec
M107
;TYPE:Custom
M862.3 P "MK3S" ; printer model check
M862.1 P0.4 ; nozzle diameter check
M115 U3.9.1 ; tell printer latest fw version
G90 ; use absolute coordinates
M83 ; extruder relative mode
M104 S240 ; set extruder temp
M140 S85 ; set bed temp
M190 S85 ; wait for bed temp
M109 S240 ; wait for extruder temp
G28 W ; home all without mesh bed level
G80 ; mesh bed leveling
G1 Y-3.0 F1000.0 ; go outside print area
G92 E0.0
G1 X60.0 E9.0 F1000.0 ; intro line
G1 X100.0 E12.5 F1000.0 ; intro line
G92 E0.0
M221 S95

; Don't change E values below. Excessive value can damage the printer.

M907 E538 ; set extruder motor current
G21 ; set units to millimeters
G90 ; use absolute coordinates
M83 ; use relative distances for extrusion
M900 K0.08 ; Filament gcode LA 1.5
M900 K45 ; Filament gcode LA 1.0
;LAYER_CHANGE
;Z:0.2
;HEIGHT:0.2
;BEFORE_LAYER_CHANGE
G92 E0.0
;0.2


G1 E-1.40000 F2100.000
G1 Z0.200 F10800.000
;AFTER_LAYER_CHANGE
;0.2
G1 Z0.400
G1 X87.293 Y38.381
G1 Z0.200
G1 E1.40000 F2100.000
M204 S1000
;TYPE:Skirt
;WIDTH:0.42
G1 F1200.000
G1 X87.784 Y37.775 E0.02447
G1 X88.834 Y36.931 E0.04224
G1 X90.649 Y35.705 E0.06868
G1 X92.816 Y34.556 E0.07689
G1 X94.841 Y33.744 E0.06842
G1 X95.994 Y33.382 E0.03788
G1 X96.734 Y33.273 E0.02345
G1 X107.110 Y33.273 E0.32532
G1 X107.870 Y33.381 E0.02409
G1 X110.036 Y34.119 E0.07174
G1 X111.177 Y34.615 E0.03900
G1 X113.148 Y35.663 E0.07000
G1 X115.027 Y36.927 E0.07099
G1 X116.071 Y37.765 E0.04199
G1 X116.564 Y38.365 E0.02434
G1 X116.869 Y39.079 E0.02434
G1 X116.964 Y39.795 E0.02264
G1 X116.964 Y68.936 E0.91371
G1 X116.874 Y69.626 E0.02180
G1 X116.574 Y70.342 E0.02434
G1 X116.082 Y70.948 E0.02447
G1 X115.032 Y71.792 E0.04224
G1 X113.214 Y73.020 E0.06881
G1 X111.047 Y74.169 E0.07689
G1 X109.025 Y74.979 E0.06829
G1 X107.837 Y75.351 E0.03904
G1 X107.108 Y75.450 E0.02307
G1 X96.736 Y75.450 E0.32519
G1 X96.063 Y75.360 E0.02129
G1 X94.844 Y74.980 E0.04005
G1 X92.822 Y74.170 E0.06829
M73 P0 R25
G1 X90.648 Y73.017 E0.07715
G1 X88.833 Y71.791 E0.06868
G1 X87.777 Y70.941 E0.04251
G1 X87.284 Y70.326 E0.02473
G1 X86.985 Y69.596 E0.02473
G1 X86.902 Y68.935 E0.02090
G1 X86.902 Y39.795 E0.91366
G1 X86.992 Y39.097 E0.02205
G1 X87.270 Y38.437 E0.02246
G1 X87.616 Y38.585 F10800.000
G1 F1200.000
G1 X88.064 Y38.030 E0.02235
G1 X89.059 Y37.234 E0.03997
G1 X90.871 Y36.011 E0.06854
G1 X92.968 Y34.901 E0.07438
G1 X94.972 Y34.097 E0.06770
G1 X96.121 Y33.738 E0.03774
G1 X96.741 Y33.650 E0.01965
G1 X107.109 Y33.650 E0.32509
G1 X107.774 Y33.746 E0.02107
G1 X109.905 Y34.472 E0.07057
G1 X111.009 Y34.952 E0.03776
G1 X112.949 Y35.983 E0.06888
G1 X114.804 Y37.231 E0.07009
G1 X115.800 Y38.028 E0.04001
G1 X116.239 Y38.557 E0.02154
G1 X116.509 Y39.193 E0.02166
G1 X116.587 Y39.788 E0.01882
G1 X116.587 Y68.928 E0.91367
M73 P1 R25
M73 Q1 S26
G1 X116.507 Y69.538 E0.01929
G1 X116.239 Y70.167 E0.02142
G1 X115.803 Y70.693 E0.02142
G1 X114.807 Y71.489 E0.03997
G1 X112.995 Y72.712 E0.06854
G1 X110.895 Y73.824 E0.07452
G1 X108.895 Y74.625 E0.06756
G1 X107.720 Y74.992 E0.03858
G1 X107.106 Y75.073 E0.01943
G1 X96.742 Y75.073 E0.32495
G1 X96.151 Y74.993 E0.01870
G1 X94.972 Y74.626 E0.03870
G1 X92.972 Y73.824 E0.06758
G1 X90.865 Y72.708 E0.07474
G1 X89.060 Y71.489 E0.06830
G1 X88.052 Y70.682 E0.04049
G1 X87.612 Y70.140 E0.02190
G1 X87.348 Y69.493 E0.02190
G1 X87.280 Y68.935 E0.01763
G1 X87.280 Y39.795 E0.91367
G1 X87.359 Y39.185 E0.01929
G1 X87.592 Y38.640 E0.01858
;WIPE_START
G1 F8640.000
G1 X88.064 Y38.030 E-0.17794
G1 X89.059 Y37.234 E-0.29435
G1 X90.871 Y36.011 E-0.50475
G1 X92.222 Y35.296 E-0.35297
;WIPE_END
G1 E-0.07000 F2100.000
G1 Z0.400 F10800.000
G1 X109.006 Y65.339
G1 Z0.200
G1 E1.40000 F2100.000
;TYPE:External perimeter
G1 F1200.000
G1 X109.255 Y65.239 E0.00843
G1 X109.475 Y65.181 E0.00713
G1 X109.710 Y65.150 E0.00743
G1 X109.945 Y65.181 E0.00743
G1 X110.164 Y65.239 E0.00713
G1 X110.414 Y65.339 E0.00843
G1 X110.636 Y65.537 E0.00933
G1 X110.791 Y65.801 E0.00960
G1 X110.852 Y66.131 E0.01054
G1 X110.831 Y66.393 E0.00824
G1 X110.721 Y66.680 E0.00960
G1 X110.513 Y66.949 E0.01070
G1 X110.305 Y67.109 E0.00819
G1 X110.029 Y67.229 E0.00946
G1 X109.689 Y67.273 E0.01075
G1 X109.389 Y67.228 E0.00950
G1 X109.113 Y67.108 E0.00944
G1 X108.877 Y66.921 E0.00942
G1 X108.720 Y66.712 E0.00821
G1 X108.589 Y66.396 E0.01072
G1 X108.565 Y66.094 E0.00951
G1 X108.630 Y65.797 E0.00951
G1 X108.784 Y65.537 E0.00948
G1 X108.961 Y65.379 E0.00745
G1 X108.999 Y65.070 F10800.000
;WIPE_START
G1 F8640.000
G1 X109.255 Y65.239 E-0.07522
G1 X109.475 Y65.181 E-0.05247
G1 X109.710 Y65.150 E-0.05473
G1 X109.945 Y65.181 E-0.05473
G1 X110.164 Y65.239 E-0.05247
G1 X110.414 Y65.339 E-0.06206
G1 X110.636 Y65.537 E-0.06868
G1 X110.791 Y65.801 E-0.07071
G1 X110.852 Y66.131 E-0.07762
G1 X110.831 Y66.393 E-0.06070
G1 X110.721 Y66.680 E-0.07072
G1 X110.513 Y66.949 E-0.07879
G1 X110.305 Y67.109 E-0.06035
G1 X110.029 Y67.229 E-0.06968
G1 X109.689 Y67.273 E-0.07915
G1 X109.389 Y67.228 E-0.06997
G1 X109.113 Y67.108 E-0.06955
G1 X108.877 Y66.921 E-0.06940
G1 X108.720 Y66.712 E-0.06046
G1 X108.600 Y66.422 E-0.07254
;WIPE_END
G1 E-0.07000 F2100.000
G1 Z0.400 F10800.000
G1 X95.234 Y65.801
G1 Z0.200
G1 E1.40000 F2100.000
G1 F1200.000
G1 X95.295 Y66.130 E0.01050
G1 X95.274 Y66.391 E0.00822
G1 X95.166 Y66.675 E0.00951
G1 X94.988 Y66.919 E0.00948
G1 X94.750 Y67.108 E0.00953
G1 X94.433 Y67.239 E0.01075
G1 X94.134 Y67.273 E0.00945
G1 X93.875 Y67.239 E0.00818
G1 X93.559 Y67.111 E0.01068
G1 X93.321 Y66.923 E0.00951
G1 X93.164 Y66.714 E0.00821
G1 X93.032 Y66.399 E0.01072
G1 X93.008 Y66.095 E0.00956
G1 X93.073 Y65.797 E0.00954
G1 X93.227 Y65.537 E0.00948
G1 X93.448 Y65.339 E0.00933
G1 X93.698 Y65.239 E0.00843
G1 X93.918 Y65.181 E0.00713
G1 X94.153 Y65.150 E0.00743
G1 X94.388 Y65.181 E0.00743
G1 X94.607 Y65.239 E0.00713
G1 X94.857 Y65.339 E0.00843
G1 X95.078 Y65.537 E0.00933
G1 X95.204 Y65.749 E0.00772
G1 X95.564 Y65.859 F10800.000
;WIPE_START
G1 F8640.000
G1 X95.295 Y66.130 E-0.09047
G1 X95.274 Y66.391 E-0.06052
G1 X95.166 Y66.675 E-0.07004
G1 X94.988 Y66.919 E-0.06979
G1 X94.750 Y67.108 E-0.07017
G1 X94.433 Y67.239 E-0.07917
G1 X94.134 Y67.273 E-0.06957
G1 X93.875 Y67.239 E-0.06023
G1 X93.559 Y67.111 E-0.07862
G1 X93.321 Y66.923 E-0.07003
G1 X93.164 Y66.714 E-0.06042
G1 X93.032 Y66.399 E-0.07895
G1 X93.008 Y66.095 E-0.07043
G1 X93.073 Y65.797 E-0.07024
G1 X93.227 Y65.537 E-0.06983
G1 X93.448 Y65.339 E-0.06868
G1 X93.698 Y65.239 E-0.06206
G1 X93.918 Y65.181 E-0.05250
G1 X94.153 Y65.150 E-0.05472
G1 X94.254 Y65.163 E-0.02356
;WIPE_END
G1 E-0.07000 F2100.000
G1 Z0.400 F10800.000
G1 X94.152 Y43.573
G1 Z0.200
G1 E1.40000 F2100.000
G1 F1200.000
G1 X93.919 Y43.543 E0.00738
G1 X93.701 Y43.485 E0.00708
G1 X93.442 Y43.377 E0.00878
G1 X93.241 Y43.202 E0.00837
G1 X93.085 Y42.953 E0.00922
G1 X93.007 Y42.629 E0.01043
G1 X93.043 Y42.292 E0.01062
G1 X93.140 Y42.047 E0.00828
G1 X93.317 Y41.805 E0.00938
G1 X93.582 Y41.599 E0.01053
G1 X93.859 Y41.486 E0.00939
G1 X94.120 Y41.452 E0.00826
G1 X94.483 Y41.499 E0.01146
G1 X94.724 Y41.599 E0.00818
G1 X94.963 Y41.779 E0.00940
G1 X95.167 Y42.050 E0.01063
G1 X95.274 Y42.333 E0.00949
G1 X95.297 Y42.634 E0.00948
G1 X95.220 Y42.955 E0.01033
G1 X95.063 Y43.203 E0.00920
G1 X94.862 Y43.378 E0.00836
G1 X94.604 Y43.485 E0.00877
G1 X94.386 Y43.543 E0.00707
G1 X94.212 Y43.565 E0.00550
G1 X94.030 Y43.774 F10800.000
;WIPE_START
G1 F8640.000
G1 X93.919 Y43.543 E-0.06781
G1 X93.701 Y43.485 E-0.05217
G1 X93.442 Y43.377 E-0.06465
G1 X93.241 Y43.202 E-0.06163
G1 X93.085 Y42.953 E-0.06788
G1 X93.007 Y42.629 E-0.07681
G1 X93.043 Y42.292 E-0.07822
G1 X93.140 Y42.047 E-0.06101
G1 X93.317 Y41.805 E-0.06909
G1 X93.582 Y41.599 E-0.07751
M73 Q1 S25
G1 X93.859 Y41.486 E-0.06914
G1 X94.120 Y41.452 E-0.06085
G1 X94.483 Y41.499 E-0.08438
G1 X94.724 Y41.599 E-0.06021
G1 X94.963 Y41.779 E-0.06920
G1 X95.167 Y42.050 E-0.07831
G1 X95.274 Y42.333 E-0.06985
G1 X95.297 Y42.634 E-0.06979
G1 X95.220 Y42.955 E-0.07609
G1 X95.184 Y43.011 E-0.01541
;WIPE_END
G1 E-0.07000 F2100.000
G1 Z0.400 F10800.000
G1 X95.403 Y43.371
G1 Z0.200
G1 E1.40000 F2100.000
;TYPE:Perimeter
G1 F1200.000
G1 X95.572 Y43.103 E0.00990
G1 X95.677 Y42.665 E0.01413
G1 X95.646 Y42.250 E0.01305
G1 X95.501 Y41.866 E0.01288
G1 X95.232 Y41.510 E0.01399
G1 X94.912 Y41.269 E0.01256
G1 X94.581 Y41.132 E0.01123
G1 X94.120 Y41.072 E0.01457
G1 X93.762 Y41.119 E0.01132
G1 X93.391 Y41.269 E0.01254
G1 X93.044 Y41.540 E0.01382
G1 X92.807 Y41.863 E0.01256
G1 X92.674 Y42.202 E0.01141
G1 X92.626 Y42.654 E0.01426
G1 X92.732 Y43.101 E0.01441
G1 X92.905 Y43.376 E0.01017
G1 X92.631 Y43.345 E0.00862
G1 X92.111 Y43.327 E0.01633
G1 X90.444 Y43.325 E0.05227
G1 X90.444 Y40.174 E0.09881
G1 X90.923 Y39.791 E0.01922
G1 X91.713 Y39.227 E0.03044
G1 X92.531 Y38.705 E0.03044
G1 X93.377 Y38.227 E0.03044
G1 X94.246 Y37.795 E0.03044
G1 X95.137 Y37.410 E0.03044
G1 X96.048 Y37.073 E0.03044
G1 X96.880 Y36.814 E0.02735
G1 X106.986 Y36.814 E0.31685
G1 X107.819 Y37.073 E0.02735
G1 X108.729 Y37.410 E0.03044
G1 X109.620 Y37.795 E0.03044
G1 X110.490 Y38.227 E0.03044
G1 X111.335 Y38.705 E0.03044
G1 X112.154 Y39.227 E0.03044
G1 X112.944 Y39.791 E0.03044
G1 X113.423 Y40.174 E0.01922
G1 X113.423 Y43.325 E0.09881
G1 X111.756 Y43.327 E0.05227
G1 X111.235 Y43.345 E0.01632
G1 X110.960 Y43.375 E0.00870
G1 X111.139 Y43.079 E0.01087
G1 X111.230 Y42.690 E0.01252
G1 X111.203 Y42.238 E0.01419
G1 X111.049 Y41.847 E0.01320
G1 X110.803 Y41.522 E0.01276
G1 X110.482 Y41.275 E0.01271
G1 X110.110 Y41.120 E0.01265
G1 X109.710 Y41.067 E0.01264
G1 X109.310 Y41.120 E0.01264
G1 X108.937 Y41.275 E0.01265
G1 X108.616 Y41.522 E0.01271
G1 X108.371 Y41.847 E0.01276
G1 X108.219 Y42.232 E0.01298
G1 X108.185 Y42.649 E0.01312
G1 X108.278 Y43.076 E0.01369
G1 X108.457 Y43.370 E0.01079
G1 X107.874 Y43.330 E0.01830
G1 X104.137 Y43.323 E0.11719
G1 X104.137 Y65.399 E0.69218
G1 X107.818 Y65.394 E0.11543
G1 X108.456 Y65.350 E0.02005
G1 X108.275 Y65.658 E0.01119
G1 X108.185 Y66.068 E0.01316
G1 X108.218 Y66.485 E0.01313
G1 X108.390 Y66.901 E0.01410
G1 X108.605 Y67.187 E0.01123
G1 X108.917 Y67.434 E0.01249
G1 X109.284 Y67.594 E0.01254
G1 X109.685 Y67.654 E0.01271
G1 X110.130 Y67.596 E0.01407
G1 X110.498 Y67.436 E0.01259
G1 X110.781 Y67.219 E0.01118
G1 X111.054 Y66.866 E0.01397
G1 X111.202 Y66.477 E0.01305
G1 X111.231 Y66.112 E0.01148
G1 X111.150 Y65.667 E0.01420
G1 X110.963 Y65.349 E0.01156
G1 X111.626 Y65.394 E0.02085
G1 X113.253 Y65.397 E0.05101
G1 X113.253 Y66.184 E0.02468
G1 X113.423 Y66.354 E0.00754
G1 X113.423 Y68.549 E0.06882
G1 X112.944 Y68.932 E0.01922
G1 X112.154 Y69.496 E0.03044
G1 X111.335 Y70.018 E0.03044
G1 X110.490 Y70.496 E0.03044
G1 X109.620 Y70.927 E0.03044
G1 X108.729 Y71.313 E0.03044
G1 X107.819 Y71.650 E0.03044
G1 X106.986 Y71.909 E0.02735
G1 X96.880 Y71.909 E0.31685
G1 X96.048 Y71.650 E0.02735
G1 X95.137 Y71.313 E0.03044
G1 X94.246 Y70.927 E0.03044
G1 X93.377 Y70.496 E0.03044
G1 X92.531 Y70.018 E0.03044
G1 X91.713 Y69.496 E0.03044
G1 X90.923 Y68.932 E0.03044
G1 X90.444 Y68.549 E0.01922
G1 X90.444 Y65.398 E0.09881
G1 X92.111 Y65.396 E0.05227
G1 X92.631 Y65.378 E0.01633
G1 X92.901 Y65.348 E0.00850
G1 X92.717 Y65.658 E0.01128
G1 X92.628 Y66.069 E0.01319
G1 X92.661 Y66.489 E0.01320
G1 X92.834 Y66.903 E0.01409
G1 X93.049 Y67.189 E0.01122
G1 X93.368 Y67.440 E0.01273
G1 X93.778 Y67.606 E0.01387
G1 X94.130 Y67.653 E0.01113
G1 X94.528 Y67.608 E0.01255
G1 X94.943 Y67.436 E0.01408
G1 X95.262 Y67.182 E0.01278
G1 X95.500 Y66.856 E0.01266
G1 X95.645 Y66.475 E0.01280
G1 X95.674 Y66.111 E0.01146
G1 X95.593 Y65.666 E0.01416
G1 X95.407 Y65.353 E0.01142
G1 X95.992 Y65.393 E0.01837
G1 X99.729 Y65.400 E0.11718
G1 X99.729 Y43.323 E0.69219
M73 P2 R25
M73 Q2 S25
G1 X95.992 Y43.330 E0.11718
G1 X95.462 Y43.361 E0.01664
;WIPE_START
G1 F8640.000
G1 X95.572 Y43.103 E-0.06470
G1 X95.677 Y42.665 E-0.10403
G1 X95.646 Y42.250 E-0.09608
G1 X95.501 Y41.866 E-0.09488
G1 X95.232 Y41.510 E-0.10302
G1 X94.912 Y41.269 E-0.09253
G1 X94.581 Y41.132 E-0.08272
G1 X94.120 Y41.072 E-0.10733
G1 X93.762 Y41.119 E-0.08340
G1 X93.391 Y41.269 E-0.09237
G1 X93.044 Y41.540 E-0.10177
G1 X92.807 Y41.863 E-0.09249
G1 X92.674 Y42.202 E-0.08403
G1 X92.626 Y42.654 E-0.10498
G1 X92.651 Y42.762 E-0.02568
;WIPE_END
G1 E-0.07000 F2100.000
G1 Z0.400 F10800.000
G1 X109.015 Y43.392
G1 Z0.200
G1 E1.40000 F2100.000
;TYPE:External perimeter
G1 F1200.000
G1 X108.791 Y43.193 E0.00940
G1 X108.633 Y42.934 E0.00953
G1 X108.565 Y42.624 E0.00995
G1 X108.590 Y42.319 E0.00960
G1 X108.703 Y42.033 E0.00962
G1 X108.887 Y41.790 E0.00956
G1 X109.128 Y41.604 E0.00955
G1 X109.409 Y41.487 E0.00953
G1 X109.710 Y41.448 E0.00953
G1 X110.011 Y41.487 E0.00953
G1 X110.292 Y41.604 E0.00953
G1 X110.533 Y41.790 E0.00955
G1 X110.717 Y42.033 E0.00956
G1 X110.830 Y42.321 E0.00970
G1 X110.850 Y42.658 E0.01058
G1 X110.786 Y42.935 E0.00892
G1 X110.629 Y43.193 E0.00948
G1 X110.404 Y43.392 E0.00940
G1 X109.950 Y43.542 E0.01499
G1 X109.710 Y43.573 E0.00760
G1 X109.469 Y43.542 E0.00760
G1 X109.072 Y43.411 E0.01311
G1 X108.750 Y43.530 F10800.000
;WIPE_START
G1 F8640.000
G1 X108.791 Y43.193 E-0.08215
G1 X108.633 Y42.934 E-0.07015
G1 X108.565 Y42.624 E-0.07329
G1 X108.590 Y42.319 E-0.07067
G1 X108.703 Y42.033 E-0.07086
G1 X108.887 Y41.790 E-0.07041
G1 X109.128 Y41.604 E-0.07031
G1 X109.409 Y41.487 E-0.07017
G1 X109.710 Y41.448 E-0.07016
G1 X110.011 Y41.487 E-0.07016
G1 X110.292 Y41.604 E-0.07017
G1 X110.533 Y41.790 E-0.07031
G1 X110.717 Y42.033 E-0.07041
G1 X110.830 Y42.321 E-0.07144
G1 X110.850 Y42.658 E-0.07792
G1 X110.786 Y42.935 E-0.06566
G1 X110.629 Y43.193 E-0.06984
G1 X110.404 Y43.392 E-0.06923
G1 X110.212 Y43.455 E-0.04668
;WIPE_END
G1 E-0.07000 F2100.000
G1 Z0.400 F10800.000
G1 X104.514 Y43.701
G1 Z0.200
G1 E1.40000 F2100.000
G1 F1200.000
G1 X104.514 Y65.022 E0.66850
G1 X107.808 Y65.017 E0.10329
G1 X108.302 Y64.991 E0.01551
G1 X108.796 Y64.923 E0.01564
G1 X109.265 Y64.834 E0.01495
G1 X109.721 Y64.822 E0.01431
G1 X110.178 Y64.838 E0.01434
G1 X110.648 Y64.927 E0.01499
G1 X111.142 Y64.993 E0.01563
G1 X111.636 Y65.017 E0.01549
G1 X113.630 Y65.021 E0.06253
G1 X113.630 Y66.028 E0.03158
G1 X113.800 Y66.198 E0.00754
G1 X113.800 Y68.731 E0.07941
G1 X113.171 Y69.233 E0.02522
G1 X112.365 Y69.809 E0.03107
G1 X111.529 Y70.341 E0.03107
G1 X110.667 Y70.829 E0.03107
G1 X109.779 Y71.270 E0.03107
G1 X108.870 Y71.663 E0.03107
G1 X107.940 Y72.007 E0.03107
G1 X107.043 Y72.286 E0.02946
G1 X96.823 Y72.286 E0.32044
G1 X95.926 Y72.007 E0.02946
G1 X94.997 Y71.663 E0.03107
G1 X94.087 Y71.270 E0.03107
G1 X93.200 Y70.829 E0.03107
G1 X92.337 Y70.341 E0.03107
G1 X91.501 Y69.809 E0.03107
G1 X90.695 Y69.233 E0.03107
G1 X90.067 Y68.731 E0.02522
G1 X90.067 Y65.021 E0.11631
G1 X92.104 Y65.019 E0.06388
G1 X92.604 Y65.001 E0.01569
G1 X93.109 Y64.946 E0.01591
G1 X93.593 Y64.855 E0.01546
G1 X94.062 Y64.821 E0.01474
G1 X94.526 Y64.823 E0.01454
G1 X95.498 Y64.986 E0.03089
G1 X96.004 Y65.016 E0.01589
G1 X99.352 Y65.022 E0.10500
G1 X99.352 Y43.701 E0.66850
G1 X96.004 Y43.707 E0.10500
G1 X95.498 Y43.737 E0.01589
G1 X94.526 Y43.900 E0.03089
G1 X94.062 Y43.901 E0.01454
G1 X93.593 Y43.868 E0.01474
G1 X93.109 Y43.777 E0.01546
G1 X92.604 Y43.722 E0.01591
G1 X92.104 Y43.704 E0.01569
G1 X90.067 Y43.702 E0.06388
G1 X90.067 Y39.992 E0.11631
G1 X90.695 Y39.490 E0.02522
G1 X91.501 Y38.914 E0.03107
G1 X92.337 Y38.382 E0.03107
G1 X93.200 Y37.894 E0.03107
G1 X94.087 Y37.453 E0.03107
G1 X94.997 Y37.060 E0.03107
