; generated by PrusaSlicer 2.3.0+win64 on 2021-05-17 at 09:36:48 UTC

; 

; external perimeters extrusion width = 0.60mm
; perimeters extrusion width = 0.50mm
; infill extrusion width = 0.50mm
; solid infill extrusion width = 0.50mm
; top infill extrusion width = 0.45mm
; support material extrusion width = 0.38mm
; first layer extrusion width = 0.42mm

M73 P0 R28
M73 Q0 S28
M201 X1000 Y1000 Z200 E5000 ; sets maximum accelerations, mm/sec^2
M203 X200 Y200 Z12 E120 ; sets maximum feedrates, mm/sec
M204 P1250 R1250 T1250 ; sets acceleration (P, T) and retract acceleration (R), mm/sec^2
M205 X8.00 Y8.00 Z0.40 E4.50 ; sets the jerk limits, mm/sec
M205 S0 T0 ; sets the minimum extruding and travel feed rate, mm/sec
M107
;TYPE:Custom
M862.3 P "MK3S" ; printer model check
M862.1 P0.4 ; nozzle diameter check
M115 U3.9.1 ; tell printer latest fw version
G90 ; use absolute coordinates
M83 ; extruder relative mode
M104 S240 ; set extruder temp
M140 S85 ; set bed temp
M190 S85 ; wait for bed temp
M109 S240 ; wait for extruder temp
G28 W ; home all without mesh bed level
G80 ; mesh bed leveling
G1 Y-3.0 F1000.0 ; go outside print area
G92 E0.0
G1 X60.0 E9.0 F1000.0 ; intro line
G1 X100.0 E12.5 F1000.0 ; intro line
G92 E0.0
M221 S95

; Don't change E values below. Excessive value can damage the printer.

M907 E538 ; set extruder motor current
G21 ; set units to millimeters
G90 ; use absolute coordinates
M83 ; use relative distances for extrusion
M900 K0.08 ; Filament gcode LA 1.5
M900 K45 ; Filament gcode LA 1.0
;LAYER_CHANGE
;Z:0.2
;HEIGHT:0.2
;BEFORE_LAYER_CHANGE
G92 E0.0
;0.2


G1 E-1.40000 F2100.000
G1 Z0.200 F10800.000
;AFTER_LAYER_CHANGE
;0.2
G1 Z0.400
G1 X110.360 Y89.020
G1 Z0.200
G1 E1.40000 F2100.000
M204 S1000
;TYPE:Skirt
;WIDTH:0.42
G1 F1200.000
G1 X110.851 Y88.414 E0.02447
G1 X111.901 Y87.570 E0.04224
G1 X113.716 Y86.344 E0.06868
G1 X115.882 Y85.194 E0.07689
G1 X117.908 Y84.382 E0.06842
G1 X119.061 Y84.020 E0.03788
G1 X119.801 Y83.912 E0.02345
G1 X130.176 Y83.911 E0.32532
G1 X130.937 Y84.020 E0.02409
G1 X133.103 Y84.757 E0.07174
G1 X134.241 Y85.252 E0.03891
G1 X136.215 Y86.301 E0.07009
G1 X138.093 Y87.566 E0.07099
G1 X139.138 Y88.404 E0.04199
G1 X139.631 Y89.004 E0.02434
G1 X139.936 Y89.718 E0.02434
G1 X140.031 Y90.433 E0.02264
G1 X140.031 Y119.575 E0.91371
G1 X139.941 Y120.264 E0.02180
G1 X139.640 Y120.980 E0.02434
G1 X139.149 Y121.586 E0.02447
G1 X138.099 Y122.430 E0.04224
G1 X136.281 Y123.659 E0.06881
G1 X134.114 Y124.807 E0.07689
G1 X132.092 Y125.618 E0.06829
G1 X130.904 Y125.990 E0.03904
G1 X130.175 Y126.089 E0.02307
G1 X119.803 Y126.088 E0.32519
G1 X119.130 Y125.999 E0.02129
G1 X117.911 Y125.619 E0.04005
G1 X115.889 Y124.808 E0.06829
G1 X113.715 Y123.656 E0.07715
G1 X111.900 Y122.430 E0.06868
G1 X110.844 Y121.580 E0.04251
G1 X110.350 Y120.965 E0.02473
G1 X110.052 Y120.235 E0.02473
G1 X109.969 Y119.573 E0.02090
G1 X109.969 Y90.433 E0.91366
G1 X110.059 Y89.736 E0.02205
G1 X110.336 Y89.075 E0.02246
G1 X110.682 Y89.223 F10800.000
G1 F1200.000
G1 X111.131 Y88.669 E0.02235
G1 X112.126 Y87.872 E0.03997
G1 X113.938 Y86.650 E0.06854
G1 X116.038 Y85.538 E0.07452
G1 X118.039 Y84.736 E0.06757
G1 X119.187 Y84.376 E0.03774
G1 X119.808 Y84.289 E0.01965
G1 X130.176 Y84.289 E0.32509
G1 X130.841 Y84.385 E0.02107
G1 X132.971 Y85.111 E0.07057
G1 X134.076 Y85.591 E0.03776
G1 X136.016 Y86.622 E0.06888
G1 X137.870 Y87.870 E0.07009
G1 X138.867 Y88.667 E0.04001
G1 X139.308 Y89.199 E0.02166
G1 X139.576 Y89.831 E0.02154
G1 X139.654 Y90.426 E0.01882
G1 X139.654 Y119.567 E0.91367
M73 Q1 S28
G1 X139.574 Y120.177 E0.01929
G1 X139.306 Y120.805 E0.02142
M73 P1 R28
G1 X138.869 Y121.331 E0.02142
G1 X137.874 Y122.128 E0.03997
G1 X136.062 Y123.350 E0.06854
G1 X133.962 Y124.462 E0.07452
G1 X131.961 Y125.264 E0.06756
G1 X130.787 Y125.631 E0.03858
G1 X130.172 Y125.711 E0.01943
G1 X119.809 Y125.711 E0.32495
G1 X119.217 Y125.632 E0.01870
G1 X118.039 Y125.264 E0.03870
G1 X116.038 Y124.462 E0.06758
G1 X113.932 Y123.347 E0.07474
G1 X112.126 Y122.128 E0.06830
G1 X111.119 Y121.320 E0.04049
G1 X110.678 Y120.778 E0.02190
G1 X110.415 Y120.132 E0.02190
G1 X110.346 Y119.574 E0.01763
G1 X110.346 Y90.433 E0.91367
G1 X110.426 Y89.823 E0.01929
G1 X110.659 Y89.278 E0.01858
;WIPE_START
G1 F8640.000
G1 X111.131 Y88.669 E-0.17794
G1 X112.126 Y87.872 E-0.29435
G1 X113.938 Y86.650 E-0.50475
G1 X115.289 Y85.935 E-0.35297
;WIPE_END
G1 E-0.07000 F2100.000
G1 Z0.400 F10800.000
G1 X132.072 Y115.977
G1 Z0.200
G1 E1.40000 F2100.000
;TYPE:External perimeter
G1 F1200.000
G1 X132.322 Y115.877 E0.00843
G1 X132.542 Y115.819 E0.00713
G1 X132.776 Y115.788 E0.00742
G1 X133.012 Y115.819 E0.00744
G1 X133.231 Y115.877 E0.00713
G1 X133.481 Y115.977 E0.00843
G1 X133.702 Y116.176 E0.00933
G1 X133.856 Y116.436 E0.00948
G1 X133.922 Y116.737 E0.00965
G1 X133.896 Y117.043 E0.00964
G1 X133.784 Y117.328 E0.00962
G1 X133.600 Y117.572 E0.00956
G1 X133.359 Y117.758 E0.00955
G1 X133.078 Y117.874 E0.00953
G1 X132.777 Y117.914 E0.00953
G1 X132.475 Y117.874 E0.00953
G1 X132.195 Y117.758 E0.00953
G1 X131.953 Y117.572 E0.00955
G1 X131.770 Y117.328 E0.00956
G1 X131.657 Y117.043 E0.00962
G1 X131.632 Y116.737 E0.00964
G1 X131.697 Y116.436 E0.00965
G1 X131.851 Y116.176 E0.00948
G1 X132.028 Y116.017 E0.00744
G1 X132.066 Y115.708 F10800.000
;WIPE_START
G1 F8640.000
G1 X132.322 Y115.877 E-0.07522
G1 X132.542 Y115.819 E-0.05247
G1 X132.776 Y115.788 E-0.05466
G1 X133.012 Y115.819 E-0.05476
G1 X133.231 Y115.877 E-0.05248
G1 X133.481 Y115.977 E-0.06206
G1 X133.702 Y116.176 E-0.06868
G1 X133.856 Y116.436 E-0.06983
G1 X133.922 Y116.737 E-0.07106
G1 X133.896 Y117.043 E-0.07098
G1 X133.784 Y117.328 E-0.07084
G1 X133.600 Y117.572 E-0.07042
G1 X133.359 Y117.758 E-0.07031
G1 X133.078 Y117.874 E-0.07018
G1 X132.777 Y117.914 E-0.07016
G1 X132.475 Y117.874 E-0.07016
G1 X132.195 Y117.758 E-0.07018
G1 X131.953 Y117.572 E-0.07031
G1 X131.770 Y117.328 E-0.07042
G1 X131.667 Y117.067 E-0.06482
;WIPE_END
G1 E-0.07000 F2100.000
G1 Z0.400 F10800.000
G1 X118.364 Y116.737
G1 Z0.200
G1 E1.40000 F2100.000
G1 F1200.000
G1 X118.339 Y117.043 E0.00964
G1 X118.226 Y117.328 E0.00962
G1 X118.043 Y117.572 E0.00956
G1 X117.801 Y117.758 E0.00955
G1 X117.521 Y117.874 E0.00953
G1 X117.219 Y117.914 E0.00953
G1 X116.918 Y117.874 E0.00953
G1 X116.637 Y117.758 E0.00953
G1 X116.396 Y117.572 E0.00955
G1 X116.212 Y117.328 E0.00956
G1 X116.100 Y117.043 E0.00962
G1 X116.074 Y116.737 E0.00964
G1 X116.140 Y116.436 E0.00965
G1 X116.294 Y116.176 E0.00948
G1 X116.515 Y115.977 E0.00933
G1 X116.765 Y115.877 E0.00843
G1 X116.984 Y115.819 E0.00713
G1 X117.219 Y115.788 E0.00742
G1 X117.454 Y115.819 E0.00744
G1 X117.674 Y115.877 E0.00713
G1 X117.924 Y115.977 E0.00843
G1 X118.145 Y116.176 E0.00933
G1 X118.299 Y116.436 E0.00948
G1 X118.352 Y116.678 E0.00777
G1 X118.641 Y116.872 F10800.000
;WIPE_START
G1 F8640.000
G1 X118.339 Y117.043 E-0.08430
G1 X118.226 Y117.328 E-0.07084
G1 X118.043 Y117.572 E-0.07042
G1 X117.801 Y117.758 E-0.07031
G1 X117.521 Y117.874 E-0.07018
G1 X117.219 Y117.914 E-0.07016
G1 X116.918 Y117.874 E-0.07016
G1 X116.637 Y117.758 E-0.07018
G1 X116.396 Y117.572 E-0.07031
G1 X116.212 Y117.328 E-0.07042
G1 X116.100 Y117.043 E-0.07083
G1 X116.074 Y116.737 E-0.07100
G1 X116.140 Y116.436 E-0.07103
G1 X116.294 Y116.176 E-0.06983
G1 X116.515 Y115.977 E-0.06868
G1 X116.765 Y115.877 E-0.06206
G1 X116.984 Y115.819 E-0.05247
G1 X117.219 Y115.788 E-0.05466
G1 X117.454 Y115.819 E-0.05476
G1 X117.611 Y115.861 E-0.03739
;WIPE_END
G1 E-0.07000 F2100.000
G1 Z0.400 F10800.000
G1 X117.924 Y94.023
G1 Z0.200
G1 E1.40000 F2100.000
G1 F1200.000
G1 X117.674 Y94.123 E0.00842
G1 X117.455 Y94.181 E0.00712
G1 X117.219 Y94.212 E0.00743
G1 X116.984 Y94.181 E0.00744
G1 X116.765 Y94.123 E0.00712
G1 X116.515 Y94.023 E0.00842
G1 X116.294 Y93.824 E0.00932
G1 X116.140 Y93.564 E0.00948
G1 X116.074 Y93.264 E0.00965
G1 X116.100 Y92.957 E0.00965
G1 X116.212 Y92.672 E0.00962
G1 X116.396 Y92.428 E0.00956
G1 X116.637 Y92.243 E0.00954
G1 X116.918 Y92.126 E0.00953
G1 X117.219 Y92.086 E0.00953
G1 X117.521 Y92.126 E0.00954
G1 X117.801 Y92.243 E0.00953
G1 X118.043 Y92.428 E0.00955
G1 X118.226 Y92.672 E0.00956
G1 X118.339 Y92.957 E0.00962
G1 X118.364 Y93.264 E0.00965
G1 X118.299 Y93.564 E0.00965
G1 X118.145 Y93.824 E0.00949
G1 X117.968 Y93.983 E0.00744
G1 X117.930 Y94.292 F10800.000
G1 X118.474 Y94.009
;TYPE:Perimeter
G1 F1200.000
G1 X118.654 Y93.704 E0.01110
G1 X118.745 Y93.289 E0.01333
G1 X118.710 Y92.870 E0.01316
G1 X118.558 Y92.486 E0.01297
G1 X118.313 Y92.161 E0.01276
G1 X117.992 Y91.913 E0.01270
G1 X117.619 Y91.759 E0.01265
G1 X117.219 Y91.706 E0.01265
G1 X116.819 Y91.759 E0.01265
G1 X116.447 Y91.913 E0.01265
G1 X116.126 Y92.160 E0.01270
G1 X115.881 Y92.486 E0.01276
G1 X115.729 Y92.870 E0.01297
G1 X115.694 Y93.289 E0.01316
G1 X115.784 Y93.704 E0.01333
G1 X115.968 Y94.014 E0.01128
G1 X115.698 Y93.984 E0.00850
G1 X115.178 Y93.966 E0.01633
G1 X113.510 Y93.964 E0.05227
G1 X113.510 Y90.812 E0.09881
G1 X113.990 Y90.430 E0.01922
G1 X114.779 Y89.865 E0.03044
G1 X115.598 Y89.343 E0.03044
G1 X116.443 Y88.866 E0.03044
G1 X117.313 Y88.434 E0.03044
G1 X118.204 Y88.049 E0.03044
G1 X119.114 Y87.712 E0.03044
G1 X119.947 Y87.453 E0.02735
G1 X130.053 Y87.453 E0.31685
G1 X130.886 Y87.712 E0.02735
M73 P1 R27
G1 X131.796 Y88.049 E0.03044
G1 X132.687 Y88.434 E0.03044
G1 X133.557 Y88.866 E0.03044
G1 X134.402 Y89.343 E0.03044
G1 X135.221 Y89.865 E0.03044
G1 X136.010 Y90.430 E0.03044
G1 X136.490 Y90.812 E0.01922
G1 X136.490 Y93.964 E0.09881
G1 X134.823 Y93.966 E0.05227
G1 X134.302 Y93.984 E0.01632
G1 X134.029 Y94.013 E0.00863
G1 X134.212 Y93.704 E0.01129
G1 X134.302 Y93.290 E0.01328
G1 X134.267 Y92.870 E0.01319
G1 X134.115 Y92.486 E0.01297
G1 X133.870 Y92.161 E0.01277
G1 X133.549 Y91.913 E0.01271
G1 X133.176 Y91.759 E0.01265
G1 X132.776 Y91.706 E0.01265
G1 X132.377 Y91.759 E0.01263
G1 X132.004 Y91.913 E0.01265
G1 X131.683 Y92.161 E0.01271
G1 X131.438 Y92.486 E0.01277
G1 X131.286 Y92.870 E0.01297
G1 X131.251 Y93.290 E0.01319
G1 X131.341 Y93.704 E0.01328
G1 X131.521 Y94.008 E0.01109
G1 X130.941 Y93.969 E0.01823
G1 X127.204 Y93.962 E0.11719
G1 X127.204 Y116.038 E0.69218
G1 X130.885 Y116.032 E0.11543
G1 X131.523 Y115.989 E0.02005
G1 X131.342 Y116.296 E0.01119
G1 X131.251 Y116.712 E0.01333
G1 X131.286 Y117.130 E0.01315
G1 X131.438 Y117.514 E0.01297
G1 X131.683 Y117.840 E0.01277
G1 X132.004 Y118.087 E0.01271
G1 X132.377 Y118.241 E0.01265
G1 X132.777 Y118.294 E0.01264
G1 X133.176 Y118.241 E0.01264
G1 X133.549 Y118.087 E0.01265
G1 X133.870 Y117.840 E0.01271
G1 X134.115 Y117.514 E0.01277
G1 X134.267 Y117.130 E0.01297
G1 X134.302 Y116.712 E0.01315
G1 X134.212 Y116.296 E0.01333
G1 X134.029 Y115.988 E0.01123
G1 X134.693 Y116.033 E0.02085
G1 X136.320 Y116.036 E0.05101
G1 X136.320 Y116.823 E0.02468
G1 X136.490 Y116.993 E0.00754
G1 X136.490 Y119.188 E0.06882
G1 X136.010 Y119.570 E0.01922
G1 X135.221 Y120.135 E0.03044
G1 X134.402 Y120.657 E0.03044
G1 X133.557 Y121.134 E0.03044
G1 X132.687 Y121.566 E0.03044
G1 X131.796 Y121.951 E0.03044
G1 X130.886 Y122.288 E0.03044
G1 X130.053 Y122.547 E0.02735
G1 X119.947 Y122.547 E0.31685
G1 X119.114 Y122.288 E0.02735
G1 X118.204 Y121.951 E0.03044
G1 X117.313 Y121.566 E0.03044
G1 X116.443 Y121.134 E0.03044
G1 X115.598 Y120.657 E0.03044
G1 X114.779 Y120.135 E0.03044
G1 X113.990 Y119.570 E0.03044
G1 X113.510 Y119.188 E0.01922
G1 X113.510 Y116.036 E0.09881
G1 X115.178 Y116.034 E0.05227
G1 X115.698 Y116.016 E0.01633
G1 X115.968 Y115.986 E0.00850
G1 X115.784 Y116.296 E0.01129
G1 X115.694 Y116.712 E0.01333
G1 X115.729 Y117.130 E0.01316
G1 X115.881 Y117.514 E0.01297
G1 X116.126 Y117.840 E0.01277
G1 X116.447 Y118.087 E0.01271
G1 X116.820 Y118.241 E0.01265
G1 X117.219 Y118.294 E0.01264
G1 X117.619 Y118.241 E0.01264
G1 X117.992 Y118.087 E0.01265
G1 X118.313 Y117.840 E0.01271
G1 X118.558 Y117.514 E0.01277
G1 X118.710 Y117.130 E0.01297
G1 X118.745 Y116.712 E0.01315
G1 X118.654 Y116.296 E0.01333
G1 X118.474 Y115.992 E0.01110
G1 X119.059 Y116.031 E0.01838
G1 X122.796 Y116.038 E0.11718
G1 X122.796 Y93.962 E0.69219
G1 X119.059 Y93.969 E0.11718
G1 X118.533 Y94.000 E0.01650
;WIPE_START
G1 F8640.000
G1 X118.654 Y93.704 E-0.07381
G1 X118.745 Y93.289 E-0.09815
G1 X118.710 Y92.870 E-0.09693
G1 X118.558 Y92.486 E-0.09549
G1 X118.313 Y92.161 E-0.09400
G1 X117.992 Y91.913 E-0.09356
G1 X117.619 Y91.759 E-0.09315
G1 X117.219 Y91.706 E-0.09318
G1 X116.819 Y91.759 E-0.09315
G1 X116.447 Y91.913 E-0.09315
G1 X116.126 Y92.160 E-0.09356
G1 X115.881 Y92.486 E-0.09400
G1 X115.729 Y92.870 E-0.09551
G1 X115.694 Y93.289 E-0.09695
G1 X115.717 Y93.396 E-0.02540
;WIPE_END
G1 E-0.07000 F2100.000
G1 Z0.400 F10800.000
G1 X131.632 Y93.265
G1 Z0.200
G1 E1.40000 F2100.000
;TYPE:External perimeter
G1 F1200.000
G1 X131.657 Y92.957 E0.00968
G1 X131.770 Y92.672 E0.00962
G1 X131.953 Y92.428 E0.00956
G1 X132.195 Y92.243 E0.00955
G1 X132.475 Y92.126 E0.00953
G1 X132.776 Y92.087 E0.00952
G1 X133.078 Y92.126 E0.00953
G1 X133.359 Y92.243 E0.00953
G1 X133.600 Y92.428 E0.00955
G1 X133.783 Y92.672 E0.00956
G1 X133.896 Y92.957 E0.00962
G1 X133.922 Y93.265 E0.00968
G1 X133.856 Y93.564 E0.00960
G1 X133.702 Y93.824 E0.00948
G1 X133.481 Y94.023 E0.00933
G1 X133.231 Y94.123 E0.00843
G1 X133.012 Y94.181 E0.00713
G1 X132.777 Y94.212 E0.00743
G1 X132.542 Y94.181 E0.00744
G1 X132.322 Y94.123 E0.00713
G1 X132.072 Y94.023 E0.00843
G1 X131.851 Y93.824 E0.00933
G1 X131.697 Y93.564 E0.00948
G1 X131.644 Y93.323 E0.00772
G1 X131.354 Y93.129 F10800.000
;WIPE_START
G1 F8640.000
G1 X131.657 Y92.957 E-0.08460
G1 X131.770 Y92.672 E-0.07084
G1 X131.953 Y92.428 E-0.07042
G1 X132.195 Y92.243 E-0.07030
G1 X132.475 Y92.126 E-0.07017
G1 X132.776 Y92.087 E-0.07008
G1 X133.078 Y92.126 E-0.07020
G1 X133.359 Y92.243 E-0.07018
G1 X133.600 Y92.428 E-0.07030
G1 X133.783 Y92.672 E-0.07041
G1 X133.896 Y92.957 E-0.07084
G1 X133.922 Y93.265 E-0.07126
G1 X133.856 Y93.564 E-0.07072
G1 X133.702 Y93.824 E-0.06984
G1 X133.481 Y94.023 E-0.06868
G1 X133.231 Y94.123 E-0.06206
G1 X133.012 Y94.181 E-0.05247
G1 X132.777 Y94.212 E-0.05471
G1 X132.542 Y94.181 E-0.05480
G1 X132.386 Y94.140 E-0.03711
;WIPE_END
G1 E-0.07000 F2100.000
G1 Z0.400 F10800.000
G1 X127.581 Y94.340
G1 Z0.200
G1 E1.40000 F2100.000
G1 F1200.000
G1 X127.581 Y115.660 E0.66850
M73 P2 R27
M73 Q2 S28
G1 X130.875 Y115.655 E0.10329
G1 X131.369 Y115.630 E0.01551
G1 X131.863 Y115.562 E0.01564
G1 X132.331 Y115.472 E0.01495
G1 X132.788 Y115.460 E0.01431
G1 X133.245 Y115.476 E0.01434
G1 X133.715 Y115.566 E0.01499
G1 X134.209 Y115.631 E0.01563
G1 X134.702 Y115.656 E0.01549
G1 X136.697 Y115.660 E0.06253
G1 X136.697 Y116.667 E0.03158
G1 X136.867 Y116.837 E0.00754
G1 X136.867 Y119.369 E0.07941
G1 X136.238 Y119.871 E0.02522
G1 X135.432 Y120.447 E0.03107
G1 X134.596 Y120.980 E0.03107
G1 X133.733 Y121.467 E0.03107
G1 X132.846 Y121.908 E0.03107
G1 X131.936 Y122.301 E0.03107
G1 X131.007 Y122.645 E0.03107
G1 X130.110 Y122.924 E0.02946
G1 X119.890 Y122.924 E0.32044
G1 X118.993 Y122.645 E0.02946
G1 X118.064 Y122.301 E0.03107
G1 X117.154 Y121.908 E0.03107
G1 X116.267 Y121.467 E0.03107
G1 X115.404 Y120.980 E0.03107
G1 X114.568 Y120.447 E0.03107
G1 X113.762 Y119.871 E0.03107
G1 X113.133 Y119.369 E0.02522
G1 X113.133 Y115.660 E0.11631
G1 X115.171 Y115.657 E0.06388
G1 X115.671 Y115.640 E0.01569
G1 X116.175 Y115.584 E0.01591
G1 X116.660 Y115.493 E0.01546
G1 X117.129 Y115.460 E0.01474
G1 X117.593 Y115.462 E0.01454
G1 X118.564 Y115.624 E0.03089
G1 X119.070 Y115.654 E0.01589
G1 X122.419 Y115.660 E0.10500
G1 X122.419 Y94.340 E0.66850
G1 X119.070 Y94.346 E0.10500
M73 Q2 S27
G1 X118.564 Y94.376 E0.01589
G1 X117.593 Y94.539 E0.03089
G1 X117.129 Y94.540 E0.01454
G1 X116.660 Y94.507 E0.01474
G1 X116.175 Y94.416 E0.01546
G1 X115.671 Y94.360 E0.01591
G1 X115.171 Y94.343 E0.01569
G1 X113.133 Y94.340 E0.06388
G1 X113.133 Y90.631 E0.11631
G1 X113.762 Y90.129 E0.02522
G1 X114.568 Y89.553 E0.03107
G1 X115.404 Y89.020 E0.03107
G1 X116.267 Y88.533 E0.03107
G1 X117.154 Y88.092 E0.03107
G1 X118.064 Y87.699 E0.03107
G1 X118.993 Y87.355 E0.03107
G1 X119.890 Y87.076 E0.02946
G1 X130.110 Y87.076 E0.32044
G1 X131.007 Y87.355 E0.02946
G1 X131.936 Y87.699 E0.03107
