; generated by PrusaSlicer 2.3.0+win64 on 2021-05-22 at 02:02:42 UTC

; 

; external perimeters extrusion width = 0.60mm
; perimeters extrusion width = 0.50mm
; infill extrusion width = 0.50mm
; solid infill extrusion width = 0.50mm
; top infill extrusion width = 0.45mm
; support material extrusion width = 0.38mm
; first layer extrusion width = 0.42mm

M73 P0 R47
M73 Q0 S48
M201 X1000 Y1000 Z200 E5000 ; sets maximum accelerations, mm/sec^2
M203 X200 Y200 Z12 E120 ; sets maximum feedrates, mm/sec
M204 P1250 R1250 T1250 ; sets acceleration (P, T) and retract acceleration (R), mm/sec^2
M205 X8.00 Y8.00 Z0.40 E4.50 ; sets the jerk limits, mm/sec
M205 S0 T0 ; sets the minimum extruding and travel feed rate, mm/sec
M107
;TYPE:Custom
M862.3 P "MK3S" ; printer model check
M862.1 P0.4 ; nozzle diameter check
M115 U3.9.1 ; tell printer latest fw version
G90 ; use absolute coordinates
M83 ; extruder relative mode
M104 S240 ; set extruder temp
M140 S85 ; set bed temp
M190 S85 ; wait for bed temp
M109 S240 ; wait for extruder temp
G28 W ; home all without mesh bed level
G80 ; mesh bed leveling
G1 Y-3.0 F1000.0 ; go outside print area
G92 E0.0
G1 X60.0 E9.0 F1000.0 ; intro line
G1 X100.0 E12.5 F1000.0 ; intro line
G92 E0.0
M221 S95

; Don't change E values below. Excessive value can damage the printer.

M907 E538 ; set extruder motor current
G21 ; set units to millimeters
G90 ; use absolute coordinates
M83 ; use relative distances for extrusion
M900 K0.08 ; Filament gcode LA 1.5
M900 K45 ; Filament gcode LA 1.0
;LAYER_CHANGE
;Z:0.2
;HEIGHT:0.2
;BEFORE_LAYER_CHANGE
G92 E0.0
;0.2


G1 E-1.40000 F2100.000
G1 Z0.200 F10800.000
;AFTER_LAYER_CHANGE
;0.2
G1 Z0.400
G1 X143.833 Y65.023
G1 Z0.200
G1 E1.40000 F2100.000
M204 S1000
;TYPE:Skirt
;WIDTH:0.42
G1 F1200.000
G1 X143.620 Y64.078 E0.03036
G1 X143.619 Y34.885 E0.91532
G1 X143.688 Y34.339 E0.01728
G1 X143.882 Y33.819 E0.01740
G1 X144.159 Y33.396 E0.01585
G1 X144.517 Y33.044 E0.01574
G1 X145.907 Y31.972 E0.05504
G1 X147.449 Y30.979 E0.05751
G1 X149.044 Y30.132 E0.05664
G1 X150.633 Y29.454 E0.05417
G1 X152.505 Y28.835 E0.06180
G1 X153.085 Y28.760 E0.01835
G1 X163.448 Y28.759 E0.32494
G1 X195.862 Y28.856 E1.01630
G1 X197.951 Y29.489 E0.06847
G1 X199.727 Y30.248 E0.06055
G1 X201.259 Y31.065 E0.05442
G1 X202.721 Y32.004 E0.05449
G1 X204.291 Y33.215 E0.06217
G1 X204.622 Y33.582 E0.01550
G1 X204.870 Y34.009 E0.01550
G1 X205.023 Y34.475 E0.01538
G1 X205.078 Y34.967 E0.01550
G1 X205.085 Y64.166 E0.91554
M73 Q0 S47
G1 X204.919 Y64.995 E0.02649
G1 X204.474 Y65.713 E0.02649
G1 X202.740 Y67.093 E0.06948
G1 X201.268 Y68.039 E0.05487
G1 X199.730 Y68.857 E0.05464
G1 X197.912 Y69.633 E0.06197
G1 X196.240 Y70.177 E0.05511
G1 X195.619 Y70.261 E0.01965
G1 X152.893 Y70.173 E1.33967
G1 X150.763 Y69.540 E0.06965
G1 X148.981 Y68.777 E0.06078
G1 X147.446 Y67.963 E0.05448
G1 X145.980 Y67.021 E0.05465
G1 X144.405 Y65.804 E0.06241
G1 X143.868 Y65.071 E0.02848
;WIPE_START
G1 F8640.000
G1 X143.620 Y64.078 E-0.23635
G1 X143.620 Y59.342 E-1.09365
;WIPE_END
G1 E-0.07000 F2100.000
G1 Z0.400 F10800.000
G1 X165.662 Y60.464
G1 Z0.200
G1 E1.40000 F2100.000
;TYPE:External perimeter
G1 F1200.000
G1 X166.127 Y60.237 E0.01624
G1 X166.307 Y60.182 E0.00589
G1 X166.648 Y60.168 E0.01071
G1 X166.836 Y60.208 E0.00603
G1 X167.284 Y60.410 E0.01539
G1 X167.455 Y60.534 E0.00662
G1 X167.592 Y60.699 E0.00673
G1 X167.693 Y60.889 E0.00675
G1 X167.749 Y61.093 E0.00664
G1 X167.765 Y61.319 E0.00709
G1 X167.738 Y61.530 E0.00668
G1 X167.670 Y61.735 E0.00678
G1 X167.568 Y61.924 E0.00672
G1 X167.435 Y62.091 E0.00671
G1 X167.274 Y62.235 E0.00676
G1 X167.090 Y62.348 E0.00678
G1 X166.891 Y62.428 E0.00671
G1 X166.682 Y62.473 E0.00669
G1 X166.469 Y62.482 E0.00668
G1 X166.257 Y62.455 E0.00672
G1 X166.049 Y62.392 E0.00679
G1 X165.859 Y62.294 E0.00673
G1 X165.689 Y62.167 E0.00665
G1 X165.540 Y62.012 E0.00672
G1 X165.422 Y61.834 E0.00670
G1 X165.336 Y61.637 E0.00677
G1 X165.285 Y61.423 E0.00690
G1 X165.281 Y61.205 E0.00684
G1 X165.317 Y60.994 E0.00670
G1 X165.396 Y60.782 E0.00709
G1 X165.623 Y60.510 E0.01110
G1 X165.617 Y60.067 F10800.000
;WIPE_START
G1 F8640.000
G1 X166.127 Y60.237 E-0.13240
G1 X166.307 Y60.182 E-0.04338
G1 X166.648 Y60.168 E-0.07891
G1 X166.836 Y60.208 E-0.04440
G1 X167.284 Y60.410 E-0.11336
G1 X167.455 Y60.534 E-0.04878
G1 X167.592 Y60.699 E-0.04958
G1 X167.693 Y60.889 E-0.04969
G1 X167.749 Y61.093 E-0.04888
G1 X167.765 Y61.319 E-0.05223
G1 X167.738 Y61.530 E-0.04918
G1 X167.670 Y61.735 E-0.04991
G1 X167.568 Y61.924 E-0.04951
G1 X167.435 Y62.091 E-0.04941
G1 X167.274 Y62.235 E-0.04978
G1 X167.090 Y62.348 E-0.04990
G1 X166.891 Y62.428 E-0.04945
G1 X166.682 Y62.473 E-0.04927
G1 X166.469 Y62.482 E-0.04919
G1 X166.257 Y62.455 E-0.04950
G1 X166.049 Y62.392 E-0.05001
G1 X165.859 Y62.294 E-0.04953
G1 X165.689 Y62.167 E-0.04895
G1 X165.614 Y62.090 E-0.02479
;WIPE_END
G1 E-0.07000 F2100.000
G1 Z0.400 F10800.000
G1 X149.162 Y60.464
G1 Z0.200
G1 E1.40000 F2100.000
G1 F1200.000
G1 X149.627 Y60.237 E0.01624
G1 X149.807 Y60.182 E0.00589
G1 X150.148 Y60.168 E0.01071
G1 X150.336 Y60.208 E0.00603
G1 X150.784 Y60.410 E0.01539
G1 X150.955 Y60.534 E0.00663
G1 X151.092 Y60.699 E0.00674
G1 X151.193 Y60.889 E0.00675
G1 X151.249 Y61.093 E0.00663
G1 X151.265 Y61.319 E0.00709
G1 X151.238 Y61.530 E0.00668
G1 X151.170 Y61.735 E0.00678
G1 X151.068 Y61.924 E0.00672
G1 X150.934 Y62.093 E0.00677
G1 X150.771 Y62.235 E0.00676
G1 X150.591 Y62.347 E0.00666
G1 X150.391 Y62.428 E0.00676
G1 X150.182 Y62.473 E0.00669
G1 X149.969 Y62.482 E0.00668
G1 X149.757 Y62.455 E0.00672
G1 X149.549 Y62.392 E0.00679
G1 X149.359 Y62.294 E0.00673
G1 X149.189 Y62.167 E0.00665
G1 X149.040 Y62.012 E0.00672
G1 X148.922 Y61.834 E0.00670
G1 X148.836 Y61.637 E0.00677
G1 X148.785 Y61.423 E0.00689
G1 X148.781 Y61.204 E0.00687
G1 X148.817 Y60.994 E0.00667
G1 X148.896 Y60.782 E0.00710
G1 X149.123 Y60.510 E0.01110
G1 X149.117 Y60.067 F10800.000
;WIPE_START
G1 F8640.000
G1 X149.627 Y60.237 E-0.13240
G1 X149.807 Y60.182 E-0.04338
G1 X150.148 Y60.168 E-0.07891
G1 X150.336 Y60.208 E-0.04440
G1 X150.784 Y60.410 E-0.11331
G1 X150.955 Y60.534 E-0.04883
G1 X151.092 Y60.699 E-0.04960
G1 X151.193 Y60.889 E-0.04970
G1 X151.249 Y61.093 E-0.04885
G1 X151.265 Y61.319 E-0.05223
G1 X151.238 Y61.530 E-0.04918
G1 X151.170 Y61.735 E-0.04991
G1 X151.068 Y61.924 E-0.04951
G1 X150.934 Y62.093 E-0.04985
G1 X150.771 Y62.235 E-0.04978
G1 X150.591 Y62.347 E-0.04907
G1 X150.391 Y62.428 E-0.04980
G1 X150.182 Y62.473 E-0.04927
G1 X149.969 Y62.482 E-0.04919
G1 X149.757 Y62.455 E-0.04950
G1 X149.549 Y62.392 E-0.05001
G1 X149.359 Y62.294 E-0.04953
G1 X149.189 Y62.167 E-0.04895
G1 X149.114 Y62.090 E-0.02482
;WIPE_END
G1 E-0.07000 F2100.000
G1 Z0.400 F10800.000
G1 X150.148 Y38.775
G1 Z0.200
G1 E1.40000 F2100.000
G1 F1200.000
G1 X149.807 Y38.761 E0.01071
G1 X149.628 Y38.707 E0.00587
G1 X149.168 Y38.479 E0.01609
G1 X149.020 Y38.328 E0.00662
G1 X148.893 Y38.154 E0.00677
G1 X148.817 Y37.946 E0.00692
G1 X148.781 Y37.737 E0.00666
G1 X148.785 Y37.520 E0.00681
G1 X148.836 Y37.306 E0.00688
G1 X148.921 Y37.110 E0.00672
G1 X149.039 Y36.930 E0.00675
G1 X149.189 Y36.774 E0.00677
G1 X149.361 Y36.646 E0.00673
G1 X149.552 Y36.550 E0.00670
G1 X149.757 Y36.488 E0.00671
G1 X149.969 Y36.461 E0.00672
G1 X150.182 Y36.470 E0.00668
G1 X150.391 Y36.515 E0.00669
G1 X150.591 Y36.596 E0.00678
G1 X150.769 Y36.707 E0.00657
G1 X150.932 Y36.846 E0.00673
G1 X151.068 Y37.017 E0.00684
G1 X151.170 Y37.206 E0.00672
G1 X151.238 Y37.411 E0.00678
G1 X151.265 Y37.622 E0.00668
G1 X151.249 Y37.848 E0.00709
G1 X151.193 Y38.052 E0.00664
G1 X151.092 Y38.242 E0.00675
G1 X150.955 Y38.407 E0.00673
G1 X150.784 Y38.531 E0.00661
G1 X150.337 Y38.735 E0.01542
G1 X150.207 Y38.763 E0.00416
G1 X150.006 Y39.086 F10800.000
;WIPE_START
G1 F8640.000
G1 X149.807 Y38.761 E-0.09238
G1 X149.628 Y38.707 E-0.04320
G1 X149.168 Y38.479 E-0.11847
G1 X149.020 Y38.328 E-0.04877
G1 X148.893 Y38.154 E-0.04986
G1 X148.817 Y37.946 E-0.05098
G1 X148.781 Y37.737 E-0.04902
G1 X148.785 Y37.520 E-0.05015
G1 X148.836 Y37.306 E-0.05068
G1 X148.921 Y37.110 E-0.04947
G1 X149.039 Y36.930 E-0.04970
G1 X149.189 Y36.774 E-0.04988
G1 X149.361 Y36.646 E-0.04955
G1 X149.552 Y36.550 E-0.04932
G1 X149.757 Y36.488 E-0.04942
G1 X149.969 Y36.461 E-0.04950
G1 X150.182 Y36.470 E-0.04920
G1 X150.391 Y36.515 E-0.04927
G1 X150.591 Y36.596 E-0.04990
G1 X150.769 Y36.707 E-0.04835
G1 X150.932 Y36.846 E-0.04960
G1 X151.068 Y37.017 E-0.05035
G1 X151.170 Y37.206 E-0.04951
G1 X151.238 Y37.411 E-0.04991
G1 X151.257 Y37.555 E-0.03357
;WIPE_END
G1 E-0.07000 F2100.000
G1 Z0.400 F10800.000
G1 X151.378 Y38.488
G1 Z0.200
G1 E1.40000 F2100.000
;TYPE:Perimeter
G1 F1200.000
G1 X151.545 Y38.192 E0.01067
G1 X151.622 Y37.912 E0.00909
G1 X151.644 Y37.612 E0.00943
G1 X151.608 Y37.326 E0.00903
G1 X151.517 Y37.055 E0.00896
G1 X151.384 Y36.808 E0.00880
G1 X151.205 Y36.583 E0.00902
G1 X150.993 Y36.402 E0.00875
G1 X150.763 Y36.258 E0.00849
G1 X150.502 Y36.153 E0.00883
G1 X150.230 Y36.095 E0.00871
G1 X149.954 Y36.083 E0.00867
G1 X149.678 Y36.118 E0.00872
G1 X149.412 Y36.199 E0.00872
G1 X149.163 Y36.324 E0.00873
G1 X148.938 Y36.490 E0.00875
G1 X148.743 Y36.694 E0.00887
G1 X148.588 Y36.930 E0.00884
G1 X148.477 Y37.186 E0.00875
G1 X148.408 Y37.472 E0.00923
G1 X148.404 Y37.766 E0.00922
G1 X148.451 Y38.044 E0.00884
G1 X148.557 Y38.332 E0.00963
G1 X148.674 Y38.493 E0.00623
G1 X147.968 Y38.439 E0.02220
G1 X146.784 Y38.435 E0.03714
G1 X146.784 Y35.291 E0.09859
G1 X147.731 Y34.558 E0.03757
G1 X149.037 Y33.716 E0.04871
G1 X150.410 Y32.988 E0.04873
G1 X151.838 Y32.380 E0.04867
G1 X153.226 Y31.924 E0.04583
G1 X163.318 Y31.924 E0.31643
G1 X164.707 Y32.380 E0.04583
G1 X166.135 Y32.987 E0.04866
G1 X167.506 Y33.716 E0.04867
G1 X168.812 Y34.558 E0.04872
G1 X169.761 Y35.291 E0.03761
G1 X169.761 Y38.435 E0.09858
G1 X168.576 Y38.439 E0.03716
G1 X168.039 Y38.469 E0.01688
G1 X167.869 Y38.498 E0.00538
G1 X168.045 Y38.192 E0.01106
G1 X168.122 Y37.912 E0.00910
G1 X168.144 Y37.612 E0.00943
G1 X168.108 Y37.326 E0.00903
G1 X168.017 Y37.055 E0.00896
G1 X167.884 Y36.808 E0.00880
G1 X167.707 Y36.586 E0.00890
G1 X167.496 Y36.402 E0.00878
G1 X167.260 Y36.257 E0.00869
G1 X167.002 Y36.153 E0.00873
G1 X166.730 Y36.095 E0.00871
G1 X166.454 Y36.083 E0.00867
G1 X166.178 Y36.118 E0.00872
G1 X165.912 Y36.199 E0.00872
G1 X165.663 Y36.324 E0.00873
G1 X165.438 Y36.490 E0.00875
G1 X165.243 Y36.694 E0.00887
G1 X165.088 Y36.930 E0.00885
G1 X164.977 Y37.186 E0.00875
G1 X164.908 Y37.473 E0.00924
G1 X164.904 Y37.766 E0.00918
G1 X164.952 Y38.044 E0.00887
G1 X165.057 Y38.332 E0.00962
G1 X165.171 Y38.489 E0.00606
G1 X164.712 Y38.445 E0.01443
G1 X160.475 Y38.432 E0.13285
G1 X160.475 Y60.509 E0.69222
G1 X164.645 Y60.500 E0.13074
G1 X165.176 Y60.458 E0.01670
G1 X165.065 Y60.590 E0.00540
G1 X164.952 Y60.895 E0.01023
G1 X164.904 Y61.175 E0.00890
G1 X164.908 Y61.470 E0.00925
G1 X164.977 Y61.757 E0.00925
G1 X165.090 Y62.016 E0.00885
G1 X165.245 Y62.249 E0.00879
G1 X165.438 Y62.451 E0.00877
G1 X165.659 Y62.615 E0.00860
G1 X165.907 Y62.743 E0.00876
G1 X166.178 Y62.825 E0.00888
G1 X166.454 Y62.860 E0.00872
G1 X166.730 Y62.848 E0.00867
G1 X167.002 Y62.790 E0.00871
G1 X167.260 Y62.686 E0.00873
G1 X167.500 Y62.539 E0.00882
G1 X167.710 Y62.352 E0.00882
G1 X167.884 Y62.133 E0.00877
G1 X168.017 Y61.886 E0.00880
G1 X168.108 Y61.615 E0.00896
G1 X168.144 Y61.329 E0.00903
G1 X168.122 Y61.029 E0.00943
G1 X168.045 Y60.749 E0.00909
G1 X167.881 Y60.457 E0.01051
G1 X168.437 Y60.501 E0.01747
G1 X169.591 Y60.505 E0.03621
G1 X169.591 Y61.295 E0.02475
G1 X169.761 Y61.465 E0.00754
G1 X169.761 Y63.652 E0.06858
G1 X168.812 Y64.385 E0.03761
G1 X167.506 Y65.227 E0.04871
G1 X166.135 Y65.954 E0.04865
G1 X164.707 Y66.563 E0.04868
G1 X163.319 Y67.017 E0.04579
G1 X153.226 Y67.017 E0.31646
G1 X151.838 Y66.563 E0.04579
G1 X150.410 Y65.954 E0.04869
G1 X149.037 Y65.227 E0.04871
G1 X147.731 Y64.385 E0.04869
G1 X146.784 Y63.652 E0.03757
G1 X146.784 Y60.506 E0.09865
G1 X147.968 Y60.502 E0.03714
G1 X148.686 Y60.446 E0.02257
G1 X148.565 Y60.590 E0.00588
G1 X148.452 Y60.896 E0.01024
G1 X148.404 Y61.175 E0.00887
G1 X148.408 Y61.470 E0.00928
G1 X148.477 Y61.757 E0.00924
G1 X148.590 Y62.016 E0.00885
G1 X148.745 Y62.249 E0.00879
G1 X148.938 Y62.451 E0.00877
G1 X149.159 Y62.615 E0.00860
G1 X149.407 Y62.743 E0.00876
G1 X149.678 Y62.825 E0.00888
G1 X149.954 Y62.860 E0.00872
G1 X150.230 Y62.848 E0.00867
G1 X150.502 Y62.790 E0.00871
G1 X150.763 Y62.685 E0.00882
G1 X150.997 Y62.539 E0.00865
G1 X151.207 Y62.354 E0.00878
G1 X151.384 Y62.133 E0.00889
G1 X151.517 Y61.886 E0.00880
G1 X151.608 Y61.615 E0.00895
G1 X151.644 Y61.329 E0.00903
G1 X151.622 Y61.029 E0.00944
G1 X151.545 Y60.750 E0.00909
G1 X151.378 Y60.454 E0.01066
G1 X151.832 Y60.496 E0.01428
G1 X156.068 Y60.509 E0.13281
G1 X156.068 Y38.432 E0.69224
G1 X151.831 Y38.445 E0.13282
G1 X151.437 Y38.482 E0.01241
;WIPE_START
G1 F8640.000
G1 X151.545 Y38.192 E-0.07158
G1 X151.622 Y37.912 E-0.06697
G1 X151.644 Y37.612 E-0.06948
G1 X151.608 Y37.326 E-0.06647
G1 X151.517 Y37.055 E-0.06595
G1 X151.384 Y36.808 E-0.06478
G1 X151.205 Y36.583 E-0.06641
G1 X150.993 Y36.402 E-0.06447
G1 X150.763 Y36.258 E-0.06253
M73 Q1 S47
G1 X150.502 Y36.153 E-0.06504
G1 X150.230 Y36.095 E-0.06417
G1 X149.954 Y36.083 E-0.06383
G1 X149.678 Y36.118 E-0.06421
G1 X149.412 Y36.199 E-0.06425
G1 X149.163 Y36.324 E-0.06431
G1 X148.938 Y36.490 E-0.06447
G1 X148.743 Y36.694 E-0.06531
G1 X148.588 Y36.930 E-0.06514
G1 X148.477 Y37.186 E-0.06443
G1 X148.408 Y37.472 E-0.06795
G1 X148.407 Y37.551 E-0.01824
;WIPE_END
G1 E-0.07000 F2100.000
G1 Z0.400 F10800.000
M73 P1 R47
G1 X166.648 Y38.775
G1 Z0.200
G1 E1.40000 F2100.000
;TYPE:External perimeter
G1 F1200.000
G1 X166.307 Y38.761 E0.01071
G1 X166.128 Y38.707 E0.00587
G1 X165.668 Y38.479 E0.01609
G1 X165.520 Y38.328 E0.00662
G1 X165.393 Y38.154 E0.00677
G1 X165.317 Y37.947 E0.00691
G1 X165.281 Y37.736 E0.00669
G1 X165.285 Y37.520 E0.00678
G1 X165.336 Y37.306 E0.00689
G1 X165.421 Y37.110 E0.00672
G1 X165.539 Y36.930 E0.00675
G1 X165.689 Y36.774 E0.00677
G1 X165.861 Y36.646 E0.00673
G1 X166.052 Y36.550 E0.00670
G1 X166.257 Y36.488 E0.00671
G1 X166.469 Y36.461 E0.00672
G1 X166.682 Y36.470 E0.00668
G1 X166.891 Y36.515 E0.00669
G1 X167.090 Y36.595 E0.00671
G1 X167.272 Y36.707 E0.00671
G1 X167.433 Y36.848 E0.00672
G1 X167.568 Y37.017 E0.00678
G1 X167.670 Y37.206 E0.00672
G1 X167.738 Y37.411 E0.00678
G1 X167.765 Y37.622 E0.00668
G1 X167.749 Y37.848 E0.00709
G1 X167.693 Y38.052 E0.00664
G1 X167.592 Y38.242 E0.00675
G1 X167.455 Y38.407 E0.00673
G1 X167.284 Y38.531 E0.00660
G1 X166.837 Y38.735 E0.01543
G1 X166.707 Y38.763 E0.00416
G1 X166.506 Y39.086 F10800.000
;WIPE_START
G1 F8640.000
G1 X166.307 Y38.761 E-0.09238
G1 X166.128 Y38.707 E-0.04319
G1 X165.668 Y38.479 E-0.11847
G1 X165.520 Y38.328 E-0.04877
G1 X165.393 Y38.154 E-0.04986
G1 X165.317 Y37.947 E-0.05090
G1 X165.281 Y37.736 E-0.04925
G1 X165.285 Y37.520 E-0.04992
G1 X165.336 Y37.306 E-0.05075
G1 X165.421 Y37.110 E-0.04947
G1 X165.539 Y36.930 E-0.04970
G1 X165.689 Y36.774 E-0.04988
G1 X165.861 Y36.646 E-0.04955
G1 X166.052 Y36.550 E-0.04932
G1 X166.257 Y36.488 E-0.04942
G1 X166.469 Y36.461 E-0.04950
G1 X166.682 Y36.470 E-0.04920
G1 X166.891 Y36.515 E-0.04927
G1 X167.090 Y36.595 E-0.04945
G1 X167.272 Y36.707 E-0.04940
G1 X167.433 Y36.848 E-0.04947
G1 X167.568 Y37.017 E-0.04991
G1 X167.670 Y37.206 E-0.04951
G1 X167.738 Y37.411 E-0.04991
G1 X167.757 Y37.555 E-0.03353
;WIPE_END
G1 E-0.07000 F2100.000
G1 Z0.400 F10800.000
G1 X160.852 Y38.810
G1 Z0.200
G1 E1.40000 F2100.000
G1 F1200.000
G1 X160.852 Y60.131 E0.66851
G1 X164.630 Y60.123 E0.11843
G1 X165.129 Y60.083 E0.01571
G1 X165.614 Y59.990 E0.01548
G1 X166.074 Y59.931 E0.01454
G1 X167.003 Y59.931 E0.02913
G1 X167.955 Y60.087 E0.03025
G1 X168.451 Y60.124 E0.01561
G1 X169.968 Y60.130 E0.04757
G1 X169.968 Y61.138 E0.03163
G1 X170.138 Y61.308 E0.00754
G1 X170.138 Y63.837 E0.07929
G1 X169.030 Y64.693 E0.04392
G1 X167.697 Y65.553 E0.04972
G1 X166.298 Y66.294 E0.04965
G1 X164.840 Y66.916 E0.04970
G1 X163.379 Y67.395 E0.04820
G1 X153.166 Y67.395 E0.32023
G1 X151.705 Y66.916 E0.04820
