; generated by PrusaSlicer 2.3.0+win64 on 2021-05-22 at 02:01:49 UTC

; 

; external perimeters extrusion width = 0.60mm
; perimeters extrusion width = 0.50mm
; infill extrusion width = 0.50mm
; solid infill extrusion width = 0.50mm
; top infill extrusion width = 0.45mm
; support material extrusion width = 0.38mm
; first layer extrusion width = 0.42mm

M73 P0 R27
M73 Q0 S27
M201 X1000 Y1000 Z200 E5000 ; sets maximum accelerations, mm/sec^2
M203 X200 Y200 Z12 E120 ; sets maximum feedrates, mm/sec
M204 P1250 R1250 T1250 ; sets acceleration (P, T) and retract acceleration (R), mm/sec^2
M205 X8.00 Y8.00 Z0.40 E4.50 ; sets the jerk limits, mm/sec
M205 S0 T0 ; sets the minimum extruding and travel feed rate, mm/sec
M107
;TYPE:Custom
M862.3 P "MK3S" ; printer model check
M862.1 P0.4 ; nozzle diameter check
M115 U3.9.1 ; tell printer latest fw version
G90 ; use absolute coordinates
M83 ; extruder relative mode
M104 S240 ; set extruder temp
M140 S85 ; set bed temp
M190 S85 ; wait for bed temp
M109 S240 ; wait for extruder temp
G28 W ; home all without mesh bed level
G80 ; mesh bed leveling
G1 Y-3.0 F1000.0 ; go outside print area
G92 E0.0
G1 X60.0 E9.0 F1000.0 ; intro line
G1 X100.0 E12.5 F1000.0 ; intro line
G92 E0.0
M221 S95

; Don't change E values below. Excessive value can damage the printer.

M907 E538 ; set extruder motor current
G21 ; set units to millimeters
G90 ; use absolute coordinates
M83 ; use relative distances for extrusion
M900 K0.08 ; Filament gcode LA 1.5
M900 K45 ; Filament gcode LA 1.0
;LAYER_CHANGE
;Z:0.2
;HEIGHT:0.2
;BEFORE_LAYER_CHANGE
G92 E0.0
;0.2


G1 E-1.40000 F2100.000
G1 Z0.200 F10800.000
;AFTER_LAYER_CHANGE
;0.2
G1 Z0.400
G1 X143.842 Y41.371
G1 Z0.200
G1 E1.40000 F2100.000
M204 S1000
;TYPE:Skirt
;WIDTH:0.42
G1 F1200.000
G1 X144.149 Y40.644 E0.02473
G1 X144.649 Y40.035 E0.02473
G1 X146.186 Y38.837 E0.06109
G1 X147.671 Y37.876 E0.05546
G1 X149.493 Y36.910 E0.06465
G1 X151.107 Y36.226 E0.05495
G1 X152.845 Y35.655 E0.05738
G1 X153.585 Y35.546 E0.02345
G1 X163.959 Y35.546 E0.32526
G1 X164.680 Y35.643 E0.02282
G1 X166.497 Y36.241 E0.05998
G1 X168.175 Y36.957 E0.05720
G1 X169.814 Y37.829 E0.05821
G1 X171.371 Y38.833 E0.05809
G1 X172.898 Y40.020 E0.06063
G1 X173.399 Y40.623 E0.02460
G1 X173.711 Y41.348 E0.02473
G1 X173.805 Y42.061 E0.02257
G1 X173.813 Y71.210 E0.91393
G1 X173.722 Y71.903 E0.02192
G1 X173.414 Y72.629 E0.02473
G1 X172.914 Y73.238 E0.02473
G1 X171.378 Y74.433 E0.06102
G1 X169.890 Y75.396 E0.05558
G1 X168.080 Y76.355 E0.06422
G1 X166.459 Y77.044 E0.05521
G1 X164.695 Y77.621 E0.05819
G1 X163.965 Y77.719 E0.02310
G1 X153.591 Y77.722 E0.32527
G1 X152.910 Y77.632 E0.02154
G1 X150.929 Y76.972 E0.06547
G1 X149.382 Y76.308 E0.05276
G1 X147.682 Y75.401 E0.06043
G1 X146.187 Y74.434 E0.05582
G1 X144.646 Y73.233 E0.06126
G1 X144.141 Y72.612 E0.02511
G1 X143.835 Y71.872 E0.02511
G1 X143.752 Y71.210 E0.02090
G1 X143.752 Y42.068 E0.91373
G1 X143.835 Y41.430 E0.02017
G1 X144.484 Y40.820 F10800.000
G1 F1200.000
G1 X144.928 Y40.291 E0.02166
G1 X146.408 Y39.142 E0.05874
G1 X147.894 Y38.182 E0.05548
G1 X149.645 Y37.255 E0.06212
G1 X151.239 Y36.580 E0.05429
G1 X152.971 Y36.011 E0.05715
G1 X153.591 Y35.923 E0.01965
G1 X163.958 Y35.923 E0.32506
G1 X164.594 Y36.011 E0.02012
G1 X166.366 Y36.595 E0.05848
G1 X168.009 Y37.295 E0.05602
G1 X169.612 Y38.148 E0.05693
G1 X171.150 Y39.138 E0.05735
G1 X172.627 Y40.283 E0.05859
G1 X173.076 Y40.818 E0.02190
G1 X173.350 Y41.460 E0.02190
G1 X173.428 Y42.055 E0.01882
G1 X173.436 Y71.202 E0.91387
M73 P1 R27
M73 Q1 S27
G1 X173.356 Y71.812 E0.01929
G1 X173.084 Y72.447 E0.02166
G1 X172.638 Y72.979 E0.02178
G1 X171.153 Y74.130 E0.05891
G1 X169.667 Y75.091 E0.05547
G1 X168.025 Y75.965 E0.05833
G1 X166.425 Y76.652 E0.05458
G1 X164.579 Y77.261 E0.06096
G1 X163.965 Y77.342 E0.01943
G1 X153.592 Y77.345 E0.32522
G1 X153.001 Y77.266 E0.01870
G1 X151.138 Y76.651 E0.06150
G1 X149.549 Y75.970 E0.05421
G1 X147.898 Y75.091 E0.05865
G1 X146.408 Y74.129 E0.05560
G1 X144.918 Y72.970 E0.05919
G1 X144.469 Y72.426 E0.02213
G1 X144.198 Y71.770 E0.02225
G1 X144.130 Y71.208 E0.01775
G1 X144.130 Y42.068 E0.91365
G1 X144.209 Y41.458 E0.01929
G1 X144.460 Y40.875 E0.01990
;WIPE_START
G1 F8640.000
G1 X144.928 Y40.291 E-0.17282
G1 X146.408 Y39.142 E-0.43258
G1 X147.894 Y38.182 E-0.40857
G1 X149.103 Y37.542 E-0.31603
;WIPE_END
G1 E-0.07000 F2100.000
G1 Z0.400 F10800.000
G1 X166.172 Y67.628
G1 Z0.200
G1 E1.40000 F2100.000
;TYPE:External perimeter
G1 F1200.000
G1 X166.637 Y67.400 E0.01624
G1 X166.817 Y67.346 E0.00589
G1 X167.159 Y67.331 E0.01071
G1 X167.347 Y67.372 E0.00603
G1 X167.794 Y67.574 E0.01539
G1 X167.965 Y67.698 E0.00662
G1 X168.102 Y67.863 E0.00673
G1 X168.203 Y68.053 E0.00675
G1 X168.259 Y68.257 E0.00664
G1 X168.275 Y68.483 E0.00709
G1 X168.248 Y68.694 E0.00668
G1 X168.180 Y68.899 E0.00678
G1 X168.078 Y69.088 E0.00672
G1 X167.945 Y69.255 E0.00671
G1 X167.784 Y69.399 E0.00676
G1 X167.600 Y69.512 E0.00678
G1 X167.401 Y69.592 E0.00671
G1 X167.192 Y69.637 E0.00669
G1 X166.980 Y69.645 E0.00668
G1 X166.767 Y69.619 E0.00672
G1 X166.560 Y69.556 E0.00679
G1 X166.369 Y69.457 E0.00673
G1 X166.199 Y69.331 E0.00665
G1 X166.050 Y69.176 E0.00672
G1 X165.932 Y68.998 E0.00670
G1 X165.846 Y68.800 E0.00677
G1 X165.795 Y68.587 E0.00690
G1 X165.791 Y68.368 E0.00684
G1 X165.828 Y68.158 E0.00670
G1 X165.906 Y67.946 E0.00709
G1 X166.134 Y67.674 E0.01110
G1 X166.128 Y67.231 F10800.000
;WIPE_START
G1 F8640.000
G1 X166.637 Y67.400 E-0.13240
G1 X166.817 Y67.346 E-0.04338
G1 X167.159 Y67.331 E-0.07891
G1 X167.347 Y67.372 E-0.04440
G1 X167.794 Y67.574 E-0.11336
G1 X167.965 Y67.698 E-0.04878
G1 X168.102 Y67.863 E-0.04958
G1 X168.203 Y68.053 E-0.04969
G1 X168.259 Y68.257 E-0.04888
G1 X168.275 Y68.483 E-0.05223
G1 X168.248 Y68.694 E-0.04918
G1 X168.180 Y68.899 E-0.04991
G1 X168.078 Y69.088 E-0.04951
G1 X167.945 Y69.255 E-0.04941
G1 X167.784 Y69.399 E-0.04978
G1 X167.600 Y69.512 E-0.04990
G1 X167.401 Y69.592 E-0.04945
G1 X167.192 Y69.637 E-0.04927
G1 X166.980 Y69.645 E-0.04919
G1 X166.767 Y69.619 E-0.04950
G1 X166.560 Y69.556 E-0.05001
G1 X166.369 Y69.457 E-0.04953
G1 X166.199 Y69.331 E-0.04895
G1 X166.125 Y69.253 E-0.02479
;WIPE_END
G1 E-0.07000 F2100.000
G1 Z0.400 F10800.000
G1 X149.672 Y67.628
G1 Z0.200
G1 E1.40000 F2100.000
G1 F1200.000
G1 X150.137 Y67.400 E0.01624
G1 X150.317 Y67.346 E0.00589
G1 X150.659 Y67.331 E0.01071
G1 X150.847 Y67.372 E0.00603
G1 X151.294 Y67.574 E0.01539
G1 X151.465 Y67.698 E0.00663
G1 X151.602 Y67.863 E0.00674
G1 X151.703 Y68.053 E0.00675
G1 X151.759 Y68.257 E0.00663
G1 X151.775 Y68.483 E0.00709
G1 X151.748 Y68.694 E0.00668
G1 X151.680 Y68.899 E0.00678
G1 X151.578 Y69.088 E0.00672
G1 X151.444 Y69.257 E0.00677
G1 X151.281 Y69.399 E0.00676
G1 X151.101 Y69.511 E0.00666
G1 X150.901 Y69.592 E0.00676
G1 X150.692 Y69.637 E0.00669
G1 X150.480 Y69.645 E0.00668
G1 X150.267 Y69.619 E0.00672
G1 X150.060 Y69.556 E0.00679
G1 X149.869 Y69.457 E0.00673
G1 X149.699 Y69.331 E0.00665
G1 X149.550 Y69.176 E0.00672
G1 X149.432 Y68.998 E0.00670
G1 X149.346 Y68.800 E0.00677
G1 X149.295 Y68.587 E0.00689
G1 X149.292 Y68.368 E0.00687
G1 X149.328 Y68.158 E0.00667
G1 X149.406 Y67.946 E0.00710
G1 X149.634 Y67.674 E0.01110
G1 X149.628 Y67.231 F10800.000
;WIPE_START
G1 F8640.000
G1 X150.137 Y67.400 E-0.13240
G1 X150.317 Y67.346 E-0.04338
G1 X150.659 Y67.331 E-0.07891
G1 X150.847 Y67.372 E-0.04440
G1 X151.294 Y67.574 E-0.11331
G1 X151.465 Y67.698 E-0.04883
G1 X151.602 Y67.863 E-0.04960
G1 X151.703 Y68.053 E-0.04970
G1 X151.759 Y68.257 E-0.04885
G1 X151.775 Y68.483 E-0.05223
G1 X151.748 Y68.694 E-0.04918
G1 X151.680 Y68.899 E-0.04991
G1 X151.578 Y69.088 E-0.04951
G1 X151.444 Y69.257 E-0.04985
G1 X151.281 Y69.399 E-0.04978
G1 X151.101 Y69.511 E-0.04907
G1 X150.901 Y69.592 E-0.04980
G1 X150.692 Y69.637 E-0.04927
G1 X150.480 Y69.645 E-0.04919
G1 X150.267 Y69.619 E-0.04950
G1 X150.060 Y69.556 E-0.05001
G1 X149.869 Y69.457 E-0.04953
G1 X149.699 Y69.331 E-0.04895
G1 X149.624 Y69.253 E-0.02482
;WIPE_END
G1 E-0.07000 F2100.000
G1 Z0.400 F10800.000
G1 X150.659 Y45.939
G1 Z0.200
G1 E1.40000 F2100.000
G1 F1200.000
G1 X150.317 Y45.925 E0.01071
G1 X150.138 Y45.871 E0.00587
G1 X149.678 Y45.643 E0.01609
G1 X149.530 Y45.492 E0.00662
G1 X149.404 Y45.317 E0.00677
G1 X149.327 Y45.110 E0.00692
G1 X149.292 Y44.901 E0.00666
G1 X149.295 Y44.684 E0.00681
G1 X149.346 Y44.470 E0.00688
G1 X149.432 Y44.274 E0.00672
G1 X149.549 Y44.094 E0.00675
G1 X149.699 Y43.938 E0.00677
G1 X149.871 Y43.810 E0.00673
G1 X150.062 Y43.714 E0.00670
G1 X150.267 Y43.652 E0.00671
G1 X150.480 Y43.625 E0.00672
G1 X150.692 Y43.634 E0.00668
G1 X150.901 Y43.679 E0.00669
G1 X151.102 Y43.760 E0.00678
G1 X151.279 Y43.871 E0.00657
G1 X151.442 Y44.010 E0.00673
G1 X151.578 Y44.181 E0.00684
G1 X151.680 Y44.370 E0.00672
G1 X151.748 Y44.575 E0.00678
G1 X151.775 Y44.786 E0.00668
G1 X151.759 Y45.011 E0.00709
G1 X151.703 Y45.216 E0.00664
G1 X151.602 Y45.406 E0.00675
G1 X151.465 Y45.571 E0.00673
G1 X151.294 Y45.695 E0.00661
G1 X150.847 Y45.899 E0.01542
G1 X150.717 Y45.927 E0.00416
G1 X150.516 Y46.250 F10800.000
;WIPE_START
G1 F8640.000
G1 X150.317 Y45.925 E-0.09238
G1 X150.138 Y45.871 E-0.04320
G1 X149.678 Y45.643 E-0.11847
G1 X149.530 Y45.492 E-0.04877
G1 X149.404 Y45.317 E-0.04986
G1 X149.327 Y45.110 E-0.05098
G1 X149.292 Y44.901 E-0.04902
G1 X149.295 Y44.684 E-0.05015
G1 X149.346 Y44.470 E-0.05068
G1 X149.432 Y44.274 E-0.04947
G1 X149.549 Y44.094 E-0.04970
G1 X149.699 Y43.938 E-0.04988
G1 X149.871 Y43.810 E-0.04955
G1 X150.062 Y43.714 E-0.04932
G1 X150.267 Y43.652 E-0.04942
G1 X150.480 Y43.625 E-0.04950
G1 X150.692 Y43.634 E-0.04920
G1 X150.901 Y43.679 E-0.04927
G1 X151.102 Y43.760 E-0.04990
G1 X151.279 Y43.871 E-0.04835
G1 X151.442 Y44.010 E-0.04960
G1 X151.578 Y44.181 E-0.05035
G1 X151.680 Y44.370 E-0.04951
G1 X151.748 Y44.575 E-0.04991
G1 X151.767 Y44.719 E-0.03357
;WIPE_END
G1 E-0.07000 F2100.000
G1 Z0.400 F10800.000
G1 X151.888 Y45.652
G1 Z0.200
G1 E1.40000 F2100.000
;TYPE:Perimeter
G1 F1200.000
G1 X152.056 Y45.356 E0.01067
G1 X152.132 Y45.076 E0.00909
G1 X152.154 Y44.776 E0.00943
G1 X152.118 Y44.490 E0.00903
G1 X152.027 Y44.219 E0.00896
G1 X151.894 Y43.972 E0.00880
G1 X151.715 Y43.747 E0.00902
G1 X151.503 Y43.566 E0.00875
G1 X151.273 Y43.422 E0.00849
G1 X151.012 Y43.317 E0.00883
G1 X150.740 Y43.259 E0.00871
G1 X150.464 Y43.247 E0.00867
G1 X150.188 Y43.282 E0.00872
G1 X149.922 Y43.363 E0.00872
G1 X149.673 Y43.487 E0.00873
G1 X149.449 Y43.654 E0.00875
G1 X149.253 Y43.858 E0.00887
G1 X149.099 Y44.094 E0.00884
G1 X148.987 Y44.350 E0.00875
G1 X148.919 Y44.636 E0.00923
G1 X148.914 Y44.930 E0.00922
G1 X148.962 Y45.208 E0.00884
G1 X149.068 Y45.496 E0.00963
G1 X149.184 Y45.657 E0.00623
G1 X148.478 Y45.602 E0.02220
G1 X147.294 Y45.599 E0.03714
G1 X147.294 Y42.455 E0.09859
G1 X148.241 Y41.722 E0.03757
G1 X149.547 Y40.880 E0.04871
G1 X150.920 Y40.151 E0.04873
G1 X152.348 Y39.544 E0.04867
G1 X153.737 Y39.087 E0.04583
G1 X163.829 Y39.087 E0.31643
G1 X165.217 Y39.544 E0.04583
G1 X166.645 Y40.151 E0.04866
G1 X168.016 Y40.880 E0.04867
G1 X169.322 Y41.722 E0.04872
G1 X170.272 Y42.455 E0.03761
G1 X170.272 Y45.599 E0.09858
G1 X169.086 Y45.603 E0.03716
G1 X168.549 Y45.633 E0.01688
G1 X168.380 Y45.662 E0.00538
G1 X168.555 Y45.356 E0.01106
G1 X168.632 Y45.076 E0.00910
G1 X168.654 Y44.776 E0.00943
G1 X168.618 Y44.490 E0.00903
G1 X168.527 Y44.219 E0.00896
G1 X168.394 Y43.972 E0.00880
G1 X168.217 Y43.750 E0.00890
G1 X168.006 Y43.566 E0.00878
G1 X167.770 Y43.421 E0.00869
G1 X167.512 Y43.317 E0.00873
G1 X167.240 Y43.259 E0.00871
G1 X166.964 Y43.247 E0.00867
G1 X166.688 Y43.282 E0.00872
G1 X166.422 Y43.363 E0.00872
G1 X166.173 Y43.487 E0.00873
G1 X165.949 Y43.654 E0.00875
G1 X165.753 Y43.858 E0.00887
G1 X165.599 Y44.094 E0.00885
G1 X165.487 Y44.350 E0.00875
G1 X165.418 Y44.637 E0.00924
G1 X165.414 Y44.929 E0.00918
G1 X165.462 Y45.208 E0.00887
G1 X165.568 Y45.496 E0.00962
G1 X165.681 Y45.653 E0.00606
G1 X165.223 Y45.609 E0.01443
G1 X160.986 Y45.595 E0.13285
G1 X160.986 Y67.673 E0.69222
G1 X165.155 Y67.664 E0.13074
G1 X165.686 Y67.621 E0.01670
G1 X165.576 Y67.753 E0.00540
G1 X165.462 Y68.059 E0.01023
G1 X165.414 Y68.339 E0.00890
G1 X165.418 Y68.634 E0.00925
G1 X165.487 Y68.921 E0.00925
G1 X165.600 Y69.179 E0.00885
G1 X165.755 Y69.413 E0.00879
G1 X165.949 Y69.615 E0.00877
G1 X166.169 Y69.778 E0.00860
G1 X166.417 Y69.907 E0.00876
G1 X166.688 Y69.989 E0.00888
G1 X166.964 Y70.023 E0.00872
G1 X167.240 Y70.012 E0.00867
G1 X167.512 Y69.954 E0.00871
G1 X167.770 Y69.850 E0.00873
G1 X168.010 Y69.703 E0.00882
G1 X168.220 Y69.515 E0.00882
G1 X168.394 Y69.296 E0.00877
G1 X168.527 Y69.049 E0.00880
G1 X168.618 Y68.779 E0.00896
G1 X168.654 Y68.493 E0.00903
G1 X168.632 Y68.193 E0.00943
G1 X168.556 Y67.913 E0.00909
G1 X168.391 Y67.621 E0.01051
G1 X168.947 Y67.664 E0.01747
G1 X170.102 Y67.669 E0.03621
G1 X170.102 Y68.458 E0.02475
G1 X170.272 Y68.628 E0.00754
G1 X170.272 Y70.816 E0.06858
G1 X169.322 Y71.549 E0.03761
G1 X168.016 Y72.391 E0.04871
G1 X166.645 Y73.117 E0.04865
G1 X165.217 Y73.727 E0.04868
G1 X163.829 Y74.181 E0.04579
G1 X153.736 Y74.181 E0.31646
G1 X152.348 Y73.727 E0.04579
G1 X150.920 Y73.117 E0.04869
G1 X149.547 Y72.391 E0.04871
G1 X148.241 Y71.549 E0.04869
G1 X147.294 Y70.816 E0.03757
G1 X147.294 Y67.670 E0.09865
G1 X148.478 Y67.666 E0.03714
G1 X149.196 Y67.610 E0.02257
G1 X149.076 Y67.753 E0.00588
G1 X148.962 Y68.060 E0.01024
G1 X148.914 Y68.338 E0.00887
G1 X148.918 Y68.634 E0.00928
G1 X148.987 Y68.921 E0.00924
G1 X149.100 Y69.179 E0.00885
G1 X149.255 Y69.413 E0.00879
G1 X149.449 Y69.615 E0.00877
G1 X149.669 Y69.778 E0.00860
G1 X149.917 Y69.907 E0.00876
G1 X150.188 Y69.989 E0.00888
G1 X150.464 Y70.023 E0.00872
G1 X150.740 Y70.012 E0.00867
G1 X151.012 Y69.954 E0.00871
G1 X151.273 Y69.849 E0.00882
G1 X151.507 Y69.703 E0.00865
G1 X151.718 Y69.518 E0.00878
G1 X151.894 Y69.296 E0.00889
G1 X152.027 Y69.049 E0.00880
G1 X152.118 Y68.779 E0.00895
G1 X152.154 Y68.493 E0.00903
G1 X152.132 Y68.193 E0.00944
G1 X152.056 Y67.913 E0.00909
G1 X151.888 Y67.617 E0.01066
G1 X152.342 Y67.660 E0.01428
G1 X156.578 Y67.673 E0.13281
G1 X156.578 Y45.595 E0.69224
G1 X152.342 Y45.609 E0.13282
G1 X151.948 Y45.646 E0.01241
;WIPE_START
G1 F8640.000
G1 X152.056 Y45.356 E-0.07158
G1 X152.132 Y45.076 E-0.06697
G1 X152.154 Y44.776 E-0.06948
G1 X152.118 Y44.490 E-0.06647
G1 X152.027 Y44.219 E-0.06595
G1 X151.894 Y43.972 E-0.06478
G1 X151.715 Y43.747 E-0.06641
G1 X151.503 Y43.566 E-0.06447
G1 X151.273 Y43.422 E-0.06253
G1 X151.012 Y43.317 E-0.06504
G1 X150.740 Y43.259 E-0.06417
G1 X150.464 Y43.247 E-0.06383
G1 X150.188 Y43.282 E-0.06421
G1 X149.922 Y43.363 E-0.06425
G1 X149.673 Y43.487 E-0.06431
G1 X149.449 Y43.654 E-0.06447
G1 X149.253 Y43.858 E-0.06531
G1 X149.099 Y44.094 E-0.06514
G1 X148.987 Y44.350 E-0.06443
G1 X148.919 Y44.636 E-0.06795
G1 X148.917 Y44.715 E-0.01824
;WIPE_END
G1 E-0.07000 F2100.000
G1 Z0.400 F10800.000
M73 P1 R26
G1 X167.159 Y45.939
G1 Z0.200
G1 E1.40000 F2100.000
;TYPE:External perimeter
G1 F1200.000
G1 X166.817 Y45.925 E0.01071
G1 X166.638 Y45.871 E0.00587
G1 X166.178 Y45.643 E0.01609
G1 X166.030 Y45.492 E0.00662
G1 X165.904 Y45.317 E0.00677
G1 X165.828 Y45.110 E0.00691
G1 X165.791 Y44.900 E0.00669
G1 X165.795 Y44.684 E0.00678
G1 X165.846 Y44.470 E0.00689
G1 X165.932 Y44.274 E0.00672
G1 X166.049 Y44.094 E0.00675
G1 X166.199 Y43.938 E0.00677
G1 X166.371 Y43.810 E0.00673
G1 X166.562 Y43.714 E0.00670
G1 X166.767 Y43.652 E0.00671
G1 X166.980 Y43.625 E0.00672
G1 X167.192 Y43.634 E0.00668
G1 X167.401 Y43.679 E0.00669
G1 X167.600 Y43.759 E0.00671
G1 X167.782 Y43.871 E0.00671
G1 X167.944 Y44.012 E0.00672
G1 X168.078 Y44.181 E0.00678
G1 X168.180 Y44.370 E0.00672
G1 X168.248 Y44.575 E0.00678
G1 X168.275 Y44.786 E0.00668
G1 X168.259 Y45.011 E0.00709
G1 X168.203 Y45.216 E0.00664
G1 X168.102 Y45.406 E0.00675
G1 X167.965 Y45.571 E0.00673
G1 X167.795 Y45.694 E0.00660
G1 X167.347 Y45.899 E0.01543
G1 X167.217 Y45.927 E0.00416
G1 X167.016 Y46.250 F10800.000
;WIPE_START
G1 F8640.000
G1 X166.817 Y45.925 E-0.09238
G1 X166.638 Y45.871 E-0.04319
M73 Q2 S27
G1 X166.178 Y45.643 E-0.11847
G1 X166.030 Y45.492 E-0.04877
