; generated by PrusaSlicer 2.3.0+win64 on 2021-04-22 at 11:25:09 UTC

; 

; external perimeters extrusion width = 0.45mm
; perimeters extrusion width = 0.45mm
; infill extrusion width = 0.45mm
; solid infill extrusion width = 0.45mm
; top infill extrusion width = 0.40mm
; first layer extrusion width = 0.42mm

M73 P0 R86
M73 Q0 S87
M201 X1000 Y1000 Z200 E5000 ; sets maximum accelerations, mm/sec^2
M203 X200 Y200 Z12 E120 ; sets maximum feedrates, mm/sec
M204 P1250 R1250 T1250 ; sets acceleration (P, T) and retract acceleration (R), mm/sec^2
M205 X8.00 Y8.00 Z0.40 E4.50 ; sets the jerk limits, mm/sec
M205 S0 T0 ; sets the minimum extruding and travel feed rate, mm/sec
M107
;TYPE:Custom
M862.3 P "MK3S" ; printer model check
M862.1 P0.4 ; nozzle diameter check
M115 U3.9.1 ; tell printer latest fw version
G90 ; use absolute coordinates
M83 ; extruder relative mode
M104 S240 ; set extruder temp
M140 S85 ; set bed temp
M190 S85 ; wait for bed temp
M109 S240 ; wait for extruder temp
G28 W ; home all without mesh bed level
G80 ; mesh bed leveling
G1 Y-3.0 F1000.0 ; go outside print area
G92 E0.0
G1 X60.0 E9.0 F1000.0 ; intro line
M73 Q0 S86
G1 X100.0 E12.5 F1000.0 ; intro line
G92 E0.0
M221 S95

; Don't change E values below. Excessive value can damage the printer.
M907 E430 ; set extruder motor current
G21 ; set units to millimeters
G90 ; use absolute coordinates
M83 ; use relative distances for extrusion
M900 K0.08 ; Filament gcode LA 1.5
M900 K45 ; Filament gcode LA 1.0
;LAYER_CHANGE
;Z:0.2
;HEIGHT:0.2
;BEFORE_LAYER_CHANGE
G92 E0.0
;0.2


G1 E-1.40000 F2100.000
G1 Z0.200 F10800.000
;AFTER_LAYER_CHANGE
;0.2
G1 Z0.400
G1 X63.289 Y88.151
G1 Z0.200
G1 E1.40000 F2100.000
M204 S1000
;TYPE:Skirt
;WIDTH:0.42
G1 F1200.000
G1 X63.649 Y87.530 E0.02249
G1 X65.454 Y85.708 E0.08043
G1 X65.955 Y85.344 E0.01941
G1 X66.485 Y85.134 E0.01787
G1 X67.050 Y85.057 E0.01787
G1 X119.797 Y84.289 E1.65402
G1 X130.176 Y84.289 E0.32544
G1 X130.845 Y84.386 E0.02119
G1 X132.975 Y85.112 E0.07057
G1 X134.983 Y86.041 E0.06937
G1 X136.058 Y86.647 E0.03870
G1 X137.880 Y87.877 E0.06890
G1 X138.937 Y88.732 E0.04263
G1 X139.407 Y89.379 E0.02508
G1 X139.636 Y90.141 E0.02496
G1 X139.632 Y119.886 E0.93261
G1 X139.372 Y120.689 E0.02649
G1 X138.850 Y121.349 E0.02637
G1 X136.997 Y122.754 E0.07291
G1 X135.058 Y123.920 E0.07093
G1 X132.933 Y124.904 E0.07343
G1 X130.878 Y125.604 E0.06806
G1 X130.352 Y125.705 E0.01680
G1 X85.272 Y127.875 E1.41509
G1 X82.787 Y127.874 E0.07790
G1 X80.239 Y127.572 E0.08048
G1 X77.803 Y126.984 E0.07857
G1 X66.238 Y123.116 E0.38236
G1 X65.456 Y122.624 E0.02896
G1 X63.767 Y120.935 E0.07489
G1 X63.411 Y120.442 E0.01906
M73 P0 R85
G1 X63.199 Y119.901 E0.01823
G1 X63.124 Y119.328 E0.01811
G1 X63.130 Y88.850 E0.95563
G1 X63.276 Y88.209 E0.02060
;WIPE_START
G1 F8640.000
G1 X63.649 Y87.530 E-0.17886
G1 X65.454 Y85.708 E-0.59229
G1 X65.955 Y85.344 E-0.14295
G1 X66.485 Y85.134 E-0.13161
G1 X67.050 Y85.057 E-0.13161
G1 X67.711 Y85.047 E-0.15268
;WIPE_END
G1 E-0.07000 F2100.000
G1 Z0.400 F10800.000
G1 X96.409 Y115.894
G1 Z0.200
G1 E1.40000 F2100.000
;TYPE:External perimeter
G1 F1200.000
G1 X96.695 Y115.585 E0.01320
G1 X97.313 Y115.216 E0.02255
G1 X97.657 Y115.089 E0.01149
G1 X98.016 Y115.039 E0.01139
G1 X98.392 Y115.068 E0.01180
G1 X98.746 Y115.176 E0.01163
G1 X99.363 Y115.528 E0.02226
G1 X99.676 Y115.804 E0.01308
G1 X99.881 Y116.181 E0.01344
G1 X99.975 Y116.591 E0.01319
G1 X99.966 Y117.007 E0.01306
G1 X99.867 Y117.409 E0.01298
G1 X99.683 Y117.779 E0.01295
G1 X99.444 Y118.079 E0.01204
G1 X99.103 Y118.360 E0.01383
G1 X98.732 Y118.544 E0.01300
G1 X98.331 Y118.644 E0.01295
G1 X97.922 Y118.656 E0.01285
G1 X97.516 Y118.579 E0.01296
G1 X97.136 Y118.417 E0.01296
G1 X96.799 Y118.176 E0.01298
G1 X96.522 Y117.869 E0.01297
G1 X96.317 Y117.509 E0.01298
G1 X96.194 Y117.105 E0.01325
G1 X96.164 Y116.691 E0.01302
G1 X96.227 Y116.305 E0.01226
G1 X96.385 Y115.948 E0.01223
G1 X96.235 Y115.533 F10800.000
;WIPE_START
G1 F8640.000
G1 X96.695 Y115.585 E-0.11039
G1 X97.313 Y115.216 E-0.16607
G1 X97.657 Y115.089 E-0.08461
G1 X98.016 Y115.039 E-0.08389
G1 X98.392 Y115.068 E-0.08690
G1 X98.746 Y115.176 E-0.08564
G1 X99.363 Y115.528 E-0.16391
G1 X99.676 Y115.804 E-0.09635
G1 X99.881 Y116.181 E-0.09901
G1 X99.975 Y116.591 E-0.09715
G1 X99.966 Y117.007 E-0.09614
G1 X99.867 Y117.409 E-0.09559
G1 X99.743 Y117.659 E-0.06435
;WIPE_END
G1 E-0.07000 F2100.000
G1 Z0.400 F10800.000
G1 X99.913 Y91.099
G1 Z0.200
G1 E1.40000 F2100.000
;TYPE:Perimeter
G1 F1200.000
G1 X100.011 Y91.005 E0.00428
G1 X100.276 Y90.507 E0.01769
G1 X100.386 Y90.001 E0.01621
G1 X100.374 Y89.498 E0.01578
G1 X100.252 Y89.015 E0.01564
G1 X100.038 Y88.591 E0.01490
G1 X99.707 Y88.204 E0.01594
G1 X100.653 Y88.219 E0.02966
G1 X101.781 Y89.347 E0.05000
G1 X101.781 Y91.048 E0.05331
G1 X100.629 Y91.050 E0.03611
G1 X99.972 Y91.091 E0.02065
G1 X99.707 Y90.774 F10800.000
;TYPE:External perimeter
G1 F1200.000
G1 X99.404 Y91.063 E0.01313
G1 X98.770 Y91.385 E0.02227
G1 X98.414 Y91.491 E0.01167
G1 X98.051 Y91.519 E0.01140
G1 X97.679 Y91.466 E0.01180
G1 X97.345 Y91.341 E0.01117
G1 X96.705 Y90.987 E0.02293
G1 X96.417 Y90.640 E0.01415
G1 X96.260 Y90.277 E0.01239
G1 X96.196 Y89.864 E0.01309
G1 X96.228 Y89.450 E0.01302
G1 X96.351 Y89.052 E0.01305
G1 X96.581 Y88.670 E0.01400
G1 X96.882 Y88.377 E0.01318
G1 X97.248 Y88.182 E0.01300
G1 X97.627 Y88.095 E0.01219
G1 X97.976 Y88.062 E0.01099
G1 X98.333 Y88.067 E0.01120
G1 X98.699 Y88.115 E0.01158
G1 X99.080 Y88.233 E0.01250
G1 X99.431 Y88.462 E0.01314
G1 X99.722 Y88.801 E0.01401
G1 X99.897 Y89.147 E0.01216
G1 X99.998 Y89.549 E0.01299
G1 X100.008 Y89.965 E0.01304
G1 X99.918 Y90.376 E0.01318
G1 X99.735 Y90.721 E0.01226
G1 X99.859 Y91.145 F10800.000
;WIPE_START
G1 F8640.000
G1 X99.404 Y91.063 E-0.10995
G1 X98.770 Y91.385 E-0.16397
G1 X98.414 Y91.491 E-0.08594
G1 X98.051 Y91.519 E-0.08397
G1 X97.679 Y91.466 E-0.08690
G1 X97.345 Y91.341 E-0.08225
G1 X96.705 Y90.987 E-0.16890
G1 X96.417 Y90.640 E-0.10417
G1 X96.260 Y90.277 E-0.09126
G1 X96.196 Y89.864 E-0.09641
G1 X96.228 Y89.450 E-0.09590
G1 X96.351 Y89.052 E-0.09613
G1 X96.494 Y88.814 E-0.06426
;WIPE_END
G1 E-0.07000 F2100.000
G1 Z0.400 F10800.000
G1 X96.300 Y91.089
G1 Z0.200
G1 E1.40000 F2100.000
;TYPE:Perimeter
G1 F1200.000
G1 X95.854 Y91.054 E0.01401
G1 X91.193 Y91.045 E0.14614
G1 X91.193 Y115.596 E0.76977
G1 X94.873 Y115.596 E0.11538
G1 X95.870 Y115.577 E0.03126
G1 X96.227 Y115.535 E0.01126
G1 X96.090 Y115.683 E0.00633
G1 X95.862 Y116.196 E0.01760
G1 X95.785 Y116.674 E0.01517
G1 X95.821 Y117.174 E0.01573
G1 X95.969 Y117.659 E0.01588
G1 X96.214 Y118.091 E0.01558
G1 X96.546 Y118.459 E0.01554
G1 X96.950 Y118.747 E0.01555
G1 X97.405 Y118.942 E0.01553
G1 X97.892 Y119.034 E0.01553
G1 X98.383 Y119.019 E0.01540
G1 X98.863 Y118.900 E0.01551
G1 X99.310 Y118.678 E0.01565
G1 X99.714 Y118.345 E0.01642
G1 X100.003 Y117.983 E0.01453
G1 X100.223 Y117.540 E0.01551
G1 X100.342 Y117.057 E0.01560
G1 X100.352 Y116.552 E0.01582
G1 X100.237 Y116.046 E0.01628
G1 X99.948 Y115.541 E0.01826
G1 X100.627 Y115.591 E0.02135
G1 X101.781 Y115.594 E0.03619
G1 X101.781 Y118.983 E0.10624
G1 X100.655 Y120.109 E0.04995
G1 X96.212 Y120.109 E0.13929
G1 X95.135 Y120.985 E0.04352
G1 X94.255 Y121.618 E0.03399
G1 X93.339 Y122.198 E0.03401
G1 X92.389 Y122.723 E0.03401
G1 X91.411 Y123.190 E0.03401
G1 X90.406 Y123.599 E0.03401
G1 X89.379 Y123.947 E0.03401
G1 X88.333 Y124.233 E0.03401
G1 X87.271 Y124.457 E0.03401
G1 X86.199 Y124.617 E0.03401
G1 X85.119 Y124.714 E0.03401
G1 X84.034 Y124.746 E0.03401
G1 X82.950 Y124.714 E0.03401
G1 X81.870 Y124.617 E0.03401
G1 X80.797 Y124.457 E0.03401
G1 X79.736 Y124.233 E0.03401
G1 X78.690 Y123.947 E0.03401
G1 X77.663 Y123.599 E0.03401
G1 X76.658 Y123.190 E0.03401
G1 X75.680 Y122.723 E0.03401
G1 X74.730 Y122.198 E0.03401
G1 X73.814 Y121.618 E0.03401
G1 X72.933 Y120.985 E0.03401
G1 X71.857 Y120.109 E0.04351
G1 X67.414 Y120.109 E0.13929
G1 X66.288 Y118.983 E0.04995
G1 X66.288 Y115.594 E0.10624
G1 X67.442 Y115.591 E0.03620
G1 X67.965 Y115.563 E0.01641
G1 X68.153 Y115.536 E0.00596
G1 X68.030 Y115.667 E0.00565
G1 X67.801 Y116.152 E0.01681
G1 X67.713 Y116.660 E0.01618
G1 X67.747 Y117.162 E0.01578
G1 X67.889 Y117.639 E0.01559
G1 X68.131 Y118.074 E0.01562
G1 X68.482 Y118.462 E0.01640
G1 X68.856 Y118.734 E0.01452
G1 X69.309 Y118.934 E0.01552
G1 X69.798 Y119.032 E0.01565
G1 X70.294 Y119.022 E0.01554
G1 X70.776 Y118.906 E0.01553
G1 X71.221 Y118.689 E0.01555
G1 X71.610 Y118.381 E0.01554
G1 X71.923 Y117.998 E0.01553
G1 X72.146 Y117.555 E0.01554
G1 X72.262 Y117.102 E0.01466
G1 X72.284 Y116.572 E0.01665
G1 X72.172 Y116.061 E0.01639
G1 X71.915 Y115.581 E0.01707
G1 X71.868 Y115.538 E0.00199
G1 X72.194 Y115.576 E0.01028
G1 X72.710 Y115.593 E0.01618
G1 X76.876 Y115.596 E0.13061
G1 X76.876 Y91.020 E0.77057
G1 X72.209 Y91.034 E0.14631
G1 X71.816 Y91.072 E0.01239
G1 X72.010 Y90.843 E0.00943
G1 X72.218 Y90.355 E0.01661
G1 X72.291 Y89.849 E0.01606
G1 X72.246 Y89.348 E0.01575
G1 X72.090 Y88.871 E0.01574
G1 X71.826 Y88.436 E0.01597
G1 X71.590 Y88.205 E0.01034
G1 X72.064 Y88.218 E0.01489
G1 X95.502 Y88.221 E0.73487
G1 X96.516 Y88.206 E0.03181
G1 X96.283 Y88.434 E0.01023
G1 X96.004 Y88.897 E0.01696
G1 X95.855 Y89.379 E0.01581
G1 X95.817 Y89.879 E0.01572
G1 X95.895 Y90.382 E0.01597
G1 X96.092 Y90.839 E0.01559
G1 X96.262 Y91.043 E0.00832
;WIPE_START
G1 F8640.000
G1 X95.854 Y91.054 E-0.09406
G1 X91.193 Y91.045 E-1.07623
G1 X91.193 Y91.737 E-0.15971
;WIPE_END
G1 E-0.07000 F2100.000
G1 Z0.400 F10800.000
G1 X71.410 Y90.968
G1 Z0.200
G1 E1.40000 F2100.000
;TYPE:External perimeter
G1 F1200.000
G1 X70.775 Y91.334 E0.02299
G1 X70.435 Y91.464 E0.01141
G1 X70.069 Y91.518 E0.01160
G1 X69.700 Y91.493 E0.01160
G1 X69.347 Y91.390 E0.01152
G1 X68.708 Y91.060 E0.02257
G1 X68.401 Y90.773 E0.01317
G1 X68.196 Y90.400 E0.01333
G1 X68.100 Y89.992 E0.01317
G1 X68.103 Y89.575 E0.01306
G1 X68.199 Y89.171 E0.01302
G1 X68.384 Y88.797 E0.01307
G1 X68.656 Y88.478 E0.01316
G1 X69.004 Y88.243 E0.01316
G1 X69.388 Y88.119 E0.01263
G1 X69.768 Y88.068 E0.01203
G1 X70.114 Y88.061 E0.01086
G1 X70.476 Y88.095 E0.01139
G1 X70.858 Y88.183 E0.01230
G1 X71.227 Y88.378 E0.01309
G1 X71.528 Y88.672 E0.01320
G1 X71.745 Y89.029 E0.01310
G1 X71.874 Y89.425 E0.01303
G1 X71.911 Y89.839 E0.01304
G1 X71.852 Y90.253 E0.01313
G1 X71.686 Y90.643 E0.01327
G1 X71.449 Y90.922 E0.01149
G1 X71.475 Y91.362 F10800.000
;WIPE_START
G1 F8640.000
G1 X70.775 Y91.334 E-0.18240
G1 X70.435 Y91.464 E-0.08401
G1 X70.069 Y91.518 E-0.08544
G1 X69.700 Y91.493 E-0.08544
G1 X69.347 Y91.390 E-0.08482
G1 X68.708 Y91.060 E-0.16621
G1 X68.401 Y90.773 E-0.09697
G1 X68.196 Y90.400 E-0.09814
G1 X68.100 Y89.992 E-0.09699
G1 X68.103 Y89.575 E-0.09615
G1 X68.199 Y89.171 E-0.09590
G1 X68.384 Y88.797 E-0.09626
G1 X68.556 Y88.595 E-0.06126
;WIPE_END
G1 E-0.07000 F2100.000
G1 Z0.400 F10800.000
G1 X68.173 Y91.076
G1 Z0.200
G1 E1.40000 F2100.000
;TYPE:Perimeter
G1 F1200.000
G1 X67.959 Y91.048 E0.00677
G1 X67.439 Y91.025 E0.01631
G1 X66.288 Y91.023 E0.03610
G1 X66.288 Y89.347 E0.05254
G1 X67.419 Y88.216 E0.05014
G1 X68.398 Y88.199 E0.03071
G1 X68.067 Y88.589 E0.01603
G1 X67.842 Y89.042 E0.01587
G1 X67.727 Y89.530 E0.01571
G1 X67.723 Y90.034 E0.01581
G1 X67.841 Y90.537 E0.01620
G1 X68.129 Y91.035 E0.01805
;WIPE_START
G1 F8640.000
G1 X67.959 Y91.048 E-0.03942
G1 X67.439 Y91.025 E-0.12008
G1 X66.288 Y91.023 E-0.26582
G1 X66.288 Y89.347 E-0.38690
G1 X67.419 Y88.216 E-0.36925
G1 X68.062 Y88.205 E-0.14854
;WIPE_END
G1 E-0.07000 F2100.000
G1 Z0.400 F10800.000
G1 X71.613 Y115.815
G1 Z0.200
G1 E1.40000 F2100.000
;TYPE:External perimeter
G1 F1200.000
G1 X71.814 Y116.193 E0.01340
G1 X71.905 Y116.605 E0.01323
G1 X71.887 Y117.047 E0.01388
G1 X71.791 Y117.422 E0.01213
G1 X71.605 Y117.791 E0.01296
G1 X71.344 Y118.111 E0.01296
G1 X71.019 Y118.368 E0.01297
G1 X70.647 Y118.549 E0.01298
G1 X70.246 Y118.646 E0.01296
G1 X69.832 Y118.654 E0.01296
G1 X69.424 Y118.572 E0.01307
G1 X69.046 Y118.406 E0.01295
G1 X68.736 Y118.180 E0.01203
G1 X68.439 Y117.853 E0.01382
G1 X68.239 Y117.492 E0.01296
G1 X68.120 Y117.095 E0.01298
G1 X68.092 Y116.680 E0.01304
G1 X68.164 Y116.266 E0.01316
G1 X68.345 Y115.882 E0.01332
G1 X68.634 Y115.576 E0.01319
G1 X69.255 Y115.210 E0.02260
G1 X69.600 Y115.086 E0.01151
G1 X69.960 Y115.039 E0.01139
G1 X70.335 Y115.071 E0.01179
G1 X70.688 Y115.182 E0.01161
G1 X71.305 Y115.535 E0.02229
G1 X71.569 Y115.775 E0.01118
G1 X72.010 Y115.765 F10800.000
;WIPE_START
G1 F8640.000
G1 X71.814 Y116.193 E-0.11185
G1 X71.905 Y116.605 E-0.09745
G1 X71.887 Y117.047 E-0.10221
G1 X71.791 Y117.422 E-0.08933
G1 X71.605 Y117.791 E-0.09545
G1 X71.344 Y118.111 E-0.09543
G1 X71.019 Y118.368 E-0.09553
G1 X70.647 Y118.549 E-0.09556
G1 X70.246 Y118.646 E-0.09542
G1 X69.832 Y118.654 E-0.09545
G1 X69.424 Y118.572 E-0.09623
G1 X69.046 Y118.406 E-0.09539
G1 X68.736 Y118.180 E-0.08860
G1 X68.514 Y117.936 E-0.07609
;WIPE_END
G1 E-0.07000 F2100.000
G1 Z0.400 F10800.000
G1 X91.571 Y91.423
G1 Z0.200
G1 E1.40000 F2100.000
G1 F1200.000
G1 X91.571 Y115.219 E0.74610
G1 X94.870 Y115.218 E0.10345
G1 X95.845 Y115.200 E0.03057
G1 X96.347 Y115.142 E0.01586
G1 X96.820 Y115.036 E0.01520
G1 X97.278 Y115.019 E0.01437
G1 X99.178 Y115.019 E0.05955
G1 X99.644 Y115.116 E0.01494
G1 X100.141 Y115.188 E0.01575
G1 X100.637 Y115.214 E0.01557
G1 X102.158 Y115.218 E0.04768
G1 X102.158 Y119.139 E0.12293
G1 X100.811 Y120.486 E0.05974
G1 X96.346 Y120.486 E0.13999
G1 X95.365 Y121.285 E0.03967
G1 X94.466 Y121.931 E0.03469
G1 X93.531 Y122.523 E0.03471
G1 X92.562 Y123.058 E0.03471
G1 X91.563 Y123.535 E0.03471
G1 X90.538 Y123.952 E0.03471
G1 X89.489 Y124.307 E0.03471
G1 X88.422 Y124.600 E0.03471
G1 X87.338 Y124.828 E0.03471
G1 X86.244 Y124.992 E0.03471
G1 X85.141 Y125.091 E0.03471
G1 X84.034 Y125.123 E0.03471
G1 X82.928 Y125.091 E0.03471
G1 X81.825 Y124.992 E0.03471
G1 X80.731 Y124.828 E0.03471
G1 X79.647 Y124.600 E0.03471
G1 X78.580 Y124.307 E0.03471
G1 X77.531 Y123.952 E0.03471
G1 X76.506 Y123.535 E0.03471
G1 X75.507 Y123.058 E0.03471
G1 X74.538 Y122.523 E0.03471
G1 X73.603 Y121.931 E0.03471
G1 X72.704 Y121.284 E0.03471
G1 X71.723 Y120.486 E0.03966
G1 X67.258 Y120.486 E0.13999
G1 X65.911 Y119.139 E0.05974
G1 X65.911 Y115.218 E0.12293
G1 X67.432 Y115.214 E0.04769
G1 X67.928 Y115.187 E0.01558
G1 X68.425 Y115.115 E0.01575
G1 X68.891 Y115.019 E0.01491
G1 X71.252 Y115.033 E0.07403
G1 X71.721 Y115.141 E0.01511
G1 X72.223 Y115.200 E0.01583
G1 X72.716 Y115.216 E0.01549
G1 X76.498 Y115.219 E0.11859
G1 X76.498 Y91.398 E0.74688
G1 X72.228 Y91.411 E0.13390
G1 X71.726 Y91.460 E0.01582
G1 X71.246 Y91.559 E0.01537
G1 X70.786 Y91.599 E0.01447
G1 X68.893 Y91.594 E0.05935
G1 X68.425 Y91.490 E0.01503
G1 X67.926 Y91.424 E0.01580
G1 X67.431 Y91.402 E0.01553
G1 X65.911 Y91.399 E0.04765
G1 X65.911 Y89.191 E0.06923
G1 X67.260 Y87.842 E0.05981
G1 X68.598 Y87.818 E0.04196
G1 X69.596 Y87.701 E0.03152
G1 X70.075 Y87.685 E0.01502
G1 X70.556 Y87.718 E0.01511
G1 X71.053 Y87.785 E0.01572
G1 X71.563 Y87.827 E0.01603
G1 X72.070 Y87.841 E0.01591
G1 X95.499 Y87.844 E0.73462
G1 X96.506 Y87.829 E0.03158
G1 X97.997 Y87.685 E0.04696
G1 X98.473 Y87.698 E0.01493
G1 X99.468 Y87.816 E0.03141
G1 X99.978 Y87.839 E0.01602
G1 X100.810 Y87.843 E0.02608
G1 X102.158 Y89.191 E0.05976
G1 X102.158 Y91.424 E0.07001
G1 X100.638 Y91.427 E0.04765
G1 X100.143 Y91.449 E0.01553
G1 X99.644 Y91.516 E0.01578
G1 X99.175 Y91.617 E0.01504
G1 X97.288 Y91.623 E0.05919
G1 X96.826 Y91.564 E0.01459
G1 X96.340 Y91.471 E0.01552
G1 X95.839 Y91.431 E0.01575
G1 X91.631 Y91.423 E0.13196
G1 X91.171 Y91.422 F10800.000
;WIPE_START
G1 F8640.000
G1 X91.616 Y97.183 E-1.33000
;WIPE_END
G1 E-0.07000 F2100.000
G1 Z0.400 F10800.000
G1 X95.477 Y88.334
G1 Z0.200
G1 E1.40000 F2100.000
;TYPE:Solid infill
;WIDTH:0.42155
G1 F1200.000
G1 X95.812 Y88.669 E0.01492
G1 X95.744 Y88.781 E0.00413
G1 X95.660 Y89.053 E0.00895
G1 X95.111 Y88.503 E0.02446
G1 X94.575 Y88.503 E0.01686
G1 X95.563 Y89.491 E0.04397
G1 X95.532 Y89.890 E0.01260
G1 X95.552 Y90.015 E0.00399
G1 X94.040 Y88.503 E0.06731
G1 X93.504 Y88.503 E0.01686
G1 X95.755 Y90.771 E0.10058
G1 X95.235 Y90.770 E0.01635
G1 X92.969 Y88.503 E0.10092
G1 X92.433 Y88.503 E0.01686
