; generated by PrusaSlicer 2.3.0+win64 on 2021-06-29 at 20:04:47 UTC

; 

; external perimeters extrusion width = 0.45mm
; perimeters extrusion width = 0.45mm
; infill extrusion width = 0.45mm
; solid infill extrusion width = 0.45mm
; top infill extrusion width = 0.40mm
; support material extrusion width = 0.35mm
; first layer extrusion width = 0.42mm

M73 P0 R203
M73 Q0 S205
M201 X1000 Y1000 Z200 E5000 ; sets maximum accelerations, mm/sec^2
M203 X200 Y200 Z12 E120 ; sets maximum feedrates, mm/sec
M204 P1250 R1250 T1250 ; sets acceleration (P, T) and retract acceleration (R), mm/sec^2
M205 X8.00 Y8.00 Z0.40 E4.50 ; sets the jerk limits, mm/sec
M205 S0 T0 ; sets the minimum extruding and travel feed rate, mm/sec
M107
;TYPE:Custom
M862.3 P "MK3S" ; printer model check
M862.1 P0.4 ; nozzle diameter check
M115 U3.9.2 ; tell printer latest fw version
G90 ; use absolute coordinates
M83 ; extruder relative mode
M104 S240 ; set extruder temp
M140 S85 ; set bed temp
M190 S85 ; wait for bed temp
M109 S240 ; wait for extruder temp
G28 W ; home all without mesh bed level
G80 ; mesh bed leveling
G1 Y-3.0 F1000.0 ; go outside print area
G92 E0.0
G1 X60.0 E9.0 F1000.0 ; intro line
G1 X100.0 E12.5 F1000.0 ; intro line
G92 E0.0
M221 S95

; Don't change E values below. Excessive value can damage the printer.

M907 E538 ; set extruder motor current
G21 ; set units to millimeters
G90 ; use absolute coordinates
M83 ; use relative distances for extrusion
M900 K0.08 ; Filament gcode LA 1.5
M900 K45 ; Filament gcode LA 1.0
;LAYER_CHANGE
;Z:0.2
;HEIGHT:0.2
;BEFORE_LAYER_CHANGE
G92 E0.0
;0.2


G1 E-1.40000 F2100.000
G1 Z0.200 F10800.000
;AFTER_LAYER_CHANGE
;0.2
G1 Z0.400
G1 X42.357 Y34.872
G1 Z0.200
G1 E1.40000 F2100.000
M204 S1000
;TYPE:Skirt
;WIDTH:0.42
G1 F1200.000
G1 X43.234 Y34.136 E0.03590
G1 X44.188 Y33.620 E0.03401
G1 X45.240 Y33.297 E0.03448
G1 X46.288 Y33.187 E0.03305
G1 X122.542 Y33.172 E2.39090
G1 X194.185 Y35.802 E2.24783
G1 X194.864 Y35.931 E0.02166
G1 X195.477 Y36.249 E0.02166
G1 X201.310 Y42.362 E0.26492
G1 X207.773 Y55.451 E0.45771
G1 X207.968 Y56.035 E0.01929
G1 X207.584 Y89.710 E1.05593
G1 X207.168 Y92.978 E0.10329
G1 X207.016 Y93.468 E0.01609
G1 X206.762 Y93.914 E0.01609
G1 X198.907 Y101.811 E0.34924
G1 X198.475 Y102.141 E0.01704
G1 X197.979 Y102.364 E0.01704
G1 X123.532 Y120.387 E2.40168
G1 X122.560 Y120.476 E0.03060
G1 X46.313 Y120.490 E2.39066
G1 X45.266 Y120.382 E0.03303
G1 X44.239 Y120.071 E0.03365
G1 X43.287 Y119.566 E0.03377
G1 X42.487 Y118.921 E0.03222
G1 X41.752 Y118.043 E0.03591
G1 X41.233 Y117.082 E0.03424
G1 X40.910 Y116.027 E0.03460
G1 X40.802 Y114.944 E0.03413
G1 X40.788 Y38.694 E2.39076
M73 Q0 S204
G1 X40.895 Y37.650 E0.03291
G1 X41.207 Y36.623 E0.03365
G1 X41.712 Y35.672 E0.03377
G1 X42.319 Y34.919 E0.03034
; printing object 3-125-to-2-25-instrument-adapter-c.stl id:2 copy 0
;WIPE_START
G1 F8640.000
G1 X43.234 Y34.136 E-0.27801
G1 X44.188 Y33.620 E-0.25045
G1 X45.240 Y33.297 E-0.25394
G1 X46.288 Y33.187 E-0.24342
G1 X47.605 Y33.187 E-0.30419
;WIPE_END
G1 E-0.07000 F2100.000
G1 Z0.400 F10800.000
G1 X63.591 Y55.983
G1 Z0.200
G1 E1.40000 F2100.000
;TYPE:Perimeter
G1 F1200.000
G1 X65.131 Y54.548 E0.06600
G1 X66.770 Y53.227 E0.06600
G1 X68.499 Y52.026 E0.06600
G1 X70.309 Y50.952 E0.06600
G1 X72.191 Y50.009 E0.06600
G1 X74.136 Y49.203 E0.06600
G1 X76.088 Y48.553 E0.06451
G1 X78.173 Y48.017 E0.06748
G1 X80.245 Y47.643 E0.06602
G1 X82.338 Y47.417 E0.06600
G1 X84.394 Y47.343 E0.06451
G1 X86.545 Y47.416 E0.06748
G1 X88.638 Y47.641 E0.06602
G1 X90.710 Y48.014 E0.06600
G1 X92.750 Y48.535 E0.06600
G1 X94.747 Y49.199 E0.06600
G1 X96.692 Y50.004 E0.06600
G1 X98.575 Y50.946 E0.06600
G1 X100.385 Y52.020 E0.06600
G1 X102.115 Y53.220 E0.06600
G1 X103.717 Y54.511 E0.06452
G1 X105.295 Y55.975 E0.06747
G1 X106.730 Y57.515 E0.06602
G1 X108.051 Y59.154 E0.06600
G1 X109.252 Y60.883 E0.06600
G1 X110.327 Y62.693 E0.06600
G1 X111.269 Y64.576 E0.06600
G1 X112.075 Y66.520 E0.06600
G1 X112.740 Y68.518 E0.06600
G1 X113.261 Y70.557 E0.06600
G1 X113.636 Y72.629 E0.06600
G1 X113.856 Y74.675 E0.06453
G1 X113.937 Y76.825 E0.06746
G1 X113.862 Y78.929 E0.06602
G1 X113.637 Y81.022 E0.06600
G1 X113.264 Y83.094 E0.06600
G1 X112.744 Y85.134 E0.06600
G1 X112.079 Y87.131 E0.06600
G1 X111.274 Y89.076 E0.06600
G1 X110.332 Y90.959 E0.06600
G1 X109.258 Y92.769 E0.06600
G1 X108.058 Y94.499 E0.06600
G1 X106.737 Y96.138 E0.06600
G1 X105.303 Y97.679 E0.06600
G1 X103.763 Y99.114 E0.06600
G1 X102.124 Y100.435 E0.06600
G1 X100.434 Y101.609 E0.06453
G1 X98.585 Y102.710 E0.06746
G1 X96.703 Y103.653 E0.06602
G1 X94.758 Y104.459 E0.06600
G1 X92.761 Y105.124 E0.06600
G1 X90.721 Y105.645 E0.06600
G1 X88.649 Y106.019 E0.06600
G1 X86.603 Y106.240 E0.06453
G1 X84.453 Y106.320 E0.06746
G1 X82.349 Y106.246 E0.06602
G1 X80.256 Y106.021 E0.06600
G1 X78.184 Y105.648 E0.06600
G1 X76.144 Y105.128 E0.06600
G1 X74.147 Y104.463 E0.06600
G1 X72.202 Y103.658 E0.06600
G1 X70.319 Y102.716 E0.06600
G1 X68.508 Y101.642 E0.06600
G1 X66.779 Y100.442 E0.06600
G1 X65.140 Y99.121 E0.06600
G1 X63.599 Y97.687 E0.06600
G1 X62.164 Y96.147 E0.06600
G1 X60.872 Y94.545 E0.06452
G1 X59.642 Y92.779 E0.06747
G1 X58.567 Y90.969 E0.06602
G1 X57.625 Y89.087 E0.06600
G1 X56.819 Y87.142 E0.06600
G1 X56.169 Y85.190 E0.06452
G1 X55.633 Y83.106 E0.06747
G1 X55.258 Y81.034 E0.06602
G1 X55.038 Y78.988 E0.06451
G1 X54.957 Y76.837 E0.06748
G1 X55.032 Y74.733 E0.06602
G1 X55.257 Y72.640 E0.06600
G1 X55.630 Y70.568 E0.06600
G1 X56.150 Y68.528 E0.06600
G1 X56.815 Y66.531 E0.06600
G1 X57.620 Y64.586 E0.06600
G1 X58.562 Y62.703 E0.06600
G1 X59.636 Y60.893 E0.06600
G1 X60.836 Y59.163 E0.06600
G1 X62.157 Y57.524 E0.06600
G1 X63.550 Y56.027 E0.06412
G1 X63.826 Y56.284 F10800.000
;TYPE:External perimeter
G1 F1200.000
G1 X65.378 Y54.833 E0.06661
G1 X66.996 Y53.529 E0.06516
G1 X68.703 Y52.344 E0.06516
G1 X70.490 Y51.283 E0.06516
G1 X72.348 Y50.352 E0.06516
G1 X74.268 Y49.557 E0.06516
G1 X76.195 Y48.915 E0.06368
G1 X78.253 Y48.386 E0.06663
G1 X80.298 Y48.016 E0.06516
G1 X82.365 Y47.794 E0.06516
G1 X84.394 Y47.721 E0.06368
G1 X86.518 Y47.793 E0.06663
G1 X88.585 Y48.015 E0.06516
G1 X90.630 Y48.383 E0.06516
G1 X92.643 Y48.897 E0.06516
G1 X94.615 Y49.553 E0.06516
G1 X96.536 Y50.348 E0.06516
G1 X98.394 Y51.277 E0.06516
G1 X100.182 Y52.337 E0.06516
G1 X101.889 Y53.522 E0.06516
G1 X103.471 Y54.797 E0.06368
G1 X105.028 Y56.242 E0.06662
G1 X106.445 Y57.763 E0.06516
G1 X107.749 Y59.380 E0.06516
G1 X108.935 Y61.087 E0.06516
G1 X109.996 Y62.874 E0.06516
G1 X110.926 Y64.732 E0.06516
G1 X111.722 Y66.652 E0.06516
G1 X112.378 Y68.624 E0.06516
G1 X112.893 Y70.637 E0.06516
G1 X113.262 Y72.682 E0.06516
G1 X113.480 Y74.702 E0.06369
G1 X113.559 Y76.825 E0.06662
G1 X113.485 Y78.902 E0.06516
G1 X113.264 Y80.969 E0.06516
G1 X112.895 Y83.014 E0.06516
G1 X112.382 Y85.028 E0.06516
G1 X111.726 Y86.999 E0.06516
G1 X110.931 Y88.920 E0.06516
G1 X110.001 Y90.778 E0.06516
G1 X108.941 Y92.566 E0.06516
G1 X107.756 Y94.273 E0.06516
G1 X106.452 Y95.891 E0.06516
G1 X105.036 Y97.412 E0.06516
G1 X103.516 Y98.829 E0.06516
G1 X101.898 Y100.133 E0.06516
G1 X100.229 Y101.292 E0.06370
G1 X98.404 Y102.379 E0.06661
G1 X96.546 Y103.310 E0.06516
G1 X94.626 Y104.106 E0.06516
G1 X92.654 Y104.762 E0.06516
G1 X90.641 Y105.277 E0.06516
G1 X88.596 Y105.646 E0.06516
G1 X86.576 Y105.864 E0.06369
G1 X84.453 Y105.943 E0.06662
G1 X82.376 Y105.869 E0.06516
G1 X80.309 Y105.648 E0.06516
G1 X78.264 Y105.279 E0.06516
G1 X76.250 Y104.765 E0.06516
G1 X74.279 Y104.110 E0.06516
G1 X72.358 Y103.315 E0.06516
G1 X70.500 Y102.385 E0.06516
G1 X68.712 Y101.325 E0.06516
G1 X67.005 Y100.140 E0.06516
G1 X65.387 Y98.836 E0.06516
G1 X63.865 Y97.420 E0.06516
G1 X62.449 Y95.900 E0.06516
G1 X61.174 Y94.318 E0.06368
G1 X59.959 Y92.575 E0.06663
G1 X58.898 Y90.788 E0.06516
G1 X57.968 Y88.930 E0.06516
G1 X57.172 Y87.010 E0.06516
G1 X56.530 Y85.083 E0.06368
G1 X56.001 Y83.025 E0.06663
G1 X55.632 Y80.980 E0.06516
G1 X55.414 Y78.960 E0.06368
G1 X55.335 Y76.837 E0.06663
G1 X55.408 Y74.760 E0.06516
M73 P0 R202
G1 X55.630 Y72.694 E0.06516
G1 X55.999 Y70.648 E0.06516
G1 X56.512 Y68.635 E0.06516
G1 X57.168 Y66.663 E0.06516
G1 X57.963 Y64.743 E0.06516
G1 X58.893 Y62.884 E0.06516
G1 X59.953 Y61.097 E0.06516
G1 X61.138 Y59.389 E0.06516
G1 X62.442 Y57.771 E0.06516
G1 X63.785 Y56.328 E0.06182
G1 X63.722 Y55.898 F10800.000
;WIPE_START
G1 F8640.000
G1 X65.378 Y54.833 E-0.50439
G1 X66.996 Y53.529 E-0.47985
G1 X68.226 Y52.675 E-0.34575
;WIPE_END
G1 E-0.07000 F2100.000
G1 Z0.400 F10800.000
G1 X62.958 Y55.350
G1 Z0.200
G1 E1.40000 F2100.000
;TYPE:Perimeter
G1 F1200.000
G1 X62.346 Y55.820 E0.02417
G1 X61.634 Y56.115 E0.02417
G1 X60.870 Y56.216 E0.02417
G1 X60.106 Y56.115 E0.02417
G1 X59.393 Y55.820 E0.02417
G1 X58.782 Y55.351 E0.02417
G1 X58.312 Y54.740 E0.02417
G1 X58.017 Y54.027 E0.02417
G1 X57.916 Y53.263 E0.02417
G1 X58.017 Y52.499 E0.02417
G1 X58.296 Y51.825 E0.02286
G1 X58.777 Y51.178 E0.02530
G1 X59.392 Y50.706 E0.02431
G1 X60.104 Y50.411 E0.02417
G1 X60.827 Y50.315 E0.02286
G1 X61.629 Y50.409 E0.02530
G1 X62.345 Y50.705 E0.02431
G1 X62.957 Y51.174 E0.02417
G1 X63.426 Y51.786 E0.02417
G1 X63.721 Y52.498 E0.02417
G1 X63.822 Y53.262 E0.02417
G1 X63.722 Y54.026 E0.02417
G1 X63.427 Y54.739 E0.02417
G1 X62.994 Y55.303 E0.02229
G1 X62.695 Y55.073 F10800.000
;TYPE:External perimeter
G1 F1200.000
G1 X62.156 Y55.490 E0.02137
G1 X61.536 Y55.747 E0.02106
G1 X60.870 Y55.835 E0.02106
G1 X60.204 Y55.748 E0.02106
G1 X59.583 Y55.491 E0.02106
G1 X59.051 Y55.082 E0.02106
G1 X58.642 Y54.549 E0.02106
G1 X58.385 Y53.929 E0.02106
G1 X58.297 Y53.263 E0.02106
G1 X58.384 Y52.597 E0.02106
G1 X58.626 Y52.013 E0.01984
G1 X59.049 Y51.445 E0.02219
G1 X59.583 Y51.035 E0.02111
G1 X60.203 Y50.778 E0.02106
G1 X60.830 Y50.695 E0.01984
G1 X61.533 Y50.777 E0.02219
G1 X62.155 Y51.035 E0.02111
G1 X62.688 Y51.443 E0.02106
G1 X63.097 Y51.976 E0.02106
G1 X63.354 Y52.596 E0.02106
G1 X63.442 Y53.262 E0.02106
G1 X63.354 Y53.928 E0.02106
G1 X63.097 Y54.548 E0.02106
G1 X62.731 Y55.026 E0.01885
G1 X62.800 Y55.459 F10800.000
;WIPE_START
G1 F8640.000
G1 X62.156 Y55.490 E-0.17081
G1 X61.536 Y55.747 E-0.15507
G1 X60.870 Y55.835 E-0.15507
G1 X60.204 Y55.748 E-0.15507
G1 X59.583 Y55.491 E-0.15507
G1 X59.051 Y55.082 E-0.15507
G1 X58.642 Y54.549 E-0.15507
G1 X58.385 Y53.929 E-0.15507
G1 X58.343 Y53.612 E-0.07373
;WIPE_END
G1 E-0.07000 F2100.000
G1 Z0.400 F10800.000
G1 X55.103 Y47.491
G1 Z0.200
G1 E1.40000 F2100.000
;TYPE:Perimeter
G1 F1200.000
G1 X54.487 Y47.963 E0.02433
G1 X53.775 Y48.259 E0.02417
G1 X53.011 Y48.359 E0.02417
G1 X52.246 Y48.259 E0.02417
G1 X51.580 Y47.983 E0.02263
G1 X50.926 Y47.499 E0.02551
G1 X50.453 Y46.883 E0.02433
G1 X50.158 Y46.171 E0.02417
G1 X50.057 Y45.407 E0.02417
G1 X50.158 Y44.643 E0.02417
G1 X50.434 Y43.976 E0.02263
G1 X50.918 Y43.322 E0.02551
G1 X51.533 Y42.850 E0.02433
G1 X52.245 Y42.554 E0.02417
G1 X52.961 Y42.460 E0.02263
G1 X53.769 Y42.552 E0.02551
G1 X54.486 Y42.849 E0.02433
G1 X55.098 Y43.318 E0.02417
G1 X55.567 Y43.930 E0.02417
G1 X55.862 Y44.642 E0.02417
G1 X55.963 Y45.406 E0.02417
G1 X55.862 Y46.170 E0.02417
G1 X55.586 Y46.837 E0.02263
G1 X55.138 Y47.443 E0.02362
G1 X54.835 Y47.218 F10800.000
;TYPE:External perimeter
G1 F1200.000
G1 X54.297 Y47.634 E0.02133
G1 X53.676 Y47.891 E0.02106
G1 X53.011 Y47.979 E0.02106
G1 X52.345 Y47.891 E0.02106
G1 X51.767 Y47.652 E0.01962
G1 X51.192 Y47.227 E0.02239
G1 X50.782 Y46.693 E0.02111
G1 X50.525 Y46.073 E0.02106
G1 X50.437 Y45.407 E0.02106
G1 X50.525 Y44.741 E0.02106
G1 X50.764 Y44.163 E0.01962
G1 X51.189 Y43.589 E0.02239
G1 X51.723 Y43.179 E0.02111
G1 X52.344 Y42.922 E0.02106
G1 X52.964 Y42.840 E0.01962
G1 X53.674 Y42.921 E0.02239
G1 X54.296 Y43.178 E0.02111
G1 X54.829 Y43.587 E0.02106
G1 X55.238 Y44.120 E0.02106
G1 X55.366 Y44.430 E0.01053
G1 X55.495 Y44.740 E0.01053
G1 X55.583 Y45.406 E0.02106
G1 X55.495 Y46.072 E0.02106
G1 X55.256 Y46.650 E0.01962
G1 X54.871 Y47.170 E0.02029
G1 X54.940 Y47.605 F10800.000
;WIPE_START
G1 F8640.000
G1 X54.297 Y47.634 E-0.17043
G1 X53.676 Y47.891 E-0.15507
G1 X53.011 Y47.979 E-0.15507
G1 X52.345 Y47.891 E-0.15507
G1 X51.767 Y47.652 E-0.14448
G1 X51.192 Y47.227 E-0.16491
G1 X50.782 Y46.693 E-0.15549
G1 X50.525 Y46.073 E-0.15507
G1 X50.483 Y45.753 E-0.07443
;WIPE_END
G1 E-0.07000 F2100.000
G1 Z0.400 F10800.000
G1 X60.836 Y97.461
G1 Z0.200
G1 E1.40000 F2100.000
;TYPE:Perimeter
G1 F1200.000
G1 X61.638 Y97.555 E0.02530
G1 X62.354 Y97.851 E0.02431
G1 X62.966 Y98.320 E0.02417
G1 X63.435 Y98.932 E0.02417
G1 X63.730 Y99.644 E0.02417
G1 X63.831 Y100.408 E0.02417
G1 X63.731 Y101.172 E0.02417
G1 X63.436 Y101.885 E0.02417
G1 X62.967 Y102.496 E0.02417
G1 X62.355 Y102.966 E0.02417
G1 X61.643 Y103.261 E0.02417
G1 X60.879 Y103.361 E0.02417
G1 X60.115 Y103.261 E0.02417
G1 X59.441 Y102.982 E0.02286
G1 X58.793 Y102.501 E0.02530
G1 X58.321 Y101.886 E0.02431
G1 X58.026 Y101.173 E0.02417
G1 X57.925 Y100.409 E0.02417
G1 X58.026 Y99.645 E0.02417
G1 X58.305 Y98.971 E0.02286
G1 X58.786 Y98.324 E0.02530
G1 X59.401 Y97.852 E0.02431
G1 X60.114 Y97.557 E0.02417
G1 X60.777 Y97.469 E0.02098
G1 X60.826 Y97.843 F10800.000
;TYPE:External perimeter
G1 F1200.000
G1 X61.542 Y97.923 E0.02259
G1 X62.164 Y98.181 E0.02111
G1 X62.697 Y98.589 E0.02106
G1 X63.106 Y99.122 E0.02106
G1 X63.363 Y99.742 E0.02106
G1 X63.451 Y100.408 E0.02106
G1 X63.363 Y101.074 E0.02106
G1 X63.106 Y101.694 E0.02106
G1 X62.698 Y102.227 E0.02106
G1 X62.165 Y102.636 E0.02106
G1 X61.545 Y102.893 E0.02106
G1 X60.879 Y102.981 E0.02106
G1 X60.213 Y102.894 E0.02106
G1 X59.628 Y102.652 E0.01984
G1 X59.061 Y102.229 E0.02219
G1 X58.651 Y101.695 E0.02111
G1 X58.394 Y101.075 E0.02106
G1 X58.306 Y100.409 E0.02106
G1 X58.393 Y99.743 E0.02106
G1 X58.635 Y99.159 E0.01984
G1 X59.058 Y98.591 E0.02219
G1 X59.592 Y98.181 E0.02111
G1 X60.212 Y97.924 E0.02106
G1 X60.767 Y97.851 E0.01754
G1 X61.021 Y97.494 F10800.000
;WIPE_START
G1 F8640.000
G1 X61.542 Y97.923 E-0.17983
G1 X62.164 Y98.181 E-0.15543
G1 X62.697 Y98.589 E-0.15507
G1 X63.106 Y99.122 E-0.15507
G1 X63.363 Y99.742 E-0.15507
G1 X63.451 Y100.408 E-0.15507
G1 X63.363 Y101.074 E-0.15507
G1 X63.106 Y101.694 E-0.15507
G1 X62.937 Y101.916 E-0.06434
;WIPE_END
G1 E-0.07000 F2100.000
G1 Z0.400 F10800.000
G1 X54.498 Y105.710
G1 Z0.200
G1 E1.40000 F2100.000
;TYPE:Perimeter
G1 F1200.000
G1 X55.110 Y106.179 E0.02417
G1 X55.579 Y106.791 E0.02417
G1 X55.856 Y107.458 E0.02264
G1 X55.976 Y108.262 E0.02550
G1 X55.875 Y109.032 E0.02433
G1 X55.580 Y109.744 E0.02417
G1 X55.111 Y110.355 E0.02417
G1 X54.499 Y110.825 E0.02417
G1 X53.787 Y111.120 E0.02417
G1 X53.023 Y111.221 E0.02417
G1 X52.258 Y111.120 E0.02417
G1 X51.546 Y110.825 E0.02417
G1 X50.935 Y110.356 E0.02417
G1 X50.465 Y109.745 E0.02417
G1 X50.189 Y109.078 E0.02263
G1 X50.069 Y108.273 E0.02550
G1 X50.170 Y107.504 E0.02433
G1 X50.465 Y106.792 E0.02417
G1 X50.934 Y106.180 E0.02417
G1 X51.545 Y105.711 E0.02417
G1 X52.257 Y105.416 E0.02417
G1 X52.973 Y105.321 E0.02263
G1 X53.781 Y105.413 E0.02550
G1 X54.443 Y105.687 E0.02245
G1 X54.298 Y106.036 F10800.000
;TYPE:External perimeter
G1 F1200.000
G1 X54.841 Y106.448 E0.02137
G1 X55.250 Y106.981 E0.02106
G1 X55.489 Y107.559 E0.01963
G1 X55.595 Y108.265 E0.02239
G1 X55.507 Y108.933 E0.02111
G1 X55.250 Y109.554 E0.02106
G1 X54.842 Y110.087 E0.02106
G1 X54.309 Y110.495 E0.02106
G1 X53.688 Y110.753 E0.02106
G1 X53.023 Y110.840 E0.02106
G1 X52.357 Y110.753 E0.02106
G1 X51.736 Y110.496 E0.02106
G1 X51.203 Y110.087 E0.02106
G1 X50.795 Y109.555 E0.02106
G1 X50.555 Y108.976 E0.01963
G1 X50.449 Y108.270 E0.02239
G1 X50.537 Y107.602 E0.02111
G1 X50.794 Y106.982 E0.02106
G1 X51.203 Y106.449 E0.02106
G1 X51.735 Y106.040 E0.02106
G1 X52.356 Y105.783 E0.02106
G1 X52.976 Y105.701 E0.01963
G1 X53.686 Y105.782 E0.02239
G1 X54.243 Y106.013 E0.01891
G1 X54.643 Y105.833 F10800.000
;WIPE_START
G1 F8640.000
G1 X54.841 Y106.448 E-0.17081
G1 X55.250 Y106.981 E-0.15507
G1 X55.489 Y107.559 E-0.14453
G1 X55.595 Y108.265 E-0.16486
G1 X55.507 Y108.933 E-0.15549
G1 X55.250 Y109.554 E-0.15507
G1 X54.842 Y110.087 E-0.15507
G1 X54.309 Y110.495 E-0.15507
G1 X54.013 Y110.618 E-0.07405
;WIPE_END
G1 E-0.07000 F2100.000
