; generated by PrusaSlicer 2.3.0+win64 on 2021-09-14 at 18:47:42 UTC

; 

; external perimeters extrusion width = 0.45mm
; perimeters extrusion width = 0.45mm
; infill extrusion width = 0.45mm
; solid infill extrusion width = 0.45mm
; top infill extrusion width = 0.40mm
; support material extrusion width = 0.35mm
; first layer extrusion width = 0.42mm

M73 P0 R50
M73 Q0 S50
M201 X1000 Y1000 Z200 E5000 ; sets maximum accelerations, mm/sec^2
M203 X200 Y200 Z12 E120 ; sets maximum feedrates, mm/sec
M204 P1250 R1250 T1250 ; sets acceleration (P, T) and retract acceleration (R), mm/sec^2
M205 X8.00 Y8.00 Z0.40 E4.50 ; sets the jerk limits, mm/sec
M205 S0 T0 ; sets the minimum extruding and travel feed rate, mm/sec
M107
;TYPE:Custom
M862.3 P "MK3S" ; printer model check
M862.1 P0.4 ; nozzle diameter check
M115 U3.9.1 ; tell printer latest fw version
G90 ; use absolute coordinates
M83 ; extruder relative mode
M104 S240 ; set extruder temp
M140 S85 ; set bed temp
M190 S85 ; wait for bed temp
M109 S240 ; wait for extruder temp
G28 W ; home all without mesh bed level
G80 ; mesh bed leveling
G1 Y-3.0 F1000.0 ; go outside print area
G92 E0.0
G1 X60.0 E9.0 F1000.0 ; intro line
G1 X100.0 E12.5 F1000.0 ; intro line
G92 E0.0
M221 S95

; Don't change E values below. Excessive value can damage the printer.
M907 E430 ; set extruder motor current
G21 ; set units to millimeters
G90 ; use absolute coordinates
M83 ; use relative distances for extrusion
M900 K0.08 ; Filament gcode LA 1.5
M900 K45 ; Filament gcode LA 1.0
;LAYER_CHANGE
;Z:0.2
;HEIGHT:0.2
;BEFORE_LAYER_CHANGE
G92 E0.0
;0.2


G1 E-1.40000 F2100.000
G1 Z0.200 F10800.000
;AFTER_LAYER_CHANGE
;0.2
G1 Z0.400
G1 X152.292 Y107.768
G1 Z0.200
G1 E1.40000 F2100.000
M204 S1000
;TYPE:Skirt
;WIDTH:0.42
G1 F1200.000
G1 X151.785 Y108.503 E0.02802
G1 X151.135 Y108.957 E0.02484
G1 X150.373 Y109.173 E0.02484
G1 X123.661 Y111.756 E0.84142
G1 X114.678 Y112.550 E0.28278
G1 X106.161 Y111.885 E0.26786
M73 P0 R49
G1 X105.418 Y111.655 E0.02437
G1 X104.790 Y111.197 E0.02437
G1 X104.352 Y110.582 E0.02367
G1 X100.868 Y103.248 E0.25457
G1 X100.651 Y102.471 E0.02532
G1 X101.310 Y82.517 E0.62597
G1 X101.616 Y80.299 E0.07020
G1 X102.295 Y78.186 E0.06961
G1 X103.325 Y76.223 E0.06949
G1 X104.679 Y74.464 E0.06961
G1 X106.284 Y72.986 E0.06842
G1 X107.832 Y71.957 E0.05828
G1 X109.850 Y71.035 E0.06954
G1 X111.963 Y70.479 E0.06854
G1 X114.175 Y70.289 E0.06961
G1 X115.906 Y70.406 E0.05440
G1 X117.279 Y70.669 E0.04382
G1 X147.503 Y78.575 E0.97952
G1 X148.077 Y78.816 E0.01953
G1 X148.571 Y79.202 E0.01965
G1 X148.897 Y79.617 E0.01657
G1 X149.122 Y80.091 E0.01645
G1 X152.480 Y90.530 E0.34382
G1 X152.492 Y106.901 E0.51330
G1 X152.306 Y107.709 E0.02602
;WIPE_START
G1 F8640.000
G1 X151.785 Y108.503 E-0.21927
G1 X151.135 Y108.957 E-0.18296
G1 X150.373 Y109.173 E-0.18296
G1 X147.162 Y109.483 E-0.74481
;WIPE_END
G1 E-0.07000 F2100.000
G1 Z0.400 F10800.000
G1 X118.852 Y82.755
G1 Z0.200
G1 E1.40000 F2100.000
;TYPE:External perimeter
G1 F1200.000
G1 X122.694 Y82.761 E0.12045
G1 X123.197 Y82.789 E0.01579
G1 X123.990 Y82.878 E0.02501
G1 X123.956 Y83.876 E0.03131
G1 X123.879 Y84.581 E0.02225
G1 X123.751 Y85.279 E0.02224
G1 X123.574 Y85.966 E0.02224
G1 X123.348 Y86.636 E0.02218
G1 X123.215 Y86.969 E0.01124
G1 X122.917 Y87.611 E0.02218
G1 X122.573 Y88.231 E0.02224
G1 X122.185 Y88.824 E0.02224
G1 X121.755 Y89.389 E0.02224
G1 X121.286 Y89.920 E0.02224
G1 X120.787 Y90.410 E0.02192
G1 X120.511 Y90.652 E0.01149
G1 X119.956 Y91.090 E0.02218
G1 X119.368 Y91.487 E0.02224
G1 X118.761 Y91.837 E0.02198
G1 X118.117 Y92.149 E0.02243
G1 X117.395 Y92.450 E0.02452
G1 X117.299 Y91.544 E0.02856
G1 X117.271 Y91.065 E0.01506
G1 X117.265 Y86.674 E0.13766
G1 X117.699 Y86.223 E0.01964
G1 X117.972 Y85.875 E0.01385
G1 X118.322 Y85.302 E0.02105
G1 X118.505 Y84.900 E0.01386
G1 X118.650 Y84.480 E0.01394
G1 X118.755 Y84.049 E0.01389
G1 X118.818 Y83.610 E0.01391
G1 X118.850 Y82.815 E0.02494
G1 X118.863 Y82.355 F10800.000
G1 X118.490 Y82.378
;TYPE:Perimeter
G1 F1200.000
G1 X118.442 Y83.576 E0.03759
G1 X118.384 Y83.978 E0.01274
G1 X118.288 Y84.373 E0.01276
G1 X118.155 Y84.760 E0.01281
G1 X117.988 Y85.125 E0.01259
G1 X117.662 Y85.660 E0.01965
G1 X117.414 Y85.975 E0.01256
G1 X116.888 Y86.523 E0.02382
G1 X116.894 Y91.076 E0.14277
G1 X116.923 Y91.575 E0.01568
G1 X117.018 Y92.472 E0.02827
G1 X115.840 Y92.733 E0.03782
G1 X114.836 Y92.855 E0.03174
G1 X114.176 Y92.878 E0.02070
G1 X113.161 Y92.825 E0.03184
G1 X112.504 Y92.734 E0.02082
G1 X111.522 Y92.510 E0.03157
G1 X110.570 Y92.186 E0.03153
G1 X109.657 Y91.765 E0.03152
G1 X108.792 Y91.253 E0.03152
G1 X107.985 Y90.653 E0.03152
G1 X107.244 Y89.974 E0.03152
G1 X106.574 Y89.217 E0.03168
G1 X106.178 Y88.684 E0.02082
G1 X105.650 Y87.827 E0.03157
G1 X105.212 Y86.916 E0.03168
G1 X104.977 Y86.299 E0.02070
G1 X104.700 Y85.322 E0.03185
G1 X104.573 Y84.659 E0.02116
G1 X104.450 Y83.844 E0.02585
G1 X105.113 Y83.918 E0.02091
G1 X105.636 Y83.947 E0.01644
G1 X109.851 Y83.954 E0.13215
G1 X109.899 Y82.757 E0.03755
G1 X109.956 Y82.356 E0.01269
G1 X110.052 Y81.961 E0.01276
G1 X110.185 Y81.576 E0.01276
G1 X110.350 Y81.212 E0.01254
G1 X110.674 Y80.678 E0.01957
G1 X110.920 Y80.364 E0.01251
G1 X111.443 Y79.817 E0.02373
G1 X111.439 Y76.286 E0.11071
G1 X111.550 Y76.598 E0.01037
G1 X111.757 Y76.978 E0.01357
G1 X111.908 Y77.189 E0.00815
G1 X112.185 Y77.499 E0.01301
G1 X112.539 Y77.788 E0.01436
G1 X112.896 Y77.999 E0.01298
G1 X113.118 Y78.099 E0.00763
G1 X113.518 Y78.225 E0.01316
G1 X113.757 Y78.272 E0.00764
G1 X114.187 Y78.305 E0.01351
G1 X114.616 Y78.272 E0.01351
G1 X114.856 Y78.225 E0.00764
G1 X115.256 Y78.099 E0.01316
G1 X115.478 Y77.999 E0.00764
G1 X115.839 Y77.785 E0.01316
G1 X116.033 Y77.637 E0.00764
G1 X116.337 Y77.344 E0.01322
G1 X116.501 Y77.143 E0.00815
G1 X116.725 Y76.795 E0.01296
G1 X116.906 Y76.392 E0.01385
G1 X117.020 Y75.977 E0.01351
G1 X117.057 Y75.736 E0.00764
G1 X117.074 Y75.305 E0.01352
G1 X117.024 Y74.877 E0.01352
G1 X116.968 Y74.638 E0.00770
G1 X116.817 Y74.227 E0.01373
G1 X116.588 Y73.828 E0.01441
G1 X116.504 Y73.732 E0.00401
G1 X117.133 Y73.916 E0.02054
G1 X118.080 Y74.275 E0.03177
G1 X118.978 Y74.727 E0.03153
G1 X119.825 Y75.269 E0.03152
G1 X120.615 Y75.899 E0.03168
G1 X121.094 Y76.354 E0.02070
G1 X121.767 Y77.114 E0.03184
G1 X122.161 Y77.644 E0.02070
G1 X122.691 Y78.504 E0.03168
G1 X123.127 Y79.410 E0.03152
G1 X123.469 Y80.361 E0.03168
G1 X123.640 Y81.005 E0.02087
G1 X123.768 Y81.672 E0.02132
G1 X123.891 Y82.487 E0.02585
G1 X123.228 Y82.413 E0.02091
G1 X122.705 Y82.384 E0.01644
G1 X118.550 Y82.378 E0.13027
;WIPE_START
G1 F8640.000
G1 X118.442 Y83.576 E-0.27769
G1 X118.384 Y83.978 E-0.09382
G1 X118.288 Y84.373 E-0.09397
G1 X118.155 Y84.760 E-0.09437
G1 X117.988 Y85.125 E-0.09273
G1 X117.662 Y85.660 E-0.14468
G1 X117.414 Y85.975 E-0.09248
G1 X116.888 Y86.523 E-0.17545
G1 X116.889 Y87.670 E-0.26482
;WIPE_END
G1 E-0.07000 F2100.000
G1 Z0.400 F10800.000
G1 X115.628 Y77.471
G1 Z0.200
G1 E1.40000 F2100.000
;TYPE:External perimeter
G1 F1200.000
G1 X115.304 Y77.664 E0.01180
G1 X115.121 Y77.746 E0.00628
G1 X114.763 Y77.859 E0.01180
G1 X114.566 Y77.897 E0.00628
G1 X114.187 Y77.927 E0.01193
G1 X113.807 Y77.897 E0.01193
G1 X113.611 Y77.859 E0.00628
G1 X113.252 Y77.746 E0.01180
G1 X113.069 Y77.664 E0.00628
G1 X112.756 Y77.478 E0.01142
G1 X112.446 Y77.225 E0.01254
G1 X112.203 Y76.954 E0.01143
G1 X112.078 Y76.778 E0.00678
G1 X111.896 Y76.443 E0.01195
G1 X111.766 Y76.081 E0.01205
G1 X111.696 Y75.724 E0.01141
G1 X111.678 Y75.509 E0.00678
G1 X111.692 Y75.132 E0.01182
G1 X111.723 Y74.934 E0.00629
G1 X111.825 Y74.566 E0.01196
G1 X111.985 Y74.218 E0.01202
G1 X112.097 Y74.045 E0.00646
G1 X112.354 Y73.751 E0.01225
G1 X112.676 Y73.525 E0.01233
G1 X113.016 Y73.376 E0.01164
G1 X113.663 Y73.165 E0.02134
G1 X114.170 Y73.106 E0.01601
G1 X114.367 Y73.112 E0.00618
G1 X114.714 Y73.166 E0.01102
G1 X115.357 Y73.378 E0.02120
G1 X115.696 Y73.526 E0.01162
G1 X116.019 Y73.751 E0.01233
G1 X116.280 Y74.049 E0.01241
G1 X116.474 Y74.387 E0.01223
G1 X116.606 Y74.746 E0.01200
G1 X116.652 Y74.942 E0.00630
G1 X116.696 Y75.320 E0.01193
G1 X116.681 Y75.700 E0.01193
G1 X116.650 Y75.898 E0.00628
G1 X116.550 Y76.264 E0.01193
G1 X116.392 Y76.615 E0.01205
G1 X116.195 Y76.921 E0.01141
G1 X116.059 Y77.089 E0.00678
G1 X115.675 Y77.435 E0.01620
G1 X115.662 Y77.846 F10800.000
;WIPE_START
G1 F8640.000
G1 X115.304 Y77.664 E-0.10067
G1 X115.121 Y77.746 E-0.04627
G1 X114.763 Y77.859 E-0.08689
G1 X114.566 Y77.897 E-0.04627
G1 X114.187 Y77.927 E-0.08782
G1 X113.807 Y77.897 E-0.08782
G1 X113.611 Y77.859 E-0.04627
G1 X113.252 Y77.746 E-0.08689
G1 X113.069 Y77.664 E-0.04622
G1 X112.756 Y77.478 E-0.08408
G1 X112.446 Y77.225 E-0.09236
G1 X112.203 Y76.954 E-0.08417
G1 X112.078 Y76.778 E-0.04992
G1 X111.896 Y76.443 E-0.08798
G1 X111.766 Y76.081 E-0.08871
G1 X111.696 Y75.724 E-0.08405
G1 X111.678 Y75.509 E-0.04993
G1 X111.690 Y75.190 E-0.07368
;WIPE_END
G1 E-0.07000 F2100.000
G1 Z0.400 F10800.000
G1 X111.400 Y74.686
G1 Z0.200
G1 E1.40000 F2100.000
;TYPE:Perimeter
G1 F1200.000
G1 X111.312 Y73.855 E0.02620
G1 X111.881 Y73.718 E0.01834
G1 X111.794 Y73.817 E0.00413
G1 X111.654 Y74.036 E0.00815
G1 X111.469 Y74.436 E0.01381
G1 X111.416 Y74.628 E0.00625
G1 X110.936 Y73.885 F10800.000
;TYPE:External perimeter
G1 F1200.000
G1 X111.032 Y74.792 E0.02860
G1 X111.060 Y75.272 E0.01508
G1 X111.066 Y79.666 E0.13779
G1 X110.635 Y80.117 E0.01956
G1 X110.363 Y80.464 E0.01379
G1 X110.016 Y81.035 E0.02097
G1 X109.834 Y81.436 E0.01380
G1 X109.690 Y81.855 E0.01388
G1 X109.586 Y82.285 E0.01388
G1 X109.523 Y82.723 E0.01386
G1 X109.489 Y83.576 E0.02678
G1 X105.647 Y83.570 E0.12045
G1 X105.144 Y83.542 E0.01579
G1 X104.352 Y83.453 E0.02501
G1 X104.385 Y82.460 E0.03118
G1 X104.462 Y81.755 E0.02222
G1 X104.589 Y81.058 E0.02222
G1 X104.766 Y80.372 E0.02222
G1 X104.992 Y79.700 E0.02222
G1 X105.266 Y79.047 E0.02222
G1 X105.586 Y78.415 E0.02222
G1 X105.952 Y77.808 E0.02222
G1 X106.360 Y77.228 E0.02222
G1 X106.809 Y76.680 E0.02222
G1 X107.296 Y76.166 E0.02222
G1 X107.819 Y75.688 E0.02222
G1 X108.376 Y75.249 E0.02222
G1 X108.962 Y74.851 E0.02222
G1 X109.576 Y74.497 E0.02222
G1 X110.219 Y74.185 E0.02243
G1 X110.881 Y73.908 E0.02248
G1 X111.327 Y73.801 F10800.000
;WIPE_START
G1 F8640.000
G1 X111.032 Y74.792 E-0.20704
G1 X111.060 Y75.272 E-0.11103
G1 X111.066 Y79.654 E-1.01194
;WIPE_END
G1 E-0.07000 F2100.000
G1 Z0.400 F10800.000
G1 X113.128 Y72.935
G1 Z0.200
G1 E1.40000 F2100.000
G1 F1200.000
G1 X113.461 Y72.900 E0.01048
G1 X114.178 Y72.876 E0.02249
G1 X115.218 Y72.930 E0.03265
G1 X115.544 Y73.023 E0.01064
G1 X116.228 Y73.259 E0.02268
G1 X117.253 Y73.558 E0.03347
G1 X118.232 Y73.929 E0.03284
G1 X119.165 Y74.399 E0.03275
G1 X120.045 Y74.962 E0.03275
G1 X120.863 Y75.615 E0.03281
G1 X121.365 Y76.092 E0.02173
G1 X122.060 Y76.876 E0.03286
G1 X122.473 Y77.432 E0.02173
G1 X123.022 Y78.323 E0.03281
G1 X123.475 Y79.264 E0.03275
G1 X123.830 Y80.249 E0.03281
G1 X124.007 Y80.921 E0.02178
G1 X124.140 Y81.609 E0.02197
G1 X124.350 Y83.006 E0.04430
G1 X124.357 Y83.340 E0.01049
G1 X124.284 Y84.394 E0.03310
G1 X124.103 Y85.433 E0.03307
G1 X123.815 Y86.449 E0.03313
G1 X123.565 Y87.108 E0.02211
G1 X123.108 Y88.055 E0.03295
G1 X122.555 Y88.953 E0.03307
G1 X121.911 Y89.789 E0.03307
G1 X121.185 Y90.553 E0.03307
G1 X120.384 Y91.239 E0.03307
G1 X119.516 Y91.838 E0.03307
G1 X118.589 Y92.346 E0.03312
G1 X117.954 Y92.625 E0.02178
G1 X117.630 Y92.722 E0.01059
G1 X115.904 Y93.105 E0.05543
G1 X114.865 Y93.231 E0.03283
G1 X114.172 Y93.255 E0.02173
G1 X113.126 Y93.201 E0.03286
G1 X112.436 Y93.105 E0.02184
G1 X111.419 Y92.873 E0.03269
G1 X110.430 Y92.536 E0.03275
G1 X109.482 Y92.100 E0.03275
G1 X108.583 Y91.567 E0.03275
G1 X107.744 Y90.944 E0.03275
G1 X106.975 Y90.238 E0.03275
G1 X106.281 Y89.455 E0.03281
G1 X105.866 Y88.896 E0.02184
G1 X105.319 Y88.008 E0.03269
G1 X104.865 Y87.065 E0.03281
G1 X104.619 Y86.417 E0.02173
G1 X104.333 Y85.409 E0.03287
G1 X104.201 Y84.723 E0.02191
G1 X103.991 Y83.325 E0.04430
G1 X103.984 Y82.991 E0.01049
G1 X104.057 Y81.938 E0.03310
G1 X104.238 Y80.899 E0.03307
G1 X104.526 Y79.882 E0.03313
G1 X104.774 Y79.227 E0.02195
G1 X105.233 Y78.276 E0.03311
G1 X105.786 Y77.378 E0.03307
G1 X106.431 Y76.541 E0.03313
G1 X106.904 Y76.026 E0.02194
G1 X107.682 Y75.312 E0.03313
G1 X108.529 Y74.683 E0.03307
G1 X109.438 Y74.144 E0.03313
G1 X110.385 Y73.707 E0.03272
G1 X110.713 Y73.610 E0.01070
G1 X111.763 Y73.360 E0.03384
G1 X113.071 Y72.953 E0.04296
G1 X113.340 Y73.194 F10800.000
G1 X112.635 Y73.311
;TYPE:Gap fill
;WIDTH:0.0980497
G1 F1200.000
G1 X112.303 Y73.466 E0.00168
;WIDTH:0.234587
G1 X112.039 Y73.615 E0.00484
;WIPE_START
G1 F8640.000
G1 X112.303 Y73.466 E-0.07014
;WIPE_END
G1 E-1.32986 F2100.000
G1 Z0.400 F10800.000
G1 X111.383 Y74.874
G1 Z0.200
G1 E1.40000 F2100.000
;WIDTH:0.326333
G1 F1200.000
G1 X111.372 Y75.093 E0.00518
;WIDTH:0.309861
G1 X111.374 Y75.259 E0.00367
;WIDTH:0.29298
G1 X111.369 Y75.508 E0.00519
;WIDTH:0.283204
G1 X111.412 Y76.099 E0.01184
;WIPE_START
G1 F8640.000
G1 X111.369 Y75.508 E-0.13688
;WIPE_END
G1 E-1.26312 F2100.000
G1 Z0.400 F10800.000
G1 X115.765 Y73.324
G1 Z0.200
G1 E1.40000 F2100.000
;WIDTH:0.0951286
G1 F1200.000
G1 X115.804 Y73.339 E0.00018
;WIDTH:0.130221
G1 X115.917 Y73.397 E0.00093
;WIDTH:0.165313
G1 X116.031 Y73.455 E0.00130
;WIDTH:0.20155
G1 X116.148 Y73.514 E0.00173
;WIDTH:0.218502
G1 X116.196 Y73.537 E0.00077
;WIDTH:0.228478
G1 X116.215 Y73.548 E0.00035
;WIDTH:0.255074
G1 X116.345 Y73.631 E0.00271
;WIPE_START
G1 F8640.000
G1 X116.215 Y73.548 E-0.03546
;WIPE_END
G1 E-1.36454 F2100.000
G1 Z0.400 F10800.000
G1 X122.802 Y78.996
G1 Z0.200
G1 E1.40000 F2100.000
;TYPE:Solid infill
;WIDTH:0.420078
G1 F1200.000
G1 X118.720 Y74.914 E0.18105
M73 Q1 S50
G1 X117.966 Y74.534 E0.02646
G1 X117.710 Y74.437 E0.00858
G1 X122.907 Y79.634 E0.23050
M73 P1 R49
G1 X123.204 Y80.465 E0.02765
G1 X117.207 Y74.467 E0.26599
M73 Q1 S49
G1 X117.303 Y74.828 E0.01172
G1 X117.338 Y75.132 E0.00960
G1 X123.385 Y81.179 E0.26819
G1 X123.507 Y81.834 E0.02089
G1 X117.343 Y75.670 E0.27339
G1 X117.271 Y76.131 E0.01465
G1 X123.273 Y82.134 E0.26622
G1 X122.707 Y82.101 E0.01778
G1 X117.148 Y76.542 E0.24654
G1 X116.983 Y76.911 E0.01266
G1 X122.173 Y82.100 E0.23017
G1 X121.639 Y82.100 E0.01675
G1 X116.776 Y77.237 E0.21565
G1 X116.544 Y77.538 E0.01192
G1 X121.105 Y82.099 E0.20229
G1 X120.570 Y82.098 E0.01675
G1 X116.272 Y77.799 E0.19065
G1 X115.973 Y78.034 E0.01191
G1 X120.036 Y82.097 E0.18021
G1 X119.502 Y82.096 E0.01675
G1 X115.638 Y78.233 E0.17136
G1 X115.265 Y78.392 E0.01274
G1 X118.968 Y82.096 E0.16424
G1 X118.434 Y82.095 E0.01675
G1 X114.853 Y78.514 E0.15882
G1 X114.654 Y78.552 E0.00634
G1 X114.379 Y78.574 E0.00866
G1 X118.206 Y82.401 E0.16974
G1 X118.186 Y82.914 E0.01609
G1 X113.833 Y78.561 E0.19303
G1 X113.448 Y78.500 E0.01224
G1 X113.142 Y78.403 E0.01007
G1 X118.165 Y83.426 E0.22278
G1 X118.109 Y83.904 E0.01508
G1 X111.723 Y77.518 E0.28323
G1 X111.724 Y78.052 E0.01675
G1 X118.003 Y84.331 E0.27851
G1 X117.861 Y84.722 E0.01305
G1 X111.724 Y78.586 E0.27216
G1 X111.725 Y79.120 E0.01675
G1 X117.684 Y85.079 E0.26431
G1 X117.483 Y85.411 E0.01217
G1 X111.726 Y79.654 E0.25532
G1 X111.726 Y79.930 E0.00867
G1 X111.600 Y80.062 E0.00570
G1 X117.256 Y85.718 E0.25085
G1 X117.001 Y85.996 E0.01184
G1 X111.340 Y80.335 E0.25110
G1 X111.134 Y80.550 E0.00933
G1 X111.085 Y80.613 E0.00252
G1 X116.740 Y86.268 E0.25082
G1 X116.605 Y86.409 E0.00612
G1 X116.605 Y86.667 E0.00809
G1 X110.858 Y80.920 E0.25488
G1 X110.657 Y81.252 E0.01218
G1 X116.606 Y87.201 E0.26385
G1 X116.607 Y87.735 E0.01675
G1 X110.480 Y81.609 E0.27170
G1 X110.338 Y82.000 E0.01304
G1 X116.607 Y88.269 E0.27806
G1 X116.608 Y88.803 E0.01675
G1 X110.232 Y82.427 E0.28278
G1 X110.176 Y82.905 E0.01508
G1 X116.609 Y89.337 E0.28529
G1 X116.609 Y89.871 E0.01675
G1 X110.155 Y83.417 E0.28623
G1 X110.135 Y83.930 E0.01609
G1 X116.610 Y90.405 E0.28718
G1 X116.611 Y90.939 E0.01675
G1 X109.908 Y84.236 E0.29728
G1 X109.374 Y84.236 E0.01675
G1 X116.635 Y91.497 E0.32205
G1 X116.693 Y92.088 E0.01864
G1 X108.839 Y84.235 E0.34831
G1 X108.305 Y84.234 E0.01675
G1 X116.392 Y92.321 E0.35867
