; generated by PrusaSlicer 2.3.0+win64 on 2021-06-11 at 21:17:57 UTC

; 

; external perimeters extrusion width = 0.60mm
; perimeters extrusion width = 0.50mm
; infill extrusion width = 0.50mm
; solid infill extrusion width = 0.50mm
; top infill extrusion width = 0.45mm
; support material extrusion width = 0.38mm
; first layer extrusion width = 0.42mm

M73 P0 R38
M73 Q0 S38
M201 X1000 Y1000 Z200 E5000 ; sets maximum accelerations, mm/sec^2
M203 X200 Y200 Z12 E120 ; sets maximum feedrates, mm/sec
M204 P1250 R1250 T1250 ; sets acceleration (P, T) and retract acceleration (R), mm/sec^2
M205 X8.00 Y8.00 Z0.40 E4.50 ; sets the jerk limits, mm/sec
M205 S0 T0 ; sets the minimum extruding and travel feed rate, mm/sec
M107
;TYPE:Custom
M862.3 P "MK3S" ; printer model check
M862.1 P0.4 ; nozzle diameter check
M115 U3.9.1 ; tell printer latest fw version
G90 ; use absolute coordinates
M83 ; extruder relative mode
M104 S240 ; set extruder temp
M140 S85 ; set bed temp
M190 S85 ; wait for bed temp
M109 S240 ; wait for extruder temp
G28 W ; home all without mesh bed level
G80 ; mesh bed leveling
G1 Y-3.0 F1000.0 ; go outside print area
G92 E0.0
G1 X60.0 E9.0 F1000.0 ; intro line
G1 X100.0 E12.5 F1000.0 ; intro line
G92 E0.0
M221 S95

; Don't change E values below. Excessive value can damage the printer.

M907 E538 ; set extruder motor current
G21 ; set units to millimeters
G90 ; use absolute coordinates
M83 ; use relative distances for extrusion
M900 K0.08 ; Filament gcode LA 1.5
M900 K45 ; Filament gcode LA 1.0
;LAYER_CHANGE
;Z:0.2
;HEIGHT:0.2
;BEFORE_LAYER_CHANGE
G92 E0.0
;0.2


M73 P0 R37
G1 E-1.40000 F2100.000
G1 Z0.200 F10800.000
;AFTER_LAYER_CHANGE
;0.2
G1 Z0.400
G1 X94.216 Y74.919
G1 Z0.200
G1 E1.40000 F2100.000
M204 S1000
;TYPE:Skirt
;WIDTH:0.42
G1 F1200.000
G1 X95.061 Y74.101 E0.03688
G1 X95.763 Y73.585 E0.02733
G1 X96.629 Y73.112 E0.03092
G1 X97.743 Y72.712 E0.03711
G1 X98.600 Y72.532 E0.02746
G1 X99.508 Y72.463 E0.02854
G1 X150.391 Y72.460 E1.59541
G1 X151.549 Y72.559 E0.03645
G1 X152.400 Y72.750 E0.02734
G1 X153.205 Y73.043 E0.02687
G1 X154.233 Y73.582 E0.03639
G1 X155.090 Y74.224 E0.03354
G1 X155.887 Y75.046 E0.03592
G1 X156.405 Y75.747 E0.02734
G1 X156.830 Y76.513 E0.02746
G1 X157.249 Y77.596 E0.03639
G1 X157.482 Y78.729 E0.03628
G1 X157.540 Y79.611 E0.02770
G1 X157.538 Y130.460 E1.59434
G1 X157.439 Y131.561 E0.03466
G1 X157.249 Y132.404 E0.02711
G1 X156.953 Y133.216 E0.02710
G1 X156.418 Y134.233 E0.03604
G1 X155.784 Y135.081 E0.03319
G1 X155.087 Y135.779 E0.03092
G1 X154.393 Y136.307 E0.02734
G1 X153.360 Y136.892 E0.03722
G1 X152.242 Y137.291 E0.03722
G1 X151.388 Y137.469 E0.02734
G1 X150.416 Y137.539 E0.03057
G1 X99.537 Y137.538 E1.59529
G1 X98.439 Y137.439 E0.03454
G1 X97.596 Y137.249 E0.02711
G1 X96.784 Y136.953 E0.02710
G1 X95.767 Y136.418 E0.03604
G1 X94.919 Y135.784 E0.03319
G1 X94.221 Y135.087 E0.03092
G1 X93.693 Y134.393 E0.02734
G1 X93.108 Y133.360 E0.03722
G1 X92.709 Y132.242 E0.03722
G1 X92.531 Y131.388 E0.02734
G1 X92.461 Y130.416 E0.03057
G1 X92.462 Y79.537 E1.59529
G1 X92.561 Y78.439 E0.03454
G1 X92.751 Y77.596 E0.02711
G1 X93.047 Y76.784 E0.02710
G1 X93.582 Y75.767 E0.03604
G1 X94.180 Y74.967 E0.03131
;WIPE_START
G1 F8640.000
G1 X95.061 Y74.101 E-0.28529
G1 X95.763 Y73.585 E-0.20125
G1 X96.629 Y73.112 E-0.22774
G1 X97.743 Y72.712 E-0.27327
G1 X98.600 Y72.532 E-0.20224
G1 X99.206 Y72.486 E-0.14021
;WIPE_END
G1 E-0.07000 F2100.000
G1 Z0.400 F10800.000
G1 X107.460 Y87.752
G1 Z0.200
G1 E1.40000 F2100.000
;TYPE:Perimeter
G1 F1200.000
G1 X108.747 Y86.538 E0.05548
G1 X109.942 Y85.547 E0.04867
G1 X111.290 Y84.575 E0.05210
G1 X112.700 Y83.696 E0.05210
G1 X114.166 Y82.914 E0.05210
G1 X115.682 Y82.233 E0.05210
G1 X117.240 Y81.656 E0.05210
G1 X118.834 Y81.185 E0.05210
G1 X120.456 Y80.823 E0.05210
G1 X122.098 Y80.572 E0.05210
G1 X123.754 Y80.432 E0.05210
G1 X125.415 Y80.403 E0.05210
G1 X127.075 Y80.488 E0.05210
G1 X128.725 Y80.684 E0.05210
G1 X130.358 Y80.991 E0.05210
G1 X131.967 Y81.407 E0.05210
G1 X133.544 Y81.931 E0.05210
G1 X135.082 Y82.561 E0.05210
G1 X136.573 Y83.292 E0.05210
G1 X138.013 Y84.123 E0.05210
G1 X139.392 Y85.049 E0.05210
G1 X140.706 Y86.067 E0.05210
G1 X141.949 Y87.170 E0.05210
G1 X143.114 Y88.355 E0.05210
G1 X143.442 Y88.738 E0.01582
G1 X144.196 Y89.616 E0.03628
G1 X145.191 Y90.947 E0.05210
G1 X146.093 Y92.342 E0.05210
G1 X146.900 Y93.795 E0.05210
G1 X147.606 Y95.299 E0.05210
G1 X148.210 Y96.847 E0.05210
G1 X148.707 Y98.433 E0.05210
M73 P1 R37
M73 Q1 S38
G1 X149.097 Y100.049 E0.05214
G1 X149.387 Y101.795 E0.05548
G1 X149.544 Y103.339 E0.04867
G1 X149.600 Y105.000 E0.05210
G1 X149.544 Y106.661 E0.05210
G1 X149.376 Y108.314 E0.05210
G1 X149.096 Y109.953 E0.05214
G1 X148.674 Y111.672 E0.05548
G1 X148.210 Y113.153 E0.04867
G1 X147.606 Y114.701 E0.05210
G1 X146.900 Y116.205 E0.05210
G1 X146.093 Y117.658 E0.05210
G1 X145.191 Y119.053 E0.05210
G1 X144.196 Y120.384 E0.05210
G1 X143.114 Y121.645 E0.05210
G1 X141.949 Y122.830 E0.05210
G1 X140.706 Y123.933 E0.05210
G1 X139.392 Y124.951 E0.05210
G1 X138.012 Y125.877 E0.05214
G1 X136.475 Y126.756 E0.05548
G1 X135.082 Y127.439 E0.04867
G1 X133.544 Y128.069 E0.05210
G1 X131.966 Y128.593 E0.05214
G1 X130.251 Y129.030 E0.05548
G1 X128.725 Y129.316 E0.04867
G1 X127.075 Y129.512 E0.05210
G1 X125.415 Y129.597 E0.05210
G1 X123.754 Y129.568 E0.05210
G1 X122.098 Y129.428 E0.05210
G1 X120.456 Y129.177 E0.05210
G1 X118.834 Y128.815 E0.05210
G1 X117.240 Y128.344 E0.05210
G1 X115.682 Y127.767 E0.05210
G1 X114.166 Y127.086 E0.05210
G1 X112.700 Y126.304 E0.05210
G1 X111.290 Y125.425 E0.05210
G1 X109.942 Y124.453 E0.05210
G1 X108.663 Y123.392 E0.05210
G1 X107.459 Y122.247 E0.05210
G1 X106.335 Y121.024 E0.05210
G1 X105.295 Y119.727 E0.05210
G1 X104.346 Y118.363 E0.05210
G1 X103.491 Y116.938 E0.05210
G1 X102.734 Y115.459 E0.05210
G1 X102.079 Y113.932 E0.05210
G1 X101.528 Y112.364 E0.05210
G1 X101.085 Y110.763 E0.05210
G1 X100.750 Y109.135 E0.05210
G1 X100.526 Y107.489 E0.05210
G1 X100.414 Y105.831 E0.05210
G1 X100.414 Y104.169 E0.05210
G1 X100.497 Y102.939 E0.03866
G1 X100.526 Y102.511 E0.01344
G1 X100.750 Y100.865 E0.05210
G1 X101.085 Y99.237 E0.05210
G1 X101.528 Y97.636 E0.05210
G1 X102.079 Y96.068 E0.05210
G1 X102.734 Y94.541 E0.05210
G1 X103.113 Y93.801 E0.02605
G1 X103.491 Y93.062 E0.02605
G1 X104.346 Y91.637 E0.05210
G1 X105.295 Y90.273 E0.05210
G1 X106.335 Y88.976 E0.05210
G1 X107.419 Y87.796 E0.05026
G1 X107.697 Y88.051 F10800.000
;TYPE:External perimeter
G1 F1200.000
G1 X108.997 Y86.821 E0.05614
G1 X110.173 Y85.845 E0.04790
G1 X111.500 Y84.888 E0.05130
G1 X112.889 Y84.022 E0.05130
G1 X114.332 Y83.253 E0.05130
G1 X115.825 Y82.582 E0.05130
G1 X117.359 Y82.014 E0.05130
G1 X118.929 Y81.551 E0.05130
G1 X120.525 Y81.194 E0.05130
G1 X122.143 Y80.946 E0.05130
G1 X123.773 Y80.808 E0.05130
G1 X125.409 Y80.781 E0.05130
G1 X127.043 Y80.864 E0.05130
G1 X128.668 Y81.057 E0.05130
G1 X130.276 Y81.359 E0.05130
G1 X131.860 Y81.769 E0.05130
G1 X133.413 Y82.285 E0.05130
G1 X134.927 Y82.905 E0.05130
G1 X136.396 Y83.625 E0.05130
G1 X137.813 Y84.444 E0.05130
G1 X139.171 Y85.355 E0.05130
G1 X140.465 Y86.357 E0.05130
G1 X141.689 Y87.444 E0.05130
G1 X142.836 Y88.610 E0.05130
G1 X143.156 Y88.984 E0.01543
G1 X143.902 Y89.852 E0.03588
G1 X144.881 Y91.162 E0.05130
G1 X145.770 Y92.536 E0.05130
G1 X146.564 Y93.967 E0.05130
G1 X147.260 Y95.448 E0.05130
G1 X147.854 Y96.972 E0.05130
G1 X148.344 Y98.533 E0.05130
G1 X148.727 Y100.124 E0.05132
G1 X149.013 Y101.845 E0.05468
G1 X149.167 Y103.365 E0.04790
G1 X149.223 Y105.000 E0.05130
G1 X149.167 Y106.635 E0.05130
G1 X149.002 Y108.263 E0.05130
G1 X148.727 Y109.876 E0.05132
G1 X148.311 Y111.570 E0.05468
G1 X147.854 Y113.028 E0.04790
G1 X147.260 Y114.552 E0.05130
G1 X146.564 Y116.033 E0.05130
G1 X145.770 Y117.464 E0.05130
G1 X144.881 Y118.838 E0.05130
G1 X143.902 Y120.148 E0.05130
G1 X142.836 Y121.390 E0.05130
G1 X141.689 Y122.556 E0.05130
G1 X140.465 Y123.643 E0.05130
G1 X139.171 Y124.645 E0.05130
G1 X137.813 Y125.557 E0.05132
G1 X136.299 Y126.422 E0.05468
G1 X134.927 Y127.095 E0.04790
G1 X133.413 Y127.715 E0.05130
G1 X131.860 Y128.231 E0.05132
G1 X130.169 Y128.661 E0.05468
G1 X128.668 Y128.943 E0.04790
G1 X127.043 Y129.136 E0.05130
G1 X125.409 Y129.219 E0.05130
G1 X123.773 Y129.192 E0.05130
G1 X122.143 Y129.054 E0.05130
G1 X120.525 Y128.806 E0.05130
G1 X118.929 Y128.449 E0.05130
G1 X117.359 Y127.986 E0.05130
G1 X115.825 Y127.418 E0.05130
G1 X114.332 Y126.747 E0.05130
G1 X112.889 Y125.978 E0.05130
G1 X111.500 Y125.112 E0.05130
G1 X110.173 Y124.155 E0.05130
G1 X108.914 Y123.110 E0.05130
G1 X107.728 Y121.983 E0.05130
G1 X106.621 Y120.778 E0.05130
G1 X105.598 Y119.501 E0.05130
G1 X104.663 Y118.158 E0.05130
G1 X103.821 Y116.755 E0.05130
G1 X103.076 Y115.299 E0.05130
G1 X102.430 Y113.795 E0.05130
G1 X101.888 Y112.251 E0.05130
G1 X101.451 Y110.675 E0.05130
G1 X101.122 Y109.072 E0.05130
G1 X100.902 Y107.451 E0.05130
G1 X100.791 Y105.818 E0.05130
G1 X100.791 Y104.182 E0.05130
G1 X100.873 Y102.964 E0.03826
G1 X100.902 Y102.549 E0.01304
G1 X101.122 Y100.928 E0.05130
G1 X101.451 Y99.325 E0.05130
G1 X101.888 Y97.749 E0.05130
G1 X102.430 Y96.205 E0.05130
G1 X103.076 Y94.701 E0.05130
G1 X103.448 Y93.973 E0.02565
G1 X103.821 Y93.245 E0.02565
G1 X104.663 Y91.842 E0.05130
G1 X105.598 Y90.499 E0.05130
G1 X106.621 Y89.222 E0.05130
G1 X107.656 Y88.095 E0.04798
G1 X107.591 Y87.665 F10800.000
;WIPE_START
G1 F8640.000
G1 X108.997 Y86.821 E-0.42723
G1 X110.173 Y85.845 E-0.35275
G1 X111.500 Y84.888 E-0.37780
G1 X112.133 Y84.493 E-0.17222
;WIPE_END
G1 E-0.07000 F2100.000
G1 Z0.400 F10800.000
G1 X145.696 Y82.083
G1 Z0.200
G1 E1.40000 F2100.000
;TYPE:Perimeter
G1 F1200.000
G1 X145.622 Y81.427 E0.02072
G1 X145.696 Y80.770 E0.02072
G1 X145.914 Y80.146 E0.02072
G1 X146.266 Y79.587 E0.02072
G1 X146.733 Y79.120 E0.02072
G1 X147.293 Y78.768 E0.02072
G1 X147.917 Y78.550 E0.02072
G1 X148.573 Y78.476 E0.02072
G1 X149.230 Y78.550 E0.02072
M73 Q1 S37
G1 X149.854 Y78.768 E0.02072
G1 X150.413 Y79.120 E0.02072
G1 X150.880 Y79.587 E0.02072
G1 X151.232 Y80.146 E0.02072
G1 X151.450 Y80.770 E0.02072
G1 X151.524 Y81.427 E0.02072
G1 X151.450 Y82.084 E0.02072
G1 X151.232 Y82.707 E0.02072
G1 X150.880 Y83.267 E0.02072
G1 X150.413 Y83.734 E0.02072
G1 X149.854 Y84.086 E0.02072
G1 X149.230 Y84.304 E0.02072
G1 X148.573 Y84.378 E0.02072
G1 X147.916 Y84.304 E0.02072
G1 X147.293 Y84.086 E0.02072
G1 X146.733 Y83.734 E0.02072
G1 X146.266 Y83.267 E0.02072
G1 X145.914 Y82.707 E0.02072
G1 X145.716 Y82.140 E0.01884
G1 X146.072 Y82.016 F10800.000
;TYPE:External perimeter
G1 F1200.000
G1 X146.002 Y81.427 E0.01859
G1 X146.066 Y80.855 E0.01806
G1 X146.256 Y80.311 E0.01806
G1 X146.563 Y79.823 E0.01806
G1 X146.970 Y79.416 E0.01806
G1 X147.457 Y79.110 E0.01806
G1 X148.001 Y78.920 E0.01806
G1 X148.573 Y78.855 E0.01806
G1 X149.145 Y78.920 E0.01806
G1 X149.689 Y79.110 E0.01806
G1 X150.177 Y79.416 E0.01806
G1 X150.584 Y79.823 E0.01806
G1 X150.890 Y80.311 E0.01806
G1 X151.080 Y80.855 E0.01806
G1 X151.145 Y81.427 E0.01806
G1 X151.080 Y81.999 E0.01806
G1 X150.890 Y82.543 E0.01806
G1 X150.584 Y83.030 E0.01806
G1 X150.177 Y83.437 E0.01806
G1 X149.689 Y83.744 E0.01806
G1 X149.145 Y83.934 E0.01806
G1 X148.573 Y83.998 E0.01806
G1 X148.001 Y83.934 E0.01806
G1 X147.457 Y83.744 E0.01806
G1 X146.970 Y83.437 E0.01806
G1 X146.563 Y83.030 E0.01806
G1 X146.256 Y82.543 E0.01806
G1 X146.092 Y82.072 E0.01563
G1 X145.689 Y81.900 F10800.000
;WIPE_START
G1 F8640.000
G1 X146.002 Y81.427 E-0.15047
G1 X146.066 Y80.855 E-0.13297
G1 X146.256 Y80.311 E-0.13297
G1 X146.563 Y79.823 E-0.13297
G1 X146.970 Y79.416 E-0.13297
G1 X147.457 Y79.110 E-0.13297
G1 X148.001 Y78.920 E-0.13297
G1 X148.573 Y78.855 E-0.13297
G1 X149.145 Y78.920 E-0.13297
G1 X149.619 Y79.085 E-0.11580
;WIPE_END
G1 E-0.07000 F2100.000
G1 Z0.400 F10800.000
G1 X104.378 Y81.427
G1 Z0.200
G1 E1.40000 F2100.000
;TYPE:Perimeter
G1 F1200.000
G1 X104.304 Y82.084 E0.02072
G1 X104.086 Y82.707 E0.02072
G1 X103.734 Y83.267 E0.02072
G1 X103.267 Y83.734 E0.02072
G1 X102.707 Y84.086 E0.02072
G1 X102.083 Y84.304 E0.02072
G1 X101.427 Y84.378 E0.02072
G1 X100.770 Y84.304 E0.02072
G1 X100.146 Y84.086 E0.02072
G1 X99.587 Y83.734 E0.02072
G1 X99.120 Y83.267 E0.02072
G1 X98.768 Y82.707 E0.02072
G1 X98.550 Y82.083 E0.02072
G1 X98.476 Y81.427 E0.02072
G1 X98.550 Y80.770 E0.02072
G1 X98.768 Y80.146 E0.02072
G1 X99.120 Y79.587 E0.02072
G1 X99.587 Y79.120 E0.02072
G1 X100.146 Y78.768 E0.02072
G1 X100.770 Y78.550 E0.02072
G1 X101.427 Y78.476 E0.02072
G1 X102.084 Y78.550 E0.02072
G1 X102.707 Y78.768 E0.02072
G1 X103.267 Y79.120 E0.02072
G1 X103.734 Y79.587 E0.02072
G1 X104.086 Y80.146 E0.02072
G1 X104.304 Y80.770 E0.02072
G1 X104.371 Y81.367 E0.01884
G1 X103.996 Y81.409 F10800.000
;TYPE:External perimeter
G1 F1200.000
G1 X103.934 Y81.999 E0.01859
G1 X103.744 Y82.543 E0.01806
G1 X103.437 Y83.030 E0.01806
G1 X103.030 Y83.437 E0.01806
G1 X102.543 Y83.744 E0.01806
G1 X101.999 Y83.934 E0.01806
G1 X101.427 Y83.998 E0.01806
G1 X100.855 Y83.934 E0.01806
G1 X100.311 Y83.744 E0.01806
G1 X99.823 Y83.437 E0.01806
G1 X99.416 Y83.030 E0.01806
G1 X99.110 Y82.543 E0.01806
G1 X98.920 Y81.999 E0.01806
G1 X98.855 Y81.427 E0.01806
G1 X98.920 Y80.855 E0.01806
G1 X99.110 Y80.311 E0.01806
G1 X99.416 Y79.823 E0.01806
G1 X99.823 Y79.416 E0.01806
G1 X100.311 Y79.110 E0.01806
G1 X100.855 Y78.920 E0.01806
G1 X101.427 Y78.855 E0.01806
G1 X101.999 Y78.920 E0.01806
G1 X102.543 Y79.110 E0.01806
G1 X103.030 Y79.416 E0.01806
G1 X103.437 Y79.823 E0.01806
G1 X103.744 Y80.311 E0.01806
G1 X103.934 Y80.855 E0.01806
G1 X103.990 Y81.350 E0.01563
G1 X104.344 Y81.608 F10800.000
;WIPE_START
G1 F8640.000
G1 X103.934 Y81.999 E-0.15047
G1 X103.744 Y82.543 E-0.13297
G1 X103.437 Y83.030 E-0.13297
G1 X103.030 Y83.437 E-0.13297
G1 X102.543 Y83.744 E-0.13297
G1 X101.999 Y83.934 E-0.13297
G1 X101.427 Y83.998 E-0.13297
G1 X100.855 Y83.934 E-0.13297
G1 X100.311 Y83.744 E-0.13297
G1 X99.886 Y83.477 E-0.11580
;WIPE_END
G1 E-0.07000 F2100.000
G1 Z0.400 F10800.000
G1 X101.427 Y125.622
G1 Z0.200
G1 E1.40000 F2100.000
;TYPE:Perimeter
G1 F1200.000
G1 X102.084 Y125.696 E0.02072
G1 X102.707 Y125.914 E0.02072
G1 X103.267 Y126.266 E0.02072
G1 X103.734 Y126.733 E0.02072
G1 X104.086 Y127.293 E0.02072
G1 X104.304 Y127.917 E0.02072
G1 X104.378 Y128.573 E0.02072
G1 X104.304 Y129.230 E0.02072
G1 X104.086 Y129.854 E0.02072
G1 X103.734 Y130.413 E0.02072
G1 X103.267 Y130.880 E0.02072
G1 X102.707 Y131.232 E0.02072
G1 X102.083 Y131.450 E0.02072
G1 X101.427 Y131.524 E0.02072
G1 X100.770 Y131.450 E0.02072
G1 X100.146 Y131.232 E0.02072
G1 X99.587 Y130.880 E0.02072
G1 X99.120 Y130.413 E0.02072
G1 X98.768 Y129.854 E0.02072
G1 X98.550 Y129.230 E0.02072
G1 X98.476 Y128.573 E0.02072
G1 X98.550 Y127.916 E0.02072
G1 X98.768 Y127.293 E0.02072
G1 X99.120 Y126.733 E0.02072
G1 X99.587 Y126.266 E0.02072
G1 X100.146 Y125.914 E0.02072
G1 X100.770 Y125.696 E0.02072
G1 X101.367 Y125.629 E0.01884
G1 X101.409 Y126.004 F10800.000
;TYPE:External perimeter
G1 F1200.000
G1 X101.999 Y126.066 E0.01859
G1 X102.543 Y126.256 E0.01806
G1 X103.030 Y126.563 E0.01806
G1 X103.437 Y126.970 E0.01806
G1 X103.744 Y127.457 E0.01806
G1 X103.934 Y128.001 E0.01806
G1 X103.998 Y128.573 E0.01806
G1 X103.934 Y129.145 E0.01806
G1 X103.744 Y129.689 E0.01806
G1 X103.437 Y130.177 E0.01806
G1 X103.030 Y130.584 E0.01806
G1 X102.543 Y130.890 E0.01806
G1 X101.999 Y131.080 E0.01806
G1 X101.427 Y131.145 E0.01806
G1 X100.855 Y131.080 E0.01806
G1 X100.311 Y130.890 E0.01806
G1 X99.823 Y130.584 E0.01806
G1 X99.416 Y130.177 E0.01806
G1 X99.110 Y129.689 E0.01806
G1 X98.920 Y129.145 E0.01806
G1 X98.855 Y128.573 E0.01806
G1 X98.920 Y128.001 E0.01806
G1 X99.110 Y127.457 E0.01806
G1 X99.416 Y126.970 E0.01806
G1 X99.823 Y126.563 E0.01806
G1 X100.311 Y126.256 E0.01806
G1 X100.855 Y126.066 E0.01806
G1 X101.350 Y126.010 E0.01563
G1 X101.608 Y125.656 F10800.000
;WIPE_START
G1 F8640.000
G1 X101.999 Y126.066 E-0.15047
G1 X102.543 Y126.256 E-0.13297
G1 X103.030 Y126.563 E-0.13297
G1 X103.437 Y126.970 E-0.13297
G1 X103.744 Y127.457 E-0.13297
G1 X103.934 Y128.001 E-0.13297
G1 X103.998 Y128.573 E-0.13297
G1 X103.934 Y129.145 E-0.13297
