; generated by PrusaSlicer 2.3.0+win64 on 2021-05-14 at 19:39:12 UTC

; 

; external perimeters extrusion width = 0.60mm
; perimeters extrusion width = 0.50mm
; infill extrusion width = 0.50mm
; solid infill extrusion width = 0.50mm
; top infill extrusion width = 0.45mm
; support material extrusion width = 0.38mm
; first layer extrusion width = 0.42mm

M73 P0 R141
M73 Q0 S142
M201 X1000 Y1000 Z200 E5000 ; sets maximum accelerations, mm/sec^2
M203 X200 Y200 Z12 E120 ; sets maximum feedrates, mm/sec
M204 P1250 R1250 T1250 ; sets acceleration (P, T) and retract acceleration (R), mm/sec^2
M205 X8.00 Y8.00 Z0.40 E4.50 ; sets the jerk limits, mm/sec
M205 S0 T0 ; sets the minimum extruding and travel feed rate, mm/sec
M107
;TYPE:Custom
M862.3 P "MK3S" ; printer model check
M862.1 P0.4 ; nozzle diameter check
M115 U3.9.1 ; tell printer latest fw version
G90 ; use absolute coordinates
M83 ; extruder relative mode
M104 S240 ; set extruder temp
M140 S85 ; set bed temp
M190 S85 ; wait for bed temp
M109 S240 ; wait for extruder temp
G28 W ; home all without mesh bed level
G80 ; mesh bed leveling
G1 Y-3.0 F1000.0 ; go outside print area
G92 E0.0
G1 X60.0 E9.0 F1000.0 ; intro line
G1 X100.0 E12.5 F1000.0 ; intro line
G92 E0.0
M221 S95

; Don't change E values below. Excessive value can damage the printer.

M907 E538 ; set extruder motor current
G21 ; set units to millimeters
G90 ; use absolute coordinates
M83 ; use relative distances for extrusion
M900 K0.08 ; Filament gcode LA 1.5
M900 K45 ; Filament gcode LA 1.0
;LAYER_CHANGE
;Z:0.2
;HEIGHT:0.2
;BEFORE_LAYER_CHANGE
G92 E0.0
;0.2


G1 E-1.40000 F2100.000
G1 Z0.200 F10800.000
;AFTER_LAYER_CHANGE
;0.2
G1 Z0.400
G1 X96.146 Y65.702
G1 Z0.200
G1 E1.40000 F2100.000
M204 S1000
;TYPE:Skirt
;WIDTH:0.42
G1 F1200.000
G1 X97.038 Y65.529 E0.02850
G1 X143.779 Y65.601 E1.46552
G1 X149.344 Y66.045 E0.17504
G1 X149.956 Y66.272 E0.02048
G1 X150.487 Y66.659 E0.02060
G1 X163.941 Y80.152 E0.59743
G1 X164.279 Y80.809 E0.02319
G1 X164.399 Y81.539 E0.02319
G1 X164.399 Y128.449 E1.47081
G1 X164.325 Y133.437 E0.15641
G1 X164.113 Y134.122 E0.02249
G1 X163.704 Y134.715 E0.02260
G1 X154.366 Y144.014 E0.41320
G1 X153.708 Y144.352 E0.02319
G1 X152.981 Y144.471 E0.02308
G1 X96.544 Y144.377 E1.76955
G1 X95.843 Y144.167 E0.02296
G1 X95.241 Y143.757 E0.02284
G1 X86.235 Y134.712 E0.40019
G1 X85.919 Y134.115 E0.02119
G1 X85.783 Y133.449 E0.02130
G1 X85.601 Y123.777 E0.30331
G1 X85.539 Y100.484 E0.73035
G1 X85.678 Y76.548 E0.75049
G1 X85.890 Y75.871 E0.02225
G1 X86.294 Y75.287 E0.02225
G1 X95.381 Y66.199 E0.40297
G1 X96.095 Y65.734 E0.02672
;WIPE_START
G1 F8640.000
G1 X97.038 Y65.529 E-0.22277
G1 X101.833 Y65.537 E-1.10723
;WIPE_END
G1 E-0.07000 F2100.000
G1 Z0.400 F10800.000
G1 X97.035 Y67.906
G1 Z0.200
G1 E1.40000 F2100.000
;TYPE:Support material
G1 F1200.000
G1 X88.026 Y76.914 E0.39943
G1 X88.560 Y77.448 E0.02365
G1 X97.448 Y68.560 E0.39411
G1 X97.981 Y69.093 E0.02365
G1 X89.093 Y77.981 E0.39411
G1 X89.626 Y78.514 E0.02365
G1 X98.514 Y69.626 E0.39411
G1 X99.048 Y70.160 E0.02365
G1 X90.160 Y79.048 E0.39411
G1 X90.322 Y79.211 E0.00722
G1 X87.978 Y81.555 E0.10396
G1 X88.348 Y81.925 E0.01642
G1 X101.925 Y68.348 E0.60203
G1 X102.459 Y68.882 E0.02365
G1 X88.882 Y82.459 E0.60203
G1 X89.415 Y82.992 E0.02365
G1 X102.992 Y69.415 E0.60203
G1 X103.525 Y69.948 E0.02365
G1 X89.948 Y83.525 E0.60203
G1 X90.322 Y83.900 E0.01660
G1 X87.978 Y86.244 E0.10396
G1 X88.137 Y86.403 E0.00705
G1 X106.403 Y68.137 E0.80995
G1 X106.936 Y68.670 E0.02365
G1 X88.670 Y86.936 E0.80995
G1 X89.203 Y87.469 E0.02365
G1 X107.469 Y69.203 E0.80995
M73 Q0 S141
G1 X108.003 Y69.737 E0.02365
G1 X89.737 Y88.003 E0.80995
G1 X90.270 Y88.536 E0.02365
G1 X108.536 Y70.270 E0.80995
G1 X108.589 Y70.322 E0.00233
G1 X110.933 Y67.978 E0.10396
G1 X111.414 Y68.459 E0.02132
G1 X88.459 Y91.414 E1.01787
G1 X88.992 Y91.947 E0.02365
G1 X111.947 Y68.992 E1.01787
G1 X112.480 Y69.525 E0.02365
G1 X89.525 Y92.480 E1.01787
G1 X90.059 Y93.014 E0.02365
G1 X113.014 Y70.059 E1.01787
G1 X113.278 Y70.322 E0.01170
G1 X115.622 Y67.978 E0.10396
G1 X115.891 Y68.247 E0.01194
G1 X88.247 Y95.891 E1.22578
G1 X88.781 Y96.425 E0.02365
G1 X116.425 Y68.781 E1.22578
G1 X116.958 Y69.314 E0.02365
G1 X89.314 Y96.958 E1.22578
G1 X89.847 Y97.491 E0.02365
G1 X117.491 Y69.847 E1.22578
M73 P0 R140
G1 X117.967 Y70.322 E0.02108
G1 X120.311 Y67.978 E0.10396
G1 X120.369 Y68.036 E0.00257
G1 X87.916 Y100.489 E1.43902
;WIPE_START
G1 F8640.000
G1 X91.989 Y96.416 E-1.33000
;WIPE_END
G1 E-0.07000 F2100.000
G1 Z0.400 F10800.000
G1 X128.978 Y141.551
G1 Z0.200
G1 E1.40000 F2100.000
G1 F1200.000
G1 X141.486 Y129.042 E0.55465
G1 X140.497 Y129.739 E0.03793
G1 X138.768 Y130.694 E0.06196
G1 X128.565 Y140.898 E0.45242
G1 X128.031 Y140.364 E0.02365
G1 X136.687 Y131.709 E0.38379
G1 X134.866 Y132.463 E0.06179
G1 X127.498 Y139.831 E0.32670
G1 X127.344 Y139.678 E0.00681
G1 X125.000 Y142.022 E0.10396
G1 X124.620 Y141.642 E0.01684
G1 X133.328 Y132.934 E0.38612
G1 X131.830 Y133.366 E0.04888
G1 X124.087 Y141.109 E0.34334
G1 X123.554 Y140.576 E0.02365
G1 X130.498 Y133.632 E0.30790
G1 X129.213 Y133.850 E0.04086
G1 X123.020 Y140.042 E0.27458
G1 X122.656 Y139.678 E0.01618
G1 X120.311 Y142.022 E0.10396
G1 X120.143 Y141.854 E0.00747
G1 X127.969 Y134.027 E0.34703
G1 X126.839 Y134.091 E0.03548
G1 X119.609 Y141.320 E0.32057
G1 X119.076 Y140.787 E0.02365
G1 X125.709 Y134.154 E0.29412
G1 X125.033 Y134.192 E0.02122
G1 X124.624 Y134.173 E0.01285
G1 X118.543 Y140.254 E0.26964
G1 X118.010 Y139.721 E0.02365
G1 X123.614 Y134.116 E0.24851
G1 X122.604 Y134.059 E0.03171
G1 X115.132 Y141.532 E0.33134
G1 X114.599 Y140.998 E0.02365
G1 X121.608 Y133.989 E0.31080
G1 X120.696 Y133.834 E0.02899
G1 X114.065 Y140.465 E0.29402
G1 X113.532 Y139.932 E0.02365
G1 X119.784 Y133.680 E0.27724
G1 X118.873 Y133.525 E0.02899
G1 X110.654 Y141.743 E0.36442
G1 X110.121 Y141.210 E0.02365
G1 X118.011 Y133.320 E0.34985
G1 X117.183 Y133.081 E0.02702
G1 X109.588 Y140.677 E0.33678
G1 X109.054 Y140.143 E0.02365
G1 X116.355 Y132.843 E0.32371
G1 X115.527 Y132.604 E0.02702
G1 X106.177 Y141.955 E0.41460
G1 X105.643 Y141.421 E0.02365
G1 X114.758 Y132.307 E0.40414
G1 X114.003 Y131.995 E0.02559
G1 X105.110 Y140.888 E0.39434
G1 X104.577 Y140.355 E0.02365
G1 X113.249 Y131.682 E0.38455
G1 X112.495 Y131.370 E0.02559
G1 X104.044 Y139.822 E0.37476
G1 X103.900 Y139.678 E0.00639
G1 X101.555 Y142.022 E0.10396
G1 X101.166 Y141.633 E0.01726
G1 X111.794 Y131.005 E0.47126
G1 X111.107 Y130.625 E0.02461
G1 X100.632 Y141.099 E0.46445
G1 X100.099 Y140.566 E0.02365
G1 X110.420 Y130.245 E0.45764
G1 X109.733 Y129.866 E0.02461
G1 X99.566 Y140.033 E0.45083
G1 X99.211 Y139.678 E0.01576
G1 X96.866 Y142.022 E0.10396
G1 X96.688 Y141.844 E0.00789
G1 X109.085 Y129.448 E0.54969
G1 X108.461 Y129.005 E0.02399
G1 X96.155 Y141.311 E0.54567
G1 X95.622 Y140.778 E0.02365
G1 X107.837 Y128.562 E0.54165
G1 X107.213 Y128.120 E0.02398
G1 X95.088 Y140.244 E0.53763
G1 X94.555 Y139.711 E0.02365
G1 X106.610 Y127.657 E0.53452
G1 X106.046 Y127.153 E0.02368
G1 X94.022 Y139.178 E0.53319
G1 X93.489 Y138.645 E0.02365
G1 X105.483 Y126.650 E0.53186
G1 X104.920 Y126.147 E0.02368
G1 X92.955 Y138.111 E0.53053
G1 X92.422 Y137.578 E0.02365
G1 X104.358 Y125.642 E0.52927
G1 X103.853 Y125.080 E0.02368
G1 X91.889 Y137.045 E0.53053
G1 X91.355 Y136.511 E0.02365
G1 X103.350 Y124.517 E0.53186
G1 X102.847 Y123.954 E0.02368
G1 X90.822 Y135.978 E0.53319
M73 P1 R140
M73 Q1 S141
G1 X90.289 Y135.445 E0.02365
G1 X102.343 Y123.390 E0.53452
G1 X102.161 Y123.181 E0.00870
G1 X101.880 Y122.787 E0.01517
G1 X89.756 Y134.912 E0.53763
G1 X89.222 Y134.378 E0.02365
G1 X101.438 Y122.163 E0.54165
G1 X100.995 Y121.539 E0.02399
G1 X88.689 Y133.845 E0.54567
G1 X88.156 Y133.312 E0.02365
G1 X100.552 Y120.915 E0.54969
G1 X100.289 Y120.543 E0.01430
G1 X100.134 Y120.267 E0.00992
G1 X89.967 Y130.434 E0.45083
G1 X89.434 Y129.901 E0.02365
G1 X99.755 Y119.580 E0.45764
G1 X99.375 Y118.893 E0.02461
G1 X88.901 Y129.368 E0.46445
G1 X88.367 Y128.834 E0.02365
G1 X98.995 Y118.206 E0.47126
G1 X98.722 Y117.712 E0.01770
G1 X98.630 Y117.505 E0.00711
G1 X90.178 Y125.956 E0.37476
M73 Q1 S140
G1 X89.645 Y125.423 E0.02365
G1 X98.318 Y116.751 E0.38455
G1 X98.005 Y115.997 E0.02559
G1 X89.112 Y124.890 E0.39434
G1 X88.579 Y124.357 E0.02365
G1 X97.693 Y115.242 E0.40414
G1 X97.459 Y114.676 E0.01923
G1 X97.396 Y114.473 E0.00664
G1 X88.045 Y123.823 E0.41460
G1 X87.978 Y123.756 E0.00299
G1 X90.322 Y121.411 E0.10396
G1 X89.857 Y120.946 E0.02066
G1 X97.157 Y113.645 E0.32371
G1 X96.919 Y112.817 E0.02702
G1 X89.323 Y120.412 E0.33678
G1 X88.790 Y119.879 E0.02365
G1 X96.680 Y111.989 E0.34985
G1 X96.538 Y111.487 E0.01637
G1 X96.475 Y111.127 E0.01144
G1 X88.257 Y119.346 E0.36442
G1 X87.978 Y119.067 E0.01236
G1 X90.322 Y116.722 E0.10396
G1 X90.068 Y116.468 E0.01128
G1 X96.320 Y110.216 E0.27724
G1 X96.165 Y109.304 E0.02899
G1 X89.535 Y115.935 E0.29402
G1 X89.001 Y115.401 E0.02365
G1 X96.011 Y108.392 E0.31079
G1 X95.941 Y107.396 E0.03132
G1 X88.468 Y114.868 E0.33133
G1 X87.978 Y114.378 E0.02174
G1 X90.322 Y112.033 E0.10396
G1 X90.279 Y111.990 E0.00191
G1 X95.884 Y106.386 E0.24851
G1 X95.827 Y105.376 E0.03171
G1 X89.746 Y111.457 E0.26964
G1 X89.213 Y110.924 E0.02365
G1 X95.846 Y104.291 E0.29411
G1 X95.909 Y103.161 E0.03549
G1 X88.680 Y110.391 E0.32057
G1 X88.146 Y109.857 E0.02365
G1 X95.973 Y102.031 E0.34703
G1 X95.995 Y101.706 E0.01020
G1 X96.150 Y100.787 E0.02923
G1 X89.958 Y106.980 E0.27458
G1 X89.424 Y106.446 E0.02365
G1 X96.368 Y99.502 E0.30790
G1 X96.536 Y98.520 E0.03124
G1 X96.634 Y98.170 E0.01141
G1 X88.891 Y105.913 E0.34334
G1 X88.358 Y105.380 E0.02365
G1 X97.066 Y96.672 E0.38612
G1 X97.433 Y95.396 E0.04164
G1 X97.537 Y95.134 E0.00882
G1 X90.169 Y102.502 E0.32671
G1 X89.636 Y101.969 E0.02365
G1 X98.291 Y93.313 E0.38380
G1 X98.701 Y92.330 E0.03340
G1 X99.305 Y91.233 E0.03927
G1 X89.102 Y101.435 E0.45241
G1 X88.569 Y100.902 E0.02365
G1 X100.959 Y88.512 E0.54938
G1 X102.202 Y86.768 E0.06716
G1 X104.375 Y84.342 E0.10212
M73 P1 R139
G1 X106.788 Y82.186 E0.10146
G1 X108.514 Y80.958 E0.06641
G1 X120.902 Y68.569 E0.54933
G1 X121.436 Y69.102 E0.02365
G1 X111.232 Y79.306 E0.45242
G1 X112.329 Y78.701 E0.03927
G1 X113.313 Y78.291 E0.03343
G1 X121.969 Y69.636 E0.38379
G1 X122.502 Y70.169 E0.02365
G1 X115.134 Y77.537 E0.32670
G1 X115.408 Y77.430 E0.00921
G1 X116.672 Y77.066 E0.04125
G1 X125.380 Y68.358 E0.38613
G1 X125.913 Y68.891 E0.02365
G1 X118.170 Y76.634 E0.34334
G1 X118.511 Y76.538 E0.01112
G1 X119.502 Y76.368 E0.03152
G1 X126.446 Y69.424 E0.30791
G1 X126.980 Y69.958 E0.02365
G1 X120.787 Y76.150 E0.27458
G1 X121.706 Y75.995 E0.02923
G1 X122.031 Y75.973 E0.01020
G1 X129.857 Y68.146 E0.34703
G1 X130.391 Y68.680 E0.02365
G1 X123.161 Y75.909 E0.32057
G1 X124.291 Y75.846 E0.03549
G1 X130.924 Y69.213 E0.29411
G1 X131.457 Y69.746 E0.02365
G1 X125.376 Y75.827 E0.26964
G1 X126.386 Y75.884 E0.03171
G1 X131.990 Y70.279 E0.24851
G1 X132.033 Y70.322 E0.00191
G1 X134.378 Y67.978 E0.10396
G1 X134.868 Y68.468 E0.02174
G1 X127.396 Y75.941 E0.33134
G1 X128.392 Y76.011 E0.03132
G1 X135.402 Y69.001 E0.31079
G1 X135.935 Y69.535 E0.02365
G1 X129.304 Y76.165 E0.29402
G1 X130.216 Y76.320 E0.02899
G1 X136.468 Y70.068 E0.27724
G1 X136.722 Y70.322 E0.01128
G1 X139.067 Y67.978 E0.10396
G1 X139.346 Y68.257 E0.01236
G1 X131.127 Y76.475 E0.36442
G1 X131.483 Y76.537 E0.01131
G1 X131.989 Y76.680 E0.01650
G1 X139.879 Y68.790 E0.34985
G1 X140.412 Y69.323 E0.02365
G1 X132.817 Y76.919 E0.33678
G1 X133.645 Y77.157 E0.02702
G1 X140.946 Y69.857 E0.32372
G1 X141.411 Y70.322 E0.02066
G1 X143.756 Y67.978 E0.10396
G1 X143.823 Y68.045 E0.00299
G1 X134.473 Y77.396 E0.41461
G1 X134.676 Y77.459 E0.00664
G1 X135.242 Y77.693 E0.01923
G1 X144.357 Y68.579 E0.40414
G1 X144.890 Y69.112 E0.02365
G1 X135.997 Y78.005 E0.39435
G1 X136.751 Y78.318 E0.02559
G1 X145.423 Y69.645 E0.38455
G1 X145.956 Y70.178 E0.02365
G1 X137.505 Y78.630 E0.37476
G1 X137.712 Y78.722 E0.00711
G1 X138.206 Y78.995 E0.01770
G1 X148.834 Y68.367 E0.47127
G1 X149.368 Y68.901 E0.02365
G1 X138.893 Y79.375 E0.46445
G1 X139.580 Y79.755 E0.02461
G1 X149.901 Y69.434 E0.45764
G1 X150.434 Y69.967 E0.02365
G1 X140.267 Y80.134 E0.45083
G1 X140.538 Y80.286 E0.00973
G1 X140.915 Y80.552 E0.01449
G1 X150.967 Y70.500 E0.44573
G1 X151.501 Y71.034 E0.02365
G1 X141.539 Y80.995 E0.44171
G1 X142.163 Y81.438 E0.02399
G1 X152.034 Y71.567 E0.43769
G1 X152.567 Y72.100 E0.02365
G1 X142.787 Y81.880 E0.43368
G1 X143.181 Y82.161 E0.01517
G1 X143.390 Y82.343 E0.00870
G1 X153.100 Y72.633 E0.43056
G1 X153.634 Y73.167 E0.02365
G1 X143.954 Y82.847 E0.42923
G1 X144.517 Y83.350 E0.02368
G1 X154.167 Y73.700 E0.42790
G1 X154.700 Y74.233 E0.02365
G1 X145.080 Y83.853 E0.42657
G1 X145.642 Y84.358 E0.02368
G1 X155.234 Y74.766 E0.42531
G1 X155.767 Y75.300 E0.02365
G1 X146.147 Y84.920 E0.42657
G1 X146.650 Y85.483 E0.02368
G1 X156.300 Y75.833 E0.42790
G1 X156.833 Y76.366 E0.02365
G1 X147.153 Y86.046 E0.42923
G1 X147.657 Y86.610 E0.02368
G1 X157.367 Y76.900 E0.43056
G1 X157.900 Y77.433 E0.02365
G1 X148.119 Y87.213 E0.43368
G1 X148.562 Y87.837 E0.02399
G1 X158.433 Y77.966 E0.43770
G1 X158.966 Y78.499 E0.02365
G1 X149.005 Y88.461 E0.44172
G1 X149.447 Y89.085 E0.02399
G1 X159.500 Y79.033 E0.44573
G1 X160.033 Y79.566 E0.02365
G1 X149.866 Y89.733 E0.45083
G1 X150.245 Y90.420 E0.02461
G1 X160.566 Y80.099 E0.45764
G1 X161.099 Y80.632 E0.02365
G1 X150.625 Y91.107 E0.46445
G1 X151.005 Y91.794 E0.02461
G1 X161.633 Y81.166 E0.47126
G1 X162.022 Y81.555 E0.01726
G1 X159.678 Y83.900 E0.10396
G1 X159.822 Y84.044 E0.00639
G1 X151.370 Y92.495 E0.37477
G1 X151.682 Y93.249 E0.02559
G1 X160.355 Y84.577 E0.38456
G1 X160.888 Y85.110 E0.02365
G1 X151.995 Y94.004 E0.39435
G1 X152.307 Y94.758 E0.02559
G1 X161.421 Y85.643 E0.40414
G1 X161.955 Y86.177 E0.02365
G1 X152.604 Y95.527 E0.41461
G1 X152.843 Y96.355 E0.02702
G1 X160.143 Y89.054 E0.32372
G1 X160.677 Y89.588 E0.02365
G1 X153.081 Y97.183 E0.33678
G1 X153.320 Y98.011 E0.02702
G1 X161.210 Y90.121 E0.34985
G1 X161.743 Y90.654 E0.02365
G1 X153.525 Y98.873 E0.36442
G1 X153.680 Y99.784 E0.02899
G1 X159.932 Y93.532 E0.27724
G1 X160.465 Y94.065 E0.02365
G1 X153.835 Y100.696 E0.29402
G1 X153.989 Y101.608 E0.02899
G1 X160.999 Y94.598 E0.31079
G1 X161.532 Y95.132 E0.02365
G1 X154.059 Y102.604 E0.33134
G1 X154.116 Y103.614 E0.03171
G1 X159.721 Y98.010 E0.24851
M73 Q1 S139
G1 X160.254 Y98.543 E0.02365
G1 X154.173 Y104.624 E0.26964
G1 X154.192 Y105.023 E0.01254
G1 X154.154 Y105.709 E0.02153
G1 X160.787 Y99.076 E0.29411
G1 X161.320 Y99.609 E0.02365
G1 X154.091 Y106.839 E0.32057
G1 X154.027 Y107.969 E0.03549
G1 X161.854 Y100.143 E0.34703
G1 X162.022 Y100.311 E0.00747
G1 X159.678 Y102.655 E0.10396
G1 X160.042 Y103.020 E0.01618
G1 X153.850 Y109.213 E0.27458
G1 X153.632 Y110.498 E0.04086
G1 X160.576 Y103.554 E0.30791
G1 X161.109 Y104.087 E0.02365
G1 X153.366 Y111.830 E0.34335
G1 X152.934 Y113.328 E0.04888
G1 X161.642 Y104.620 E0.38613
G1 X162.022 Y105.000 E0.01684
G1 X159.678 Y107.344 E0.10396
G1 X159.831 Y107.498 E0.00681
G1 X152.463 Y114.866 E0.32670
G1 X151.709 Y116.687 E0.06179
G1 X160.364 Y108.031 E0.38379
G1 X160.898 Y108.564 E0.02365
G1 X150.695 Y118.768 E0.45242
G1 X149.737 Y120.499 E0.06204
G1 X149.042 Y121.486 E0.03785
G1 X161.431 Y109.098 E0.54933
G1 X161.964 Y109.631 E0.02365
G1 X129.631 Y141.964 E1.43370
G1 X129.689 Y142.022 E0.00257
G1 X132.033 Y139.678 E0.10396
G1 X132.509 Y140.153 E0.02108
G1 X160.153 Y112.509 E1.22578
G1 X160.686 Y113.042 E0.02365
G1 X133.042 Y140.686 E1.22578
G1 X133.575 Y141.219 E0.02365
G1 X161.219 Y113.575 E1.22578
M73 P2 R138
G1 X161.753 Y114.109 E0.02365
G1 X134.109 Y141.753 E1.22578
M73 Q2 S139
G1 X134.378 Y142.022 E0.01194
G1 X136.722 Y139.678 E0.10396
G1 X136.986 Y139.941 E0.01170
G1 X159.941 Y116.986 E1.01787
G1 X160.475 Y117.520 E0.02365
G1 X137.520 Y140.475 E1.01787
G1 X138.053 Y141.008 E0.02365
G1 X161.008 Y118.053 E1.01787
G1 X161.541 Y118.586 E0.02365
G1 X138.586 Y141.541 E1.01787
G1 X139.067 Y142.022 E0.02132
G1 X141.411 Y139.678 E0.10396
G1 X141.464 Y139.730 E0.00233
G1 X159.730 Y121.464 E0.80995
G1 X160.263 Y121.997 E0.02365
G1 X141.997 Y140.263 E0.80995
