; generated by PrusaSlicer 2.3.0+win64 on 2021-05-14 at 01:43:46 UTC

; 

; external perimeters extrusion width = 0.60mm
; perimeters extrusion width = 0.50mm
; infill extrusion width = 0.50mm
; solid infill extrusion width = 0.50mm
; top infill extrusion width = 0.45mm
; support material extrusion width = 0.38mm
; first layer extrusion width = 0.42mm

M73 P0 R47
M73 Q0 S47
M201 X1000 Y1000 Z200 E5000 ; sets maximum accelerations, mm/sec^2
M203 X200 Y200 Z12 E120 ; sets maximum feedrates, mm/sec
M204 P1250 R1250 T1250 ; sets acceleration (P, T) and retract acceleration (R), mm/sec^2
M205 X8.00 Y8.00 Z0.40 E4.50 ; sets the jerk limits, mm/sec
M205 S0 T0 ; sets the minimum extruding and travel feed rate, mm/sec
M107
;TYPE:Custom
M862.3 P "MK3S" ; printer model check
M862.1 P0.4 ; nozzle diameter check
M115 U3.9.1 ; tell printer latest fw version
G90 ; use absolute coordinates
M83 ; extruder relative mode
M104 S240 ; set extruder temp
M140 S85 ; set bed temp
M190 S85 ; wait for bed temp
M109 S240 ; wait for extruder temp
G28 W ; home all without mesh bed level
G80 ; mesh bed leveling
G1 Y-3.0 F1000.0 ; go outside print area
G92 E0.0
G1 X60.0 E9.0 F1000.0 ; intro line
G1 X100.0 E12.5 F1000.0 ; intro line
G92 E0.0
M221 S95

; Don't change E values below. Excessive value can damage the printer.

M907 E538 ; set extruder motor current
G21 ; set units to millimeters
G90 ; use absolute coordinates
M83 ; use relative distances for extrusion
M900 K0.08 ; Filament gcode LA 1.5
M900 K45 ; Filament gcode LA 1.0
;LAYER_CHANGE
;Z:0.2
;HEIGHT:0.2
;BEFORE_LAYER_CHANGE
G92 E0.0
;0.2


G1 E-1.40000 F2100.000
G1 Z0.200 F10800.000
;AFTER_LAYER_CHANGE
;0.2
G1 Z0.400
G1 X153.598 Y121.744
G1 Z0.200
G1 E1.40000 F2100.000
M204 S1000
;TYPE:Skirt
;WIDTH:0.42
G1 F1200.000
G1 X153.096 Y122.510 E0.02872
G1 X150.510 Y124.432 E0.10102
G1 X149.998 Y124.708 E0.01823
G1 X132.877 Y130.907 E0.57093
G1 X131.232 Y131.350 E0.05342
G1 X128.268 Y131.880 E0.09441
G1 X125.002 Y132.079 E0.10259
G1 X123.341 Y132.027 E0.05209
G1 X120.343 Y131.673 E0.09465
G1 X118.657 Y131.325 E0.05399
G1 X117.112 Y130.904 E0.05019
G1 X100.049 Y124.726 E0.56899
G1 X99.526 Y124.457 E0.01846
G1 X96.988 Y122.591 E0.09874
G1 X96.571 Y122.079 E0.02071
G1 X96.312 Y121.476 E0.02060
G1 X96.227 Y120.870 E0.01917
G1 X96.227 Y112.425 E0.26478
G1 X98.368 Y100.105 E0.39209
G1 X98.710 Y98.513 E0.05107
G1 X99.163 Y96.897 E0.05259
G1 X100.281 Y93.947 E0.09894
G1 X101.058 Y92.351 E0.05565
G1 X102.716 Y89.615 E0.10029
G1 X104.686 Y87.097 E0.10025
G1 X105.947 Y85.763 E0.05755
G1 X108.356 Y83.641 E0.10066
G1 X110.996 Y81.824 E0.10049
G1 X113.885 Y80.308 E0.10228
G1 X116.942 Y79.148 E0.10252
G1 X120.049 Y78.379 E0.10037
G1 X121.890 Y78.104 E0.05837
G1 X125.004 Y77.921 E0.09779
G1 X128.264 Y78.119 E0.10241
G1 X131.472 Y78.706 E0.10226
G1 X134.602 Y79.681 E0.10279
G1 X137.576 Y81.019 E0.10224
G1 X140.374 Y82.710 E0.10252
G1 X142.949 Y84.725 E0.10252
G1 X145.262 Y87.036 E0.10252
G1 X146.309 Y88.292 E0.05128
G1 X147.296 Y89.635 E0.05224
G1 X148.939 Y92.346 E0.09941
G1 X149.719 Y93.948 E0.05585
G1 X150.849 Y96.934 E0.10010
G1 X151.624 Y100.061 E0.10100
G1 X153.760 Y112.182 E0.38591
G1 X153.773 Y120.848 E0.27174
G1 X153.609 Y121.685 E0.02672
;WIPE_START
G1 F8640.000
G1 X153.096 Y122.510 E-0.22440
G1 X150.510 Y124.432 E-0.74395
G1 X149.998 Y124.708 E-0.13423
G1 X149.072 Y125.043 E-0.22742
;WIPE_END
G1 E-0.07000 F2100.000
G1 Z0.400 F10800.000
G1 X151.396 Y120.848
G1 Z0.200
G1 E1.40000 F2100.000
;TYPE:Support material
G1 F1200.000
G1 X151.396 Y112.425 E0.26409
G1 X150.641 Y112.275 E0.02411
G1 X150.641 Y120.679 E0.26347
G1 X149.887 Y120.679 E0.02365
G1 X149.887 Y112.126 E0.26817
G1 X149.714 Y112.716 E0.01929
G1 X149.133 Y114.362 E0.05473
G1 X149.133 Y122.494 E0.25498
G1 X148.379 Y122.494 E0.02365
G1 X148.379 Y116.100 E0.20048
G1 X147.625 Y116.356 E0.02497
G1 X147.625 Y122.494 E0.19246
G1 X146.871 Y122.494 E0.02365
G1 X146.871 Y116.127 E0.19962
G1 X146.116 Y115.692 E0.02730
G1 X146.116 Y118.774 E0.09662
G1 X146.097 Y118.680 E0.00299
G1 X145.362 Y118.256 E0.02661
G1 X145.362 Y116.006 E0.07055
G1 X144.608 Y117.312 E0.04729
G1 X144.608 Y118.016 E0.02209
;WIPE_START
G1 F8640.000
G1 X144.608 Y117.312 E-0.16266
G1 X145.362 Y116.006 E-0.34827
G1 X145.362 Y118.256 E-0.51957
G1 X146.097 Y118.680 E-0.19599
G1 X146.116 Y118.774 E-0.02203
G1 X146.116 Y118.421 E-0.08147
;WIPE_END
G1 E-0.07000 F2100.000
G1 Z0.400 F10800.000
G1 X144.608 Y121.630
G1 Z0.200
G1 E1.40000 F2100.000
G1 F1200.000
G1 X144.608 Y122.494 E0.02708
G1 X145.362 Y122.494 E0.02365
G1 X145.362 Y120.975 E0.04763
G1 X146.116 Y119.988 E0.03895
G1 X146.116 Y122.664 E0.08391
;WIPE_START
G1 F8640.000
G1 X146.116 Y119.988 E-0.61793
G1 X145.362 Y120.975 E-0.28686
G1 X145.362 Y122.494 E-0.35078
G1 X145.040 Y122.494 E-0.07443
;WIPE_END
G1 E-0.07000 F2100.000
G1 Z0.400 F10800.000
G1 X105.392 Y118.016
G1 Z0.200
G1 E1.40000 F2100.000
G1 F1200.000
G1 X105.392 Y117.312 E0.02209
G1 X104.638 Y116.006 E0.04729
G1 X104.638 Y118.452 E0.07670
;WIPE_START
G1 F8640.000
G1 X104.638 Y116.006 E-0.56482
G1 X105.392 Y117.312 E-0.34827
G1 X105.392 Y118.016 E-0.16266
;WIPE_END
G1 E-0.32424 F2100.000
G1 Z0.400 F10800.000
G1 X105.392 Y122.664
G1 Z0.200
G1 E1.40000 F2100.000
G1 F1200.000
G1 X105.392 Y121.890 E0.02427
G1 X104.926 Y121.350 E0.02236
G1 X104.638 Y120.975 E0.01483
G1 X104.638 Y122.494 E0.04764
G1 X103.884 Y122.494 E0.02365
G1 X103.884 Y119.991 E0.07848
G1 X103.689 Y119.738 E0.01001
G1 X103.884 Y118.763 E0.03117
G1 X103.884 Y115.692 E0.09628
G1 X103.129 Y116.127 E0.02730
G1 X103.129 Y122.494 E0.19962
G1 X102.375 Y122.494 E0.02365
G1 X102.375 Y116.356 E0.19246
G1 X101.621 Y116.100 E0.02497
G1 X101.621 Y122.494 E0.20048
G1 X100.867 Y122.494 E0.02365
G1 X100.867 Y114.362 E0.25498
G1 X100.286 Y112.716 E0.05473
G1 X100.120 Y112.124 E0.01927
G1 X100.113 Y120.679 E0.26822
G1 X99.359 Y120.679 E0.02365
G1 X99.359 Y112.275 E0.26347
G1 X98.604 Y112.425 E0.02411
G1 X98.604 Y120.848 E0.26409
;WIPE_START
G1 F8640.000
G1 X98.604 Y115.088 E-1.33000
;WIPE_END
G1 E-0.07000 F2100.000
G1 Z0.400 F10800.000
G1 X117.482 Y109.430
G1 Z0.200
G1 E1.40000 F2100.000
;TYPE:Perimeter
G1 F1200.000
G1 X117.054 Y108.606 E0.02912
G1 X116.716 Y107.741 E0.02912
G1 X116.471 Y106.844 E0.02912
G1 X116.324 Y105.927 E0.02912
G1 X116.274 Y105.000 E0.02912
G1 X116.324 Y104.073 E0.02912
G1 X116.472 Y103.155 E0.02915
G1 X116.725 Y102.235 E0.02992
G1 X117.054 Y101.394 E0.02829
G1 X117.482 Y100.570 E0.02912
G1 X117.996 Y99.796 E0.02912
G1 X118.589 Y99.081 E0.02912
G1 X119.254 Y98.433 E0.02912
G1 X119.985 Y97.860 E0.02912
G1 X120.772 Y97.367 E0.02912
M73 Q1 S47
G1 X121.607 Y96.961 E0.02912
G1 X122.481 Y96.646 E0.02912
G1 X123.383 Y96.425 E0.02912
G1 X124.304 Y96.302 E0.02912
M73 P0 R46
G1 X125.232 Y96.277 E0.02912
G1 X126.158 Y96.352 E0.02912
G1 X127.071 Y96.524 E0.02912
G1 X127.960 Y96.792 E0.02912
G1 X128.816 Y97.153 E0.02912
M73 P1 R46
G1 X129.628 Y97.603 E0.02912
G1 X130.388 Y98.137 E0.02912
G1 X131.087 Y98.748 E0.02912
G1 X131.717 Y99.431 E0.02912
G1 X132.271 Y100.176 E0.02912
G1 X132.743 Y100.977 E0.02912
G1 X133.127 Y101.822 E0.02912
G1 X133.418 Y102.704 E0.02912
G1 X133.615 Y103.612 E0.02912
G1 X133.713 Y104.536 E0.02912
G1 X133.713 Y105.464 E0.02912
G1 X133.615 Y106.388 E0.02912
G1 X133.418 Y107.296 E0.02912
G1 X133.127 Y108.178 E0.02912
G1 X132.743 Y109.023 E0.02912
G1 X132.271 Y109.824 E0.02912
G1 X131.717 Y110.569 E0.02912
G1 X131.087 Y111.252 E0.02912
G1 X130.388 Y111.863 E0.02912
G1 X129.628 Y112.397 E0.02912
G1 X128.816 Y112.847 E0.02912
G1 X127.960 Y113.208 E0.02912
G1 X127.071 Y113.476 E0.02912
G1 X126.158 Y113.648 E0.02912
G1 X125.232 Y113.723 E0.02912
G1 X124.304 Y113.698 E0.02912
G1 X123.383 Y113.575 E0.02912
G1 X122.481 Y113.354 E0.02912
G1 X121.607 Y113.039 E0.02912
G1 X120.772 Y112.633 E0.02912
G1 X119.985 Y112.140 E0.02912
G1 X119.254 Y111.567 E0.02912
G1 X118.589 Y110.919 E0.02912
G1 X117.996 Y110.204 E0.02912
G1 X117.516 Y109.480 E0.02724
G1 X117.830 Y109.271 F10800.000
;TYPE:External perimeter
G1 F1200.000
G1 X117.398 Y108.450 E0.02911
G1 X117.074 Y107.622 E0.02786
G1 X116.841 Y106.765 E0.02786
G1 X116.699 Y105.887 E0.02786
G1 X116.652 Y105.000 E0.02786
G1 X116.699 Y104.113 E0.02786
G1 X116.841 Y103.235 E0.02787
G1 X117.084 Y102.354 E0.02866
G1 X117.398 Y101.550 E0.02705
G1 X117.808 Y100.762 E0.02786
G1 X118.299 Y100.021 E0.02786
G1 X118.866 Y99.337 E0.02786
G1 X119.503 Y98.717 E0.02786
G1 X120.202 Y98.169 E0.02786
G1 X120.955 Y97.697 E0.02786
G1 X121.754 Y97.309 E0.02786
G1 X122.590 Y97.007 E0.02786
G1 X123.453 Y96.796 E0.02786
G1 X124.334 Y96.679 E0.02786
G1 X125.222 Y96.655 E0.02786
G1 X126.108 Y96.726 E0.02786
G1 X126.981 Y96.890 E0.02786
G1 X127.832 Y97.147 E0.02786
G1 X128.651 Y97.492 E0.02786
G1 X129.428 Y97.923 E0.02786
G1 X130.155 Y98.434 E0.02786
G1 X130.824 Y99.019 E0.02786
G1 X131.427 Y99.672 E0.02786
G1 X131.957 Y100.385 E0.02786
G1 X132.408 Y101.151 E0.02786
G1 X132.775 Y101.960 E0.02786
G1 X133.054 Y102.804 E0.02786
G1 X133.242 Y103.672 E0.02786
G1 X133.336 Y104.556 E0.02786
G1 X133.336 Y105.444 E0.02786
G1 X133.242 Y106.328 E0.02786
G1 X133.054 Y107.196 E0.02786
G1 X132.775 Y108.040 E0.02786
G1 X132.408 Y108.849 E0.02786
G1 X131.957 Y109.615 E0.02786
G1 X131.427 Y110.328 E0.02786
G1 X130.824 Y110.981 E0.02786
G1 X130.155 Y111.566 E0.02786
G1 X129.428 Y112.077 E0.02786
G1 X128.651 Y112.508 E0.02786
G1 X127.832 Y112.853 E0.02786
G1 X126.981 Y113.110 E0.02786
G1 X126.108 Y113.274 E0.02786
G1 X125.222 Y113.345 E0.02786
G1 X124.334 Y113.321 E0.02786
G1 X123.453 Y113.204 E0.02786
G1 X122.590 Y112.993 E0.02786
G1 X121.754 Y112.691 E0.02786
G1 X120.955 Y112.303 E0.02786
G1 X120.202 Y111.831 E0.02786
G1 X119.503 Y111.283 E0.02786
G1 X118.866 Y110.663 E0.02786
G1 X118.299 Y109.979 E0.02786
G1 X117.863 Y109.321 E0.02473
G1 X117.430 Y109.276 F10800.000
;WIPE_START
G1 F8640.000
G1 X117.398 Y108.450 E-0.22813
G1 X117.074 Y107.622 E-0.20518
G1 X116.841 Y106.765 E-0.20518
G1 X116.699 Y105.887 E-0.20518
G1 X116.652 Y105.000 E-0.20518
G1 X116.699 Y104.113 E-0.20518
G1 X116.752 Y103.788 E-0.07596
;WIPE_END
G1 E-0.07000 F2100.000
G1 Z0.400 F10800.000
G1 X119.000 Y93.221
G1 Z0.200
G1 E1.40000 F2100.000
;TYPE:Perimeter
G1 F1200.000
G1 X118.555 Y93.162 E0.01409
G1 X118.140 Y92.990 E0.01409
G1 X117.783 Y92.717 E0.01409
G1 X117.510 Y92.360 E0.01409
G1 X117.338 Y91.945 E0.01409
G1 X117.279 Y91.500 E0.01409
G1 X117.338 Y91.055 E0.01409
G1 X117.510 Y90.640 E0.01409
G1 X117.783 Y90.283 E0.01409
G1 X118.140 Y90.010 E0.01409
G1 X118.555 Y89.838 E0.01409
G1 X119.000 Y89.779 E0.01409
G1 X119.445 Y89.838 E0.01409
G1 X119.860 Y90.010 E0.01409
G1 X120.217 Y90.283 E0.01409
G1 X120.490 Y90.640 E0.01409
G1 X120.662 Y91.055 E0.01409
G1 X120.721 Y91.500 E0.01409
G1 X120.662 Y91.945 E0.01409
G1 X120.490 Y92.360 E0.01409
G1 X120.217 Y92.717 E0.01409
G1 X119.860 Y92.990 E0.01409
G1 X119.445 Y93.162 E0.01409
G1 X119.059 Y93.213 E0.01220
G1 X119.010 Y92.839 F10800.000
;TYPE:External perimeter
G1 F1200.000
G1 X118.653 Y92.795 E0.01129
G1 X118.330 Y92.661 E0.01097
G1 X118.052 Y92.448 E0.01097
G1 X117.839 Y92.170 E0.01097
G1 X117.705 Y91.847 E0.01097
G1 X117.659 Y91.500 E0.01097
G1 X117.705 Y91.153 E0.01097
G1 X117.839 Y90.830 E0.01097
G1 X118.052 Y90.552 E0.01097
G1 X118.330 Y90.339 E0.01097
G1 X118.653 Y90.205 E0.01097
G1 X119.000 Y90.159 E0.01097
G1 X119.347 Y90.205 E0.01097
G1 X119.670 Y90.339 E0.01097
G1 X119.948 Y90.552 E0.01097
G1 X120.161 Y90.830 E0.01097
G1 X120.295 Y91.153 E0.01097
G1 X120.341 Y91.500 E0.01097
G1 X120.295 Y91.847 E0.01097
G1 X120.161 Y92.170 E0.01097
G1 X119.948 Y92.448 E0.01097
G1 X119.670 Y92.661 E0.01097
G1 X119.347 Y92.795 E0.01097
G1 X119.070 Y92.831 E0.00877
G1 X118.832 Y93.152 F10800.000
;WIPE_START
G1 F8640.000
G1 X118.653 Y92.795 E-0.09659
G1 X118.330 Y92.661 E-0.08081
G1 X118.052 Y92.448 E-0.08081
G1 X117.839 Y92.170 E-0.08081
G1 X117.705 Y91.847 E-0.08081
G1 X117.659 Y91.500 E-0.08081
G1 X117.705 Y91.153 E-0.08081
G1 X117.839 Y90.830 E-0.08081
G1 X118.052 Y90.552 E-0.08081
G1 X118.330 Y90.339 E-0.08081
G1 X118.653 Y90.205 E-0.08081
G1 X119.000 Y90.159 E-0.08081
G1 X119.347 Y90.205 E-0.08081
G1 X119.670 Y90.339 E-0.08081
G1 X119.948 Y90.552 E-0.08081
G1 X120.161 Y90.830 E-0.08081
G1 X120.196 Y90.915 E-0.02125
;WIPE_END
G1 E-0.07000 F2100.000
G1 Z0.400 F10800.000
G1 X119.000 Y116.779
G1 Z0.200
G1 E1.40000 F2100.000
;TYPE:Perimeter
G1 F1200.000
G1 X119.445 Y116.838 E0.01409
G1 X119.860 Y117.010 E0.01409
G1 X120.217 Y117.283 E0.01409
G1 X120.490 Y117.640 E0.01409
G1 X120.662 Y118.055 E0.01409
G1 X120.721 Y118.500 E0.01409
G1 X120.662 Y118.945 E0.01409
G1 X120.490 Y119.360 E0.01409
G1 X120.217 Y119.717 E0.01409
G1 X119.860 Y119.990 E0.01409
G1 X119.445 Y120.162 E0.01409
G1 X119.000 Y120.221 E0.01409
G1 X118.555 Y120.162 E0.01409
G1 X118.140 Y119.990 E0.01409
G1 X117.783 Y119.717 E0.01409
G1 X117.510 Y119.360 E0.01409
G1 X117.338 Y118.945 E0.01409
G1 X117.279 Y118.500 E0.01409
G1 X117.338 Y118.055 E0.01409
G1 X117.510 Y117.640 E0.01409
G1 X117.783 Y117.283 E0.01409
G1 X118.140 Y117.010 E0.01409
G1 X118.555 Y116.838 E0.01409
G1 X118.941 Y116.787 E0.01221
G1 X118.990 Y117.161 F10800.000
;TYPE:External perimeter
G1 F1200.000
G1 X119.347 Y117.205 E0.01129
G1 X119.670 Y117.339 E0.01097
G1 X119.948 Y117.552 E0.01097
G1 X120.161 Y117.830 E0.01097
G1 X120.295 Y118.153 E0.01097
G1 X120.341 Y118.500 E0.01097
G1 X120.295 Y118.847 E0.01097
G1 X120.161 Y119.170 E0.01097
G1 X119.948 Y119.448 E0.01097
G1 X119.670 Y119.661 E0.01097
G1 X119.347 Y119.795 E0.01097
G1 X119.000 Y119.841 E0.01097
G1 X118.653 Y119.795 E0.01097
G1 X118.330 Y119.661 E0.01097
G1 X118.052 Y119.448 E0.01097
G1 X117.839 Y119.170 E0.01097
G1 X117.705 Y118.847 E0.01097
G1 X117.659 Y118.500 E0.01097
G1 X117.705 Y118.153 E0.01097
G1 X117.839 Y117.830 E0.01097
G1 X118.052 Y117.552 E0.01097
G1 X118.330 Y117.339 E0.01097
G1 X118.653 Y117.205 E0.01097
G1 X118.930 Y117.169 E0.00877
G1 X119.168 Y116.848 F10800.000
;WIPE_START
G1 F8640.000
G1 X119.347 Y117.205 E-0.09659
G1 X119.670 Y117.339 E-0.08081
G1 X119.948 Y117.552 E-0.08081
G1 X120.161 Y117.830 E-0.08081
G1 X120.295 Y118.153 E-0.08081
G1 X120.341 Y118.500 E-0.08081
G1 X120.295 Y118.847 E-0.08081
G1 X120.161 Y119.170 E-0.08081
G1 X119.948 Y119.448 E-0.08081
G1 X119.670 Y119.661 E-0.08081
G1 X119.347 Y119.795 E-0.08081
G1 X119.000 Y119.841 E-0.08081
G1 X118.653 Y119.795 E-0.08081
G1 X118.330 Y119.661 E-0.08081
G1 X118.052 Y119.448 E-0.08081
G1 X117.839 Y119.170 E-0.08081
G1 X117.804 Y119.085 E-0.02125
;WIPE_END
G1 E-0.07000 F2100.000
G1 Z0.400 F10800.000
G1 X144.963 Y112.745
G1 Z0.200
G1 E1.40000 F2100.000
;TYPE:Perimeter
G1 F1200.000
G1 X141.689 Y118.416 E0.20532
G1 X143.869 Y119.675 E0.07894
G1 X143.541 Y120.103 E0.01692
G1 X142.616 Y121.173 E0.04434
G1 X141.629 Y122.186 E0.04434
G1 X140.582 Y123.141 E0.04443
G1 X139.485 Y124.028 E0.04426
G1 X138.334 Y124.851 E0.04434
G1 X137.138 Y125.604 E0.04431
G1 X135.899 Y126.286 E0.04435
G1 X134.618 Y126.894 E0.04446
G1 X133.311 Y127.424 E0.04423
G1 X131.970 Y127.876 E0.04435
G1 X130.606 Y128.248 E0.04435
G1 X129.222 Y128.539 E0.04435
G1 X127.820 Y128.747 E0.04444
G1 X126.414 Y128.872 E0.04425
G1 X125.000 Y128.914 E0.04435
G1 X123.586 Y128.872 E0.04435
G1 X122.180 Y128.747 E0.04425
G1 X120.778 Y128.539 E0.04444
G1 X119.394 Y128.248 E0.04435
G1 X118.030 Y127.876 E0.04435
G1 X116.689 Y127.424 E0.04435
G1 X115.382 Y126.894 E0.04423
G1 X114.101 Y126.286 E0.04446
G1 X112.862 Y125.604 E0.04435
G1 X111.666 Y124.851 E0.04431
G1 X110.515 Y124.028 E0.04434
G1 X109.418 Y123.141 E0.04426
G1 X108.371 Y122.186 E0.04443
G1 X107.384 Y121.173 E0.04434
G1 X106.459 Y120.103 E0.04434
G1 X106.131 Y119.675 E0.01692
G1 X108.311 Y118.416 E0.07894
G1 X105.037 Y112.745 E0.20532
G1 X102.857 Y114.004 E0.07892
G1 X102.639 Y113.476 E0.01789
G1 X102.168 Y112.111 E0.04529
G1 X101.780 Y110.719 E0.04529
G1 X101.477 Y109.307 E0.04529
G1 X101.260 Y107.879 E0.04529
G1 X101.129 Y106.441 E0.04529
G1 X101.086 Y104.997 E0.04529
G1 X101.130 Y103.553 E0.04529
G1 X101.261 Y102.115 E0.04529
G1 X101.478 Y100.687 E0.04529
G1 X101.781 Y99.274 E0.04529
G1 X102.169 Y97.883 E0.04529
