; generated by PrusaSlicer 2.3.0+win64 on 2021-04-10 at 22:34:41 UTC

; 

; external perimeters extrusion width = 0.45mm
; perimeters extrusion width = 0.45mm
; infill extrusion width = 0.45mm
; solid infill extrusion width = 0.45mm
; top infill extrusion width = 0.40mm
; first layer extrusion width = 0.42mm

M73 P0 R100
M73 Q0 S101
M201 X1000 Y1000 Z200 E5000 ; sets maximum accelerations, mm/sec^2
M203 X200 Y200 Z12 E120 ; sets maximum feedrates, mm/sec
M204 P1250 R1250 T1250 ; sets acceleration (P, T) and retract acceleration (R), mm/sec^2
M205 X8.00 Y8.00 Z0.40 E4.50 ; sets the jerk limits, mm/sec
M205 S0 T0 ; sets the minimum extruding and travel feed rate, mm/sec
M107
;TYPE:Custom
M862.3 P "MK3S" ; printer model check
M862.1 P0.4 ; nozzle diameter check
M115 U3.9.1 ; tell printer latest fw version
G90 ; use absolute coordinates
M83 ; extruder relative mode
M104 S230 ; set extruder temp
M140 S85 ; set bed temp
M190 S85 ; wait for bed temp
M109 S230 ; wait for extruder temp
G28 W ; home all without mesh bed level
G80 ; mesh bed leveling
G1 Y-3.0 F1000.0 ; go outside print area
G92 E0.0
G1 X60.0 E9.0 F1000.0 ; intro line
G1 X100.0 E12.5 F1000.0 ; intro line
G92 E0.0
M221 S95

; Don't change E values below. Excessive value can damage the printer.
M907 E430 ; set extruder motor current
G21 ; set units to millimeters
G90 ; use absolute coordinates
M83 ; use relative distances for extrusion
M900 K0.08 ; Filament gcode LA 1.5
M900 K45 ; Filament gcode LA 1.0
;LAYER_CHANGE
;Z:0.2
;HEIGHT:0.2
;BEFORE_LAYER_CHANGE
G92 E0.0
;0.2


M73 P0 R99
G1 E-1.40000 F2100.000
G1 Z0.200 F10800.000
;AFTER_LAYER_CHANGE
;0.2
G1 Z0.400
G1 X21.373 Y23.449
G1 Z0.200
G1 E1.40000 F2100.000
M204 S1000
;TYPE:Skirt
;WIDTH:0.42
G1 F1200.000
G1 X22.876 Y21.984 E0.06581
G1 X23.793 Y21.234 E0.03716
G1 X24.757 Y20.545 E0.03716
G1 X26.617 Y19.447 E0.06771
G1 X27.688 Y18.939 E0.03716
G1 X29.651 Y18.207 E0.06569
G1 X31.953 Y17.650 E0.07427
G1 X34.037 Y17.401 E0.06581
G1 X35.226 Y17.363 E0.03728
G1 X71.153 Y17.537 E1.12649
M73 Q0 S100
G1 X217.667 Y19.424 E4.59422
G1 X218.897 Y19.535 E0.03871
G1 X221.025 Y19.921 E0.06784
G1 X222.171 Y20.238 E0.03728
G1 X224.198 Y20.996 E0.06783
G1 X226.120 Y21.982 E0.06772
G1 X227.129 Y22.617 E0.03739
G1 X228.845 Y23.928 E0.06772
G1 X229.761 Y24.767 E0.03895
G1 X231.180 Y26.324 E0.06605
G1 X231.897 Y27.263 E0.03704
G1 X232.555 Y28.249 E0.03716
G1 X233.564 Y30.089 E0.06581
G1 X234.447 Y32.283 E0.07415
G1 X234.995 Y34.309 E0.06581
G1 X235.206 Y35.491 E0.03763
G1 X235.391 Y37.627 E0.06724
G1 X237.599 Y78.684 E1.28918
G1 X237.526 Y80.986 E0.07220
G1 X220.047 Y185.261 E3.31507
G1 X219.666 Y186.839 E0.05090
G1 X219.171 Y188.449 E0.05281
G1 X218.008 Y191.319 E0.09711
G1 X217.251 Y192.803 E0.05222
G1 X215.850 Y195.079 E0.08380
G1 X214.903 Y196.378 E0.05041
G1 X213.854 Y197.651 E0.05173
G1 X212.730 Y198.858 E0.05173
G1 X210.380 Y200.973 E0.09911
G1 X207.821 Y202.790 E0.09840
G1 X206.318 Y203.668 E0.05459
G1 X203.477 Y205.002 E0.09840
G1 X200.499 Y206.002 E0.09852
G1 X198.809 Y206.406 E0.05447
G1 X195.704 Y206.862 E0.09840
G1 X192.556 Y206.957 E0.09874
G1 X30.807 Y206.203 E5.07159
G1 X27.726 Y205.931 E0.09698
G1 X26.013 Y205.626 E0.05454
G1 X22.987 Y204.805 E0.09832
G1 X20.070 Y203.638 E0.09852
G1 X18.520 Y202.851 E0.05447
G1 X15.859 Y201.188 E0.09840
G1 X13.407 Y199.230 E0.09840
G1 X12.188 Y198.068 E0.05280
G1 X11.058 Y196.847 E0.05216
G1 X9.146 Y194.386 E0.09773
G1 X7.740 Y192.114 E0.08375
G1 X6.967 Y190.609 E0.05305
G1 X5.785 Y187.697 E0.09854
G1 X5.289 Y186.080 E0.05305
G1 X4.896 Y184.438 E0.05293
G1 X4.434 Y181.325 E0.09866
G1 X4.335 Y178.135 E0.10009
G1 X4.503 Y125.103 E1.66276
G1 X4.785 Y121.873 E0.10166
G1 X16.616 Y33.468 E2.79661
G1 X17.086 Y31.212 E0.07225
G1 X17.758 Y29.203 E0.06641
G1 X18.228 Y28.120 E0.03704
G1 X18.770 Y27.066 E0.03716
G1 X19.886 Y25.288 E0.06581
G1 X21.335 Y23.496 E0.07227
;WIPE_START
G1 F8640.000
G1 X22.876 Y21.984 E-0.49841
G1 X23.793 Y21.234 E-0.27363
G1 X24.757 Y20.545 E-0.27369
G1 X25.818 Y19.919 E-0.28427
;WIPE_END
G1 E-0.07000 F2100.000
G1 Z0.400 F10800.000
G1 X125.434 Y159.965
G1 Z0.200
G1 E1.40000 F2100.000
;TYPE:Perimeter
G1 F1200.000
G1 X126.649 Y159.105 E0.04666
G1 X127.914 Y158.322 E0.04667
G1 X129.265 Y157.599 E0.04804
G1 X130.576 Y156.996 E0.04524
G1 X131.964 Y156.458 E0.04665
G1 X133.382 Y156.007 E0.04665
G1 X134.825 Y155.644 E0.04667
G1 X136.332 Y155.365 E0.04805
G1 X137.764 Y155.188 E0.04524
G1 X139.249 Y155.096 E0.04665
G1 X140.737 Y155.096 E0.04665
G1 X142.177 Y155.185 E0.04524
G1 X143.698 Y155.371 E0.04805
G1 X145.161 Y155.644 E0.04667
G1 X146.560 Y155.996 E0.04524
G1 X148.021 Y156.458 E0.04805
G1 X149.409 Y156.996 E0.04667
G1 X150.720 Y157.599 E0.04524
G1 X152.071 Y158.322 E0.04804
G1 X153.337 Y159.105 E0.04667
G1 X154.551 Y159.965 E0.04666
G1 X155.711 Y160.898 E0.04665
G1 X156.777 Y161.870 E0.04524
G1 X157.845 Y162.969 E0.04805
G1 X158.814 Y164.099 E0.04667
G1 X159.710 Y165.287 E0.04665
G1 X160.532 Y166.527 E0.04665
G1 X161.253 Y167.777 E0.04524
G1 X161.939 Y169.147 E0.04805
G1 X162.518 Y170.518 E0.04667
G1 X162.998 Y171.879 E0.04524
G1 X163.420 Y173.352 E0.04805
G1 X163.738 Y174.806 E0.04667
G1 X163.959 Y176.232 E0.04524
G1 X164.103 Y177.758 E0.04805
G1 X164.148 Y179.246 E0.04667
G1 X164.104 Y180.688 E0.04524
G1 X163.964 Y182.214 E0.04805
G1 X163.736 Y183.685 E0.04667
G1 X163.427 Y185.094 E0.04524
G1 X163.010 Y186.569 E0.04805
G1 X162.515 Y187.972 E0.04667
G1 X161.952 Y189.301 E0.04525
G1 X161.264 Y190.686 E0.04847
G1 X160.533 Y191.952 E0.04584
G1 X159.713 Y193.190 E0.04657
G1 X158.817 Y194.377 E0.04662
G1 X157.850 Y195.507 E0.04663
G1 X156.784 Y196.605 E0.04799
G1 X155.717 Y197.577 E0.04524
G1 X154.560 Y198.509 E0.04661
G1 X153.347 Y199.369 E0.04662
G1 X152.083 Y200.152 E0.04663
G1 X150.734 Y200.876 E0.04799
G1 X149.423 Y201.479 E0.04524
G1 X148.037 Y202.017 E0.04661
G1 X146.621 Y202.469 E0.04662
G1 X145.179 Y202.832 E0.04663
G1 X143.674 Y203.113 E0.04799
G1 X142.242 Y203.291 E0.04524
G1 X140.758 Y203.383 E0.04662
G1 X139.227 Y203.383 E0.04800
G1 X137.743 Y203.291 E0.04663
G1 X136.268 Y203.107 E0.04662
G1 X134.807 Y202.832 E0.04661
G1 X133.407 Y202.480 E0.04524
G1 X131.949 Y202.017 E0.04799
G1 X130.563 Y201.479 E0.04662
G1 X129.252 Y200.876 E0.04524
G1 X127.903 Y200.152 E0.04799
G1 X126.639 Y199.369 E0.04663
G1 X125.426 Y198.509 E0.04662
G1 X124.268 Y197.577 E0.04661
G1 X123.202 Y196.605 E0.04524
G1 X122.135 Y195.507 E0.04799
G1 X121.168 Y194.377 E0.04663
G1 X120.273 Y193.190 E0.04662
G1 X119.453 Y191.952 E0.04657
G1 X118.727 Y190.695 E0.04551
G1 X118.051 Y189.342 E0.04740
G1 X117.456 Y187.930 E0.04806
G1 X116.976 Y186.569 E0.04524
G1 X116.568 Y185.138 E0.04665
G1 X116.250 Y183.685 E0.04665
G1 X116.021 Y182.214 E0.04667
G1 X115.882 Y180.688 E0.04805
G1 X115.837 Y179.246 E0.04524
G1 X115.883 Y177.758 E0.04665
G1 X116.020 Y176.277 E0.04665
G1 X116.248 Y174.806 E0.04667
G1 X116.578 Y173.309 E0.04805
G1 X116.973 Y171.922 E0.04524
G1 X117.467 Y170.518 E0.04667
G1 X118.067 Y169.107 E0.04805
G1 X118.710 Y167.816 E0.04524
G1 X119.454 Y166.527 E0.04667
G1 X120.302 Y165.251 E0.04805
G1 X121.172 Y164.099 E0.04524
G1 X122.140 Y162.969 E0.04667
G1 X123.209 Y161.870 E0.04805
G1 X124.275 Y160.898 E0.04524
G1 X125.387 Y160.003 E0.04477
G1 X125.624 Y160.297 F10800.000
;TYPE:External perimeter
G1 F1200.000
G1 X126.857 Y159.420 E0.04745
G1 X128.103 Y158.649 E0.04593
G1 X129.433 Y157.937 E0.04731
G1 X130.723 Y157.343 E0.04453
G1 X132.089 Y156.814 E0.04592
G1 X133.485 Y156.370 E0.04592
G1 X134.905 Y156.013 E0.04593
G1 X136.389 Y155.738 E0.04732
G1 X137.799 Y155.564 E0.04452
G1 X139.260 Y155.474 E0.04592
G1 X140.725 Y155.474 E0.04592
G1 X142.142 Y155.561 E0.04452
G1 X143.640 Y155.744 E0.04732
G1 X145.080 Y156.013 E0.04593
G1 X146.457 Y156.359 E0.04452
G1 X147.896 Y156.814 E0.04732
G1 X149.262 Y157.343 E0.04593
G1 X150.552 Y157.937 E0.04453
G1 X151.883 Y158.649 E0.04731
G1 X153.128 Y159.420 E0.04593
G1 X154.324 Y160.266 E0.04593
G1 X155.465 Y161.185 E0.04592
G1 X156.514 Y162.141 E0.04452
G1 X157.567 Y163.223 E0.04732
G1 X158.520 Y164.336 E0.04593
G1 X159.402 Y165.505 E0.04592
G1 X160.211 Y166.726 E0.04592
G1 X160.921 Y167.955 E0.04452
G1 X161.596 Y169.305 E0.04732
G1 X162.167 Y170.654 E0.04593
G1 X162.639 Y171.994 E0.04452
G1 X163.054 Y173.445 E0.04732
G1 X163.367 Y174.876 E0.04593
G1 X163.585 Y176.279 E0.04452
G1 X163.726 Y177.781 E0.04732
G1 X163.771 Y179.246 E0.04593
G1 X163.727 Y180.665 E0.04452
G1 X163.590 Y182.168 E0.04732
G1 X163.365 Y183.615 E0.04593
G1 X163.061 Y185.002 E0.04452
G1 X162.650 Y186.455 E0.04732
G1 X162.163 Y187.836 E0.04593
G1 X161.609 Y189.144 E0.04452
G1 X160.932 Y190.507 E0.04774
G1 X160.212 Y191.753 E0.04511
G1 X159.405 Y192.972 E0.04585
G1 X158.523 Y194.141 E0.04589
G1 X157.571 Y195.253 E0.04589
G1 X156.521 Y196.334 E0.04726
G1 X155.472 Y197.290 E0.04452
G1 X154.332 Y198.208 E0.04589
G1 X153.138 Y199.055 E0.04589
G1 X151.894 Y199.826 E0.04589
G1 X150.566 Y200.538 E0.04726
G1 X149.276 Y201.131 E0.04452
G1 X147.911 Y201.661 E0.04589
G1 X146.517 Y202.106 E0.04589
G1 X145.098 Y202.464 E0.04589
G1 X143.616 Y202.740 E0.04726
G1 X142.207 Y202.915 E0.04452
G1 X140.746 Y203.006 E0.04589
G1 X139.239 Y203.006 E0.04726
G1 X137.778 Y202.915 E0.04589
G1 X136.326 Y202.734 E0.04589
G1 X134.888 Y202.464 E0.04589
G1 X133.511 Y202.118 E0.04452
G1 X132.074 Y201.661 E0.04726
M73 P1 R99
M73 Q1 S100
G1 X130.710 Y201.131 E0.04589
G1 X129.420 Y200.538 E0.04452
G1 X128.092 Y199.826 E0.04726
G1 X126.848 Y199.055 E0.04589
G1 X125.653 Y198.208 E0.04589
G1 X124.514 Y197.290 E0.04589
G1 X123.464 Y196.334 E0.04452
G1 X122.414 Y195.253 E0.04726
G1 X121.462 Y194.141 E0.04589
G1 X120.581 Y192.972 E0.04589
G1 X119.773 Y191.753 E0.04585
G1 X119.059 Y190.516 E0.04479
G1 X118.394 Y189.185 E0.04667
G1 X117.807 Y187.794 E0.04732
G1 X117.335 Y186.455 E0.04452
G1 X116.934 Y185.046 E0.04592
G1 X116.621 Y183.615 E0.04592
G1 X116.395 Y182.168 E0.04593
G1 X116.258 Y180.665 E0.04732
G1 X116.215 Y179.246 E0.04452
G1 X116.259 Y177.782 E0.04592
G1 X116.394 Y176.323 E0.04592
G1 X116.619 Y174.876 E0.04593
G1 X116.944 Y173.402 E0.04732
G1 X117.332 Y172.036 E0.04452
G1 X117.819 Y170.654 E0.04593
G1 X118.409 Y169.265 E0.04732
G1 X119.042 Y167.994 E0.04452
G1 X119.774 Y166.726 E0.04593
G1 X120.610 Y165.469 E0.04732
G1 X121.466 Y164.336 E0.04452
G1 X122.419 Y163.223 E0.04593
G1 X123.471 Y162.141 E0.04732
G1 X124.520 Y161.185 E0.04452
G1 X125.577 Y160.334 E0.04253
G1 X125.574 Y159.900 F10800.000
G1 X125.348 Y160.029
;TYPE:Perimeter
G1 F1200.000
G1 X126.091 Y159.471 E0.02912
G1 X127.297 Y158.675 E0.04532
G1 X128.550 Y157.953 E0.04533
G1 X129.843 Y157.307 E0.04533
G1 X131.142 Y156.752 E0.04429
G1 X132.534 Y156.252 E0.04637
G1 X133.922 Y155.847 E0.04532
G1 X135.331 Y155.526 E0.04533
G1 X136.757 Y155.290 E0.04533
G1 X138.162 Y155.142 E0.04430
G1 X139.607 Y155.076 E0.04535
G1 X141.085 Y155.097 E0.04633
G1 X142.527 Y155.206 E0.04533
G1 X143.959 Y155.400 E0.04533
G1 X145.345 Y155.673 E0.04429
G1 X146.777 Y156.044 E0.04637
G1 X148.151 Y156.491 E0.04532
G1 X149.497 Y157.020 E0.04533
G1 X150.809 Y157.628 E0.04533
G1 X152.081 Y158.313 E0.04533
G1 X153.311 Y159.073 E0.04533
G1 X154.466 Y159.886 E0.04429
G1 X155.623 Y160.807 E0.04637
G1 X156.697 Y161.775 E0.04532
G1 X157.712 Y162.805 E0.04533
G1 X158.663 Y163.894 E0.04533
G1 X159.527 Y165.011 E0.04429
G1 X160.361 Y166.232 E0.04637
G1 X161.103 Y167.473 E0.04532
G1 X161.768 Y168.756 E0.04533
G1 X162.356 Y170.077 E0.04533
G1 X162.853 Y171.400 E0.04430
G1 X163.290 Y172.812 E0.04637
G1 X163.633 Y174.217 E0.04532
G1 X163.891 Y175.639 E0.04533
G1 X164.064 Y177.074 E0.04533
G1 X164.148 Y178.485 E0.04429
G1 X164.150 Y179.964 E0.04637
G1 X164.064 Y181.406 E0.04531
G1 X163.891 Y182.841 E0.04532
G1 X163.625 Y184.296 E0.04638
M73 P1 R98
G1 X163.290 Y185.669 E0.04430
G1 X162.864 Y187.050 E0.04533
G1 X162.356 Y188.404 E0.04533
G1 X161.769 Y189.724 E0.04532
G1 X161.092 Y191.027 E0.04602
G1 X160.367 Y192.240 E0.04430
G1 X159.553 Y193.434 E0.04532
G1 X158.670 Y194.578 E0.04532
G1 X157.720 Y195.667 E0.04531
G1 X156.683 Y196.720 E0.04634
G1 X155.608 Y197.687 E0.04532
G1 X154.503 Y198.567 E0.04429
G1 X153.295 Y199.418 E0.04634
G1 X152.065 Y200.177 E0.04531
G1 X150.792 Y200.861 E0.04532
G1 X149.480 Y201.468 E0.04532
G1 X148.165 Y201.985 E0.04429
G1 X146.759 Y202.442 E0.04635
G1 X145.361 Y202.805 E0.04531
G1 X143.942 Y203.084 E0.04532
G1 X142.510 Y203.277 E0.04532
G1 X141.101 Y203.383 E0.04429
G1 X139.623 Y203.406 E0.04635
G1 X138.179 Y203.340 E0.04531
G1 X136.774 Y203.193 E0.04430
G1 X135.316 Y202.952 E0.04635
G1 X133.907 Y202.630 E0.04531
G1 X132.520 Y202.224 E0.04532
G1 X131.159 Y201.736 E0.04532
G1 X129.860 Y201.181 E0.04430
G1 X128.537 Y200.521 E0.04635
M73 Q1 S99
G1 X127.286 Y199.799 E0.04531
G1 X126.080 Y199.002 E0.04532
G1 X124.923 Y198.135 E0.04533
G1 X123.846 Y197.222 E0.04429
G1 X122.776 Y196.202 E0.04635
G1 X121.793 Y195.142 E0.04530
G1 X120.875 Y194.026 E0.04531
G1 X120.007 Y192.828 E0.04641
G1 X119.246 Y191.637 E0.04430
G1 X118.548 Y190.385 E0.04493
G1 X117.920 Y189.083 E0.04533
G1 X117.371 Y187.746 E0.04532
G1 X116.893 Y186.347 E0.04637
G1 X116.517 Y184.985 E0.04429
G1 X116.216 Y183.571 E0.04533
G1 X116.000 Y182.141 E0.04533
G1 X115.869 Y180.702 E0.04532
G1 X115.825 Y179.224 E0.04636
G1 X115.869 Y177.779 E0.04533
G1 X115.996 Y176.372 E0.04429
G1 X116.216 Y174.910 E0.04637
G1 X116.517 Y173.496 E0.04532
G1 X116.903 Y172.103 E0.04533
G1 X117.371 Y170.735 E0.04533
G1 X117.907 Y169.428 E0.04429
G1 X118.548 Y168.095 E0.04637
G1 X119.253 Y166.833 E0.04532
G1 X120.032 Y165.615 E0.04533
G1 X120.882 Y164.446 E0.04533
G1 X121.779 Y163.355 E0.04429
G1 X122.785 Y162.270 E0.04637
G1 X123.830 Y161.272 E0.04533
G1 X124.908 Y160.359 E0.04429
G1 X125.300 Y160.065 E0.01536
G1 X125.073 Y159.763 F10800.000
;TYPE:External perimeter
G1 F1200.000
G1 X125.874 Y159.163 E0.03136
G1 X127.099 Y158.354 E0.04603
G1 X128.371 Y157.621 E0.04604
G1 X129.685 Y156.965 E0.04604
G1 X131.004 Y156.401 E0.04499
G1 X132.417 Y155.893 E0.04708
G1 X133.827 Y155.482 E0.04603
G1 X135.258 Y155.156 E0.04604
G1 X136.707 Y154.916 E0.04604
G1 X138.134 Y154.766 E0.04500
G1 X139.601 Y154.699 E0.04604
G1 X141.102 Y154.720 E0.04706
G1 X142.566 Y154.830 E0.04604
G1 X144.021 Y155.028 E0.04604
G1 X145.429 Y155.305 E0.04499
G1 X146.882 Y155.682 E0.04708
G1 X148.279 Y156.136 E0.04603
G1 X149.645 Y156.673 E0.04604
G1 X150.977 Y157.290 E0.04604
G1 X152.270 Y157.986 E0.04604
G1 X153.519 Y158.758 E0.04604
G1 X154.692 Y159.584 E0.04499
G1 X155.867 Y160.520 E0.04708
G1 X156.958 Y161.502 E0.04603
G1 X157.988 Y162.548 E0.04604
G1 X158.954 Y163.654 E0.04604
G1 X159.832 Y164.789 E0.04500
G1 X160.679 Y166.029 E0.04708
G1 X161.432 Y167.289 E0.04603
G1 X162.108 Y168.593 E0.04604
G1 X162.705 Y169.934 E0.04604
G1 X163.210 Y171.278 E0.04500
G1 X163.654 Y172.712 E0.04708
G1 X164.002 Y174.138 E0.04604
G1 X164.264 Y175.583 E0.04603
G1 X164.439 Y177.041 E0.04603
G1 X164.525 Y178.473 E0.04499
G1 X164.527 Y179.975 E0.04708
G1 X164.439 Y181.440 E0.04603
G1 X164.264 Y182.898 E0.04603
G1 X163.994 Y184.375 E0.04708
G1 X163.654 Y185.769 E0.04500
G1 X163.221 Y187.172 E0.04604
G1 X162.705 Y188.547 E0.04604
G1 X162.108 Y189.888 E0.04603
G1 X161.421 Y191.210 E0.04673
G1 X160.685 Y192.443 E0.04501
G1 X159.859 Y193.656 E0.04603
G1 X158.961 Y194.818 E0.04603
G1 X157.996 Y195.924 E0.04602
G1 X156.943 Y196.993 E0.04705
G1 X155.852 Y197.974 E0.04603
G1 X154.730 Y198.869 E0.04500
G1 X153.503 Y199.733 E0.04706
G1 X152.253 Y200.504 E0.04602
G1 X150.960 Y201.199 E0.04603
G1 X149.628 Y201.815 E0.04603
G1 X148.292 Y202.340 E0.04500
G1 X146.865 Y202.804 E0.04706
G1 X145.444 Y203.173 E0.04602
G1 X144.004 Y203.456 E0.04603
G1 X142.549 Y203.652 E0.04603
G1 X141.118 Y203.759 E0.04500
G1 X139.618 Y203.783 E0.04706
G1 X138.151 Y203.717 E0.04602
G1 X136.724 Y203.567 E0.04500
G1 X135.243 Y203.322 E0.04706
G1 X133.812 Y202.995 E0.04602
G1 X132.403 Y202.583 E0.04603
G1 X131.021 Y202.088 E0.04603
G1 X129.702 Y201.523 E0.04500
G1 X128.359 Y200.854 E0.04706
G1 X127.088 Y200.120 E0.04602
G1 X125.863 Y199.311 E0.04603
G1 X124.688 Y198.430 E0.04603
G1 X123.594 Y197.502 E0.04499
