; generated by PrusaSlicer 2.3.0+win64 on 2021-05-15 at 07:01:11 UTC

; 

; external perimeters extrusion width = 0.60mm
; perimeters extrusion width = 0.50mm
; infill extrusion width = 0.50mm
; solid infill extrusion width = 0.50mm
; top infill extrusion width = 0.45mm
; support material extrusion width = 0.38mm
; first layer extrusion width = 0.42mm

M73 P0 R119
M73 Q0 S121
M201 X1000 Y1000 Z200 E5000 ; sets maximum accelerations, mm/sec^2
M203 X200 Y200 Z12 E120 ; sets maximum feedrates, mm/sec
M204 P1250 R1250 T1250 ; sets acceleration (P, T) and retract acceleration (R), mm/sec^2
M205 X8.00 Y8.00 Z0.40 E4.50 ; sets the jerk limits, mm/sec
M205 S0 T0 ; sets the minimum extruding and travel feed rate, mm/sec
M107
;TYPE:Custom
M862.3 P "MK3S" ; printer model check
M862.1 P0.4 ; nozzle diameter check
M115 U3.9.1 ; tell printer latest fw version
G90 ; use absolute coordinates
M83 ; extruder relative mode
M104 S240 ; set extruder temp
M140 S85 ; set bed temp
M190 S85 ; wait for bed temp
M109 S240 ; wait for extruder temp
G28 W ; home all without mesh bed level
G80 ; mesh bed leveling
G1 Y-3.0 F1000.0 ; go outside print area
G92 E0.0
G1 X60.0 E9.0 F1000.0 ; intro line
M73 Q0 S120
G1 X100.0 E12.5 F1000.0 ; intro line
G92 E0.0
M221 S95

; Don't change E values below. Excessive value can damage the printer.

M907 E538 ; set extruder motor current
G21 ; set units to millimeters
G90 ; use absolute coordinates
M83 ; use relative distances for extrusion
M900 K0.08 ; Filament gcode LA 1.5
M900 K45 ; Filament gcode LA 1.0
;LAYER_CHANGE
;Z:0.2
;HEIGHT:0.2
;BEFORE_LAYER_CHANGE
G92 E0.0
;0.2


G1 E-1.40000 F2100.000
G1 Z0.200 F10800.000
;AFTER_LAYER_CHANGE
;0.2
G1 Z0.400
G1 X62.572 Y106.766
G1 Z0.200
G1 E1.40000 F2100.000
M204 S1000
;TYPE:Skirt
;WIDTH:0.42
G1 F1200.000
G1 X63.415 Y106.300 E0.03021
G1 X64.584 Y105.874 E0.03901
G1 X65.453 Y105.693 E0.02782
G1 X66.437 Y105.623 E0.03092
G1 X183.554 Y105.623 E3.67212
G1 X184.716 Y105.722 E0.03657
G1 X185.566 Y105.913 E0.02734
G1 X186.389 Y106.214 E0.02746
G1 X187.418 Y106.759 E0.03651
G1 X188.344 Y107.472 E0.03663
G1 X188.956 Y108.093 E0.02734
G1 X189.484 Y108.787 E0.02734
G1 X190.058 Y109.809 E0.03675
G1 X190.451 Y110.909 E0.03663
G1 X190.630 Y111.763 E0.02734
G1 X190.699 Y112.663 E0.02830
G1 X190.702 Y163.554 E1.59565
G1 X190.647 Y164.399 E0.02656
G1 X190.362 Y165.718 E0.04233
G1 X190.036 Y166.564 E0.02841
G1 X189.495 Y167.522 E0.03449
G1 X188.941 Y168.249 E0.02866
G1 X188.227 Y168.961 E0.03164
G1 X187.425 Y169.561 E0.03140
G1 X186.585 Y170.025 E0.03009
G1 X185.416 Y170.451 E0.03901
G1 X184.547 Y170.632 E0.02782
G1 X183.563 Y170.702 E0.03092
G1 X66.385 Y170.701 E3.67403
G1 X65.419 Y170.627 E0.03038
G1 X64.426 Y170.410 E0.03188
G1 X63.478 Y170.055 E0.03176
G1 X62.585 Y169.568 E0.03188
G1 X61.768 Y168.957 E0.03200
G1 X61.054 Y168.244 E0.03164
G1 X60.441 Y167.428 E0.03200
G1 X59.975 Y166.585 E0.03021
G1 X59.549 Y165.416 E0.03901
G1 X59.368 Y164.551 E0.02770
G1 X59.298 Y163.579 E0.03057
G1 X59.302 Y112.638 E1.59720
G1 X59.374 Y111.733 E0.02847
G1 X59.595 Y110.737 E0.03200
G1 X59.947 Y109.799 E0.03140
G1 X60.438 Y108.901 E0.03212
G1 X61.046 Y108.090 E0.03176
G1 X61.759 Y107.376 E0.03164
G1 X62.524 Y106.802 E0.03000
;WIPE_START
G1 F8640.000
G1 X63.415 Y106.300 E-0.23619
G1 X64.584 Y105.874 E-0.28727
G1 X65.453 Y105.693 E-0.20487
G1 X66.437 Y105.623 E-0.22774
G1 X68.056 Y105.623 E-0.37393
;WIPE_END
G1 E-0.07000 F2100.000
G1 Z0.400 F10800.000
G1 X75.107 Y120.151
G1 Z0.200
G1 E1.40000 F2100.000
;TYPE:Perimeter
G1 F1200.000
G1 X75.585 Y119.701 E0.02060
G1 X76.780 Y118.709 E0.04867
G1 X78.127 Y117.737 E0.05210
G1 X79.537 Y116.858 E0.05210
G1 X81.004 Y116.076 E0.05210
G1 X82.520 Y115.395 E0.05210
G1 X84.078 Y114.818 E0.05210
G1 X85.671 Y114.348 E0.05210
G1 X87.293 Y113.986 E0.05210
G1 X88.936 Y113.734 E0.05210
G1 X90.592 Y113.594 E0.05210
G1 X92.253 Y113.566 E0.05210
G1 X93.913 Y113.650 E0.05210
G1 X95.563 Y113.846 E0.05210
G1 X97.196 Y114.153 E0.05210
G1 X98.804 Y114.570 E0.05210
G1 X100.381 Y115.094 E0.05210
G1 X101.919 Y115.723 E0.05210
G1 X103.411 Y116.455 E0.05210
G1 X104.850 Y117.286 E0.05210
G1 X106.230 Y118.212 E0.05210
G1 X107.544 Y119.229 E0.05210
G1 X108.786 Y120.333 E0.05210
G1 X109.951 Y121.517 E0.05210
G1 X111.034 Y122.778 E0.05210
G1 X112.028 Y124.109 E0.05210
G1 X112.931 Y125.504 E0.05210
G1 X113.737 Y126.957 E0.05210
G1 X114.444 Y128.461 E0.05210
G1 X115.047 Y130.010 E0.05210
G1 X115.545 Y131.595 E0.05210
G1 X115.934 Y133.212 E0.05214
G1 X116.224 Y134.957 E0.05548
G1 X116.381 Y136.502 E0.04867
G1 X116.438 Y138.162 E0.05210
G1 X116.381 Y139.823 E0.05210
G1 X116.213 Y141.476 E0.05210
G1 X115.934 Y143.116 E0.05214
G1 X115.512 Y144.834 E0.05548
G1 X115.047 Y146.315 E0.04867
G1 X114.444 Y147.864 E0.05210
G1 X113.737 Y149.368 E0.05210
G1 X112.931 Y150.821 E0.05210
G1 X112.028 Y152.216 E0.05210
G1 X111.034 Y153.547 E0.05210
G1 X110.754 Y153.872 E0.01344
G1 X109.951 Y154.808 E0.03866
G1 X108.786 Y155.992 E0.05210
G1 X107.544 Y157.096 E0.05210
G1 X106.230 Y158.113 E0.05210
G1 X104.849 Y159.040 E0.05214
G1 X103.313 Y159.918 E0.05548
G1 X101.919 Y160.602 E0.04867
G1 X100.381 Y161.231 E0.05210
G1 X98.803 Y161.756 E0.05214
G1 X97.088 Y162.192 E0.05548
G1 X95.563 Y162.479 E0.04867
G1 X93.913 Y162.675 E0.05210
G1 X92.253 Y162.759 E0.05210
G1 X90.592 Y162.731 E0.05210
G1 X88.936 Y162.591 E0.05210
G1 X87.293 Y162.339 E0.05210
G1 X85.671 Y161.977 E0.05210
G1 X84.078 Y161.507 E0.05210
G1 X82.520 Y160.930 E0.05210
G1 X81.004 Y160.249 E0.05210
G1 X79.537 Y159.467 E0.05210
G1 X78.127 Y158.588 E0.05210
G1 X76.780 Y157.616 E0.05210
G1 X75.501 Y156.555 E0.05210
G1 X74.296 Y155.410 E0.05210
G1 X73.172 Y154.186 E0.05210
G1 X72.133 Y152.890 E0.05210
G1 X71.184 Y151.526 E0.05210
G1 X70.329 Y150.101 E0.05210
G1 X69.572 Y148.622 E0.05210
G1 X68.916 Y147.095 E0.05210
G1 X68.366 Y145.527 E0.05210
G1 X67.922 Y143.925 E0.05210
G1 X67.588 Y142.298 E0.05210
G1 X67.364 Y140.651 E0.05210
G1 X67.252 Y138.993 E0.05210
G1 X67.252 Y137.332 E0.05210
G1 X67.364 Y135.674 E0.05210
G1 X67.588 Y134.027 E0.05210
G1 X67.922 Y132.400 E0.05210
G1 X68.366 Y130.798 E0.05210
G1 X68.916 Y129.230 E0.05210
G1 X69.572 Y127.703 E0.05210
G1 X70.329 Y126.224 E0.05210
G1 X71.184 Y124.799 E0.05210
G1 X72.133 Y123.435 E0.05210
G1 X73.172 Y122.139 E0.05210
G1 X74.297 Y120.914 E0.05214
G1 X75.063 Y120.192 E0.03300
G1 X75.322 Y120.467 F10800.000
;TYPE:External perimeter
G1 F1200.000
G1 X75.835 Y119.983 E0.02210
G1 X77.011 Y119.008 E0.04790
G1 X78.338 Y118.050 E0.05130
G1 X79.726 Y117.185 E0.05130
G1 X81.170 Y116.415 E0.05130
G1 X82.662 Y115.745 E0.05130
G1 X84.197 Y115.176 E0.05130
G1 X85.766 Y114.713 E0.05130
G1 X87.363 Y114.357 E0.05130
G1 X88.980 Y114.109 E0.05130
G1 X90.611 Y113.971 E0.05130
G1 X92.247 Y113.943 E0.05130
G1 X93.881 Y114.026 E0.05130
G1 X95.505 Y114.219 E0.05130
G1 X97.114 Y114.521 E0.05130
G1 X98.698 Y114.931 E0.05130
G1 X100.250 Y115.448 E0.05130
G1 X101.764 Y116.067 E0.05130
G1 X103.233 Y116.788 E0.05130
G1 X104.650 Y117.606 E0.05130
G1 X106.009 Y118.518 E0.05130
G1 X107.303 Y119.519 E0.05130
G1 X108.526 Y120.606 E0.05130
G1 X109.673 Y121.773 E0.05130
G1 X110.739 Y123.014 E0.05130
G1 X111.719 Y124.325 E0.05130
G1 X112.607 Y125.699 E0.05130
G1 X113.402 Y127.129 E0.05130
G1 X114.097 Y128.610 E0.05130
G1 X114.691 Y130.135 E0.05130
G1 X115.181 Y131.696 E0.05130
G1 X115.564 Y133.287 E0.05132
G1 X115.850 Y135.007 E0.05468
G1 X116.005 Y136.527 E0.04790
G1 X116.060 Y138.162 E0.05130
G1 X116.005 Y139.798 E0.05130
G1 X115.839 Y141.426 E0.05130
G1 X115.564 Y143.039 E0.05132
G1 X115.149 Y144.733 E0.05468
G1 X114.691 Y146.190 E0.04790
G1 X114.097 Y147.715 E0.05130
G1 X113.402 Y149.196 E0.05130
G1 X112.607 Y150.626 E0.05130
G1 X111.719 Y152.000 E0.05130
G1 X110.739 Y153.311 E0.05130
G1 X110.468 Y153.626 E0.01304
G1 X109.673 Y154.552 E0.03826
G1 X108.526 Y155.719 E0.05130
G1 X107.303 Y156.806 E0.05130
G1 X106.009 Y157.807 E0.05130
G1 X104.650 Y158.719 E0.05132
G1 X103.136 Y159.585 E0.05468
G1 X101.764 Y160.258 E0.04790
G1 X100.250 Y160.877 E0.05130
G1 X98.697 Y161.394 E0.05132
G1 X97.007 Y161.824 E0.05468
G1 X95.505 Y162.106 E0.04790
G1 X93.881 Y162.299 E0.05130
G1 X92.247 Y162.382 E0.05130
G1 X90.611 Y162.354 E0.05130
G1 X88.980 Y162.216 E0.05130
G1 X87.363 Y161.968 E0.05130
G1 X85.766 Y161.612 E0.05130
G1 X84.197 Y161.149 E0.05130
G1 X82.662 Y160.580 E0.05130
G1 X81.170 Y159.910 E0.05130
G1 X79.726 Y159.140 E0.05130
G1 X78.338 Y158.275 E0.05130
G1 X77.011 Y157.317 E0.05130
G1 X75.751 Y156.273 E0.05130
G1 X74.565 Y155.145 E0.05130
G1 X73.458 Y153.941 E0.05130
G1 X72.435 Y152.664 E0.05130
G1 X71.500 Y151.321 E0.05130
G1 X70.658 Y149.918 E0.05130
G1 X69.913 Y148.461 E0.05130
G1 X69.268 Y146.958 E0.05130
G1 X68.726 Y145.414 E0.05130
G1 X68.289 Y143.837 E0.05130
G1 X67.959 Y142.234 E0.05130
G1 X67.739 Y140.613 E0.05130
G1 X67.629 Y138.981 E0.05130
G1 X67.629 Y137.344 E0.05130
G1 X67.739 Y135.712 E0.05130
G1 X67.959 Y134.091 E0.05130
G1 X68.289 Y132.488 E0.05130
G1 X68.726 Y130.911 E0.05130
G1 X69.268 Y129.367 E0.05130
G1 X69.913 Y127.864 E0.05130
G1 X70.658 Y126.407 E0.05130
G1 X71.500 Y125.004 E0.05130
G1 X72.435 Y123.661 E0.05130
G1 X73.458 Y122.384 E0.05130
G1 X74.566 Y121.179 E0.05132
G1 X75.278 Y120.508 E0.03070
G1 X75.224 Y120.079 F10800.000
;WIPE_START
G1 F8640.000
G1 X75.835 Y119.983 E-0.17664
G1 X77.011 Y119.008 E-0.35275
G1 X78.338 Y118.050 E-0.37780
G1 X79.726 Y117.185 E-0.37780
G1 X79.898 Y117.093 E-0.04501
;WIPE_END
G1 E-0.07000 F2100.000
G1 Z0.400 F10800.000
G1 X112.534 Y115.246
G1 Z0.200
G1 E1.40000 F2100.000
;TYPE:Perimeter
G1 F1200.000
G1 X112.460 Y114.589 E0.02072
G1 X112.534 Y113.933 E0.02072
G1 X112.752 Y113.309 E0.02072
G1 X113.103 Y112.749 E0.02072
G1 X113.571 Y112.282 E0.02072
G1 X114.130 Y111.931 E0.02072
G1 X114.754 Y111.712 E0.02072
G1 X115.411 Y111.638 E0.02072
G1 X116.067 Y111.712 E0.02072
G1 X116.691 Y111.931 E0.02072
G1 X117.251 Y112.282 E0.02072
G1 X117.718 Y112.749 E0.02072
G1 X118.069 Y113.309 E0.02072
G1 X118.288 Y113.933 E0.02072
G1 X118.362 Y114.589 E0.02072
G1 X118.288 Y115.246 E0.02072
G1 X118.069 Y115.870 E0.02072
G1 X117.718 Y116.429 E0.02072
G1 X117.251 Y116.897 E0.02072
G1 X116.691 Y117.248 E0.02072
G1 X116.067 Y117.466 E0.02072
G1 X115.411 Y117.540 E0.02072
G1 X114.754 Y117.466 E0.02072
G1 X114.130 Y117.248 E0.02072
G1 X113.571 Y116.897 E0.02072
G1 X113.103 Y116.429 E0.02072
G1 X112.752 Y115.870 E0.02072
G1 X112.553 Y115.303 E0.01884
G1 X112.909 Y115.178 F10800.000
;TYPE:External perimeter
G1 F1200.000
G1 X112.839 Y114.589 E0.01859
G1 X112.904 Y114.017 E0.01806
G1 X113.094 Y113.474 E0.01806
G1 X113.400 Y112.986 E0.01806
G1 X113.807 Y112.579 E0.01806
G1 X114.295 Y112.272 E0.01806
G1 X114.838 Y112.082 E0.01806
G1 X115.411 Y112.018 E0.01806
G1 X115.983 Y112.082 E0.01806
G1 X116.526 Y112.272 E0.01806
G1 X117.014 Y112.579 E0.01806
G1 X117.421 Y112.986 E0.01806
G1 X117.728 Y113.474 E0.01806
G1 X117.918 Y114.017 E0.01806
G1 X117.982 Y114.589 E0.01806
G1 X117.918 Y115.162 E0.01806
G1 X117.728 Y115.705 E0.01806
G1 X117.421 Y116.193 E0.01806
G1 X117.014 Y116.600 E0.01806
G1 X116.526 Y116.906 E0.01806
G1 X115.983 Y117.096 E0.01806
G1 X115.411 Y117.161 E0.01806
G1 X114.838 Y117.096 E0.01806
G1 X114.295 Y116.906 E0.01806
G1 X113.807 Y116.600 E0.01806
G1 X113.400 Y116.193 E0.01806
G1 X113.094 Y115.705 E0.01806
G1 X112.929 Y115.235 E0.01563
G1 X112.527 Y115.062 F10800.000
;WIPE_START
G1 F8640.000
G1 X112.839 Y114.589 E-0.15047
G1 X112.904 Y114.017 E-0.13297
G1 X113.094 Y113.474 E-0.13297
G1 X113.400 Y112.986 E-0.13297
G1 X113.807 Y112.579 E-0.13297
G1 X114.295 Y112.272 E-0.13297
G1 X114.838 Y112.082 E-0.13297
G1 X115.411 Y112.018 E-0.13297
G1 X115.983 Y112.082 E-0.13297
G1 X116.456 Y112.248 E-0.11580
;WIPE_END
G1 E-0.07000 F2100.000
G1 Z0.400 F10800.000
G1 X71.215 Y114.589
G1 Z0.200
G1 E1.40000 F2100.000
;TYPE:Perimeter
G1 F1200.000
G1 X71.141 Y115.246 E0.02072
G1 X70.923 Y115.870 E0.02072
G1 X70.572 Y116.429 E0.02072
G1 X70.104 Y116.897 E0.02072
G1 X69.545 Y117.248 E0.02072
G1 X68.921 Y117.466 E0.02072
G1 X68.264 Y117.540 E0.02072
G1 X67.608 Y117.466 E0.02072
G1 X66.984 Y117.248 E0.02072
G1 X66.424 Y116.897 E0.02072
G1 X65.957 Y116.429 E0.02072
G1 X65.606 Y115.870 E0.02072
G1 X65.387 Y115.246 E0.02072
G1 X65.313 Y114.589 E0.02072
G1 X65.387 Y113.933 E0.02072
G1 X65.606 Y113.309 E0.02072
G1 X65.957 Y112.749 E0.02072
G1 X66.424 Y112.282 E0.02072
G1 X66.984 Y111.931 E0.02072
G1 X67.608 Y111.712 E0.02072
G1 X68.264 Y111.638 E0.02072
G1 X68.921 Y111.712 E0.02072
G1 X69.545 Y111.931 E0.02072
G1 X70.104 Y112.282 E0.02072
G1 X70.572 Y112.749 E0.02072
G1 X70.923 Y113.309 E0.02072
G1 X71.141 Y113.933 E0.02072
G1 X71.209 Y114.530 E0.01884
G1 X70.834 Y114.572 F10800.000
;TYPE:External perimeter
G1 F1200.000
G1 X70.771 Y115.162 E0.01859
G1 X70.581 Y115.705 E0.01806
G1 X70.275 Y116.193 E0.01806
G1 X69.868 Y116.600 E0.01806
G1 X69.380 Y116.906 E0.01806
G1 X68.837 Y117.096 E0.01806
G1 X68.264 Y117.161 E0.01806
G1 X67.692 Y117.096 E0.01806
G1 X67.149 Y116.906 E0.01806
G1 X66.661 Y116.600 E0.01806
G1 X66.254 Y116.193 E0.01806
G1 X65.947 Y115.705 E0.01806
G1 X65.757 Y115.162 E0.01806
G1 X65.693 Y114.589 E0.01806
G1 X65.757 Y114.017 E0.01806
G1 X65.947 Y113.474 E0.01806
G1 X66.254 Y112.986 E0.01806
G1 X66.661 Y112.579 E0.01806
G1 X67.149 Y112.272 E0.01806
G1 X67.692 Y112.082 E0.01806
G1 X68.264 Y112.018 E0.01806
G1 X68.837 Y112.082 E0.01806
G1 X69.380 Y112.272 E0.01806
G1 X69.868 Y112.579 E0.01806
G1 X70.275 Y112.986 E0.01806
G1 X70.581 Y113.474 E0.01806
G1 X70.771 Y114.017 E0.01806
G1 X70.827 Y114.512 E0.01563
G1 X71.181 Y114.770 F10800.000
;WIPE_START
G1 F8640.000
G1 X70.771 Y115.162 E-0.15047
G1 X70.581 Y115.705 E-0.13297
G1 X70.275 Y116.193 E-0.13297
G1 X69.868 Y116.600 E-0.13297
G1 X69.380 Y116.906 E-0.13297
G1 X68.837 Y117.096 E-0.13297
G1 X68.264 Y117.161 E-0.13297
G1 X67.692 Y117.096 E-0.13297
G1 X67.149 Y116.906 E-0.13297
G1 X66.724 Y116.639 E-0.11580
;WIPE_END
G1 E-0.07000 F2100.000
G1 Z0.400 F10800.000
G1 X68.264 Y158.785
G1 Z0.200
G1 E1.40000 F2100.000
;TYPE:Perimeter
G1 F1200.000
G1 X68.921 Y158.859 E0.02072
G1 X69.545 Y159.077 E0.02072
G1 X70.104 Y159.428 E0.02072
G1 X70.572 Y159.896 E0.02072
G1 X70.923 Y160.455 E0.02072
G1 X71.141 Y161.079 E0.02072
G1 X71.215 Y161.736 E0.02072
G1 X71.141 Y162.392 E0.02072
G1 X70.923 Y163.016 E0.02072
G1 X70.572 Y163.576 E0.02072
G1 X70.104 Y164.043 E0.02072
G1 X69.545 Y164.394 E0.02072
G1 X68.921 Y164.613 E0.02072
G1 X68.264 Y164.687 E0.02072
G1 X67.608 Y164.613 E0.02072
G1 X66.984 Y164.394 E0.02072
G1 X66.424 Y164.043 E0.02072
G1 X65.957 Y163.576 E0.02072
G1 X65.606 Y163.016 E0.02072
G1 X65.387 Y162.392 E0.02072
G1 X65.313 Y161.736 E0.02072
G1 X65.387 Y161.079 E0.02072
G1 X65.606 Y160.455 E0.02072
G1 X65.957 Y159.896 E0.02072
G1 X66.424 Y159.428 E0.02072
G1 X66.984 Y159.077 E0.02072
G1 X67.608 Y158.859 E0.02072
G1 X68.205 Y158.791 E0.01884
G1 X68.247 Y159.166 F10800.000
;TYPE:External perimeter
G1 F1200.000
G1 X68.837 Y159.229 E0.01859
G1 X69.380 Y159.419 E0.01806
G1 X69.868 Y159.725 E0.01806
G1 X70.275 Y160.132 E0.01806
G1 X70.581 Y160.620 E0.01806
G1 X70.771 Y161.163 E0.01806
G1 X70.836 Y161.736 E0.01806
G1 X70.771 Y162.308 E0.01806
G1 X70.581 Y162.851 E0.01806
G1 X70.275 Y163.339 E0.01806
G1 X69.868 Y163.746 E0.01806
G1 X69.380 Y164.053 E0.01806
G1 X68.837 Y164.243 E0.01806
G1 X68.264 Y164.307 E0.01806
G1 X67.692 Y164.243 E0.01806
G1 X67.149 Y164.053 E0.01806
G1 X66.661 Y163.746 E0.01806
G1 X66.254 Y163.339 E0.01806
G1 X65.947 Y162.851 E0.01806
G1 X65.757 Y162.308 E0.01806
G1 X65.693 Y161.736 E0.01806
G1 X65.757 Y161.163 E0.01806
G1 X65.947 Y160.620 E0.01806
G1 X66.254 Y160.132 E0.01806
G1 X66.661 Y159.725 E0.01806
G1 X67.149 Y159.419 E0.01806
G1 X67.692 Y159.229 E0.01806
G1 X68.187 Y159.173 E0.01563
G1 X68.445 Y158.819 F10800.000
;WIPE_START
G1 F8640.000
G1 X68.837 Y159.229 E-0.15047
G1 X69.380 Y159.419 E-0.13297
G1 X69.868 Y159.725 E-0.13297
G1 X70.275 Y160.132 E-0.13297
G1 X70.581 Y160.620 E-0.13297
G1 X70.771 Y161.163 E-0.13297
G1 X70.836 Y161.736 E-0.13297
G1 X70.771 Y162.308 E-0.13297
G1 X70.581 Y162.851 E-0.13297
G1 X70.314 Y163.276 E-0.11580
