; generated by PrusaSlicer 2.3.0+win64 on 2021-05-13 at 07:45:13 UTC

; 

; external perimeters extrusion width = 0.60mm
; perimeters extrusion width = 0.50mm
; infill extrusion width = 0.50mm
; solid infill extrusion width = 0.50mm
; top infill extrusion width = 0.45mm
; first layer extrusion width = 0.42mm

M73 P0 R132
M73 Q0 S133
M201 X1000 Y1000 Z200 E5000 ; sets maximum accelerations, mm/sec^2
M203 X200 Y200 Z12 E120 ; sets maximum feedrates, mm/sec
M204 P1250 R1250 T1250 ; sets acceleration (P, T) and retract acceleration (R), mm/sec^2
M205 X8.00 Y8.00 Z0.40 E4.50 ; sets the jerk limits, mm/sec
M205 S0 T0 ; sets the minimum extruding and travel feed rate, mm/sec
M107
;TYPE:Custom
M862.3 P "MK3S" ; printer model check
M862.1 P0.4 ; nozzle diameter check
M115 U3.9.1 ; tell printer latest fw version
G90 ; use absolute coordinates
M83 ; extruder relative mode
M104 S240 ; set extruder temp
M140 S85 ; set bed temp
M190 S85 ; wait for bed temp
M109 S240 ; wait for extruder temp
G28 W ; home all without mesh bed level
G80 ; mesh bed leveling
G1 Y-3.0 F1000.0 ; go outside print area
G92 E0.0
G1 X60.0 E9.0 F1000.0 ; intro line
G1 X100.0 E12.5 F1000.0 ; intro line
G92 E0.0
M221 S95

; Don't change E values below. Excessive value can damage the printer.

M907 E538 ; set extruder motor current
G21 ; set units to millimeters
G90 ; use absolute coordinates
M83 ; use relative distances for extrusion
M900 K0.08 ; Filament gcode LA 1.5
M900 K45 ; Filament gcode LA 1.0
;LAYER_CHANGE
;Z:0.2
;HEIGHT:0.2
;BEFORE_LAYER_CHANGE
G92 E0.0
;0.2


G1 E-1.40000 F2100.000
G1 Z0.200 F10800.000
;AFTER_LAYER_CHANGE
;0.2
G1 Z0.400
G1 X82.884 Y84.880
G1 Z0.200
G1 E1.40000 F2100.000
M204 S1000
;TYPE:Skirt
;WIDTH:0.42
G1 F1200.000
G1 X85.091 Y83.095 E0.08899
G1 X87.463 Y81.553 E0.08870
G1 X135.550 Y53.793 E1.74094
G1 X138.093 Y52.511 E0.08929
G1 X140.625 Y51.543 E0.08501
G1 X143.243 Y50.839 E0.08500
G1 X146.154 Y50.369 E0.09244
G1 X149.013 Y50.221 E0.08977
G1 X151.817 Y50.368 E0.08804
G1 X154.496 Y50.789 E0.08502
G1 X157.357 Y51.544 E0.09277
G1 X160.114 Y52.612 E0.09270
G1 X162.530 Y53.850 E0.08513
G1 X164.906 Y55.392 E0.08880
G1 X167.107 Y57.171 E0.08875
G1 X169.029 Y59.088 E0.08511
G1 X170.897 Y61.383 E0.09279
G1 X172.501 Y63.869 E0.09278
G1 X173.727 Y66.289 E0.08505
G1 X174.741 Y68.925 E0.08854
G1 X175.498 Y71.789 E0.09290
G1 X175.921 Y74.472 E0.08514
G1 X176.067 Y77.246 E0.08709
G1 X176.067 Y132.700 E1.73872
G1 X175.920 Y135.532 E0.08893
G1 X175.476 Y138.325 E0.08868
G1 X174.744 Y141.064 E0.08891
G1 X173.772 Y143.604 E0.08527
G1 X172.449 Y146.224 E0.09202
G1 X171.022 Y148.436 E0.08254
G1 X169.029 Y150.912 E0.09966
G1 X167.107 Y152.829 E0.08512
G1 X164.899 Y154.613 E0.08899
G1 X162.525 Y156.153 E0.08874
G1 X159.998 Y157.439 E0.08891
G1 X157.357 Y158.454 E0.08871
G1 X154.620 Y159.186 E0.08883
G1 X151.821 Y159.632 E0.08885
G1 X148.989 Y159.779 E0.08890
G1 X146.152 Y159.631 E0.08909
G1 X143.243 Y159.159 E0.09242
G1 X140.505 Y158.412 E0.08896
G1 X137.979 Y157.438 E0.08491
G1 X135.551 Y156.207 E0.08533
G1 X87.466 Y128.449 E1.74086
G1 X85.090 Y126.903 E0.08887
G1 X82.884 Y125.120 E0.08893
G1 X80.810 Y123.033 E0.09226
G1 X78.986 Y120.746 E0.09171
G1 X77.561 Y118.540 E0.08236
G1 X76.371 Y116.223 E0.08166
G1 X75.259 Y113.379 E0.09573
G1 X74.525 Y110.637 E0.08902
G1 X74.080 Y107.829 E0.08914
G1 X73.933 Y104.999 E0.08885
G1 X74.080 Y102.169 E0.08885
G1 X74.524 Y99.365 E0.08901
G1 X75.258 Y96.626 E0.08893
G1 X76.324 Y93.874 E0.09253
G1 X77.625 Y91.352 E0.08896
G1 X79.102 Y89.086 E0.08482
G1 X80.808 Y86.970 E0.08523
G1 X82.842 Y84.922 E0.09050
;WIPE_START
G1 F8640.000
G1 X85.091 Y83.095 E-0.66909
G1 X87.463 Y81.553 E-0.65319
G1 X87.492 Y81.536 E-0.00773
;WIPE_END
G1 E-0.07000 F2100.000
G1 Z0.400 F10800.000
G1 X95.242 Y98.447
G1 Z0.200
G1 E1.40000 F2100.000
;TYPE:Perimeter
G1 F1200.000
G1 X96.432 Y97.569 E0.04637
G1 X97.755 Y96.903 E0.04643
G1 X99.169 Y96.468 E0.04638
G1 X100.598 Y96.284 E0.04520
G1 X102.117 Y96.342 E0.04765
G1 X103.563 Y96.655 E0.04638
G1 X104.939 Y97.206 E0.04648
G1 X106.197 Y97.981 E0.04632
G1 X107.310 Y98.960 E0.04647
M73 Q0 S132
G1 X108.240 Y100.113 E0.04646
G1 X108.963 Y101.402 E0.04634
G1 X109.456 Y102.799 E0.04645
G1 X109.704 Y104.246 E0.04602
G1 X109.733 Y104.982 E0.02309
G1 X109.704 Y105.754 E0.02422
G1 X109.456 Y107.199 E0.04599
G1 X108.964 Y108.594 E0.04637
G1 X108.240 Y109.887 E0.04646
G1 X107.310 Y111.037 E0.04638
G1 X106.198 Y112.015 E0.04642
G1 X104.940 Y112.793 E0.04639
G1 X103.563 Y113.345 E0.04652
G1 X102.117 Y113.658 E0.04637
G1 X100.640 Y113.717 E0.04635
G1 X99.170 Y113.532 E0.04647
G1 X97.755 Y113.097 E0.04640
G1 X96.431 Y112.433 E0.04644
G1 X95.242 Y111.549 E0.04648
G1 X94.217 Y110.482 E0.04637
G1 X93.390 Y109.255 E0.04640
G1 X92.779 Y107.905 E0.04645
G1 X92.407 Y106.475 E0.04633
G1 X92.282 Y104.998 E0.04649
G1 X92.407 Y103.525 E0.04635
G1 X92.779 Y102.093 E0.04639
G1 X93.390 Y100.745 E0.04640
G1 X94.217 Y99.518 E0.04637
G1 X95.201 Y98.490 E0.04462
G1 X95.473 Y98.751 F10800.000
;TYPE:External perimeter
G1 F1200.000
G1 X96.630 Y97.891 E0.04520
G1 X97.896 Y97.254 E0.04443
G1 X99.249 Y96.838 E0.04437
G1 X100.615 Y96.662 E0.04321
G1 X102.070 Y96.718 E0.04563
G1 X103.452 Y97.017 E0.04435
G1 X104.769 Y97.544 E0.04448
G1 X105.972 Y98.285 E0.04431
G1 X107.037 Y99.221 E0.04445
G1 X107.927 Y100.325 E0.04446
G1 X108.619 Y101.558 E0.04433
G1 X109.090 Y102.894 E0.04443
G1 X109.328 Y104.285 E0.04424
G1 X109.355 Y104.982 E0.02187
G1 X109.328 Y105.715 E0.02298
G1 X109.090 Y107.104 E0.04419
G1 X108.619 Y108.438 E0.04436
G1 X107.927 Y109.675 E0.04445
G1 X107.037 Y110.775 E0.04437
G1 X105.973 Y111.711 E0.04442
G1 X104.769 Y112.455 E0.04437
G1 X103.452 Y112.983 E0.04449
G1 X102.070 Y113.282 E0.04435
G1 X100.656 Y113.339 E0.04435
G1 X99.249 Y113.162 E0.04446
G1 X97.896 Y112.746 E0.04438
G1 X96.630 Y112.110 E0.04443
G1 X95.492 Y111.265 E0.04446
G1 X94.512 Y110.245 E0.04436
G1 X93.721 Y109.071 E0.04439
G1 X93.136 Y107.779 E0.04445
G1 X92.780 Y106.411 E0.04431
G1 X92.660 Y104.998 E0.04448
G1 X92.780 Y103.589 E0.04435
G1 X93.136 Y102.219 E0.04437
G1 X93.721 Y100.929 E0.04439
G1 X94.511 Y99.756 E0.04437
G1 X95.432 Y98.794 E0.04173
G1 X95.394 Y98.359 F10800.000
;WIPE_START
G1 F8640.000
G1 X96.630 Y97.891 E-0.34655
G1 X97.896 Y97.254 E-0.32721
G1 X99.249 Y96.838 E-0.32676
G1 X100.615 Y96.662 E-0.31818
G1 X100.664 Y96.664 E-0.01131
;WIPE_END
G1 E-0.07000 F2100.000
G1 Z0.400 F10800.000
G1 X95.088 Y93.215
G1 Z0.200
G1 E1.40000 F2100.000
;TYPE:Perimeter
G1 F1200.000
G1 X94.791 Y93.204 E0.00932
G1 X94.500 Y93.139 E0.00935
G1 X94.241 Y93.032 E0.00878
G1 X93.994 Y92.886 E0.00900
G1 X93.769 Y92.688 E0.00941
G1 X93.588 Y92.463 E0.00904
G1 X93.444 Y92.209 E0.00916
G1 X93.347 Y91.931 E0.00921
G1 X93.299 Y91.646 E0.00908
G1 X93.299 Y91.355 E0.00911
G1 X93.347 Y91.067 E0.00915
G1 X93.446 Y90.785 E0.00940
G1 X93.590 Y90.538 E0.00895
G1 X93.766 Y90.314 E0.00893
G1 X93.991 Y90.117 E0.00938
G1 X94.237 Y89.968 E0.00903
G1 X94.504 Y89.857 E0.00907
G1 X94.791 Y89.797 E0.00918
G1 X95.083 Y89.782 E0.00917
G1 X95.369 Y89.822 E0.00906
G1 X95.648 Y89.903 E0.00910
G1 X95.917 Y90.041 E0.00948
G1 X96.141 Y90.211 E0.00883
G1 X96.341 Y90.416 E0.00897
G1 X96.507 Y90.660 E0.00927
G1 X96.630 Y90.931 E0.00932
G1 X96.699 Y91.204 E0.00884
G1 X96.729 Y91.497 E0.00922
G1 X96.699 Y91.795 E0.00938
G1 X96.629 Y92.071 E0.00893
G1 X96.506 Y92.339 E0.00926
G1 X96.343 Y92.580 E0.00910
G1 X96.144 Y92.786 E0.00901
G1 X95.913 Y92.961 E0.00908
G1 X95.644 Y93.096 E0.00945
G1 X95.369 Y93.176 E0.00896
G1 X95.147 Y93.207 E0.00702
G1 X95.095 Y92.833 F10800.000
;TYPE:External perimeter
G1 F1200.000
G1 X94.839 Y92.828 E0.00801
G1 X94.614 Y92.778 E0.00724
G1 X94.410 Y92.694 E0.00692
G1 X94.216 Y92.580 E0.00706
G1 X94.042 Y92.426 E0.00727
G1 X93.901 Y92.251 E0.00706
G1 X93.789 Y92.052 E0.00715
G1 X93.713 Y91.837 E0.00716
G1 X93.676 Y91.614 E0.00708
G1 X93.676 Y91.386 E0.00714
G1 X93.713 Y91.162 E0.00714
G1 X93.790 Y90.943 E0.00725
G1 X93.902 Y90.751 E0.00699
G1 X94.041 Y90.575 E0.00702
G1 X94.214 Y90.422 E0.00725
G1 X94.408 Y90.305 E0.00709
G1 X94.616 Y90.219 E0.00707
G1 X94.839 Y90.172 E0.00715
G1 X95.066 Y90.161 E0.00712
G1 X95.290 Y90.192 E0.00709
G1 X95.508 Y90.255 E0.00712
G1 X95.715 Y90.362 E0.00730
G1 X95.891 Y90.495 E0.00694
G1 X96.048 Y90.655 E0.00703
G1 X96.177 Y90.845 E0.00719
G1 X96.272 Y91.056 E0.00726
G1 X96.327 Y91.270 E0.00693
G1 X96.350 Y91.497 E0.00716
G1 X96.327 Y91.729 E0.00730
G1 X96.272 Y91.945 E0.00698
G1 X96.176 Y92.154 E0.00720
G1 X96.049 Y92.341 E0.00710
G1 X95.893 Y92.504 E0.00707
G1 X95.713 Y92.640 E0.00707
G1 X95.506 Y92.743 E0.00727
G1 X95.154 Y92.825 E0.01132
G1 X94.987 Y93.065 F10800.000
;WIPE_START
G1 F8640.000
G1 X94.839 Y92.828 E-0.07269
G1 X94.614 Y92.778 E-0.05333
G1 X94.410 Y92.694 E-0.05094
G1 X94.216 Y92.580 E-0.05198
G1 X94.042 Y92.426 E-0.05352
G1 X93.901 Y92.251 E-0.05198
G1 X93.789 Y92.052 E-0.05268
G1 X93.713 Y91.837 E-0.05270
G1 X93.676 Y91.614 E-0.05216
G1 X93.676 Y91.386 E-0.05259
G1 X93.713 Y91.162 E-0.05261
G1 X93.790 Y90.943 E-0.05340
G1 X93.902 Y90.751 E-0.05150
G1 X94.041 Y90.575 E-0.05173
G1 X94.214 Y90.422 E-0.05338
G1 X94.408 Y90.305 E-0.05221
G1 X94.616 Y90.219 E-0.05205
G1 X94.839 Y90.172 E-0.05262
G1 X95.066 Y90.161 E-0.05244
G1 X95.290 Y90.192 E-0.05218
G1 X95.508 Y90.255 E-0.05243
G1 X95.715 Y90.362 E-0.05377
G1 X95.891 Y90.495 E-0.05108
G1 X96.048 Y90.655 E-0.05177
G1 X96.175 Y90.843 E-0.05227
;WIPE_END
G1 E-0.07000 F2100.000
G1 Z0.400 F10800.000
G1 X95.083 Y116.782
G1 Z0.200
G1 E1.40000 F2100.000
;TYPE:Perimeter
G1 F1200.000
G1 X95.374 Y116.823 E0.00921
G1 X95.648 Y116.906 E0.00898
G1 X95.913 Y117.039 E0.00930
G1 X96.144 Y117.214 E0.00908
G1 X96.343 Y117.420 E0.00901
G1 X96.506 Y117.661 E0.00910
G1 X96.629 Y117.929 E0.00926
G1 X96.699 Y118.204 E0.00890
G1 X96.729 Y118.497 E0.00922
G1 X96.699 Y118.795 E0.00938
G1 X96.629 Y119.071 E0.00893
G1 X96.507 Y119.337 E0.00917
G1 X96.343 Y119.582 E0.00926
G1 X96.141 Y119.789 E0.00906
G1 X95.913 Y119.961 E0.00897
G1 X95.626 Y120.105 E0.01005
G1 X95.107 Y120.219 E0.01668
G1 X94.786 Y120.203 E0.01008
G1 X94.504 Y120.140 E0.00905
G1 X94.241 Y120.035 E0.00889
G1 X93.987 Y119.881 E0.00930
G1 X93.766 Y119.683 E0.00932
G1 X93.588 Y119.461 E0.00892
G1 X93.444 Y119.207 E0.00916
G1 X93.347 Y118.930 E0.00919
G1 X93.299 Y118.647 E0.00902
G1 X93.299 Y118.355 E0.00914
G1 X93.347 Y118.067 E0.00915
G1 X93.445 Y117.787 E0.00932
G1 X93.588 Y117.538 E0.00901
G1 X93.766 Y117.312 E0.00901
G1 X93.994 Y117.112 E0.00951
G1 X94.245 Y116.964 E0.00915
G1 X94.504 Y116.860 E0.00876
G1 X94.786 Y116.797 E0.00905
G1 X95.023 Y116.785 E0.00744
G1 X95.042 Y117.162 F10800.000
;TYPE:External perimeter
G1 F1200.000
G1 X95.292 Y117.192 E0.00790
G1 X95.508 Y117.258 E0.00706
G1 X95.713 Y117.360 E0.00719
G1 X95.893 Y117.496 E0.00707
G1 X96.049 Y117.659 E0.00707
G1 X96.176 Y117.846 E0.00710
G1 X96.272 Y118.055 E0.00720
G1 X96.327 Y118.270 E0.00696
G1 X96.350 Y118.497 E0.00716
G1 X96.327 Y118.729 E0.00730
G1 X96.272 Y118.945 E0.00698
G1 X96.177 Y119.152 E0.00716
G1 X96.049 Y119.344 E0.00721
G1 X95.891 Y119.505 E0.00708
G1 X95.713 Y119.640 E0.00701
G1 X95.500 Y119.747 E0.00749
G1 X95.076 Y119.840 E0.01361
G1 X94.837 Y119.828 E0.00750
G1 X94.616 Y119.779 E0.00708
G1 X94.410 Y119.696 E0.00696
G1 X94.213 Y119.577 E0.00723
G1 X94.041 Y119.423 E0.00724
G1 X93.901 Y119.249 E0.00700
G1 X93.789 Y119.050 E0.00715
G1 X93.714 Y118.835 E0.00714
G1 X93.676 Y118.615 E0.00702
G1 X93.676 Y118.386 E0.00716
G1 X93.713 Y118.162 E0.00714
G1 X93.789 Y117.945 E0.00721
G1 X93.901 Y117.750 E0.00705
G1 X94.041 Y117.573 E0.00707
G1 X94.216 Y117.418 E0.00732
G1 X94.412 Y117.303 E0.00714
G1 X94.616 Y117.221 E0.00689
G1 X94.837 Y117.172 E0.00708
G1 X94.982 Y117.165 E0.00457
G1 X95.176 Y116.948 F10800.000
;WIPE_START
G1 F8640.000
G1 X95.292 Y117.192 E-0.07185
G1 X95.508 Y117.258 E-0.05202
G1 X95.713 Y117.360 E-0.05298
G1 X95.893 Y117.496 E-0.05204
G1 X96.049 Y117.659 E-0.05210
G1 X96.176 Y117.846 E-0.05227
G1 X96.272 Y118.055 E-0.05304
G1 X96.327 Y118.270 E-0.05127
G1 X96.350 Y118.497 E-0.05272
G1 X96.327 Y118.729 E-0.05376
G1 X96.272 Y118.945 E-0.05139
G1 X96.177 Y119.152 E-0.05270
G1 X96.049 Y119.344 E-0.05308
G1 X95.891 Y119.505 E-0.05210
G1 X95.713 Y119.640 E-0.05162
G1 X95.500 Y119.747 E-0.05515
G1 X95.076 Y119.840 E-0.10026
G1 X94.837 Y119.828 E-0.05521
G1 X94.616 Y119.779 E-0.05215
G1 X94.410 Y119.696 E-0.05128
G1 X94.213 Y119.577 E-0.05323
G1 X94.041 Y119.423 E-0.05331
G1 X93.901 Y119.249 E-0.05153
G1 X93.789 Y119.050 E-0.05268
G1 X93.789 Y119.049 E-0.00026
;WIPE_END
G1 E-0.07000 F2100.000
G1 Z0.400 F10800.000
G1 X89.052 Y125.709
G1 Z0.200
G1 E1.40000 F2100.000
;TYPE:Perimeter
G1 F1200.000
G1 X86.955 Y124.346 E0.07841
G1 X85.007 Y122.772 E0.07853
G1 X83.238 Y121.003 E0.07845
G1 X81.661 Y119.051 E0.07867
G1 X80.299 Y116.952 E0.07846
G1 X79.163 Y114.728 E0.07830
G1 X78.265 Y112.389 E0.07856
G1 X77.619 Y109.970 E0.07849
G1 X77.228 Y107.500 E0.07843
G1 X77.098 Y104.998 E0.07855
G1 X77.228 Y102.500 E0.07843
G1 X77.619 Y100.028 E0.07849
G1 X78.265 Y97.611 E0.07843
G1 X79.162 Y95.275 E0.07847
G1 X80.300 Y93.042 E0.07857
G1 X81.664 Y90.945 E0.07843
G1 X83.238 Y88.997 E0.07853
G1 X85.007 Y87.228 E0.07845
G1 X86.955 Y85.654 E0.07853
G1 X89.052 Y84.290 E0.07843
G1 X91.284 Y83.152 E0.07857
G1 X93.621 Y82.256 E0.07847
G1 X96.037 Y81.609 E0.07843
G1 X98.512 Y81.218 E0.07856
G1 X101.009 Y81.088 E0.07840
G1 X103.507 Y81.217 E0.07841
G1 X105.980 Y81.609 E0.07852
G1 X108.399 Y82.256 E0.07849
G1 X110.735 Y83.152 E0.07846
G1 X112.964 Y84.290 E0.07847
G1 X115.065 Y85.654 E0.07854
G1 X117.013 Y87.228 E0.07852
G1 X118.782 Y88.997 E0.07845
G1 X120.356 Y90.945 E0.07853
G1 X121.719 Y93.042 E0.07841
G1 X122.854 Y95.274 E0.07852
G1 X123.752 Y97.612 E0.07851
G1 X124.399 Y100.028 E0.07843
G1 X124.792 Y102.500 E0.07850
G1 X124.922 Y104.998 E0.07842
G1 X124.792 Y107.500 E0.07854
G1 X124.399 Y109.970 E0.07844
G1 X123.752 Y112.388 E0.07849
G1 X122.853 Y114.728 E0.07858
G1 X121.718 Y116.956 E0.07840
G1 X120.358 Y119.053 E0.07839
G1 X118.782 Y121.003 E0.07860
G1 X117.013 Y122.772 E0.07845
G1 X115.065 Y124.346 E0.07852
G1 X112.964 Y125.709 E0.07853
G1 X110.735 Y126.844 E0.07842
G1 X108.398 Y127.742 E0.07850
G1 X105.980 Y128.389 E0.07849
G1 X103.509 Y128.782 E0.07844
G1 X101.008 Y128.912 E0.07854
G1 X98.510 Y128.782 E0.07842
G1 X96.038 Y128.389 E0.07850
G1 X93.621 Y127.742 E0.07843
G1 X91.284 Y126.844 E0.07851
G1 X89.105 Y125.736 E0.07664
G1 X88.934 Y126.073 F10800.000
;TYPE:External perimeter
G1 F1200.000
G1 X86.733 Y124.652 E0.08215
G1 X84.754 Y123.053 E0.07977
G1 X82.957 Y121.255 E0.07970
G1 X81.355 Y119.273 E0.07991
G1 X79.972 Y117.141 E0.07968
G1 X78.818 Y114.882 E0.07954
G1 X77.906 Y112.505 E0.07981
G1 X77.249 Y110.049 E0.07973
G1 X76.852 Y107.539 E0.07966
G1 X76.720 Y104.998 E0.07978
G1 X76.852 Y102.461 E0.07966
G1 X77.249 Y99.949 E0.07973
M73 P0 R131
G1 X77.906 Y97.495 E0.07967
G1 X78.817 Y95.121 E0.07972
G1 X79.973 Y92.853 E0.07981
G1 X81.358 Y90.723 E0.07966
G1 X82.957 Y88.745 E0.07977
G1 X84.754 Y86.947 E0.07970
G1 X86.733 Y85.348 E0.07977
G1 X88.863 Y83.963 E0.07966
G1 X91.131 Y82.807 E0.07981
G1 X93.505 Y81.897 E0.07972
G1 X95.959 Y81.240 E0.07967
G1 X98.473 Y80.842 E0.07980
G1 X101.009 Y80.710 E0.07964
G1 X103.546 Y80.842 E0.07964
G1 X106.059 Y81.240 E0.07976
G1 X108.515 Y81.897 E0.07973
G1 X110.889 Y82.807 E0.07971
G1 X113.152 Y83.963 E0.07970
G1 X115.287 Y85.348 E0.07977
G1 X117.265 Y86.947 E0.07976
G1 X119.063 Y88.745 E0.07970
G1 X120.662 Y90.723 E0.07977
G1 X122.046 Y92.853 E0.07965
G1 X123.199 Y95.121 E0.07976
G1 X124.111 Y97.495 E0.07975
G1 X124.768 Y99.949 E0.07967
G1 X125.167 Y102.461 E0.07974
G1 X125.299 Y104.998 E0.07966
G1 X125.167 Y107.539 E0.07978
G1 X124.768 Y110.049 E0.07967
G1 X124.111 Y112.505 E0.07973
G1 X123.198 Y114.881 E0.07982
G1 X122.045 Y117.145 E0.07963
G1 X120.663 Y119.275 E0.07962
G1 X119.063 Y121.255 E0.07984
G1 X117.265 Y123.053 E0.07970
G1 X115.287 Y124.652 E0.07976
G1 X113.153 Y126.036 E0.07976
G1 X110.889 Y127.189 E0.07965
G1 X108.515 Y128.102 E0.07974
G1 X106.058 Y128.758 E0.07973
G1 X103.549 Y129.158 E0.07967
