; generated by PrusaSlicer 2.3.0+win64 on 2021-05-24 at 05:35:40 UTC

; 

; external perimeters extrusion width = 0.60mm
; perimeters extrusion width = 0.50mm
; infill extrusion width = 0.50mm
; solid infill extrusion width = 0.50mm
; top infill extrusion width = 0.45mm
; support material extrusion width = 0.38mm
; first layer extrusion width = 0.42mm

M73 P0 R45
M73 Q0 S45
M201 X1000 Y1000 Z200 E5000 ; sets maximum accelerations, mm/sec^2
M203 X200 Y200 Z12 E120 ; sets maximum feedrates, mm/sec
M204 P1250 R1250 T1250 ; sets acceleration (P, T) and retract acceleration (R), mm/sec^2
M205 X8.00 Y8.00 Z0.40 E4.50 ; sets the jerk limits, mm/sec
M205 S0 T0 ; sets the minimum extruding and travel feed rate, mm/sec
M107
;TYPE:Custom
M862.3 P "MK3S" ; printer model check
M862.1 P0.4 ; nozzle diameter check
M115 U3.9.1 ; tell printer latest fw version
G90 ; use absolute coordinates
M83 ; extruder relative mode
M104 S240 ; set extruder temp
M140 S85 ; set bed temp
M190 S85 ; wait for bed temp
M109 S240 ; wait for extruder temp
G28 W ; home all without mesh bed level
G80 ; mesh bed leveling
G1 Y-3.0 F1000.0 ; go outside print area
G92 E0.0
G1 X60.0 E9.0 F1000.0 ; intro line
G1 X100.0 E12.5 F1000.0 ; intro line
G92 E0.0
M221 S95

; Don't change E values below. Excessive value can damage the printer.

M907 E538 ; set extruder motor current
G21 ; set units to millimeters
G90 ; use absolute coordinates
M83 ; use relative distances for extrusion
M900 K0.08 ; Filament gcode LA 1.5
M900 K45 ; Filament gcode LA 1.0
;LAYER_CHANGE
;Z:0.2
;HEIGHT:0.2
;BEFORE_LAYER_CHANGE
G92 E0.0
;0.2


G1 E-1.40000 F2100.000
G1 Z0.200 F10800.000
;AFTER_LAYER_CHANGE
;0.2
G1 Z0.400
G1 X103.669 Y88.321
G1 Z0.200
G1 E1.40000 F2100.000
M204 S1000
;TYPE:Skirt
;WIDTH:0.42
G1 F1200.000
G1 X105.787 Y85.919 E0.10043
G1 X108.141 Y83.812 E0.09905
G1 X109.599 Y82.729 E0.05694
G1 X112.338 Y81.065 E0.10048
G1 X115.212 Y79.755 E0.09903
G1 X116.930 Y79.153 E0.05708
G1 X120.040 Y78.380 E0.10048
G1 X121.831 Y78.111 E0.05679
G1 X124.945 Y77.922 E0.09780
G1 X128.056 Y78.097 E0.09770
G1 X129.883 Y78.366 E0.05791
G1 X132.996 Y79.129 E0.10048
G1 X135.950 Y80.237 E0.09892
G1 X137.590 Y81.027 E0.05707
G1 X140.334 Y82.682 E0.10048
G1 X141.714 Y83.697 E0.05372
G1 X144.112 Y85.818 E0.10037
G1 X146.244 Y88.211 E0.10048
G1 X147.298 Y89.638 E0.05563
G1 X148.957 Y92.380 E0.10048
G1 X150.261 Y95.253 E0.09893
G1 X150.861 Y96.975 E0.05718
G1 X151.628 Y100.083 E0.10036
G1 X151.885 Y101.778 E0.05376
G1 X152.078 Y104.976 E0.10045
G1 X151.891 Y108.171 E0.10036
G1 X151.626 Y109.926 E0.05564
G1 X150.857 Y113.041 E0.10060
G1 X149.723 Y116.044 E0.10064
G1 X146.997 Y120.791 E0.17167
G1 X146.013 Y122.077 E0.05076
G1 X144.128 Y124.167 E0.08825
G1 X142.933 Y125.282 E0.05123
G1 X138.772 Y128.309 E0.16132
G1 X137.251 Y129.149 E0.05449
G1 X135.739 Y129.858 E0.05236
G1 X132.800 Y130.931 E0.09811
G1 X129.760 Y131.656 E0.09799
G1 X127.989 Y131.911 E0.05610
G1 X124.926 Y132.078 E0.09616
G1 X121.799 Y131.888 E0.09823
G1 X120.101 Y131.631 E0.05384
G1 X117.052 Y130.886 E0.09843
G1 X114.172 Y129.817 E0.09632
G1 X112.560 Y129.051 E0.05593
G1 X109.874 Y127.460 E0.09791
G1 X107.423 Y125.596 E0.09652
G1 X106.124 Y124.415 E0.05506
G1 X104.071 Y122.179 E0.09518
G1 X103.012 Y120.805 E0.05439
G1 X100.285 Y116.064 E0.17148
G1 X99.249 Y113.376 E0.09031
G1 X98.501 Y110.573 E0.09098
G1 X97.922 Y105.094 E0.17274
G1 X98.095 Y101.960 E0.09842
G1 X98.358 Y100.163 E0.05693
G1 X99.115 Y97.049 E0.10048
G1 X100.219 Y94.090 E0.09902
G1 X101.007 Y92.449 E0.05709
G1 X102.655 Y89.705 E0.10037
G1 X103.634 Y88.370 E0.05190
;WIPE_START
G1 F8640.000
G1 X105.787 Y85.919 E-0.75338
G1 X107.648 Y84.254 E-0.57662
;WIPE_END
G1 E-0.07000 F2100.000
G1 Z0.400 F10800.000
G1 X117.996 Y99.796
G1 Z0.200
G1 E1.40000 F2100.000
;TYPE:Perimeter
G1 F1200.000
G1 X118.589 Y99.081 E0.02912
G1 X119.254 Y98.433 E0.02912
G1 X119.985 Y97.860 E0.02912
G1 X120.772 Y97.367 E0.02912
G1 X121.607 Y96.961 E0.02912
G1 X122.481 Y96.646 E0.02912
G1 X123.383 Y96.425 E0.02912
G1 X124.304 Y96.302 E0.02912
G1 X125.232 Y96.277 E0.02912
G1 X126.158 Y96.352 E0.02912
G1 X127.071 Y96.524 E0.02912
G1 X127.960 Y96.792 E0.02912
G1 X128.816 Y97.153 E0.02912
G1 X129.628 Y97.603 E0.02912
G1 X130.388 Y98.137 E0.02912
G1 X131.087 Y98.748 E0.02912
G1 X131.717 Y99.431 E0.02912
G1 X132.271 Y100.176 E0.02912
G1 X132.743 Y100.977 E0.02912
G1 X133.127 Y101.822 E0.02912
G1 X133.418 Y102.704 E0.02912
G1 X133.615 Y103.612 E0.02912
G1 X133.713 Y104.536 E0.02912
G1 X133.713 Y105.464 E0.02912
G1 X133.615 Y106.388 E0.02912
G1 X133.418 Y107.296 E0.02912
G1 X133.127 Y108.178 E0.02912
G1 X132.743 Y109.023 E0.02912
G1 X132.271 Y109.824 E0.02912
G1 X131.717 Y110.569 E0.02912
G1 X131.087 Y111.252 E0.02912
G1 X130.388 Y111.863 E0.02912
G1 X129.628 Y112.397 E0.02912
G1 X128.816 Y112.847 E0.02912
G1 X127.960 Y113.208 E0.02912
G1 X127.071 Y113.476 E0.02912
G1 X126.158 Y113.648 E0.02912
G1 X125.232 Y113.723 E0.02912
G1 X124.304 Y113.698 E0.02912
G1 X123.383 Y113.575 E0.02912
G1 X122.481 Y113.354 E0.02912
G1 X121.607 Y113.039 E0.02912
G1 X120.772 Y112.633 E0.02912
G1 X119.985 Y112.140 E0.02912
G1 X119.254 Y111.567 E0.02912
G1 X118.589 Y110.919 E0.02912
G1 X117.996 Y110.204 E0.02912
G1 X117.482 Y109.430 E0.02912
G1 X117.054 Y108.606 E0.02912
G1 X116.716 Y107.741 E0.02912
G1 X116.471 Y106.844 E0.02912
G1 X116.324 Y105.927 E0.02912
G1 X116.274 Y105.000 E0.02912
G1 X116.324 Y104.073 E0.02912
G1 X116.472 Y103.155 E0.02915
G1 X116.725 Y102.235 E0.02992
G1 X117.054 Y101.394 E0.02829
G1 X117.482 Y100.570 E0.02912
G1 X117.963 Y99.846 E0.02724
G1 X118.277 Y100.055 F10800.000
;TYPE:External perimeter
G1 F1200.000
G1 X118.866 Y99.337 E0.02911
G1 X119.503 Y98.717 E0.02786
G1 X120.202 Y98.169 E0.02786
G1 X120.955 Y97.697 E0.02786
G1 X121.754 Y97.309 E0.02786
G1 X122.590 Y97.007 E0.02786
G1 X123.453 Y96.796 E0.02786
G1 X124.334 Y96.679 E0.02786
G1 X125.222 Y96.655 E0.02786
G1 X126.108 Y96.726 E0.02786
G1 X126.981 Y96.890 E0.02786
G1 X127.832 Y97.147 E0.02786
G1 X128.651 Y97.492 E0.02786
G1 X129.428 Y97.923 E0.02786
G1 X130.155 Y98.434 E0.02786
G1 X130.824 Y99.019 E0.02786
G1 X131.427 Y99.672 E0.02786
G1 X131.957 Y100.385 E0.02786
G1 X132.408 Y101.151 E0.02786
G1 X132.775 Y101.960 E0.02786
G1 X133.054 Y102.804 E0.02786
G1 X133.242 Y103.672 E0.02786
G1 X133.336 Y104.556 E0.02786
G1 X133.336 Y105.444 E0.02786
G1 X133.242 Y106.328 E0.02786
G1 X133.054 Y107.196 E0.02786
G1 X132.775 Y108.040 E0.02786
G1 X132.408 Y108.849 E0.02786
G1 X131.957 Y109.615 E0.02786
G1 X131.427 Y110.328 E0.02786
G1 X130.824 Y110.981 E0.02786
G1 X130.155 Y111.566 E0.02786
G1 X129.428 Y112.077 E0.02786
G1 X128.651 Y112.508 E0.02786
G1 X127.832 Y112.853 E0.02786
G1 X126.981 Y113.110 E0.02786
G1 X126.108 Y113.274 E0.02786
G1 X125.222 Y113.345 E0.02786
G1 X124.334 Y113.321 E0.02786
G1 X123.453 Y113.204 E0.02786
G1 X122.590 Y112.993 E0.02786
G1 X121.754 Y112.691 E0.02786
G1 X120.955 Y112.303 E0.02786
G1 X120.202 Y111.831 E0.02786
G1 X119.503 Y111.283 E0.02786
G1 X118.866 Y110.663 E0.02786
G1 X118.299 Y109.979 E0.02786
G1 X117.808 Y109.238 E0.02786
G1 X117.398 Y108.450 E0.02786
G1 X117.074 Y107.622 E0.02786
G1 X116.841 Y106.765 E0.02786
G1 X116.699 Y105.887 E0.02786
G1 X116.652 Y105.000 E0.02786
G1 X116.699 Y104.113 E0.02786
G1 X116.841 Y103.235 E0.02787
G1 X117.084 Y102.354 E0.02866
G1 X117.398 Y101.550 E0.02705
G1 X117.808 Y100.762 E0.02786
G1 X118.244 Y100.105 E0.02473
G1 X118.117 Y99.688 F10800.000
;WIPE_START
G1 F8640.000
G1 X118.866 Y99.337 E-0.22813
G1 X119.503 Y98.717 E-0.20518
G1 X120.202 Y98.169 E-0.20518
G1 X120.955 Y97.697 E-0.20518
G1 X121.754 Y97.309 E-0.20518
G1 X122.590 Y97.007 E-0.20518
G1 X122.910 Y96.929 E-0.07596
;WIPE_END
G1 E-0.07000 F2100.000
G1 Z0.400 F10800.000
G1 X119.000 Y93.221
G1 Z0.200
G1 E1.40000 F2100.000
;TYPE:Perimeter
G1 F1200.000
G1 X118.555 Y93.162 E0.01409
G1 X118.140 Y92.990 E0.01409
G1 X117.783 Y92.717 E0.01409
G1 X117.510 Y92.360 E0.01409
G1 X117.338 Y91.945 E0.01409
G1 X117.279 Y91.500 E0.01409
G1 X117.338 Y91.055 E0.01409
G1 X117.510 Y90.640 E0.01409
G1 X117.783 Y90.283 E0.01409
G1 X118.140 Y90.010 E0.01409
G1 X118.555 Y89.838 E0.01409
G1 X119.000 Y89.779 E0.01409
G1 X119.445 Y89.838 E0.01409
G1 X119.860 Y90.010 E0.01409
G1 X120.217 Y90.283 E0.01409
G1 X120.490 Y90.640 E0.01409
G1 X120.662 Y91.055 E0.01409
G1 X120.721 Y91.500 E0.01409
G1 X120.662 Y91.945 E0.01409
G1 X120.490 Y92.360 E0.01409
G1 X120.217 Y92.717 E0.01409
G1 X119.860 Y92.990 E0.01409
G1 X119.445 Y93.162 E0.01409
G1 X119.059 Y93.213 E0.01220
G1 X119.010 Y92.839 F10800.000
;TYPE:External perimeter
G1 F1200.000
G1 X118.653 Y92.795 E0.01129
G1 X118.330 Y92.661 E0.01097
G1 X118.052 Y92.448 E0.01097
G1 X117.839 Y92.170 E0.01097
G1 X117.705 Y91.847 E0.01097
G1 X117.659 Y91.500 E0.01097
G1 X117.705 Y91.153 E0.01097
G1 X117.839 Y90.830 E0.01097
G1 X118.052 Y90.552 E0.01097
G1 X118.330 Y90.339 E0.01097
G1 X118.653 Y90.205 E0.01097
G1 X119.000 Y90.159 E0.01097
G1 X119.347 Y90.205 E0.01097
G1 X119.670 Y90.339 E0.01097
G1 X119.948 Y90.552 E0.01097
G1 X120.161 Y90.830 E0.01097
G1 X120.295 Y91.153 E0.01097
G1 X120.341 Y91.500 E0.01097
G1 X120.295 Y91.847 E0.01097
G1 X120.161 Y92.170 E0.01097
G1 X119.948 Y92.448 E0.01097
G1 X119.670 Y92.661 E0.01097
G1 X119.347 Y92.795 E0.01097
G1 X119.070 Y92.831 E0.00877
G1 X118.832 Y93.152 F10800.000
;WIPE_START
G1 F8640.000
G1 X118.653 Y92.795 E-0.09659
G1 X118.330 Y92.661 E-0.08081
G1 X118.052 Y92.448 E-0.08081
G1 X117.839 Y92.170 E-0.08081
G1 X117.705 Y91.847 E-0.08081
G1 X117.659 Y91.500 E-0.08081
G1 X117.705 Y91.153 E-0.08081
G1 X117.839 Y90.830 E-0.08081
G1 X118.052 Y90.552 E-0.08081
G1 X118.330 Y90.339 E-0.08081
G1 X118.653 Y90.205 E-0.08081
G1 X119.000 Y90.159 E-0.08081
G1 X119.347 Y90.205 E-0.08081
G1 X119.670 Y90.339 E-0.08081
G1 X119.948 Y90.552 E-0.08081
G1 X120.161 Y90.830 E-0.08081
G1 X120.196 Y90.915 E-0.02125
;WIPE_END
G1 E-0.07000 F2100.000
G1 Z0.400 F10800.000
G1 X119.000 Y116.779
G1 Z0.200
G1 E1.40000 F2100.000
;TYPE:Perimeter
G1 F1200.000
G1 X119.445 Y116.838 E0.01409
G1 X119.860 Y117.010 E0.01409
G1 X120.217 Y117.283 E0.01409
G1 X120.490 Y117.640 E0.01409
G1 X120.662 Y118.055 E0.01409
G1 X120.721 Y118.500 E0.01409
G1 X120.662 Y118.945 E0.01409
G1 X120.490 Y119.360 E0.01409
G1 X120.217 Y119.717 E0.01409
G1 X119.860 Y119.990 E0.01409
G1 X119.445 Y120.162 E0.01409
G1 X119.000 Y120.221 E0.01409
G1 X118.555 Y120.162 E0.01409
G1 X118.140 Y119.990 E0.01409
G1 X117.783 Y119.717 E0.01409
G1 X117.510 Y119.360 E0.01409
G1 X117.338 Y118.945 E0.01409
G1 X117.279 Y118.500 E0.01409
G1 X117.338 Y118.055 E0.01409
G1 X117.510 Y117.640 E0.01409
G1 X117.783 Y117.283 E0.01409
G1 X118.140 Y117.010 E0.01409
G1 X118.555 Y116.838 E0.01409
G1 X118.941 Y116.787 E0.01221
G1 X118.990 Y117.161 F10800.000
;TYPE:External perimeter
G1 F1200.000
G1 X119.347 Y117.205 E0.01129
G1 X119.670 Y117.339 E0.01097
G1 X119.948 Y117.552 E0.01097
G1 X120.161 Y117.830 E0.01097
G1 X120.295 Y118.153 E0.01097
G1 X120.341 Y118.500 E0.01097
G1 X120.295 Y118.847 E0.01097
G1 X120.161 Y119.170 E0.01097
G1 X119.948 Y119.448 E0.01097
G1 X119.670 Y119.661 E0.01097
G1 X119.347 Y119.795 E0.01097
G1 X119.000 Y119.841 E0.01097
G1 X118.653 Y119.795 E0.01097
G1 X118.330 Y119.661 E0.01097
G1 X118.052 Y119.448 E0.01097
G1 X117.839 Y119.170 E0.01097
G1 X117.705 Y118.847 E0.01097
G1 X117.659 Y118.500 E0.01097
G1 X117.705 Y118.153 E0.01097
G1 X117.839 Y117.830 E0.01097
G1 X118.052 Y117.552 E0.01097
G1 X118.330 Y117.339 E0.01097
G1 X118.653 Y117.205 E0.01097
G1 X118.930 Y117.169 E0.00877
G1 X119.168 Y116.848 F10800.000
;WIPE_START
G1 F8640.000
G1 X119.347 Y117.205 E-0.09659
G1 X119.670 Y117.339 E-0.08081
G1 X119.948 Y117.552 E-0.08081
G1 X120.161 Y117.830 E-0.08081
G1 X120.295 Y118.153 E-0.08081
G1 X120.341 Y118.500 E-0.08081
G1 X120.295 Y118.847 E-0.08081
G1 X120.161 Y119.170 E-0.08081
G1 X119.948 Y119.448 E-0.08081
G1 X119.670 Y119.661 E-0.08081
G1 X119.347 Y119.795 E-0.08081
G1 X119.000 Y119.841 E-0.08081
G1 X118.653 Y119.795 E-0.08081
G1 X118.330 Y119.661 E-0.08081
G1 X118.052 Y119.448 E-0.08081
G1 X117.839 Y119.170 E-0.08081
G1 X117.804 Y119.085 E-0.02125
;WIPE_END
G1 E-0.07000 F2100.000
G1 Z0.400 F10800.000
G1 X138.786 Y118.361
G1 Z0.200
G1 E1.40000 F2100.000
;TYPE:Perimeter
G1 F1200.000
G1 X133.470 Y122.229 E0.20613
G1 X136.272 Y126.080 E0.14933
G1 X135.802 Y126.336 E0.01677
G1 X134.526 Y126.935 E0.04420
G1 X133.218 Y127.458 E0.04417
G1 X131.879 Y127.903 E0.04424
G1 X130.518 Y128.269 E0.04418
G1 X129.138 Y128.553 E0.04421
G1 X127.742 Y128.756 E0.04421
G1 X126.338 Y128.877 E0.04421
G1 X124.928 Y128.914 E0.04421
G1 X123.516 Y128.868 E0.04430
G1 X122.115 Y128.739 E0.04412
M73 Q1 S45
G1 X120.721 Y128.528 E0.04421
G1 X119.342 Y128.235 E0.04421
G1 X117.982 Y127.861 E0.04421
G1 X116.647 Y127.408 E0.04421
G1 X115.344 Y126.878 E0.04410
G1 X114.069 Y126.270 E0.04432
M73 P1 R45
G1 X112.834 Y125.588 E0.04421
G1 X111.642 Y124.836 E0.04421
G1 X110.497 Y124.015 E0.04417
G1 X109.404 Y123.129 E0.04411
G1 X108.361 Y122.177 E0.04429
G1 X107.378 Y121.166 E0.04420
G1 X106.456 Y120.100 E0.04420
G1 X105.616 Y119.004 E0.04329
G1 X103.180 Y114.784 E0.15278
G1 X102.693 Y113.619 E0.03960
G1 X102.260 Y112.402 E0.04051
G1 X101.894 Y111.164 E0.04046
G1 X101.798 Y110.759 E0.01304
G1 X106.549 Y110.257 E0.14980
G1 X105.857 Y103.719 E0.20613
G1 X101.109 Y104.221 E0.14970
G1 X101.124 Y103.649 E0.01794
G1 X101.249 Y102.209 E0.04533
G1 X101.462 Y100.778 E0.04535
G1 X101.760 Y99.363 E0.04534
G1 X102.143 Y97.969 E0.04534
G1 X102.610 Y96.600 E0.04534
G1 X103.158 Y95.262 E0.04533
G1 X103.787 Y93.960 E0.04535
G1 X104.493 Y92.698 E0.04534
G1 X105.274 Y91.481 E0.04534
G1 X106.127 Y90.313 E0.04534
G1 X107.048 Y89.202 E0.04525
G1 X108.037 Y88.143 E0.04544
G1 X109.087 Y87.149 E0.04534
G1 X110.193 Y86.221 E0.04525
G1 X111.358 Y85.359 E0.04543
G1 X112.570 Y84.570 E0.04534
G1 X113.827 Y83.856 E0.04534
G1 X115.126 Y83.220 E0.04534
G1 X116.460 Y82.663 E0.04533
G1 X117.826 Y82.187 E0.04535
G1 X119.218 Y81.796 E0.04534
G1 X120.631 Y81.488 E0.04534
G1 X122.060 Y81.267 E0.04534
G1 X123.501 Y81.133 E0.04536
G1 X124.939 Y81.086 E0.04514
G1 X126.388 Y81.126 E0.04545
G1 X127.831 Y81.254 E0.04540
G1 X129.261 Y81.469 E0.04536
G1 X130.676 Y81.769 E0.04534
G1 X132.069 Y82.155 E0.04534
G1 X133.437 Y82.624 E0.04534
G1 X134.774 Y83.175 E0.04534
G1 X136.076 Y83.805 E0.04535
G1 X137.337 Y84.514 E0.04534
G1 X138.552 Y85.297 E0.04534
G1 X139.718 Y86.152 E0.04534
G1 X140.829 Y87.074 E0.04525
G1 X141.885 Y88.066 E0.04543
G1 X142.878 Y89.117 E0.04534
G1 X143.803 Y90.225 E0.04525
G1 X144.664 Y91.390 E0.04543
G1 X145.450 Y92.604 E0.04534
G1 X146.162 Y93.863 E0.04534
G1 X146.797 Y95.162 E0.04534
G1 X147.350 Y96.495 E0.04525
G1 X147.825 Y97.864 E0.04543
G1 X148.214 Y99.257 E0.04534
G1 X148.519 Y100.670 E0.04534
G1 X148.738 Y102.100 E0.04534
G1 X148.869 Y103.537 E0.04526
G1 X148.914 Y104.985 E0.04543
G1 X148.871 Y106.431 E0.04534
G1 X148.741 Y107.871 E0.04534
G1 X148.524 Y109.301 E0.04534
G1 X148.221 Y110.715 E0.04534
G1 X147.833 Y112.108 E0.04534
G1 X147.362 Y113.475 E0.04534
G1 X146.820 Y114.785 E0.04447
G1 X144.383 Y119.005 E0.15277
G1 X143.619 Y120.008 E0.03954
G1 X142.782 Y120.990 E0.04048
G1 X141.892 Y121.927 E0.04051
G1 X141.589 Y122.214 E0.01308
G1 X138.821 Y118.409 E0.14752
G1 X138.703 Y118.888 F10800.000
;TYPE:External perimeter
G1 F1200.000
G1 X133.996 Y122.312 E0.18248
G1 X136.829 Y126.206 E0.15099
G1 X135.972 Y126.672 E0.03060
G1 X134.676 Y127.281 E0.04490
G1 X133.347 Y127.812 E0.04487
G1 X131.988 Y128.265 E0.04493
G1 X130.605 Y128.636 E0.04487
G1 X129.203 Y128.925 E0.04490
G1 X127.786 Y129.131 E0.04490
G1 X126.359 Y129.253 E0.04490
G1 X124.927 Y129.291 E0.04490
G1 X123.493 Y129.244 E0.04500
G1 X122.069 Y129.114 E0.04481
G1 X120.653 Y128.899 E0.04490
G1 X119.253 Y128.602 E0.04490
G1 X117.872 Y128.222 E0.04490
G1 X116.516 Y127.761 E0.04490
G1 X115.192 Y127.223 E0.04480
G1 X113.896 Y126.605 E0.04501
G1 X112.643 Y125.913 E0.04490
G1 X111.432 Y125.149 E0.04490
G1 X110.269 Y124.315 E0.04487
G1 X109.158 Y123.415 E0.04481
G1 X108.099 Y122.447 E0.04499
G1 X107.100 Y121.421 E0.04490
G1 X106.163 Y120.338 E0.04490
