; generated by PrusaSlicer 2.3.0+win64 on 2021-05-14 at 01:41:23 UTC

; 

; external perimeters extrusion width = 0.60mm
; perimeters extrusion width = 0.50mm
; infill extrusion width = 0.50mm
; solid infill extrusion width = 0.50mm
; top infill extrusion width = 0.45mm
; support material extrusion width = 0.38mm
; first layer extrusion width = 0.42mm

M73 P0 R122
M73 Q0 S123
M201 X1000 Y1000 Z200 E5000 ; sets maximum accelerations, mm/sec^2
M203 X200 Y200 Z12 E120 ; sets maximum feedrates, mm/sec
M204 P1250 R1250 T1250 ; sets acceleration (P, T) and retract acceleration (R), mm/sec^2
M205 X8.00 Y8.00 Z0.40 E4.50 ; sets the jerk limits, mm/sec
M205 S0 T0 ; sets the minimum extruding and travel feed rate, mm/sec
M107
;TYPE:Custom
M862.3 P "MK3S" ; printer model check
M862.1 P0.4 ; nozzle diameter check
M115 U3.9.1 ; tell printer latest fw version
G90 ; use absolute coordinates
M83 ; extruder relative mode
M104 S240 ; set extruder temp
M140 S85 ; set bed temp
M190 S85 ; wait for bed temp
M109 S240 ; wait for extruder temp
G28 W ; home all without mesh bed level
G80 ; mesh bed leveling
G1 Y-3.0 F1000.0 ; go outside print area
G92 E0.0
G1 X60.0 E9.0 F1000.0 ; intro line
G1 X100.0 E12.5 F1000.0 ; intro line
G92 E0.0
M221 S95

; Don't change E values below. Excessive value can damage the printer.

M907 E538 ; set extruder motor current
G21 ; set units to millimeters
G90 ; use absolute coordinates
M83 ; use relative distances for extrusion
M900 K0.08 ; Filament gcode LA 1.5
M900 K45 ; Filament gcode LA 1.0
;LAYER_CHANGE
;Z:0.2
;HEIGHT:0.2
;BEFORE_LAYER_CHANGE
G92 E0.0
;0.2


G1 E-1.40000 F2100.000
G1 Z0.200 F10800.000
;AFTER_LAYER_CHANGE
;0.2
G1 Z0.400
G1 X87.305 Y71.254
G1 Z0.200
G1 E1.40000 F2100.000
M204 S1000
;TYPE:Skirt
;WIDTH:0.42
G1 F1200.000
G1 X87.607 Y70.658 E0.02095
G1 X90.395 Y67.316 E0.13646
G1 X90.762 Y66.974 E0.01574
G1 X91.190 Y66.718 E0.01562
G1 X91.665 Y66.556 E0.01574
G1 X92.159 Y66.498 E0.01562
G1 X157.429 Y66.498 E2.04648
G1 X158.359 Y66.687 E0.02977
G1 X159.144 Y67.229 E0.02989
G1 X162.345 Y70.761 E0.14945
G1 X162.690 Y71.406 E0.02296
G1 X162.822 Y72.123 E0.02284
G1 X162.820 Y138.086 E2.06823
G1 X162.695 Y138.746 E0.02107
G1 X162.393 Y139.342 E0.02095
G1 X159.605 Y142.684 E0.13646
G1 X159.234 Y143.028 E0.01585
G1 X158.800 Y143.286 E0.01585
G1 X158.320 Y143.447 E0.01585
G1 X157.818 Y143.502 E0.01585
G1 X92.552 Y143.502 E2.04635
G1 X91.729 Y143.348 E0.02626
G1 X91.013 Y142.921 E0.02614
G1 X87.655 Y139.239 E0.15623
G1 X87.303 Y138.572 E0.02367
G1 X87.178 Y137.828 E0.02367
G1 X87.180 Y71.914 E2.06668
G1 X87.293 Y71.313 E0.01919
;WIPE_START
G1 F8640.000
G1 X87.607 Y70.658 E-0.16763
G1 X90.395 Y67.316 E-1.00494
G1 X90.762 Y66.974 E-0.11588
G1 X90.917 Y66.882 E-0.04155
;WIPE_END
G1 E-0.07000 F2100.000
G1 Z0.400 F10800.000
G1 X89.555 Y72.021
G1 Z0.200
G1 E1.40000 F2100.000
;TYPE:Support material
G1 F1200.000
G1 X89.555 Y88.075 E0.50339
G1 X90.309 Y88.075 E0.02365
G1 X90.309 Y72.190 E0.49807
G1 X91.063 Y72.190 E0.02365
G1 X91.063 Y88.075 E0.49807
G1 X91.817 Y88.075 E0.02365
G1 X91.817 Y72.190 E0.49807
G1 X92.190 Y72.190 E0.01170
G1 X92.190 Y68.875 E0.10396
G1 X92.571 Y68.875 E0.01194
G1 X92.571 Y91.391 E0.70599
G1 X93.325 Y91.391 E0.02365
G1 X93.325 Y68.875 E0.70599
G1 X94.079 Y68.875 E0.02365
G1 X94.079 Y91.391 E0.70599
G1 X94.834 Y91.391 E0.02365
G1 X94.834 Y68.875 E0.70599
G1 X95.588 Y68.875 E0.02365
G1 X95.588 Y94.707 E0.80995
G1 X96.342 Y94.707 E0.02365
G1 X96.342 Y68.875 E0.80995
G1 X97.096 Y68.875 E0.02365
G1 X97.096 Y94.707 E0.80995
G1 X97.746 Y94.707 E0.02037
G1 X97.850 Y94.420 E0.00957
G1 X97.850 Y68.875 E0.80095
G1 X98.604 Y68.875 E0.02365
G1 X98.604 Y92.651 E0.74549
G1 X99.359 Y91.158 E0.05244
G1 X99.359 Y68.875 E0.69869
G1 X100.113 Y68.875 E0.02365
G1 X100.113 Y89.850 E0.65766
G1 X100.497 Y89.210 E0.02341
G1 X100.867 Y88.672 E0.02047
G1 X100.867 Y68.875 E0.62073
G1 X101.621 Y68.875 E0.02365
G1 X101.621 Y87.591 E0.58683
G1 X102.375 Y86.632 E0.03825
G1 X102.375 Y68.875 E0.55676
M73 P0 R121
G1 X103.129 Y68.875 E0.02365
G1 X103.129 Y85.741 E0.52883
G1 X103.884 Y84.898 E0.03546
G1 X103.884 Y68.875 E0.50240
G1 X104.638 Y68.875 E0.02365
G1 X104.638 Y84.150 E0.47896
M73 Q0 S122
G1 X105.392 Y83.426 E0.03279
G1 X105.392 Y68.875 E0.45624
G1 X106.146 Y68.875 E0.02365
G1 X106.146 Y82.772 E0.43575
G1 X106.633 Y82.351 E0.02018
G1 X106.900 Y82.146 E0.01057
G1 X106.900 Y68.875 E0.41611
G1 X107.654 Y68.875 E0.02365
G1 X107.654 Y81.572 E0.39812
G1 X108.106 Y81.229 E0.01778
G1 X108.409 Y81.026 E0.01142
G1 X108.409 Y72.190 E0.27704
G1 X109.163 Y72.190 E0.02365
G1 X109.163 Y80.524 E0.26131
G1 X109.917 Y80.045 E0.02801
G1 X109.917 Y72.190 E0.24629
G1 X110.671 Y72.190 E0.02365
G1 X110.671 Y79.806 E0.23878
;WIPE_START
G1 F8640.000
G1 X110.671 Y74.046 E-1.33000
;WIPE_END
G1 E-0.07000 F2100.000
G1 Z0.400 F10800.000
G1 X139.329 Y72.021
G1 Z0.200
G1 E1.40000 F2100.000
G1 F1200.000
G1 X139.329 Y79.548 E0.23603
G1 X139.661 Y79.728 E0.01183
G1 X140.083 Y79.990 E0.01558
G1 X140.083 Y72.190 E0.24454
G1 X140.837 Y72.190 E0.02365
G1 X140.837 Y80.457 E0.25921
G1 X141.234 Y80.705 E0.01465
G1 X141.591 Y80.959 E0.01376
G1 X141.592 Y72.190 E0.27495
G1 X141.925 Y72.190 E0.01044
G1 X141.925 Y68.875 E0.10396
G1 X142.346 Y68.875 E0.01321
G1 X142.346 Y81.496 E0.39575
G1 X142.742 Y81.780 E0.01527
G1 X143.100 Y82.071 E0.01446
G1 X143.100 Y68.875 E0.41375
G1 X143.854 Y68.875 E0.02365
G1 X143.854 Y82.683 E0.43296
G1 X144.178 Y82.948 E0.01313
G1 X144.608 Y83.345 E0.01834
G1 X144.608 Y68.875 E0.45371
G1 X145.362 Y68.875 E0.02365
G1 X145.362 Y84.042 E0.47555
G1 X146.116 Y84.812 E0.03380
G1 X146.116 Y68.875 E0.49970
G1 X146.871 Y68.875 E0.02365
G1 X146.871 Y85.612 E0.52479
G1 X147.625 Y86.511 E0.03679
G1 X147.625 Y68.875 E0.55297
G1 X148.379 Y68.875 E0.02365
G1 X148.379 Y87.473 E0.58315
G1 X149.133 Y88.505 E0.04007
G1 X149.133 Y68.875 E0.61550
G1 X149.887 Y68.875 E0.02365
G1 X149.887 Y89.678 E0.65229
G1 X150.111 Y90.030 E0.01308
G1 X150.641 Y90.983 E0.03419
G1 X150.641 Y68.875 E0.69320
G1 X151.396 Y68.875 E0.02365
G1 X151.396 Y91.391 E0.70599
G1 X152.150 Y91.391 E0.02365
G1 X152.150 Y68.875 E0.70599
G1 X152.904 Y68.875 E0.02365
G1 X152.904 Y91.391 E0.70599
G1 X153.658 Y91.391 E0.02365
G1 X153.658 Y68.875 E0.70599
G1 X154.412 Y68.875 E0.02365
G1 X154.412 Y91.391 E0.70599
G1 X155.166 Y91.391 E0.02365
G1 X155.166 Y68.875 E0.70599
G1 X155.921 Y68.875 E0.02365
G1 X155.921 Y91.391 E0.70599
G1 X156.675 Y91.391 E0.02365
G1 X156.675 Y68.875 E0.70599
G1 X157.429 Y68.875 E0.02365
G1 X157.429 Y91.391 E0.70599
M73 P1 R121
M73 Q1 S122
G1 X157.810 Y91.391 E0.01194
G1 X157.810 Y88.075 E0.10396
G1 X158.183 Y88.075 E0.01170
G1 X158.183 Y72.190 E0.49807
G1 X158.937 Y72.190 E0.02365
G1 X158.937 Y88.075 E0.49807
G1 X159.691 Y88.075 E0.02365
G1 X159.691 Y72.190 E0.49807
G1 X160.445 Y72.190 E0.02365
G1 X160.445 Y88.245 E0.50339
;WIPE_START
G1 F8640.000
G1 X160.445 Y82.485 E-1.33000
;WIPE_END
G1 E-0.07000 F2100.000
G1 Z0.400 F10800.000
G1 X160.445 Y137.979
G1 Z0.200
G1 E1.40000 F2100.000
G1 F1200.000
G1 X160.445 Y121.925 E0.50339
G1 X159.691 Y121.925 E0.02365
G1 X159.691 Y137.810 E0.49807
G1 X158.937 Y137.810 E0.02365
G1 X158.937 Y121.925 E0.49807
G1 X158.183 Y121.925 E0.02365
G1 X158.183 Y137.810 E0.49807
G1 X157.810 Y137.810 E0.01170
G1 X157.810 Y141.125 E0.10396
G1 X157.429 Y141.125 E0.01194
G1 X157.429 Y118.609 E0.70599
G1 X156.675 Y118.609 E0.02365
G1 X156.675 Y141.125 E0.70599
G1 X155.921 Y141.125 E0.02365
G1 X155.921 Y118.609 E0.70599
G1 X155.166 Y118.609 E0.02365
G1 X155.166 Y141.125 E0.70599
G1 X154.412 Y141.125 E0.02365
G1 X154.412 Y118.609 E0.70599
G1 X153.658 Y118.609 E0.02365
G1 X153.658 Y141.125 E0.70599
G1 X152.904 Y141.125 E0.02365
G1 X152.904 Y118.609 E0.70599
G1 X152.150 Y118.609 E0.02365
G1 X152.150 Y141.125 E0.70599
G1 X151.396 Y141.125 E0.02365
G1 X151.396 Y118.609 E0.70599
G1 X150.868 Y118.609 E0.01653
G1 X150.641 Y119.017 E0.01463
G1 X150.641 Y141.125 E0.69320
G1 X149.887 Y141.125 E0.02365
G1 X149.887 Y120.322 E0.65229
G1 X149.133 Y121.495 E0.04374
G1 X149.133 Y141.125 E0.61549
G1 X148.379 Y141.125 E0.02365
G1 X148.379 Y122.527 E0.58314
G1 X148.003 Y123.037 E0.01986
G1 X147.625 Y123.489 E0.01850
G1 X147.625 Y141.125 E0.55297
G1 X146.871 Y141.125 E0.02365
G1 X146.871 Y124.388 E0.52479
G1 X146.116 Y125.188 E0.03448
G1 X146.116 Y141.125 E0.49970
G1 X145.362 Y141.125 E0.02365
G1 X145.362 Y125.958 E0.47555
G1 X144.608 Y126.655 E0.03219
G1 X144.608 Y141.125 E0.45371
G1 X143.854 Y141.125 E0.02365
G1 X143.854 Y127.317 E0.43296
G1 X143.100 Y127.929 E0.03047
G1 X143.100 Y141.125 E0.41375
M73 P1 R120
G1 X142.346 Y141.125 E0.02365
G1 X142.346 Y128.504 E0.39575
G1 X141.591 Y129.041 E0.02903
G1 X141.591 Y137.810 E0.27495
G1 X140.837 Y137.810 E0.02365
G1 X140.837 Y129.543 E0.25921
G1 X140.083 Y130.010 E0.02783
M73 Q1 S121
G1 X140.083 Y137.810 E0.24454
G1 X139.329 Y137.810 E0.02365
G1 X139.329 Y130.452 E0.23071
G1 X138.575 Y130.856 E0.02683
G1 X138.575 Y134.494 E0.11408
G1 X137.821 Y134.494 E0.02365
G1 X137.821 Y131.244 E0.10189
G1 X137.067 Y131.589 E0.02600
G1 X137.067 Y134.494 E0.09109
G1 X136.312 Y134.494 E0.02365
G1 X136.312 Y131.932 E0.08033
G1 X135.558 Y132.220 E0.02531
G1 X135.558 Y134.664 E0.07662
;WIPE_START
G1 F8640.000
G1 X135.558 Y132.220 E-0.56425
G1 X136.312 Y131.932 E-0.18642
G1 X136.312 Y134.441 E-0.57933
;WIPE_END
G1 E-0.07000 F2100.000
G1 Z0.400 F10800.000
G1 X110.671 Y137.979
G1 Z0.200
G1 E1.40000 F2100.000
G1 F1200.000
G1 X110.671 Y130.390 E0.23796
G1 X109.917 Y129.955 E0.02730
G1 X109.917 Y137.810 E0.24629
G1 X109.163 Y137.810 E0.02365
G1 X109.163 Y129.476 E0.26131
G1 X108.409 Y128.974 E0.02840
G1 X108.408 Y137.810 E0.27704
G1 X108.075 Y137.810 E0.01044
G1 X108.075 Y141.125 E0.10396
G1 X107.654 Y141.125 E0.01320
G1 X107.654 Y128.428 E0.39812
G1 X106.900 Y127.854 E0.02972
G1 X106.900 Y141.125 E0.41611
G1 X106.146 Y141.125 E0.02365
G1 X106.146 Y127.228 E0.43575
G1 X105.392 Y126.574 E0.03129
G1 X105.392 Y141.125 E0.45624
G1 X104.638 Y141.125 E0.02365
G1 X104.638 Y125.850 E0.47896
G1 X103.884 Y125.102 E0.03329
G1 X103.884 Y141.125 E0.50240
G1 X103.129 Y141.125 E0.02365
G1 X103.129 Y124.259 E0.52883
G1 X102.697 Y123.775 E0.02036
G1 X102.375 Y123.368 E0.01626
G1 X102.375 Y141.125 E0.55676
G1 X101.621 Y141.125 E0.02365
G1 X101.621 Y122.409 E0.58683
G1 X100.867 Y121.328 E0.04133
G1 X100.867 Y141.125 E0.62073
G1 X100.113 Y141.125 E0.02365
G1 X100.113 Y120.150 E0.65766
G1 X99.552 Y119.214 E0.03421
G1 X99.359 Y118.842 E0.01316
G1 X99.359 Y141.125 E0.69869
G1 X98.604 Y141.125 E0.02365
G1 X98.604 Y118.609 E0.70599
G1 X97.850 Y118.609 E0.02365
G1 X97.850 Y141.125 E0.70599
G1 X97.096 Y141.125 E0.02365
G1 X97.096 Y118.609 E0.70599
G1 X96.342 Y118.609 E0.02365
G1 X96.342 Y141.125 E0.70599
G1 X95.588 Y141.125 E0.02365
G1 X95.588 Y118.609 E0.70599
G1 X94.834 Y118.609 E0.02365
G1 X94.834 Y141.125 E0.70599
G1 X94.079 Y141.125 E0.02365
G1 X94.079 Y118.609 E0.70599
G1 X93.325 Y118.609 E0.02365
G1 X93.325 Y141.125 E0.70599
G1 X92.571 Y141.125 E0.02365
G1 X92.571 Y118.609 E0.70599
G1 X92.190 Y118.609 E0.01194
G1 X92.190 Y121.925 E0.10396
G1 X91.817 Y121.925 E0.01170
G1 X91.817 Y137.810 E0.49807
G1 X91.063 Y137.810 E0.02365
G1 X91.063 Y121.925 E0.49807
G1 X90.309 Y121.925 E0.02365
G1 X90.309 Y137.810 E0.49807
G1 X89.555 Y137.810 E0.02365
G1 X89.555 Y121.755 E0.50339
;WIPE_START
G1 F8640.000
G1 X89.555 Y127.515 E-1.33000
;WIPE_END
G1 E-0.07000 F2100.000
G1 Z0.400 F10800.000
G1 X117.707 Y108.310
G1 Z0.200
G1 E1.40000 F2100.000
;TYPE:Perimeter
G1 F1200.000
G1 X117.371 Y107.443 E0.02917
G1 X117.129 Y106.481 E0.03111
G1 X117.006 Y105.495 E0.03116
G1 X117.012 Y104.462 E0.03237
G1 X117.129 Y103.519 E0.02979
G1 X117.371 Y102.557 E0.03111
G1 X117.729 Y101.632 E0.03111
G1 X118.198 Y100.758 E0.03111
G1 X118.772 Y99.947 E0.03116
G1 X119.472 Y99.187 E0.03237
G1 X120.194 Y98.569 E0.02979
G1 X121.021 Y98.021 E0.03111
G1 X121.909 Y97.579 E0.03111
G1 X122.845 Y97.249 E0.03111
G1 X123.814 Y97.037 E0.03111
G1 X124.802 Y96.945 E0.03111
G1 X125.793 Y96.976 E0.03111
G1 X126.774 Y97.128 E0.03111
G1 X127.728 Y97.400 E0.03111
G1 X128.642 Y97.786 E0.03111
G1 X129.501 Y98.282 E0.03111
G1 X130.294 Y98.881 E0.03116
G1 X131.032 Y99.604 E0.03237
G1 X131.528 Y100.220 E0.02482
G1 X131.583 Y99.750 E0.01484
G1 X131.755 Y99.335 E0.01409
G1 X132.029 Y98.979 E0.01409
G1 X132.385 Y98.705 E0.01409
G1 X132.800 Y98.534 E0.01409
G1 X133.246 Y98.475 E0.01409
G1 X133.691 Y98.534 E0.01409
G1 X134.106 Y98.705 E0.01409
G1 X134.463 Y98.979 E0.01409
G1 X134.736 Y99.335 E0.01409
G1 X134.908 Y99.750 E0.01409
G1 X134.967 Y100.196 E0.01409
G1 X134.908 Y100.641 E0.01409
G1 X134.736 Y101.056 E0.01409
G1 X134.463 Y101.413 E0.01409
G1 X134.106 Y101.686 E0.01409
G1 X133.691 Y101.858 E0.01409
G1 X133.246 Y101.917 E0.01409
G1 X132.800 Y101.858 E0.01409
G1 X132.376 Y101.679 E0.01445
G1 X132.564 Y102.089 E0.01415
G1 X132.865 Y103.034 E0.03111
G1 X133.047 Y104.010 E0.03111
G1 X133.108 Y105.000 E0.03111
G1 X133.047 Y105.990 E0.03111
G1 X132.865 Y106.966 E0.03111
G1 X132.564 Y107.911 E0.03111
G1 X132.150 Y108.812 E0.03111
G1 X131.627 Y109.656 E0.03111
G1 X131.005 Y110.429 E0.03111
G1 X130.293 Y111.120 E0.03111
G1 X129.501 Y111.718 E0.03111
G1 X128.642 Y112.214 E0.03111
G1 X127.728 Y112.600 E0.03111
G1 X126.774 Y112.872 E0.03111
G1 X125.792 Y113.024 E0.03116
G1 X124.760 Y113.051 E0.03237
G1 X123.814 Y112.963 E0.02979
G1 X122.845 Y112.751 E0.03111
G1 X121.909 Y112.421 E0.03111
G1 X121.021 Y111.979 E0.03111
G1 X120.194 Y111.431 E0.03111
G1 X119.440 Y110.785 E0.03111
G1 X118.772 Y110.052 E0.03111
G1 X118.570 Y109.768 E0.01092
G1 X118.516 Y110.250 E0.01520
G1 X118.345 Y110.665 E0.01409
G1 X118.071 Y111.021 E0.01409
G1 X117.715 Y111.295 E0.01409
G1 X117.300 Y111.466 E0.01409
G1 X116.854 Y111.525 E0.01409
G1 X116.409 Y111.466 E0.01409
G1 X115.994 Y111.295 E0.01409
G1 X115.637 Y111.021 E0.01409
G1 X115.364 Y110.665 E0.01409
G1 X115.192 Y110.250 E0.01409
G1 X115.133 Y109.804 E0.01409
G1 X115.192 Y109.359 E0.01409
G1 X115.364 Y108.944 E0.01409
G1 X115.637 Y108.587 E0.01409
G1 X115.994 Y108.314 E0.01409
G1 X116.409 Y108.142 E0.01409
G1 X116.854 Y108.083 E0.01409
G1 X117.300 Y108.142 E0.01409
G1 X117.651 Y108.287 E0.01193
G1 X118.043 Y108.136 F10800.000
;TYPE:External perimeter
G1 F1200.000
G1 X117.731 Y107.328 E0.02714
G1 X117.500 Y106.411 E0.02965
G1 X117.384 Y105.472 E0.02967
G1 X117.389 Y104.486 E0.03091
G1 X117.500 Y103.589 E0.02836
G1 X117.731 Y102.672 E0.02965
G1 X118.072 Y101.790 E0.02965
G1 X118.520 Y100.957 E0.02965
G1 X119.066 Y100.184 E0.02967
G1 X119.734 Y99.459 E0.03091
G1 X120.421 Y98.871 E0.02836
G1 X121.209 Y98.348 E0.02965
G1 X122.056 Y97.927 E0.02965
G1 X122.948 Y97.612 E0.02965
G1 X123.872 Y97.410 E0.02965
G1 X124.813 Y97.323 E0.02965
G1 X125.759 Y97.352 E0.02965
G1 X126.693 Y97.497 E0.02965
G1 X127.603 Y97.756 E0.02965
G1 X128.473 Y98.124 E0.02965
G1 X129.292 Y98.597 E0.02965
G1 X130.048 Y99.168 E0.02967
G1 X130.752 Y99.857 E0.03091
G1 X131.319 Y100.562 E0.02836
G1 X131.817 Y101.366 E0.02965
G1 X132.212 Y102.225 E0.02965
G1 X132.499 Y103.127 E0.02965
G1 X132.672 Y104.056 E0.02965
G1 X132.731 Y105.000 E0.02965
G1 X132.672 Y105.944 E0.02965
G1 X132.499 Y106.873 E0.02965
G1 X132.212 Y107.775 E0.02965
G1 X131.817 Y108.634 E0.02965
G1 X131.319 Y109.438 E0.02965
G1 X130.726 Y110.175 E0.02965
G1 X130.047 Y110.833 E0.02965
G1 X129.292 Y111.403 E0.02965
G1 X128.473 Y111.876 E0.02965
G1 X127.603 Y112.244 E0.02965
G1 X126.693 Y112.503 E0.02965
G1 X125.758 Y112.648 E0.02967
G1 X124.772 Y112.673 E0.03091
G1 X123.872 Y112.590 E0.02836
G1 X122.948 Y112.388 E0.02965
G1 X122.056 Y112.073 E0.02965
G1 X121.209 Y111.652 E0.02965
G1 X120.421 Y111.129 E0.02965
G1 X119.703 Y110.514 E0.02965
G1 X119.066 Y109.815 E0.02965
G1 X118.520 Y109.043 E0.02965
G1 X118.065 Y108.192 E0.03028
G1 X117.645 Y108.098 F10800.000
;WIPE_START
G1 F8640.000
G1 X117.731 Y107.328 E-0.21372
G1 X117.500 Y106.411 E-0.21836
G1 X117.384 Y105.472 E-0.21848
G1 X117.389 Y104.486 E-0.22765
G1 X117.500 Y103.589 E-0.20887
G1 X117.731 Y102.672 E-0.21836
G1 X117.769 Y102.572 E-0.02456
;WIPE_END
G1 E-0.07000 F2100.000
G1 Z0.400 F10800.000
G1 X132.085 Y100.866
