; generated by PrusaSlicer 2.3.0+win64 on 2021-09-14 at 18:35:50 UTC

; 

; external perimeters extrusion width = 0.45mm
; perimeters extrusion width = 0.45mm
; infill extrusion width = 0.45mm
; solid infill extrusion width = 0.45mm
; top infill extrusion width = 0.40mm
; support material extrusion width = 0.35mm
; first layer extrusion width = 0.42mm

M73 P0 R119
M73 Q0 S120
M201 X1000 Y1000 Z200 E5000 ; sets maximum accelerations, mm/sec^2
M203 X200 Y200 Z12 E120 ; sets maximum feedrates, mm/sec
M204 P1250 R1250 T1250 ; sets acceleration (P, T) and retract acceleration (R), mm/sec^2
M205 X8.00 Y8.00 Z0.40 E4.50 ; sets the jerk limits, mm/sec
M205 S0 T0 ; sets the minimum extruding and travel feed rate, mm/sec
M107
;TYPE:Custom
M862.3 P "MK3S" ; printer model check
M862.1 P0.4 ; nozzle diameter check
M115 U3.9.1 ; tell printer latest fw version
G90 ; use absolute coordinates
M83 ; extruder relative mode
M104 S240 ; set extruder temp
M140 S85 ; set bed temp
M190 S85 ; wait for bed temp
M109 S240 ; wait for extruder temp
G28 W ; home all without mesh bed level
G80 ; mesh bed leveling
G1 Y-3.0 F1000.0 ; go outside print area
G92 E0.0
G1 X60.0 E9.0 F1000.0 ; intro line
G1 X100.0 E12.5 F1000.0 ; intro line
G92 E0.0
M221 S95

; Don't change E values below. Excessive value can damage the printer.
M907 E430 ; set extruder motor current
G21 ; set units to millimeters
G90 ; use absolute coordinates
M83 ; use relative distances for extrusion
M900 K0.08 ; Filament gcode LA 1.5
M900 K45 ; Filament gcode LA 1.0
;LAYER_CHANGE
;Z:0.2
;HEIGHT:0.2
;BEFORE_LAYER_CHANGE
G92 E0.0
;0.2


G1 E-1.40000 F2100.000
G1 Z0.200 F10800.000
;AFTER_LAYER_CHANGE
;0.2
G1 Z0.400
G1 X113.071 Y46.498
G1 Z0.200
G1 E1.40000 F2100.000
M204 S1000
;TYPE:Skirt
;WIDTH:0.42
G1 F1200.000
G1 X113.674 Y46.219 E0.02083
G1 X114.331 Y46.119 E0.02083
G1 X147.105 Y46.119 E1.02763
G1 X181.942 Y46.598 E1.09237
G1 X182.959 Y46.811 E0.03260
G1 X183.842 Y47.228 E0.03063
G1 X184.617 Y47.840 E0.03096
G1 X185.227 Y48.604 E0.03063
G1 X185.685 Y49.595 E0.03425
G1 X185.889 Y50.875 E0.04064
G1 X185.871 Y100.961 E1.57041
G1 X185.735 Y101.977 E0.03215
G1 X185.273 Y103.094 E0.03788
G1 X184.637 Y103.926 E0.03283
G1 X183.873 Y104.545 E0.03083
G1 X182.862 Y105.017 E0.03498
G1 X181.563 Y105.222 E0.04125
G1 X152.536 Y105.213 E0.91010
G1 X113.849 Y104.818 E1.21308
G1 X113.328 Y104.639 E0.01728
G1 X112.863 Y104.344 E0.01728
G1 X91.435 Y86.656 E0.87118
G1 X89.899 Y85.147 E0.06752
G1 X88.816 Y83.695 E0.05678
G1 X87.960 Y82.130 E0.05595
G1 X87.320 Y80.435 E0.05678
G1 X86.928 Y78.696 E0.05589
G1 X86.781 Y76.563 E0.06704
G1 X86.934 Y74.755 E0.05690
G1 X87.329 Y73.023 E0.05571
G1 X87.960 Y71.358 E0.05583
G1 X88.824 Y69.783 E0.05631
G1 X89.846 Y68.404 E0.05380
G1 X90.779 Y67.416 E0.04263
G1 X113.027 Y46.539 E0.95660
;WIPE_START
G1 F8640.000
G1 X113.674 Y46.219 E-0.16661
G1 X114.331 Y46.119 E-0.15341
G1 X118.705 Y46.119 E-1.00998
;WIPE_END
G1 E-0.07000 F2100.000
G1 Z0.400 F10800.000
G1 X178.187 Y98.540
G1 Z0.200
G1 E1.40000 F2100.000
;TYPE:External perimeter
G1 F1200.000
G1 X178.289 Y98.412 E0.00512
G1 X178.470 Y98.237 E0.00788
G1 X178.671 Y98.087 E0.00787
G1 X178.890 Y97.964 E0.00787
G1 X179.123 Y97.869 E0.00789
G1 X179.366 Y97.806 E0.00789
G1 X179.591 Y97.777 E0.00711
G1 X179.865 Y97.774 E0.00860
G1 X180.116 Y97.806 E0.00792
G1 X180.359 Y97.870 E0.00788
G1 X180.592 Y97.965 E0.00789
G1 X180.811 Y98.088 E0.00787
G1 X181.012 Y98.238 E0.00787
G1 X181.192 Y98.413 E0.00788
G1 X181.349 Y98.610 E0.00788
G1 X181.479 Y98.825 E0.00788
G1 X181.581 Y99.054 E0.00787
G1 X181.652 Y99.295 E0.00788
G1 X181.692 Y99.543 E0.00787
G1 X181.700 Y99.794 E0.00789
G1 X181.676 Y100.045 E0.00788
G1 X181.620 Y100.289 E0.00787
G1 X181.533 Y100.525 E0.00788
G1 X181.417 Y100.748 E0.00789
G1 X181.273 Y100.954 E0.00787
G1 X181.104 Y101.139 E0.00787
G1 X180.913 Y101.302 E0.00788
G1 X180.702 Y101.440 E0.00789
G1 X180.476 Y101.548 E0.00786
G1 X180.237 Y101.628 E0.00788
G1 X179.990 Y101.675 E0.00789
G1 X179.740 Y101.691 E0.00787
G1 X179.489 Y101.675 E0.00787
G1 X179.242 Y101.628 E0.00789
G1 X179.004 Y101.548 E0.00789
G1 X178.778 Y101.439 E0.00786
G1 X178.567 Y101.302 E0.00789
G1 X178.376 Y101.139 E0.00788
G1 X178.207 Y100.953 E0.00787
G1 X178.063 Y100.747 E0.00787
G1 X177.947 Y100.524 E0.00789
G1 X177.860 Y100.288 E0.00788
G1 X177.805 Y100.043 E0.00787
G1 X177.781 Y99.793 E0.00788
G1 X177.789 Y99.542 E0.00789
G1 X177.829 Y99.294 E0.00787
G1 X177.900 Y99.053 E0.00787
G1 X178.002 Y98.823 E0.00788
G1 X178.150 Y98.587 E0.00875
G1 X178.120 Y98.391 F10800.000
;WIPE_START
G1 F8640.000
G1 X178.289 Y98.412 E-0.05154
G1 X178.470 Y98.237 E-0.05804
G1 X178.671 Y98.087 E-0.05797
G1 X178.890 Y97.964 E-0.05798
G1 X179.123 Y97.869 E-0.05808
G1 X179.366 Y97.806 E-0.05808
G1 X179.591 Y97.777 E-0.05233
G1 X179.865 Y97.774 E-0.06333
G1 X180.116 Y97.806 E-0.05830
G1 X180.359 Y97.870 E-0.05804
G1 X180.592 Y97.965 E-0.05811
G1 X180.811 Y98.088 E-0.05796
G1 X181.012 Y98.238 E-0.05793
G1 X181.192 Y98.413 E-0.05806
G1 X181.349 Y98.610 E-0.05807
G1 X181.479 Y98.825 E-0.05802
G1 X181.581 Y99.054 E-0.05798
G1 X181.652 Y99.295 E-0.05800
G1 X181.692 Y99.543 E-0.05796
G1 X181.700 Y99.794 E-0.05810
G1 X181.676 Y100.045 E-0.05805
G1 X181.620 Y100.289 E-0.05794
G1 X181.533 Y100.525 E-0.05801
G1 X181.529 Y100.533 E-0.00213
;WIPE_END
G1 E-0.07000 F2100.000
G1 Z0.400 F10800.000
G1 X156.318 Y99.535
G1 Z0.200
G1 E1.40000 F2100.000
G1 F1200.000
G1 X156.326 Y99.787 E0.00792
G1 X156.304 Y100.013 E0.00711
G1 X156.246 Y100.281 E0.00860
G1 X156.159 Y100.518 E0.00792
G1 X156.043 Y100.741 E0.00789
G1 X155.899 Y100.947 E0.00787
G1 X155.730 Y101.132 E0.00787
G1 X155.539 Y101.295 E0.00788
G1 X155.328 Y101.433 E0.00789
G1 X155.102 Y101.541 E0.00787
G1 X154.863 Y101.621 E0.00789
G1 X154.616 Y101.668 E0.00789
G1 X154.366 Y101.684 E0.00786
G1 X154.115 Y101.668 E0.00787
G1 X153.868 Y101.620 E0.00789
G1 X153.630 Y101.541 E0.00789
G1 X153.404 Y101.432 E0.00786
G1 X153.193 Y101.295 E0.00789
G1 X153.002 Y101.132 E0.00788
G1 X152.833 Y100.946 E0.00787
G1 X152.689 Y100.740 E0.00787
G1 X152.573 Y100.517 E0.00789
G1 X152.486 Y100.281 E0.00788
G1 X152.431 Y100.036 E0.00787
G1 X152.406 Y99.786 E0.00788
G1 X152.415 Y99.535 E0.00789
G1 X152.455 Y99.287 E0.00787
G1 X152.526 Y99.046 E0.00787
G1 X152.628 Y98.816 E0.00788
G1 X152.758 Y98.601 E0.00788
G1 X152.915 Y98.405 E0.00788
G1 X153.096 Y98.230 E0.00788
G1 X153.297 Y98.080 E0.00787
G1 X153.516 Y97.957 E0.00787
G1 X153.749 Y97.862 E0.00789
G1 X153.992 Y97.799 E0.00789
G1 X154.217 Y97.770 E0.00710
G1 X154.491 Y97.767 E0.00860
G1 X154.742 Y97.799 E0.00792
G1 X154.985 Y97.863 E0.00788
G1 X155.218 Y97.957 E0.00789
G1 X155.436 Y98.081 E0.00787
G1 X155.638 Y98.231 E0.00787
G1 X155.818 Y98.406 E0.00789
G1 X155.975 Y98.602 E0.00788
G1 X156.105 Y98.817 E0.00788
G1 X156.207 Y99.047 E0.00788
G1 X156.271 Y99.265 E0.00711
G1 X156.308 Y99.475 E0.00671
G1 X156.548 Y99.639 F10800.000
;WIPE_START
G1 F8640.000
G1 X156.326 Y99.787 E-0.07207
G1 X156.304 Y100.013 E-0.05237
G1 X156.246 Y100.281 E-0.06331
G1 X156.159 Y100.518 E-0.05830
G1 X156.043 Y100.741 E-0.05811
G1 X155.899 Y100.947 E-0.05799
G1 X155.730 Y101.132 E-0.05794
G1 X155.539 Y101.295 E-0.05801
G1 X155.328 Y101.433 E-0.05811
G1 X155.102 Y101.541 E-0.05793
G1 X154.863 Y101.621 E-0.05808
G1 X154.616 Y101.668 E-0.05810
G1 X154.366 Y101.684 E-0.05790
G1 X154.115 Y101.668 E-0.05793
G1 X153.868 Y101.620 E-0.05810
G1 X153.630 Y101.541 E-0.05809
G1 X153.404 Y101.432 E-0.05790
G1 X153.193 Y101.295 E-0.05808
G1 X153.002 Y101.132 E-0.05805
G1 X152.833 Y100.946 E-0.05794
G1 X152.689 Y100.740 E-0.05797
G1 X152.573 Y100.517 E-0.05811
G1 X152.514 Y100.356 E-0.03959
;WIPE_END
G1 E-0.07000 F2100.000
G1 Z0.400 F10800.000
G1 X153.390 Y55.719
G1 Z0.200
G1 E1.40000 F2100.000
;TYPE:Perimeter
G1 F1200.000
G1 X180.741 Y55.727 E0.85758
G1 X180.736 Y94.527 E1.21656
G1 X153.374 Y94.519 E0.85793
G1 X153.390 Y55.779 E1.21467
G1 X153.767 Y56.096 F10800.000
;TYPE:External perimeter
G1 F1200.000
G1 X180.364 Y56.104 E0.83394
G1 X180.359 Y94.150 E1.19292
G1 X153.751 Y94.142 E0.83429
G1 X153.767 Y56.156 E1.19103
G1 X153.686 Y55.704 F10800.000
;WIPE_START
G1 F8640.000
G1 X159.527 Y56.145 E-1.33000
;WIPE_END
G1 E-0.07000 F2100.000
G1 Z0.400 F10800.000
G1 X153.105 Y50.106
G1 Z0.200
G1 E1.40000 F2100.000
;TYPE:Perimeter
G1 F1200.000
G1 X152.864 Y50.285 E0.00941
G1 X152.648 Y50.494 E0.00942
G1 X152.462 Y50.729 E0.00939
G1 X152.307 Y50.984 E0.00937
G1 X152.185 Y51.258 E0.00942
G1 X152.099 Y51.549 E0.00951
G1 X152.051 Y51.869 E0.01014
G1 X152.042 Y52.141 E0.00853
G1 X152.071 Y52.439 E0.00940
G1 X152.137 Y52.731 E0.00940
G1 X152.241 Y53.013 E0.00941
G1 X152.379 Y53.279 E0.00939
G1 X152.551 Y53.524 E0.00939
G1 X152.752 Y53.746 E0.00940
G1 X152.980 Y53.941 E0.00940
G1 X153.232 Y54.105 E0.00941
G1 X153.502 Y54.234 E0.00940
G1 X153.786 Y54.329 E0.00938
G1 X154.080 Y54.386 E0.00939
G1 X154.379 Y54.405 E0.00940
G1 X154.678 Y54.386 E0.00940
G1 X154.972 Y54.329 E0.00939
G1 X155.256 Y54.235 E0.00937
G1 X155.526 Y54.105 E0.00940
G1 X155.778 Y53.941 E0.00942
G1 X156.006 Y53.747 E0.00939
G1 X156.208 Y53.525 E0.00939
G1 X156.379 Y53.280 E0.00939
G1 X156.518 Y53.014 E0.00939
G1 X156.623 Y52.729 E0.00953
G1 X156.691 Y52.413 E0.01015
G1 X156.717 Y52.142 E0.00853
G1 X156.707 Y51.839 E0.00949
G1 X156.652 Y51.521 E0.01015
G1 X156.575 Y51.259 E0.00854
G1 X156.453 Y50.985 E0.00941
G1 X156.298 Y50.730 E0.00936
G1 X156.112 Y50.495 E0.00940
G1 X155.896 Y50.286 E0.00943
G1 X155.600 Y50.075 E0.01138
G1 X178.534 Y50.082 E0.71909
G1 X178.238 Y50.292 E0.01139
G1 X178.022 Y50.501 E0.00942
G1 X177.836 Y50.736 E0.00939
G1 X177.681 Y50.991 E0.00937
G1 X177.559 Y51.266 E0.00942
G1 X177.474 Y51.553 E0.00939
G1 X177.426 Y51.849 E0.00940
G1 X177.416 Y52.148 E0.00939
G1 X177.445 Y52.446 E0.00940
G1 X177.511 Y52.739 E0.00940
G1 X177.615 Y53.020 E0.00941
G1 X177.754 Y53.286 E0.00939
G1 X177.925 Y53.532 E0.00940
G1 X178.126 Y53.753 E0.00939
G1 X178.354 Y53.948 E0.00939
G1 X178.606 Y54.112 E0.00942
G1 X178.876 Y54.242 E0.00940
G1 X179.160 Y54.336 E0.00938
G1 X179.454 Y54.393 E0.00939
G1 X179.753 Y54.413 E0.00940
G1 X180.056 Y54.393 E0.00952
G1 X180.373 Y54.327 E0.01014
G1 X180.630 Y54.242 E0.00851
G1 X180.900 Y54.112 E0.00940
G1 X181.152 Y53.948 E0.00942
G1 X181.380 Y53.754 E0.00939
G1 X181.582 Y53.533 E0.00939
G1 X181.753 Y53.287 E0.00939
G1 X181.892 Y53.022 E0.00939
G1 X181.996 Y52.740 E0.00941
G1 X182.062 Y52.448 E0.00940
G1 X182.091 Y52.149 E0.00940
G1 X182.082 Y51.850 E0.00939
G1 X182.034 Y51.554 E0.00940
G1 X181.949 Y51.267 E0.00940
G1 X181.827 Y50.992 E0.00940
G1 X181.672 Y50.737 E0.00936
G1 X181.486 Y50.502 E0.00941
G1 X181.270 Y50.293 E0.00942
G1 X180.974 Y50.083 E0.01138
G1 X181.529 Y50.083 E0.01739
G1 X181.749 Y50.107 E0.00696
G1 X181.921 Y50.168 E0.00571
G1 X182.090 Y50.274 E0.00626
G1 X182.258 Y50.469 E0.00805
G1 X182.337 Y50.634 E0.00574
G1 X182.387 Y50.925 E0.00927
G1 X182.361 Y100.880 E1.56631
M73 P0 R118
G1 X182.312 Y101.168 E0.00916
G1 X182.233 Y101.330 E0.00564
G1 X182.111 Y101.484 E0.00616
G1 X181.901 Y101.627 E0.00796
G1 X181.732 Y101.686 E0.00562
G1 X181.514 Y101.710 E0.00686
G1 X180.978 Y101.710 E0.01682
G1 X181.139 Y101.605 E0.00602
G1 X181.367 Y101.411 E0.00939
G1 X181.568 Y101.190 E0.00938
G1 X181.740 Y100.944 E0.00940
G1 X181.879 Y100.678 E0.00942
G1 X181.982 Y100.397 E0.00939
G1 X182.049 Y100.105 E0.00938
G1 X182.078 Y99.807 E0.00940
G1 X182.068 Y99.507 E0.00941
G1 X182.021 Y99.211 E0.00939
G1 X181.935 Y98.924 E0.00939
G1 X181.814 Y98.650 E0.00939
G1 X181.659 Y98.394 E0.00940
G1 X181.472 Y98.159 E0.00941
G1 X181.257 Y97.950 E0.00941
G1 X181.017 Y97.771 E0.00938
G1 X180.756 Y97.624 E0.00938
G1 X180.478 Y97.511 E0.00942
G1 X180.188 Y97.435 E0.00940
G1 X179.887 Y97.396 E0.00950
G1 X179.565 Y97.400 E0.01012
G1 X179.294 Y97.435 E0.00855
G1 X179.004 Y97.511 E0.00941
G1 X178.726 Y97.624 E0.00941
G1 X178.465 Y97.771 E0.00938
G1 X178.225 Y97.949 E0.00939
G1 X178.010 Y98.158 E0.00940
G1 X177.823 Y98.392 E0.00940
G1 X177.667 Y98.649 E0.00940
G1 X177.546 Y98.923 E0.00940
G1 X177.461 Y99.210 E0.00939
G1 X177.413 Y99.505 E0.00938
G1 X177.403 Y99.805 E0.00941
G1 X177.432 Y100.104 E0.00940
G1 X177.498 Y100.395 E0.00938
G1 X177.601 Y100.677 E0.00939
G1 X177.740 Y100.943 E0.00942
G1 X177.912 Y101.189 E0.00940
G1 X178.113 Y101.410 E0.00938
G1 X178.341 Y101.604 E0.00939
G1 X178.502 Y101.709 E0.00602
G1 X155.604 Y101.703 E0.71794
G1 X155.765 Y101.598 E0.00602
G1 X155.993 Y101.404 E0.00939
G1 X156.194 Y101.183 E0.00938
G1 X156.366 Y100.937 E0.00940
G1 X156.505 Y100.671 E0.00942
G1 X156.609 Y100.386 E0.00950
G1 X156.678 Y100.071 E0.01012
G1 X156.704 Y99.799 E0.00856
G1 X156.694 Y99.496 E0.00951
G1 X156.639 Y99.178 E0.01011
G1 X156.561 Y98.917 E0.00856
G1 X156.440 Y98.643 E0.00939
G1 X156.285 Y98.386 E0.00939
G1 X156.098 Y98.152 E0.00940
G1 X155.882 Y97.943 E0.00941
G1 X155.643 Y97.764 E0.00938
G1 X155.382 Y97.617 E0.00938
G1 X155.104 Y97.504 E0.00942
G1 X154.814 Y97.428 E0.00940
G1 X154.513 Y97.389 E0.00950
G1 X154.190 Y97.393 E0.01012
G1 X153.920 Y97.428 E0.00855
G1 X153.630 Y97.504 E0.00941
G1 X153.352 Y97.617 E0.00941
G1 X153.091 Y97.764 E0.00938
G1 X152.851 Y97.942 E0.00939
G1 X152.635 Y98.151 E0.00940
G1 X152.448 Y98.385 E0.00940
G1 X152.293 Y98.642 E0.00940
G1 X152.172 Y98.916 E0.00940
G1 X152.086 Y99.203 E0.00939
G1 X152.038 Y99.498 E0.00938
G1 X152.029 Y99.798 E0.00941
G1 X152.057 Y100.097 E0.00940
G1 X152.124 Y100.388 E0.00938
G1 X152.227 Y100.670 E0.00939
G1 X152.366 Y100.936 E0.00942
G1 X152.538 Y101.181 E0.00939
G1 X152.739 Y101.403 E0.00938
G1 X152.967 Y101.597 E0.00940
G1 X153.128 Y101.702 E0.00602
G1 X152.591 Y101.702 E0.01682
G1 X152.374 Y101.678 E0.00686
G1 X152.139 Y101.585 E0.00792
G1 X151.985 Y101.462 E0.00618
G1 X151.872 Y101.322 E0.00564
G1 X151.771 Y101.090 E0.00793
G1 X151.745 Y100.856 E0.00739
G1 X151.747 Y50.932 E1.56531
G1 X151.772 Y50.713 E0.00694
G1 X151.832 Y50.540 E0.00572
M73 Q0 S119
G1 X151.929 Y50.385 E0.00574
G1 X152.058 Y50.256 E0.00572
G1 X152.213 Y50.159 E0.00572
G1 X152.385 Y50.099 E0.00572
G1 X152.605 Y50.075 E0.00695
G1 X153.157 Y50.076 E0.01730
G1 X153.342 Y50.405 F10800.000
;TYPE:External perimeter
G1 F1200.000
G1 X153.529 Y50.300 E0.00675
G1 X153.762 Y50.206 E0.00787
G1 X154.005 Y50.142 E0.00789
G1 X154.229 Y50.113 E0.00708
G1 X154.504 Y50.110 E0.00863
G1 X154.755 Y50.142 E0.00792
G1 X154.998 Y50.206 E0.00788
G1 X155.231 Y50.301 E0.00788
G1 X155.449 Y50.423 E0.00786
G1 X155.651 Y50.574 E0.00788
G1 X155.832 Y50.749 E0.00790
G1 X155.988 Y50.946 E0.00788
G1 X156.118 Y51.160 E0.00785
G1 X156.220 Y51.390 E0.00789
G1 X156.284 Y51.607 E0.00709
G1 X156.331 Y51.878 E0.00863
G1 X156.339 Y52.130 E0.00790
G1 X156.318 Y52.355 E0.00709
G1 X156.260 Y52.624 E0.00863
G1 X156.172 Y52.861 E0.00793
G1 X156.056 Y53.084 E0.00787
G1 X155.912 Y53.290 E0.00788
G1 X155.743 Y53.476 E0.00788
G1 X155.552 Y53.639 E0.00788
G1 X155.341 Y53.776 E0.00789
G1 X155.115 Y53.885 E0.00788
G1 X154.876 Y53.963 E0.00787
G1 X154.630 Y54.012 E0.00788
G1 X154.379 Y54.028 E0.00788
G1 X154.128 Y54.011 E0.00788
G1 X153.882 Y53.963 E0.00788
G1 X153.644 Y53.884 E0.00787
G1 X153.417 Y53.775 E0.00788
G1 X153.206 Y53.638 E0.00789
G1 X153.015 Y53.475 E0.00788
G1 X152.846 Y53.289 E0.00788
G1 X152.703 Y53.083 E0.00788
G1 X152.586 Y52.860 E0.00787
G1 X152.500 Y52.624 E0.00789
G1 X152.444 Y52.379 E0.00788
G1 X152.420 Y52.129 E0.00788
G1 X152.427 Y51.903 E0.00708
G1 X152.468 Y51.631 E0.00863
G1 X152.540 Y51.389 E0.00792
G1 X152.641 Y51.159 E0.00789
G1 X152.772 Y50.945 E0.00786
G1 X152.928 Y50.748 E0.00788
G1 X153.109 Y50.573 E0.00789
G1 X153.291 Y50.437 E0.00712
G1 X153.331 Y50.190 F10800.000
;WIPE_START
G1 F8640.000
G1 X153.529 Y50.300 E-0.06351
G1 X153.762 Y50.206 E-0.05798
G1 X154.005 Y50.142 E-0.05807
G1 X154.229 Y50.113 E-0.05214
G1 X154.504 Y50.110 E-0.06352
G1 X154.755 Y50.142 E-0.05830
G1 X154.998 Y50.206 E-0.05804
G1 X155.231 Y50.301 E-0.05801
G1 X155.449 Y50.423 E-0.05791
G1 X155.651 Y50.574 E-0.05804
G1 X155.832 Y50.749 E-0.05816
G1 X155.988 Y50.946 E-0.05805
G1 X156.118 Y51.160 E-0.05784
G1 X156.220 Y51.390 E-0.05807
G1 X156.284 Y51.607 E-0.05222
