; generated by PrusaSlicer 2.3.3+win64 on 2022-04-12 at 05:20:20 UTC

; 

; external perimeters extrusion width = 0.60mm
; perimeters extrusion width = 0.50mm
; infill extrusion width = 0.50mm
; solid infill extrusion width = 0.50mm
; top infill extrusion width = 0.45mm
; support material extrusion width = 0.38mm
; first layer extrusion width = 0.42mm

M73 P0 R216
M73 Q0 S218
M201 X1000 Y1000 Z200 E5000 ; sets maximum accelerations, mm/sec^2
M203 X200 Y200 Z12 E120 ; sets maximum feedrates, mm/sec
M204 P1250 R1250 T1250 ; sets acceleration (P, T) and retract acceleration (R), mm/sec^2
M205 X8.00 Y8.00 Z0.40 E4.50 ; sets the jerk limits, mm/sec
M205 S0 T0 ; sets the minimum extruding and travel feed rate, mm/sec
M107
;TYPE:Custom
M862.3 P "MK3S" ; printer model check
M862.1 P0.4 ; nozzle diameter check
M115 U3.10.1 ; tell printer latest fw version
G90 ; use absolute coordinates
M83 ; extruder relative mode
M104 S240 ; set extruder temp
M140 S85 ; set bed temp
M190 S85 ; wait for bed temp
M109 S240 ; wait for extruder temp
G28 W ; home all without mesh bed level
G80 ; mesh bed leveling
G1 Y-3.0 F1000.0 ; go outside print area
G92 E0.0
G1 X60.0 E9.0 F1000.0 ; intro line
G1 X100.0 E12.5 F1000.0 ; intro line
G92 E0.0
M221 S95

; Don't change E values below. Excessive value can damage the printer.

M907 E538 ; set extruder motor current
G21 ; set units to millimeters
G90 ; use absolute coordinates
M83 ; use relative distances for extrusion
M900 K0.08 ; Filament gcode LA 1.5
M900 K45 ; Filament gcode LA 1.0
;LAYER_CHANGE
;Z:0.2
;HEIGHT:0.2
;BEFORE_LAYER_CHANGE
G92 E0.0
;0.2


G1 E-1.00000 F2100.000
G1 Z0.200 F10800.000
;AFTER_LAYER_CHANGE
;0.2
G1 Z0.400
G1 X60.115 Y32.967
G1 Z0.200
G1 E1.00000 F2100.000
M204 S1000
;TYPE:Skirt
;WIDTH:0.42
G1 F1200.000
G1 X86.301 Y8.220 E1.12967
G1 X87.192 Y7.555 E0.03484
G1 X88.107 Y7.177 E0.03106
G1 X89.340 Y7.003 E0.03902
G1 X150.247 Y7.003 E1.90972
G1 X150.904 Y7.057 E0.02065
G1 X151.605 Y7.240 E0.02274
G1 X152.420 Y7.636 E0.02838
G1 X152.995 Y8.074 E0.02267
G1 X153.449 Y8.566 E0.02100
G1 X153.838 Y9.168 E0.02246
G1 X154.171 Y10.013 E0.02849
G1 X154.295 Y10.690 E0.02158
G1 X160.972 Y99.661 E2.79745
G1 X160.889 Y100.467 E0.02543
G1 X160.543 Y101.197 E0.02532
G1 X159.830 Y101.917 E0.03177
G1 X158.956 Y102.473 E0.03249
G1 X158.025 Y102.822 E0.03115
G1 X156.876 Y102.984 E0.03638
G1 X84.140 Y102.985 E2.28061
G1 X83.428 Y102.871 E0.02260
G1 X82.783 Y102.549 E0.02260
G1 X60.392 Y80.985 E0.97469
G1 X60.036 Y80.540 E0.01787
G1 X59.796 Y80.023 E0.01787
G1 X59.679 Y79.292 E0.02319
G1 X59.679 Y34.323 E1.40997
G1 X59.793 Y33.612 E0.02260
G1 X60.088 Y33.020 E0.02072
; printing object canopy.stl id:0 copy 0
;WIPE_START
G1 F8640.000
G1 X63.077 Y30.193 E-0.95000
;WIPE_END
G1 E-0.05000 F2100.000
G1 Z0.400 F10800.000
G1 X80.156 Y38.289
G1 Z0.200
G1 E1.00000 F2100.000
;TYPE:Support material
G1 F1200.000
G1 X80.156 Y48.908 E0.33295
G1 X79.402 Y48.908 E0.02365
G1 X79.402 Y34.339 E0.45682
G1 X78.648 Y34.339 E0.02365
G1 X78.648 Y48.908 E0.45682
G1 X77.894 Y48.908 E0.02365
G1 X77.894 Y34.339 E0.45682
G1 X77.139 Y34.339 E0.02365
G1 X77.139 Y48.908 E0.45682
G1 X76.385 Y48.908 E0.02365
G1 X76.385 Y34.339 E0.45682
G1 X75.631 Y34.339 E0.02365
G1 X75.631 Y79.118 E1.40401
M73 P0 R215
G1 X76.385 Y79.118 E0.02365
G1 X76.385 Y64.548 E0.45682
G1 X77.139 Y64.548 E0.02365
G1 X77.139 Y79.118 E0.45682
G1 X77.894 Y79.118 E0.02365
G1 X77.894 Y64.548 E0.45682
G1 X78.648 Y64.548 E0.02365
G1 X78.648 Y79.118 E0.45682
G1 X79.402 Y79.118 E0.02365
G1 X79.402 Y64.548 E0.45682
G1 X80.156 Y64.548 E0.02365
G1 X80.156 Y79.287 E0.46214
G1 X74.877 Y79.287 F10800.000
G1 F1200.000
G1 X74.877 Y34.339 E1.40933
G1 X74.123 Y34.339 E0.02365
G1 X74.123 Y79.118 E1.40401
M73 Q0 S217
G1 X73.369 Y79.118 E0.02365
G1 X73.369 Y34.339 E1.40401
G1 X72.614 Y34.339 E0.02365
G1 X72.614 Y79.118 E1.40401
G1 X71.860 Y79.118 E0.02365
G1 X71.860 Y34.339 E1.40401
G1 X71.106 Y34.339 E0.02365
G1 X71.106 Y79.118 E1.40401
G1 X70.352 Y79.118 E0.02365
G1 X70.352 Y34.339 E1.40401
G1 X69.598 Y34.339 E0.02365
G1 X69.598 Y79.118 E1.40401
G1 X68.844 Y79.118 E0.02365
G1 X68.844 Y34.339 E1.40401
G1 X68.089 Y34.339 E0.02365
G1 X68.089 Y79.118 E1.40401
G1 X67.335 Y79.118 E0.02365
G1 X67.335 Y34.339 E1.40401
G1 X66.581 Y34.339 E0.02365
G1 X66.581 Y79.118 E1.40401
G1 X65.827 Y79.118 E0.02365
G1 X65.827 Y34.339 E1.40401
G1 X65.073 Y34.339 E0.02365
G1 X65.073 Y79.118 E1.40401
G1 X64.319 Y79.118 E0.02365
G1 X64.319 Y34.339 E1.40401
G1 X63.564 Y34.339 E0.02365
G1 X63.564 Y79.118 E1.40401
G1 X62.810 Y79.118 E0.02365
G1 X62.810 Y34.339 E1.40401
G1 X62.056 Y34.339 E0.02365
G1 X62.056 Y79.287 E1.40933
;WIPE_START
G1 F8640.000
G1 X62.056 Y75.173 E-0.95000
;WIPE_END
G1 E-0.05000 F2100.000
G1 Z0.400 F10800.000
G1 X90.549 Y27.552
G1 Z0.200
G1 E1.00000 F2100.000
;TYPE:Perimeter
G1 F1200.000
G1 X89.313 Y11.167 E0.51517
G1 X150.165 Y11.164 E1.90798
G1 X156.815 Y99.815 E2.78739
G1 X85.888 Y99.821 E2.22388
M73 P0 R214
G1 X80.462 Y27.549 E2.27239
G1 X90.489 Y27.551 E0.31437
G1 X90.142 Y27.174 F10800.000
;TYPE:External perimeter
G1 F1200.000
G1 X88.933 Y11.145 E0.50402
G1 X88.941 Y11.043 E0.00322
G1 X88.995 Y10.936 E0.00373
G1 X89.111 Y10.841 E0.00471
G1 X89.188 Y10.803 E0.00270
G1 X89.365 Y10.780 E0.00558
G1 X150.287 Y10.787 E1.91017
G1 X150.361 Y10.810 E0.00244
G1 X150.474 Y10.899 E0.00451
G1 X150.513 Y10.967 E0.00244
G1 X150.537 Y11.074 E0.00344
G1 X157.218 Y100.146 E2.80064
M73 Q0 S216
G1 X156.762 Y100.198 E0.01440
G1 X85.538 Y100.198 E2.23317
G1 X80.084 Y27.543 E2.28446
G1 X80.128 Y27.367 E0.00568
G1 X80.215 Y27.243 E0.00474
G1 X80.314 Y27.183 E0.00362
G1 X80.418 Y27.168 E0.00331
G1 X90.082 Y27.174 E0.30302
G1 X90.542 Y27.154 F10800.000
;WIPE_START
G1 F8640.000
G1 X89.788 Y23.070 E-0.95000
;WIPE_END
G1 E-0.05000 F2100.000
G1 Z0.400 F10800.000
G1 X149.297 Y11.277
G1 Z0.200
G1 E1.00000 F2100.000
;TYPE:Solid infill
;WIDTH:0.420136
G1 F1200.000
G1 X149.938 Y11.919 E0.02847
G1 X149.982 Y12.496 E0.01814
G1 X148.933 Y11.447 E0.04653
G1 X148.399 Y11.447 E0.01673
G1 X150.025 Y13.072 E0.07211
G1 X150.068 Y13.649 E0.01814
G1 X147.866 Y11.447 E0.09769
G1 X147.332 Y11.447 E0.01673
G1 X150.111 Y14.226 E0.12327
G1 X150.155 Y14.803 E0.01814
G1 X146.799 Y11.447 E0.14885
G1 X146.266 Y11.447 E0.01673
G1 X150.198 Y15.379 E0.17443
G1 X150.241 Y15.956 E0.01814
G1 X145.732 Y11.447 E0.20001
G1 X145.199 Y11.447 E0.01673
G1 X150.284 Y16.533 E0.22559
G1 X150.328 Y17.110 E0.01814
G1 X144.665 Y11.447 E0.25117
G1 X144.132 Y11.447 E0.01673
G1 X150.371 Y17.686 E0.27675
G1 X150.414 Y18.263 E0.01814
G1 X143.598 Y11.447 E0.30234
G1 X143.065 Y11.447 E0.01673
G1 X150.458 Y18.840 E0.32792
G1 X150.501 Y19.416 E0.01814
G1 X142.532 Y11.447 E0.35350
G1 X141.998 Y11.447 E0.01673
G1 X150.544 Y19.993 E0.37908
G1 X150.587 Y20.570 E0.01814
G1 X141.465 Y11.447 E0.40466
G1 X140.931 Y11.447 E0.01673
G1 X150.631 Y21.147 E0.43024
G1 X150.674 Y21.723 E0.01814
G1 X140.398 Y11.447 E0.45582
G1 X139.864 Y11.447 E0.01673
G1 X150.717 Y22.300 E0.48140
G1 X150.760 Y22.877 E0.01814
G1 X139.331 Y11.447 E0.50698
G1 X138.798 Y11.447 E0.01673
G1 X150.804 Y23.453 E0.53256
G1 X150.847 Y24.030 E0.01814
G1 X138.264 Y11.447 E0.55814
G1 X137.731 Y11.447 E0.01673
G1 X150.890 Y24.607 E0.58373
G1 X150.933 Y25.184 E0.01814
G1 X137.197 Y11.447 E0.60931
G1 X136.664 Y11.448 E0.01673
G1 X150.977 Y25.760 E0.63489
G1 X151.020 Y26.337 E0.01814
G1 X136.130 Y11.448 E0.66047
G1 X135.597 Y11.448 E0.01673
G1 X151.063 Y26.914 E0.68605
G1 X151.106 Y27.491 E0.01814
G1 X135.063 Y11.448 E0.71163
G1 X134.530 Y11.448 E0.01673
G1 X151.150 Y28.067 E0.73721
M73 P1 R214
G1 X151.193 Y28.644 E0.01814
G1 X133.997 Y11.448 E0.76279
M73 Q1 S216
G1 X133.463 Y11.448 E0.01673
G1 X151.236 Y29.221 E0.78837
G1 X151.280 Y29.797 E0.01814
G1 X132.930 Y11.448 E0.81395
G1 X132.396 Y11.448 E0.01673
G1 X151.323 Y30.374 E0.83953
G1 X151.366 Y30.951 E0.01814
G1 X131.863 Y11.448 E0.86511
G1 X131.329 Y11.448 E0.01673
G1 X151.409 Y31.528 E0.89070
G1 X151.453 Y32.104 E0.01814
G1 X130.796 Y11.448 E0.91628
G1 X130.263 Y11.448 E0.01673
G1 X151.496 Y32.681 E0.94186
G1 X151.539 Y33.258 E0.01814
G1 X129.729 Y11.448 E0.96744
G1 X129.196 Y11.448 E0.01673
G1 X151.582 Y33.835 E0.99302
G1 X151.626 Y34.411 E0.01814
G1 X128.662 Y11.448 E1.01860
G1 X128.129 Y11.448 E0.01673
G1 X151.669 Y34.988 E1.04418
G1 X151.712 Y35.565 E0.01814
G1 X127.595 Y11.448 E1.06976
G1 X127.062 Y11.448 E0.01673
G1 X151.755 Y36.141 E1.09534
M73 P1 R213
G1 X151.799 Y36.718 E0.01814
G1 X126.529 Y11.448 E1.12092
G1 X125.995 Y11.448 E0.01673
G1 X151.842 Y37.295 E1.14650
G1 X151.885 Y37.872 E0.01814
G1 X125.462 Y11.448 E1.17209
G1 X124.928 Y11.448 E0.01673
G1 X151.928 Y38.448 E1.19767
G1 X151.972 Y39.025 E0.01814
G1 X124.395 Y11.448 E1.22325
M73 Q1 S215
G1 X123.861 Y11.448 E0.01673
G1 X152.015 Y39.602 E1.24883
G1 X152.058 Y40.179 E0.01814
G1 X123.328 Y11.448 E1.27441
G1 X122.794 Y11.448 E0.01673
G1 X152.101 Y40.755 E1.29999
G1 X152.145 Y41.332 E0.01814
G1 X122.261 Y11.448 E1.32557
G1 X121.728 Y11.448 E0.01673
G1 X152.188 Y41.909 E1.35115
G1 X152.231 Y42.485 E0.01814
G1 X121.194 Y11.448 E1.37673
G1 X120.661 Y11.448 E0.01673
G1 X152.275 Y43.062 E1.40231
G1 X152.318 Y43.639 E0.01814
G1 X120.127 Y11.448 E1.42789
G1 X119.594 Y11.448 E0.01673
G1 X152.361 Y44.216 E1.45348
G1 X152.404 Y44.792 E0.01814
G1 X119.060 Y11.448 E1.47906
G1 X118.527 Y11.449 E0.01673
G1 X152.448 Y45.369 E1.50464
G1 X152.491 Y45.946 E0.01814
G1 X117.994 Y11.449 E1.53022
G1 X117.460 Y11.449 E0.01673
G1 X152.534 Y46.522 E1.55580
G1 X152.577 Y47.099 E0.01814
G1 X116.927 Y11.449 E1.58138
G1 X116.393 Y11.449 E0.01673
G1 X152.621 Y47.676 E1.60696
G1 X152.664 Y48.253 E0.01814
G1 X115.860 Y11.449 E1.63254
G1 X115.326 Y11.449 E0.01673
G1 X152.707 Y48.829 E1.65812
G1 X152.750 Y49.406 E0.01814
G1 X114.793 Y11.449 E1.68370
G1 X114.260 Y11.449 E0.01673
G1 X152.794 Y49.983 E1.70928
G1 X152.837 Y50.560 E0.01814
G1 X113.726 Y11.449 E1.73487
G1 X113.193 Y11.449 E0.01673
G1 X152.880 Y51.136 E1.76045
M73 P1 R212
G1 X152.923 Y51.713 E0.01814
G1 X112.659 Y11.449 E1.78603
G1 X112.126 Y11.449 E0.01673
G1 X152.967 Y52.290 E1.81161
G1 X153.010 Y52.866 E0.01814
G1 X111.592 Y11.449 E1.83719
M73 Q1 S214
G1 X111.059 Y11.449 E0.01673
G1 X153.053 Y53.443 E1.86277
G1 X153.096 Y54.020 E0.01814
G1 X110.526 Y11.449 E1.88835
G1 X109.992 Y11.449 E0.01673
G1 X153.140 Y54.597 E1.91393
G1 X153.183 Y55.173 E0.01814
G1 X109.459 Y11.449 E1.93951
G1 X108.925 Y11.449 E0.01673
G1 X153.226 Y55.750 E1.96509
G1 X153.270 Y56.327 E0.01814
G1 X108.392 Y11.449 E1.99067
G1 X107.858 Y11.449 E0.01673
G1 X153.313 Y56.904 E2.01626
G1 X153.356 Y57.480 E0.01814
G1 X107.325 Y11.449 E2.04184
G1 X106.791 Y11.449 E0.01673
G1 X153.399 Y58.057 E2.06742
G1 X153.443 Y58.634 E0.01814
G1 X106.258 Y11.449 E2.09300
G1 X105.725 Y11.449 E0.01673
G1 X153.486 Y59.210 E2.11858
G1 X153.529 Y59.787 E0.01814
G1 X105.191 Y11.449 E2.14416
M73 P2 R212
G1 X104.658 Y11.449 E0.01673
G1 X153.572 Y60.364 E2.16974
M73 Q2 S214
G1 X153.616 Y60.941 E0.01814
G1 X104.124 Y11.449 E2.19532
G1 X103.591 Y11.449 E0.01673
G1 X153.659 Y61.517 E2.22090
M73 P2 R211
G1 X153.702 Y62.094 E0.01814
G1 X103.057 Y11.449 E2.24648
G1 X102.524 Y11.449 E0.01673
G1 X153.745 Y62.671 E2.27206
G1 X153.789 Y63.248 E0.01814
G1 X101.991 Y11.449 E2.29765
M73 Q2 S213
G1 X101.457 Y11.449 E0.01673
G1 X153.832 Y63.824 E2.32323
G1 X153.875 Y64.401 E0.01814
G1 X100.924 Y11.449 E2.34881
G1 X100.390 Y11.450 E0.01673
G1 X153.918 Y64.978 E2.37439
G1 X153.962 Y65.554 E0.01814
G1 X99.857 Y11.450 E2.39997
G1 X99.323 Y11.450 E0.01673
G1 X154.005 Y66.131 E2.42555
G1 X154.048 Y66.708 E0.01814
G1 X98.790 Y11.450 E2.45113
G1 X98.257 Y11.450 E0.01673
G1 X154.091 Y67.285 E2.47671
G1 X154.135 Y67.861 E0.01814
G1 X97.723 Y11.450 E2.50229
G1 X97.190 Y11.450 E0.01673
G1 X154.178 Y68.438 E2.52787
G1 X154.221 Y69.015 E0.01814
G1 X96.656 Y11.450 E2.55345
G1 X96.123 Y11.450 E0.01673
G1 X154.265 Y69.592 E2.57904
G1 X154.308 Y70.168 E0.01814
G1 X95.589 Y11.450 E2.60462
G1 X95.056 Y11.450 E0.01673
G1 X154.351 Y70.745 E2.63020
M73 P2 R210
G1 X154.394 Y71.322 E0.01814
G1 X94.522 Y11.450 E2.65578
G1 X93.989 Y11.450 E0.01673
G1 X154.438 Y71.898 E2.68136
M73 Q2 S212
G1 X154.481 Y72.475 E0.01814
G1 X93.456 Y11.450 E2.70694
G1 X92.922 Y11.450 E0.01673
G1 X154.524 Y73.052 E2.73252
G1 X154.567 Y73.629 E0.01814
G1 X92.389 Y11.450 E2.75810
G1 X91.855 Y11.450 E0.01673
G1 X154.611 Y74.205 E2.78368
G1 X154.654 Y74.782 E0.01814
G1 X91.322 Y11.450 E2.80926
G1 X90.788 Y11.450 E0.01673
G1 X154.697 Y75.359 E2.83484
G1 X154.740 Y75.935 E0.01814
G1 X90.255 Y11.450 E2.86043
G1 X89.722 Y11.450 E0.01673
G1 X154.784 Y76.512 E2.88601
G1 X154.827 Y77.089 E0.01814
G1 X89.653 Y11.915 E2.89096
G1 X89.697 Y12.492 E0.01815
G1 X154.870 Y77.666 E2.89095
G1 X154.913 Y78.242 E0.01814
G1 X89.740 Y13.069 E2.89094
M73 P3 R209
G1 X89.784 Y13.646 E0.01815
G1 X154.957 Y78.819 E2.89093
M73 Q3 S212
G1 X155.000 Y79.396 E0.01814
G1 X89.827 Y14.223 E2.89092
M73 Q3 S211
G1 X89.871 Y14.800 E0.01815
G1 X155.043 Y79.973 E2.89091
G1 X155.086 Y80.549 E0.01814
G1 X89.914 Y15.377 E2.89089
G1 X89.958 Y15.954 E0.01815
G1 X155.130 Y81.126 E2.89088
G1 X155.173 Y81.703 E0.01814
G1 X90.001 Y16.531 E2.89087
G1 X90.045 Y17.108 E0.01815
G1 X155.216 Y82.279 E2.89086
G1 X155.260 Y82.856 E0.01814
G1 X90.088 Y17.685 E2.89085
G1 X90.132 Y18.262 E0.01815
G1 X155.303 Y83.433 E2.89084
G1 X155.346 Y84.010 E0.01814
G1 X90.175 Y18.839 E2.89083
G1 X90.219 Y19.416 E0.01815
G1 X155.389 Y84.586 E2.89082
G1 X155.433 Y85.163 E0.01814
G1 X90.262 Y19.993 E2.89081
G1 X90.306 Y20.570 E0.01815
G1 X155.476 Y85.740 E2.89079
M73 P3 R208
G1 X155.519 Y86.317 E0.01814
G1 X90.349 Y21.147 E2.89078
G1 X90.393 Y21.724 E0.01815
G1 X155.562 Y86.893 E2.89077
M73 Q3 S210
G1 X155.606 Y87.470 E0.01814
G1 X90.436 Y22.301 E2.89076
G1 X90.480 Y22.878 E0.01815
G1 X155.649 Y88.047 E2.89075
G1 X155.692 Y88.623 E0.01814
G1 X90.523 Y23.455 E2.89074
G1 X90.567 Y24.032 E0.01815
G1 X155.735 Y89.200 E2.89073
G1 X155.779 Y89.777 E0.01814
G1 X90.610 Y24.609 E2.89072
G1 X90.654 Y25.186 E0.01815
G1 X155.822 Y90.354 E2.89070
G1 X155.865 Y90.930 E0.01814
G1 X90.697 Y25.763 E2.89069
G1 X90.741 Y26.340 E0.01815
G1 X155.908 Y91.507 E2.89068
G1 X155.952 Y92.084 E0.01814
G1 X90.784 Y26.917 E2.89067
G1 X90.828 Y27.494 E0.01815
G1 X155.995 Y92.661 E2.89066
G1 X156.038 Y93.237 E0.01814
G1 X90.635 Y27.834 E2.90112
M73 P3 R207
G1 X90.102 Y27.834 E0.01674
G1 X156.082 Y93.814 E2.92671
G1 X156.125 Y94.391 E0.01814
G1 X89.568 Y27.834 E2.95230
M73 P4 R207
M73 Q3 S209
G1 X89.035 Y27.834 E0.01674
G1 X156.168 Y94.967 E2.97788
M73 Q4 S209
G1 X156.211 Y95.544 E0.01814
G1 X88.501 Y27.834 E3.00347
G1 X87.967 Y27.834 E0.01674
G1 X156.255 Y96.121 E3.02906
G1 X156.298 Y96.698 E0.01814
G1 X87.434 Y27.834 E3.05465
G1 X86.900 Y27.834 E0.01674
G1 X156.341 Y97.274 E3.08023
G1 X156.384 Y97.851 E0.01814
G1 X86.367 Y27.833 E3.10582
G1 X85.833 Y27.833 E0.01674
G1 X156.428 Y98.428 E3.13141
G1 X156.471 Y99.004 E0.01814
G1 X85.300 Y27.833 E3.15699
G1 X84.766 Y27.833 E0.01674
G1 X156.465 Y99.532 E3.18039
G1 X155.931 Y99.532 E0.01673
G1 X84.232 Y27.833 E3.18040
M73 P4 R206
G1 X83.699 Y27.833 E0.01674
G1 X155.398 Y99.532 E3.18040
G1 X154.864 Y99.532 E0.01673
G1 X83.165 Y27.833 E3.18041
M73 Q4 S208
G1 X82.632 Y27.833 E0.01674
G1 X154.331 Y99.532 E3.18042
G1 X153.798 Y99.532 E0.01673
G1 X82.098 Y27.833 E3.18043
G1 X81.565 Y27.832 E0.01674
G1 X153.264 Y99.532 E3.18043
G1 X152.731 Y99.532 E0.01673
G1 X81.031 Y27.832 E3.18044
G1 X80.767 Y27.832 E0.00827
G1 X80.789 Y28.124 E0.00918
G1 X152.197 Y99.532 E3.16750
G1 X151.664 Y99.532 E0.01673
G1 X80.832 Y28.701 E3.14192
G1 X80.876 Y29.278 E0.01814
G1 X151.131 Y99.532 E3.11634
G1 X150.597 Y99.532 E0.01673
G1 X80.919 Y29.854 E3.09076
G1 X80.962 Y30.431 E0.01814
G1 X150.064 Y99.532 E3.06518
G1 X149.530 Y99.532 E0.01673
G1 X81.006 Y31.008 E3.03959
M73 P4 R205
G1 X81.049 Y31.585 E0.01814
G1 X148.997 Y99.532 E3.01401
G1 X148.463 Y99.533 E0.01673
G1 X81.092 Y32.161 E2.98843
M73 Q4 S207
G1 X81.136 Y32.738 E0.01814
G1 X147.930 Y99.533 E2.96285
G1 X147.397 Y99.533 E0.01673
G1 X81.179 Y33.315 E2.93727
M73 P5 R205
G1 X81.222 Y33.892 E0.01814
