; generated by PrusaSlicer 2.3.3+win64 on 2022-04-11 at 23:29:45 UTC

; 

; external perimeters extrusion width = 0.60mm
; perimeters extrusion width = 0.50mm
; infill extrusion width = 0.50mm
; solid infill extrusion width = 0.50mm
; top infill extrusion width = 0.45mm
; support material extrusion width = 0.38mm
; first layer extrusion width = 0.42mm

M73 P0 R220
M73 Q0 S222
M201 X1000 Y1000 Z200 E5000 ; sets maximum accelerations, mm/sec^2
M203 X200 Y200 Z12 E120 ; sets maximum feedrates, mm/sec
M204 P1250 R1250 T1250 ; sets acceleration (P, T) and retract acceleration (R), mm/sec^2
M205 X8.00 Y8.00 Z0.40 E4.50 ; sets the jerk limits, mm/sec
M205 S0 T0 ; sets the minimum extruding and travel feed rate, mm/sec
M107
;TYPE:Custom
M862.3 P "MK3S" ; printer model check
M862.1 P0.4 ; nozzle diameter check
M115 U3.10.1 ; tell printer latest fw version
G90 ; use absolute coordinates
M83 ; extruder relative mode
M104 S240 ; set extruder temp
M140 S85 ; set bed temp
M190 S85 ; wait for bed temp
M109 S240 ; wait for extruder temp
G28 W ; home all without mesh bed level
G80 ; mesh bed leveling
G1 Y-3.0 F1000.0 ; go outside print area
G92 E0.0
G1 X60.0 E9.0 F1000.0 ; intro line
G1 X100.0 E12.5 F1000.0 ; intro line
G92 E0.0
M221 S95

; Don't change E values below. Excessive value can damage the printer.

M907 E538 ; set extruder motor current
G21 ; set units to millimeters
G90 ; use absolute coordinates
M83 ; use relative distances for extrusion
M900 K0.08 ; Filament gcode LA 1.5
M900 K45 ; Filament gcode LA 1.0
;LAYER_CHANGE
;Z:0.2
;HEIGHT:0.2
;BEFORE_LAYER_CHANGE
G92 E0.0
;0.2


G1 E-1.00000 F2100.000
G1 Z0.200 F10800.000
;AFTER_LAYER_CHANGE
;0.2
G1 Z0.400
G1 X45.370 Y99.628
G1 Z0.200
G1 E1.00000 F2100.000
M204 S1000
;TYPE:Skirt
;WIDTH:0.42
G1 F1200.000
G1 X46.286 Y99.250 E0.03106
G1 X47.519 Y99.076 E0.03902
G1 X108.426 Y99.076 E1.90972
M73 Q0 S221
G1 X109.083 Y99.130 E0.02065
G1 X109.784 Y99.313 E0.02274
G1 X110.599 Y99.709 E0.02838
G1 X111.174 Y100.147 E0.02267
G1 X111.628 Y100.639 E0.02100
G1 X112.017 Y101.241 E0.02246
G1 X112.350 Y102.086 E0.02849
G1 X112.474 Y102.763 E0.02158
G1 X119.151 Y191.734 E2.79745
M73 P0 R219
G1 X119.068 Y192.541 E0.02543
G1 X118.721 Y193.270 E0.02532
G1 X118.009 Y193.990 E0.03177
G1 X117.135 Y194.546 E0.03249
G1 X116.204 Y194.895 E0.03115
G1 X115.055 Y195.057 E0.03638
G1 X42.319 Y195.058 E2.28061
G1 X41.607 Y194.944 E0.02260
G1 X40.962 Y194.622 E0.02260
G1 X18.571 Y173.058 E0.97469
G1 X18.215 Y172.613 E0.01787
G1 X17.975 Y172.096 E0.01787
G1 X17.858 Y171.365 E0.02319
G1 X17.858 Y126.396 E1.40997
G1 X17.972 Y125.685 E0.02260
G1 X18.294 Y125.040 E0.02260
G1 X44.480 Y100.293 E1.12967
G1 X45.322 Y99.664 E0.03296
; printing object canopy.stl id:0 copy 0
;WIPE_START
G1 F8640.000
G1 X46.286 Y99.250 E-0.24222
G1 X47.519 Y99.076 E-0.28739
G1 X49.339 Y99.076 E-0.42039
;WIPE_END
G1 E-0.05000 F2100.000
G1 Z0.400 F10800.000
G1 X38.335 Y130.362
G1 Z0.200
G1 E1.00000 F2100.000
;TYPE:Support material
G1 F1200.000
G1 X38.335 Y140.981 E0.33295
G1 X37.581 Y140.981 E0.02365
G1 X37.581 Y126.412 E0.45682
G1 X36.827 Y126.412 E0.02365
G1 X36.827 Y140.981 E0.45682
G1 X36.072 Y140.981 E0.02365
G1 X36.072 Y126.412 E0.45682
G1 X35.318 Y126.412 E0.02365
G1 X35.318 Y140.981 E0.45682
G1 X34.564 Y140.981 E0.02365
G1 X34.564 Y126.412 E0.45682
G1 X33.810 Y126.412 E0.02365
G1 X33.810 Y171.191 E1.40401
G1 X34.564 Y171.191 E0.02365
G1 X34.564 Y156.621 E0.45682
G1 X35.318 Y156.621 E0.02365
G1 X35.318 Y171.191 E0.45682
G1 X36.072 Y171.191 E0.02365
G1 X36.072 Y156.621 E0.45682
G1 X36.827 Y156.621 E0.02365
G1 X36.827 Y171.191 E0.45682
G1 X37.581 Y171.191 E0.02365
G1 X37.581 Y156.621 E0.45682
G1 X38.335 Y156.621 E0.02365
G1 X38.335 Y171.360 E0.46214
G1 X33.056 Y171.360 F10800.000
G1 F1200.000
G1 X33.056 Y126.412 E1.40933
G1 X32.302 Y126.412 E0.02365
G1 X32.302 Y171.191 E1.40401
G1 X31.547 Y171.191 E0.02365
G1 X31.547 Y126.412 E1.40401
G1 X30.793 Y126.412 E0.02365
G1 X30.793 Y171.191 E1.40401
G1 X30.039 Y171.191 E0.02365
G1 X30.039 Y126.412 E1.40401
G1 X29.285 Y126.412 E0.02365
G1 X29.285 Y171.191 E1.40401
G1 X28.531 Y171.191 E0.02365
G1 X28.531 Y126.412 E1.40401
G1 X27.777 Y126.412 E0.02365
G1 X27.777 Y171.191 E1.40401
G1 X27.022 Y171.191 E0.02365
G1 X27.022 Y126.412 E1.40401
G1 X26.268 Y126.412 E0.02365
G1 X26.268 Y171.191 E1.40401
G1 X25.514 Y171.191 E0.02365
G1 X25.514 Y126.412 E1.40401
G1 X24.760 Y126.412 E0.02365
G1 X24.760 Y171.191 E1.40401
G1 X24.006 Y171.191 E0.02365
G1 X24.006 Y126.412 E1.40401
G1 X23.252 Y126.412 E0.02365
G1 X23.252 Y171.191 E1.40401
M73 Q0 S220
G1 X22.498 Y171.191 E0.02365
G1 X22.498 Y126.412 E1.40401
G1 X21.743 Y126.412 E0.02365
G1 X21.743 Y171.191 E1.40401
M73 P0 R218
G1 X20.989 Y171.191 E0.02365
G1 X20.989 Y126.412 E1.40401
G1 X20.235 Y126.412 E0.02365
G1 X20.235 Y171.360 E1.40933
;WIPE_START
G1 F8640.000
G1 X20.235 Y167.246 E-0.95000
;WIPE_END
G1 E-0.05000 F2100.000
G1 Z0.400 F10800.000
G1 X48.728 Y119.625
G1 Z0.200
G1 E1.00000 F2100.000
;TYPE:Perimeter
G1 F1200.000
G1 X47.492 Y103.240 E0.51517
G1 X108.344 Y103.237 E1.90798
G1 X114.994 Y191.888 E2.78739
G1 X44.067 Y191.894 E2.22388
G1 X38.641 Y119.622 E2.27239
G1 X48.668 Y119.625 E0.31437
G1 X48.321 Y119.247 F10800.000
;TYPE:External perimeter
G1 F1200.000
G1 X47.112 Y103.218 E0.50402
G1 X47.120 Y103.116 E0.00322
G1 X47.174 Y103.009 E0.00373
G1 X47.289 Y102.914 E0.00471
G1 X47.367 Y102.876 E0.00270
G1 X47.544 Y102.854 E0.00558
G1 X108.466 Y102.860 E1.91017
G1 X108.540 Y102.883 E0.00244
G1 X108.653 Y102.972 E0.00451
G1 X108.692 Y103.040 E0.00244
G1 X108.716 Y103.147 E0.00344
G1 X115.397 Y192.219 E2.80064
G1 X114.941 Y192.271 E0.01440
G1 X43.717 Y192.271 E2.23317
G1 X38.263 Y119.616 E2.28446
G1 X38.307 Y119.440 E0.00568
G1 X38.394 Y119.316 E0.00474
G1 X38.492 Y119.256 E0.00362
G1 X38.597 Y119.241 E0.00331
G1 X48.261 Y119.247 E0.30302
G1 X48.721 Y119.227 F10800.000
;WIPE_START
G1 F8640.000
G1 X47.967 Y115.143 E-0.95000
;WIPE_END
G1 E-0.05000 F2100.000
G1 Z0.400 F10800.000
G1 X107.475 Y103.350
G1 Z0.200
G1 E1.00000 F2100.000
;TYPE:Solid infill
;WIDTH:0.420136
G1 F1200.000
G1 X108.117 Y103.992 E0.02847
G1 X108.161 Y104.569 E0.01814
G1 X107.112 Y103.520 E0.04653
G1 X106.578 Y103.520 E0.01673
G1 X108.204 Y105.145 E0.07211
G1 X108.247 Y105.722 E0.01814
G1 X106.045 Y103.520 E0.09769
G1 X105.511 Y103.520 E0.01673
G1 X108.290 Y106.299 E0.12327
G1 X108.334 Y106.876 E0.01814
G1 X104.978 Y103.520 E0.14885
G1 X104.444 Y103.520 E0.01673
G1 X108.377 Y107.452 E0.17443
G1 X108.420 Y108.029 E0.01814
G1 X103.911 Y103.520 E0.20001
G1 X103.378 Y103.520 E0.01673
G1 X108.463 Y108.606 E0.22559
G1 X108.507 Y109.183 E0.01814
G1 X102.844 Y103.520 E0.25117
G1 X102.311 Y103.520 E0.01673
G1 X108.550 Y109.759 E0.27675
G1 X108.593 Y110.336 E0.01814
G1 X101.777 Y103.520 E0.30234
G1 X101.244 Y103.520 E0.01673
G1 X108.636 Y110.913 E0.32792
G1 X108.680 Y111.489 E0.01814
G1 X100.710 Y103.520 E0.35350
G1 X100.177 Y103.520 E0.01673
G1 X108.723 Y112.066 E0.37908
G1 X108.766 Y112.643 E0.01814
G1 X99.644 Y103.520 E0.40466
G1 X99.110 Y103.520 E0.01673
G1 X108.809 Y113.220 E0.43024
G1 X108.853 Y113.796 E0.01814
G1 X98.577 Y103.520 E0.45582
G1 X98.043 Y103.520 E0.01673
G1 X108.896 Y114.373 E0.48140
G1 X108.939 Y114.950 E0.01814
G1 X97.510 Y103.520 E0.50698
G1 X96.976 Y103.520 E0.01673
G1 X108.983 Y115.527 E0.53256
G1 X109.026 Y116.103 E0.01814
G1 X96.443 Y103.520 E0.55814
G1 X95.910 Y103.520 E0.01673
G1 X109.069 Y116.680 E0.58373
G1 X109.112 Y117.257 E0.01814
G1 X95.376 Y103.521 E0.60931
G1 X94.843 Y103.521 E0.01673
G1 X109.156 Y117.833 E0.63489
G1 X109.199 Y118.410 E0.01814
G1 X94.309 Y103.521 E0.66047
G1 X93.776 Y103.521 E0.01673
G1 X109.242 Y118.987 E0.68605
G1 X109.285 Y119.564 E0.01814
G1 X93.242 Y103.521 E0.71163
M73 Q0 S219
G1 X92.709 Y103.521 E0.01673
G1 X109.329 Y120.140 E0.73721
G1 X109.372 Y120.717 E0.01814
G1 X92.176 Y103.521 E0.76279
M73 P1 R217
G1 X91.642 Y103.521 E0.01673
G1 X109.415 Y121.294 E0.78837
M73 Q1 S219
G1 X109.458 Y121.871 E0.01814
G1 X91.109 Y103.521 E0.81395
G1 X90.575 Y103.521 E0.01673
G1 X109.502 Y122.447 E0.83953
G1 X109.545 Y123.024 E0.01814
G1 X90.042 Y103.521 E0.86511
G1 X89.508 Y103.521 E0.01673
G1 X109.588 Y123.601 E0.89070
G1 X109.631 Y124.177 E0.01814
G1 X88.975 Y103.521 E0.91628
G1 X88.441 Y103.521 E0.01673
G1 X109.675 Y124.754 E0.94186
G1 X109.718 Y125.331 E0.01814
G1 X87.908 Y103.521 E0.96744
G1 X87.375 Y103.521 E0.01673
G1 X109.761 Y125.908 E0.99302
G1 X109.804 Y126.484 E0.01814
G1 X86.841 Y103.521 E1.01860
G1 X86.308 Y103.521 E0.01673
G1 X109.848 Y127.061 E1.04418
G1 X109.891 Y127.638 E0.01814
G1 X85.774 Y103.521 E1.06976
G1 X85.241 Y103.521 E0.01673
G1 X109.934 Y128.214 E1.09534
G1 X109.978 Y128.791 E0.01814
G1 X84.707 Y103.521 E1.12092
G1 X84.174 Y103.521 E0.01673
G1 X110.021 Y129.368 E1.14650
G1 X110.064 Y129.945 E0.01814
G1 X83.641 Y103.521 E1.17209
G1 X83.107 Y103.521 E0.01673
G1 X110.107 Y130.521 E1.19767
G1 X110.151 Y131.098 E0.01814
G1 X82.574 Y103.521 E1.22325
G1 X82.040 Y103.521 E0.01673
G1 X110.194 Y131.675 E1.24883
G1 X110.237 Y132.252 E0.01814
G1 X81.507 Y103.521 E1.27441
G1 X80.973 Y103.521 E0.01673
G1 X110.280 Y132.828 E1.29999
G1 X110.324 Y133.405 E0.01814
G1 X80.440 Y103.521 E1.32557
G1 X79.907 Y103.521 E0.01673
G1 X110.367 Y133.982 E1.35115
G1 X110.410 Y134.558 E0.01814
G1 X79.373 Y103.521 E1.37673
G1 X78.840 Y103.521 E0.01673
G1 X110.453 Y135.135 E1.40231
G1 X110.497 Y135.712 E0.01814
G1 X78.306 Y103.521 E1.42789
G1 X77.773 Y103.521 E0.01673
G1 X110.540 Y136.289 E1.45348
G1 X110.583 Y136.865 E0.01814
G1 X77.239 Y103.522 E1.47906
G1 X76.706 Y103.522 E0.01673
G1 X110.626 Y137.442 E1.50464
G1 X110.670 Y138.019 E0.01814
G1 X76.172 Y103.522 E1.53022
G1 X75.639 Y103.522 E0.01673
G1 X110.713 Y138.596 E1.55580
M73 Q1 S218
G1 X110.756 Y139.172 E0.01814
G1 X75.106 Y103.522 E1.58138
M73 P1 R216
G1 X74.572 Y103.522 E0.01673
G1 X110.799 Y139.749 E1.60696
G1 X110.843 Y140.326 E0.01814
G1 X74.039 Y103.522 E1.63254
G1 X73.505 Y103.522 E0.01673
G1 X110.886 Y140.902 E1.65812
G1 X110.929 Y141.479 E0.01814
G1 X72.972 Y103.522 E1.68370
G1 X72.438 Y103.522 E0.01673
G1 X110.973 Y142.056 E1.70928
G1 X111.016 Y142.633 E0.01814
G1 X71.905 Y103.522 E1.73487
G1 X71.372 Y103.522 E0.01673
G1 X111.059 Y143.209 E1.76045
G1 X111.102 Y143.786 E0.01814
G1 X70.838 Y103.522 E1.78603
G1 X70.305 Y103.522 E0.01673
G1 X111.146 Y144.363 E1.81161
G1 X111.189 Y144.940 E0.01814
G1 X69.771 Y103.522 E1.83719
G1 X69.238 Y103.522 E0.01673
G1 X111.232 Y145.516 E1.86277
G1 X111.275 Y146.093 E0.01814
G1 X68.704 Y103.522 E1.88835
G1 X68.171 Y103.522 E0.01673
G1 X111.319 Y146.670 E1.91393
G1 X111.362 Y147.246 E0.01814
G1 X67.638 Y103.522 E1.93951
G1 X67.104 Y103.522 E0.01673
G1 X111.405 Y147.823 E1.96509
G1 X111.448 Y148.400 E0.01814
G1 X66.571 Y103.522 E1.99067
G1 X66.037 Y103.522 E0.01673
G1 X111.492 Y148.977 E2.01626
G1 X111.535 Y149.553 E0.01814
G1 X65.504 Y103.522 E2.04184
G1 X64.970 Y103.522 E0.01673
G1 X111.578 Y150.130 E2.06742
M73 Q1 S217
G1 X111.621 Y150.707 E0.01814
G1 X64.437 Y103.522 E2.09300
M73 P1 R215
G1 X63.903 Y103.522 E0.01673
G1 X111.665 Y151.283 E2.11858
G1 X111.708 Y151.860 E0.01814
G1 X63.370 Y103.522 E2.14416
G1 X62.837 Y103.522 E0.01673
G1 X111.751 Y152.437 E2.16974
M73 P2 R215
G1 X111.795 Y153.014 E0.01814
G1 X62.303 Y103.522 E2.19532
M73 Q2 S217
G1 X61.770 Y103.522 E0.01673
G1 X111.838 Y153.590 E2.22090
G1 X111.881 Y154.167 E0.01814
G1 X61.236 Y103.522 E2.24648
G1 X60.703 Y103.522 E0.01673
G1 X111.924 Y154.744 E2.27206
G1 X111.968 Y155.321 E0.01814
G1 X60.169 Y103.522 E2.29765
G1 X59.636 Y103.522 E0.01673
G1 X112.011 Y155.897 E2.32323
G1 X112.054 Y156.474 E0.01814
G1 X59.103 Y103.523 E2.34881
G1 X58.569 Y103.523 E0.01673
G1 X112.097 Y157.051 E2.37439
G1 X112.141 Y157.627 E0.01814
G1 X58.036 Y103.523 E2.39997
G1 X57.502 Y103.523 E0.01673
G1 X112.184 Y158.204 E2.42555
G1 X112.227 Y158.781 E0.01814
G1 X56.969 Y103.523 E2.45113
G1 X56.435 Y103.523 E0.01673
G1 X112.270 Y159.358 E2.47671
M73 Q2 S216
G1 X112.314 Y159.934 E0.01814
G1 X55.902 Y103.523 E2.50229
M73 P2 R214
G1 X55.369 Y103.523 E0.01673
G1 X112.357 Y160.511 E2.52787
G1 X112.400 Y161.088 E0.01814
G1 X54.835 Y103.523 E2.55345
G1 X54.302 Y103.523 E0.01673
G1 X112.443 Y161.665 E2.57904
G1 X112.487 Y162.241 E0.01814
G1 X53.768 Y103.523 E2.60462
G1 X53.235 Y103.523 E0.01673
G1 X112.530 Y162.818 E2.63020
G1 X112.573 Y163.395 E0.01814
G1 X52.701 Y103.523 E2.65578
G1 X52.168 Y103.523 E0.01673
G1 X112.616 Y163.971 E2.68136
G1 X112.660 Y164.548 E0.01814
G1 X51.634 Y103.523 E2.70694
G1 X51.101 Y103.523 E0.01673
G1 X112.703 Y165.125 E2.73252
G1 X112.746 Y165.702 E0.01814
G1 X50.568 Y103.523 E2.75810
G1 X50.034 Y103.523 E0.01673
G1 X112.790 Y166.278 E2.78368
G1 X112.833 Y166.855 E0.01814
G1 X49.501 Y103.523 E2.80926
G1 X48.967 Y103.523 E0.01673
G1 X112.876 Y167.432 E2.83484
M73 Q2 S215
G1 X112.919 Y168.009 E0.01814
G1 X48.434 Y103.523 E2.86043
M73 P2 R213
G1 X47.900 Y103.523 E0.01673
G1 X112.963 Y168.585 E2.88601
G1 X113.006 Y169.162 E0.01814
G1 X47.832 Y103.988 E2.89096
G1 X47.876 Y104.565 E0.01815
G1 X113.049 Y169.739 E2.89095
G1 X113.092 Y170.315 E0.01814
G1 X47.919 Y105.142 E2.89094
G1 X47.963 Y105.719 E0.01815
G1 X113.136 Y170.892 E2.89093
M73 P3 R213
G1 X113.179 Y171.469 E0.01814
G1 X48.006 Y106.296 E2.89092
M73 Q3 S215
G1 X48.050 Y106.873 E0.01815
G1 X113.222 Y172.046 E2.89091
G1 X113.265 Y172.622 E0.01814
G1 X48.093 Y107.450 E2.89089
G1 X48.137 Y108.027 E0.01815
G1 X113.309 Y173.199 E2.89088
G1 X113.352 Y173.776 E0.01814
G1 X48.180 Y108.604 E2.89087
G1 X48.224 Y109.181 E0.01815
G1 X113.395 Y174.352 E2.89086
G1 X113.438 Y174.929 E0.01814
G1 X48.267 Y109.758 E2.89085
M73 Q3 S214
G1 X48.311 Y110.335 E0.01815
G1 X113.482 Y175.506 E2.89084
M73 P3 R212
G1 X113.525 Y176.083 E0.01814
G1 X48.354 Y110.912 E2.89083
G1 X48.398 Y111.489 E0.01815
G1 X113.568 Y176.659 E2.89082
G1 X113.611 Y177.236 E0.01814
G1 X48.441 Y112.066 E2.89081
G1 X48.485 Y112.643 E0.01815
G1 X113.655 Y177.813 E2.89079
G1 X113.698 Y178.390 E0.01814
G1 X48.528 Y113.220 E2.89078
G1 X48.572 Y113.797 E0.01815
G1 X113.741 Y178.966 E2.89077
G1 X113.785 Y179.543 E0.01814
G1 X48.615 Y114.374 E2.89076
G1 X48.659 Y114.951 E0.01815
G1 X113.828 Y180.120 E2.89075
G1 X113.871 Y180.696 E0.01814
G1 X48.702 Y115.528 E2.89074
G1 X48.746 Y116.105 E0.01815
G1 X113.914 Y181.273 E2.89073
G1 X113.958 Y181.850 E0.01814
G1 X48.789 Y116.682 E2.89072
G1 X48.833 Y117.259 E0.01815
G1 X114.001 Y182.427 E2.89070
M73 Q3 S213
G1 X114.044 Y183.003 E0.01814
G1 X48.876 Y117.836 E2.89069
M73 P3 R211
G1 X48.920 Y118.413 E0.01815
G1 X114.087 Y183.580 E2.89068
G1 X114.131 Y184.157 E0.01814
G1 X48.963 Y118.990 E2.89067
G1 X49.007 Y119.567 E0.01815
G1 X114.174 Y184.734 E2.89066
G1 X114.217 Y185.310 E0.01814
G1 X48.814 Y119.907 E2.90112
G1 X48.281 Y119.907 E0.01674
G1 X114.260 Y185.887 E2.92671
G1 X114.304 Y186.464 E0.01814
G1 X47.747 Y119.907 E2.95230
G1 X47.214 Y119.907 E0.01674
G1 X114.347 Y187.040 E2.97788
M73 P4 R211
G1 X114.390 Y187.617 E0.01814
G1 X46.680 Y119.907 E3.00347
M73 Q4 S213
G1 X46.146 Y119.907 E0.01674
G1 X114.433 Y188.194 E3.02906
G1 X114.477 Y188.771 E0.01814
G1 X45.613 Y119.907 E3.05465
G1 X45.079 Y119.907 E0.01674
G1 X114.520 Y189.347 E3.08023
G1 X114.563 Y189.924 E0.01814
G1 X44.546 Y119.906 E3.10582
M73 Q4 S212
G1 X44.012 Y119.906 E0.01674
G1 X114.606 Y190.501 E3.13141
M73 P4 R210
G1 X114.650 Y191.078 E0.01814
G1 X43.478 Y119.906 E3.15699
G1 X42.945 Y119.906 E0.01674
G1 X114.644 Y191.605 E3.18039
G1 X114.110 Y191.605 E0.01673
G1 X42.411 Y119.906 E3.18040
G1 X41.878 Y119.906 E0.01674
G1 X113.577 Y191.605 E3.18040
G1 X113.043 Y191.605 E0.01673
G1 X41.344 Y119.906 E3.18041
G1 X40.811 Y119.906 E0.01674
G1 X112.510 Y191.605 E3.18042
G1 X111.977 Y191.605 E0.01673
G1 X40.277 Y119.906 E3.18043
G1 X39.743 Y119.905 E0.01674
G1 X111.443 Y191.605 E3.18043
G1 X110.910 Y191.605 E0.01673
G1 X39.210 Y119.905 E3.18044
G1 X38.946 Y119.905 E0.00827
G1 X38.968 Y120.197 E0.00918
G1 X110.376 Y191.605 E3.16750
G1 X109.843 Y191.605 E0.01673
G1 X39.011 Y120.774 E3.14192
M73 P4 R209
M73 Q4 S211
G1 X39.055 Y121.351 E0.01814
G1 X109.309 Y191.605 E3.11634
