; generated by PrusaSlicer 2.3.0+win64 on 2021-05-02 at 04:06:10 UTC

; 

; external perimeters extrusion width = 0.60mm
; perimeters extrusion width = 0.50mm
; infill extrusion width = 0.50mm
; solid infill extrusion width = 0.50mm
; top infill extrusion width = 0.45mm
; support material extrusion width = 0.38mm
; first layer extrusion width = 0.42mm

M73 P0 R258
M73 Q0 S260
M201 X1000 Y1000 Z200 E5000 ; sets maximum accelerations, mm/sec^2
M203 X200 Y200 Z12 E120 ; sets maximum feedrates, mm/sec
M204 P1250 R1250 T1250 ; sets acceleration (P, T) and retract acceleration (R), mm/sec^2
M205 X8.00 Y8.00 Z0.40 E4.50 ; sets the jerk limits, mm/sec
M205 S0 T0 ; sets the minimum extruding and travel feed rate, mm/sec
M107
;TYPE:Custom
M862.3 P "MK3S" ; printer model check
M862.1 P0.4 ; nozzle diameter check
M115 U3.9.1 ; tell printer latest fw version
G90 ; use absolute coordinates
M83 ; extruder relative mode
M104 S240 ; set extruder temp
M140 S85 ; set bed temp
M190 S85 ; wait for bed temp
M109 S240 ; wait for extruder temp
G28 W ; home all without mesh bed level
G80 ; mesh bed leveling
G1 Y-3.0 F1000.0 ; go outside print area
G92 E0.0
G1 X60.0 E9.0 F1000.0 ; intro line
G1 X100.0 E12.5 F1000.0 ; intro line
G92 E0.0
M221 S95

; Don't change E values below. Excessive value can damage the printer.

M907 E538 ; set extruder motor current
G21 ; set units to millimeters
G90 ; use absolute coordinates
M83 ; use relative distances for extrusion
M900 K0.08 ; Filament gcode LA 1.5
M900 K45 ; Filament gcode LA 1.0
;LAYER_CHANGE
;Z:0.2
;HEIGHT:0.2
;BEFORE_LAYER_CHANGE
G92 E0.0
;0.2


G1 E-1.40000 F2100.000
G1 Z0.200 F10800.000
;AFTER_LAYER_CHANGE
;0.2
G1 Z0.400
G1 X16.072 Y45.358
G1 Z0.200
G1 E1.40000 F2100.000
M204 S1000
;TYPE:Skirt
;WIDTH:0.42
G1 F1200.000
G1 X15.955 Y44.544 E0.02579
G1 X16.744 Y28.648 E0.49903
G1 X16.841 Y28.113 E0.01704
G1 X17.055 Y27.618 E0.01692
G1 X17.453 Y27.105 E0.02036
G1 X18.338 Y26.363 E0.03621
G1 X31.068 Y19.014 E0.46088
G1 X31.626 Y18.794 E0.01882
G1 X32.218 Y18.720 E0.01870
G1 X170.938 Y20.753 E4.34993
G1 X215.270 Y29.532 E1.41697
G1 X216.006 Y29.826 E0.02484
G1 X216.604 Y30.345 E0.02484
G1 X216.999 Y31.032 E0.02484
G1 X217.146 Y31.810 E0.02484
G1 X215.819 Y58.068 E0.82433
G1 X215.654 Y58.562 E0.01633
G1 X187.178 Y120.227 E2.12966
G1 X186.679 Y120.931 E0.02708
G1 X186.196 Y121.294 E0.01894
G1 X148.720 Y142.449 E1.34932
G1 X147.872 Y142.597 E0.02696
G1 X129.153 Y142.258 E0.58702
G1 X128.556 Y142.043 E0.01989
G1 X90.681 Y122.383 E1.33800
G1 X90.211 Y122.065 E0.01780
G1 X16.460 Y46.087 E3.31998
G1 X16.100 Y45.411 E0.02402
;WIPE_START
G1 F8640.000
G1 X15.955 Y44.544 E-0.20297
G1 X16.197 Y39.669 E-1.12703
;WIPE_END
G1 E-0.07000 F2100.000
G1 Z0.400 F10800.000
G1 X152.526 Y104.614
G1 Z0.200
G1 E1.40000 F2100.000
;TYPE:Support material
G1 F1200.000
G1 X152.526 Y79.981 E0.77235
G1 X151.772 Y79.981 E0.02365
G1 X151.772 Y104.444 E0.76703
G1 X151.018 Y104.444 E0.02365
G1 X151.018 Y79.981 E0.76703
G1 X150.264 Y79.981 E0.02365
G1 X150.264 Y104.444 E0.76703
G1 X149.510 Y104.444 E0.02365
G1 X149.510 Y79.981 E0.76703
G1 X148.755 Y79.981 E0.02365
G1 X148.755 Y101.026 E0.65986
G1 X148.001 Y101.019 E0.02365
G1 X148.001 Y79.981 E0.65964
G1 X147.247 Y79.981 E0.02365
G1 X147.247 Y101.012 E0.65941
M73 P0 R257
G1 X146.493 Y101.004 E0.02365
G1 X146.493 Y79.981 E0.65918
G1 X145.739 Y79.981 E0.02365
G1 X145.739 Y100.997 E0.65895
G1 X144.985 Y100.990 E0.02365
G1 X144.985 Y79.981 E0.65872
G1 X144.230 Y79.981 E0.02365
G1 X144.230 Y100.983 E0.65850
G1 X143.476 Y100.975 E0.02365
G1 X143.476 Y79.981 E0.65827
G1 X143.421 Y79.981 E0.00174
G1 X143.386 Y83.605 E0.11363
G1 X142.722 Y84.256 E0.02916
G1 X142.722 Y100.968 E0.52400
G1 X141.968 Y100.961 E0.02365
G1 X141.968 Y84.287 E0.52279
G1 X141.214 Y84.280 E0.02365
G1 X141.214 Y100.954 E0.52279
G1 X140.460 Y100.946 E0.02365
G1 X140.460 Y84.273 E0.52279
G1 X139.705 Y84.266 E0.02365
G1 X139.705 Y100.939 E0.52279
G1 X138.951 Y100.932 E0.02365
G1 X138.951 Y84.258 E0.52278
G1 X138.197 Y84.251 E0.02365
G1 X138.197 Y101.094 E0.52810
;WIPE_START
G1 F8640.000
G1 X138.197 Y95.334 E-1.33000
;WIPE_END
G1 E-0.07000 F2100.000
G1 Z0.400 F10800.000
G1 X135.723 Y82.252
G1 Z0.200
G1 E1.40000 F2100.000
;TYPE:Perimeter
G1 F1200.000
G1 X135.525 Y102.875 E0.64665
M73 Q0 S259
G1 X147.466 Y102.990 E0.37442
G1 X147.115 Y139.401 E1.14172
G1 X130.423 Y139.139 E0.52345
G1 X130.690 Y120.080 E0.59766
G1 X92.584 Y119.482 E1.19494
G1 X94.316 Y87.986 E0.98902
G1 X141.565 Y67.490 E1.61484
G1 X141.423 Y82.306 E0.46457
G1 X135.783 Y82.252 E0.17684
G1 X136.097 Y82.632 F10800.000
;TYPE:External perimeter
G1 F1200.000
G1 X135.905 Y102.501 E0.62300
G1 X147.846 Y102.616 E0.37442
G1 X147.489 Y139.784 E1.16544
G1 X130.040 Y139.511 E0.54715
G1 X130.308 Y120.451 E0.59766
G1 X92.186 Y119.853 E1.19544
G1 X93.952 Y87.733 E1.00862
G1 X141.948 Y66.913 E1.64035
G1 X141.796 Y82.687 E0.49460
G1 X136.157 Y82.633 E0.17684
G1 X135.728 Y82.788 F10800.000
;WIPE_START
G1 F8640.000
G1 X136.084 Y88.392 E-1.33000
;WIPE_END
G1 E-0.07000 F2100.000
G1 Z0.400 F10800.000
G1 X141.443 Y68.411
G1 Z0.200
G1 E1.40000 F2100.000
;TYPE:Solid infill
;WIDTH:0.421074
G1 F1200.000
G1 X141.054 Y68.021 E0.01734
G1 X140.681 Y68.183 E0.01278
G1 X141.270 Y68.772 E0.02622
G1 X141.265 Y69.302 E0.01666
G1 X140.308 Y68.344 E0.04258
G1 X139.935 Y68.506 E0.01278
G1 X141.260 Y69.832 E0.05894
G1 X141.255 Y70.361 E0.01666
G1 X139.562 Y68.668 E0.07530
G1 X139.189 Y68.830 E0.01278
G1 X141.250 Y70.891 E0.09166
G1 X141.245 Y71.421 E0.01666
G1 X138.816 Y68.991 E0.10802
G1 X138.443 Y69.153 E0.01278
G1 X141.240 Y71.950 E0.12438
G1 X141.235 Y72.480 E0.01666
G1 X138.070 Y69.315 E0.14074
G1 X137.697 Y69.477 E0.01278
G1 X141.229 Y73.010 E0.15710
G1 X141.224 Y73.539 E0.01666
G1 X137.324 Y69.639 E0.17346
G1 X136.951 Y69.800 E0.01278
G1 X141.219 Y74.069 E0.18982
G1 X141.214 Y74.599 E0.01666
G1 X136.578 Y69.962 E0.20618
G1 X136.205 Y70.124 E0.01278
G1 X141.209 Y75.129 E0.22254
G1 X141.204 Y75.658 E0.01666
G1 X135.832 Y70.286 E0.23890
G1 X135.459 Y70.448 E0.01278
G1 X141.199 Y76.188 E0.25526
G1 X141.194 Y76.718 E0.01666
G1 X135.086 Y70.609 E0.27162
G1 X134.713 Y70.771 E0.01278
G1 X141.189 Y77.247 E0.28798
G1 X141.184 Y77.777 E0.01666
G1 X134.340 Y70.933 E0.30434
G1 X133.967 Y71.095 E0.01278
G1 X141.179 Y78.307 E0.32070
G1 X141.173 Y78.836 E0.01666
G1 X133.594 Y71.257 E0.33706
G1 X133.221 Y71.418 E0.01278
G1 X141.168 Y79.366 E0.35342
G1 X141.163 Y79.896 E0.01666
G1 X132.848 Y71.580 E0.36978
G1 X132.475 Y71.742 E0.01278
G1 X141.158 Y80.425 E0.38614
G1 X141.153 Y80.955 E0.01666
G1 X132.102 Y71.904 E0.40250
G1 X131.729 Y72.066 E0.01278
G1 X141.148 Y81.485 E0.41885
G1 X141.143 Y82.015 E0.01666
G1 X131.356 Y72.227 E0.43521
G1 X130.983 Y72.389 E0.01278
G1 X140.609 Y82.016 E0.42807
G1 X140.069 Y82.011 E0.01698
G1 X130.610 Y72.551 E0.42065
G1 X130.237 Y72.713 E0.01278
G1 X139.529 Y82.005 E0.41322
G1 X138.989 Y82.000 E0.01698
G1 X129.864 Y72.875 E0.40580
G1 X129.491 Y73.036 E0.01278
G1 X138.449 Y81.995 E0.39837
G1 X137.909 Y81.990 E0.01698
G1 X129.118 Y73.198 E0.39095
G1 X128.745 Y73.360 E0.01278
G1 X137.369 Y81.985 E0.38352
G1 X136.829 Y81.980 E0.01698
G1 X128.372 Y73.522 E0.37610
G1 X127.999 Y73.684 E0.01278
G1 X136.289 Y81.974 E0.36867
G1 X135.750 Y81.969 E0.01698
G1 X127.626 Y73.845 E0.36125
G1 X127.253 Y74.007 E0.01278
G1 X135.441 Y82.195 E0.36411
G1 X135.436 Y82.725 E0.01666
G1 X126.880 Y74.169 E0.38047
G1 X126.507 Y74.331 E0.01278
G1 X135.431 Y83.255 E0.39683
G1 X135.426 Y83.784 E0.01666
G1 X126.134 Y74.493 E0.41319
G1 X125.761 Y74.654 E0.01278
G1 X135.421 Y84.314 E0.42955
G1 X135.415 Y84.844 E0.01666
G1 X125.388 Y74.816 E0.44591
G1 X125.015 Y74.978 E0.01278
G1 X135.410 Y85.373 E0.46227
M73 P0 R256
G1 X135.405 Y85.903 E0.01666
G1 X124.642 Y75.140 E0.47863
G1 X124.269 Y75.302 E0.01278
G1 X135.400 Y86.433 E0.49499
G1 X135.395 Y86.963 E0.01666
G1 X123.896 Y75.463 E0.51135
G1 X123.523 Y75.625 E0.01278
G1 X135.390 Y87.492 E0.52771
G1 X135.385 Y88.022 E0.01666
G1 X123.150 Y75.787 E0.54407
G1 X122.777 Y75.949 E0.01278
G1 X135.380 Y88.552 E0.56042
G1 X135.375 Y89.081 E0.01666
G1 X122.404 Y76.111 E0.57678
G1 X122.031 Y76.272 E0.01278
G1 X135.370 Y89.611 E0.59314
G1 X135.364 Y90.141 E0.01666
G1 X121.658 Y76.434 E0.60950
G1 X121.285 Y76.596 E0.01278
G1 X135.359 Y90.670 E0.62586
G1 X135.354 Y91.200 E0.01666
G1 X120.912 Y76.758 E0.64222
G1 X120.539 Y76.920 E0.01278
G1 X135.349 Y91.730 E0.65858
G1 X135.344 Y92.260 E0.01666
G1 X120.166 Y77.081 E0.67494
G1 X119.793 Y77.243 E0.01278
G1 X135.339 Y92.789 E0.69130
M73 Q0 S258
G1 X135.334 Y93.319 E0.01666
G1 X119.420 Y77.405 E0.70766
G1 X119.047 Y77.567 E0.01278
G1 X135.329 Y93.849 E0.72402
G1 X135.324 Y94.378 E0.01666
G1 X118.674 Y77.729 E0.74038
G1 X118.301 Y77.890 E0.01278
G1 X135.319 Y94.908 E0.75674
G1 X135.313 Y95.438 E0.01666
G1 X117.928 Y78.052 E0.77310
G1 X117.555 Y78.214 E0.01278
G1 X135.308 Y95.967 E0.78946
G1 X135.303 Y96.497 E0.01666
G1 X117.182 Y78.376 E0.80582
G1 X116.809 Y78.538 E0.01278
G1 X135.298 Y97.027 E0.82218
G1 X135.293 Y97.556 E0.01666
G1 X116.436 Y78.699 E0.83854
G1 X116.063 Y78.861 E0.01278
G1 X135.288 Y98.086 E0.85490
G1 X135.283 Y98.616 E0.01666
G1 X115.690 Y79.023 E0.87126
G1 X115.317 Y79.185 E0.01278
G1 X135.278 Y99.146 E0.88762
G1 X135.273 Y99.675 E0.01666
G1 X114.944 Y79.347 E0.90398
G1 X114.571 Y79.508 E0.01278
G1 X135.268 Y100.205 E0.92034
G1 X135.263 Y100.735 E0.01666
G1 X114.198 Y79.670 E0.93670
G1 X113.825 Y79.832 E0.01278
G1 X135.257 Y101.264 E0.95306
G1 X135.252 Y101.794 E0.01666
G1 X113.452 Y79.994 E0.96942
G1 X113.079 Y80.155 E0.01278
G1 X135.415 Y102.492 E0.99325
;WIPE_START
G1 F8640.000
G1 X131.342 Y98.419 E-1.33000
;WIPE_END
G1 E-0.07000 F2100.000
G1 Z0.400 F10800.000
G1 X146.715 Y103.095
G1 Z0.200
G1 E1.40000 F2100.000
G1 F1200.000
G1 X147.178 Y103.558 E0.02058
G1 X147.172 Y104.088 E0.01666
G1 X146.346 Y103.262 E0.03674
G1 X145.806 Y103.256 E0.01698
G1 X147.167 Y104.618 E0.06053
G1 X147.162 Y105.147 E0.01666
G1 X145.266 Y103.251 E0.08432
G1 X144.726 Y103.246 E0.01698
G1 X147.157 Y105.677 E0.10810
G1 X147.152 Y106.207 E0.01666
G1 X144.186 Y103.241 E0.13189
G1 X143.646 Y103.236 E0.01698
G1 X147.147 Y106.736 E0.15567
G1 X147.142 Y107.266 E0.01666
G1 X143.106 Y103.230 E0.17946
G1 X142.566 Y103.225 E0.01698
G1 X147.137 Y107.796 E0.20324
G1 X147.132 Y108.325 E0.01666
G1 X142.026 Y103.220 E0.22703
G1 X141.486 Y103.215 E0.01698
G1 X147.127 Y108.855 E0.25081
G1 X147.121 Y109.385 E0.01666
G1 X140.946 Y103.210 E0.27460
G1 X140.406 Y103.204 E0.01698
G1 X147.116 Y109.915 E0.29839
G1 X147.111 Y110.444 E0.01666
G1 X139.866 Y103.199 E0.32217
G1 X139.326 Y103.194 E0.01698
G1 X147.106 Y110.974 E0.34596
G1 X147.101 Y111.504 E0.01666
G1 X138.786 Y103.189 E0.36974
G1 X138.246 Y103.184 E0.01698
G1 X147.096 Y112.033 E0.39353
G1 X147.091 Y112.563 E0.01666
G1 X137.706 Y103.178 E0.41731
G1 X137.166 Y103.173 E0.01698
G1 X147.086 Y113.093 E0.44110
G1 X147.081 Y113.622 E0.01666
G1 X136.626 Y103.168 E0.46489
G1 X136.086 Y103.163 E0.01698
G1 X147.076 Y114.152 E0.48867
G1 X147.070 Y114.682 E0.01666
G1 X112.706 Y80.317 E1.52812
M73 P1 R256
G1 X112.333 Y80.479 E0.01278
G1 X147.065 Y115.211 E1.54448
M73 Q1 S258
G1 X147.060 Y115.741 E0.01666
G1 X111.960 Y80.641 E1.56084
G1 X111.587 Y80.803 E0.01278
G1 X147.055 Y116.271 E1.57720
G1 X147.050 Y116.801 E0.01666
G1 X111.214 Y80.964 E1.59356
M73 P1 R255
G1 X110.841 Y81.126 E0.01278
G1 X147.045 Y117.330 E1.60992
G1 X147.040 Y117.860 E0.01666
G1 X110.468 Y81.288 E1.62628
G1 X110.095 Y81.450 E0.01278
G1 X147.035 Y118.390 E1.64264
G1 X147.030 Y118.919 E0.01666
G1 X109.722 Y81.612 E1.65900
G1 X109.349 Y81.773 E0.01278
G1 X147.025 Y119.449 E1.67536
M73 Q1 S257
G1 X147.020 Y119.979 E0.01666
G1 X108.976 Y81.935 E1.69172
G1 X108.603 Y82.097 E0.01278
G1 X147.014 Y120.508 E1.70808
G1 X147.009 Y121.038 E0.01666
G1 X108.230 Y82.259 E1.72444
G1 X107.857 Y82.421 E0.01278
G1 X147.004 Y121.568 E1.74079
G1 X146.999 Y122.097 E0.01666
G1 X107.484 Y82.582 E1.75715
G1 X107.111 Y82.744 E0.01278
G1 X146.994 Y122.627 E1.77351
G1 X146.989 Y123.157 E0.01666
G1 X106.738 Y82.906 E1.78987
G1 X106.365 Y83.068 E0.01278
G1 X146.984 Y123.687 E1.80623
G1 X146.979 Y124.216 E0.01666
G1 X105.992 Y83.230 E1.82259
G1 X105.619 Y83.391 E0.01278
G1 X146.974 Y124.746 E1.83895
G1 X146.969 Y125.276 E0.01666
G1 X105.246 Y83.553 E1.85531
G1 X104.873 Y83.715 E0.01278
G1 X146.963 Y125.805 E1.87167
G1 X146.958 Y126.335 E0.01666
G1 X104.500 Y83.877 E1.88803
G1 X104.127 Y84.039 E0.01278
G1 X146.953 Y126.865 E1.90439
G1 X146.948 Y127.394 E0.01666
G1 X103.754 Y84.200 E1.92075
G1 X103.381 Y84.362 E0.01278
G1 X146.943 Y127.924 E1.93711
M73 P1 R254
G1 X146.938 Y128.454 E0.01666
G1 X103.008 Y84.524 E1.95347
G1 X102.635 Y84.686 E0.01278
G1 X146.933 Y128.983 E1.96983
G1 X146.928 Y129.513 E0.01666
G1 X102.262 Y84.848 E1.98619
G1 X101.889 Y85.009 E0.01278
G1 X146.923 Y130.043 E2.00255
G1 X146.918 Y130.573 E0.01666
G1 X101.516 Y85.171 E2.01891
M73 Q1 S256
G1 X101.143 Y85.333 E0.01278
G1 X146.913 Y131.102 E2.03527
G1 X146.907 Y131.632 E0.01666
G1 X100.770 Y85.495 E2.05163
G1 X100.397 Y85.657 E0.01278
G1 X146.902 Y132.162 E2.06799
G1 X146.897 Y132.691 E0.01666
G1 X100.024 Y85.818 E2.08435
G1 X99.651 Y85.980 E0.01278
G1 X146.892 Y133.221 E2.10071
G1 X146.887 Y133.751 E0.01666
G1 X99.278 Y86.142 E2.11707
G1 X98.905 Y86.304 E0.01278
G1 X146.882 Y134.280 E2.13343
G1 X146.877 Y134.810 E0.01666
G1 X98.532 Y86.466 E2.14979
G1 X98.159 Y86.627 E0.01278
G1 X146.872 Y135.340 E2.16615
G1 X146.867 Y135.870 E0.01666
G1 X97.786 Y86.789 E2.18251
G1 X97.413 Y86.951 E0.01278
G1 X130.252 Y119.790 E1.46029
G1 X129.709 Y119.782 E0.01709
G1 X97.040 Y87.113 E1.45271
G1 X96.667 Y87.275 E0.01278
G1 X129.166 Y119.773 E1.44514
G1 X128.622 Y119.764 E0.01709
G1 X96.294 Y87.436 E1.43757
G1 X95.921 Y87.598 E0.01278
G1 X128.079 Y119.756 E1.42999
M73 P1 R253
G1 X127.536 Y119.747 E0.01709
G1 X95.548 Y87.760 E1.42242
G1 X95.175 Y87.922 E0.01278
G1 X126.992 Y119.739 E1.41484
G1 X126.449 Y119.730 E0.01709
G1 X94.802 Y88.084 E1.40727
G1 X94.589 Y88.176 E0.00731
G1 X94.577 Y88.393 E0.00683
G1 X125.906 Y119.722 E1.39313
G1 X125.363 Y119.713 E0.01709
G1 X94.549 Y88.900 E1.37021
G1 X94.521 Y89.407 E0.01596
M73 Q1 S255
G1 X124.819 Y119.705 E1.34729
G1 X124.276 Y119.696 E0.01709
G1 X94.493 Y89.914 E1.32437
G1 X94.466 Y90.421 E0.01596
G1 X123.733 Y119.688 E1.30145
G1 X123.189 Y119.679 E0.01709
G1 X94.438 Y90.928 E1.27853
G1 X94.410 Y91.434 E0.01596
G1 X122.646 Y119.671 E1.25561
G1 X122.103 Y119.662 E0.01709
G1 X94.382 Y91.941 E1.23269
M73 P2 R253
G1 X94.354 Y92.448 E0.01596
G1 X121.559 Y119.654 E1.20977
M73 Q2 S255
G1 X121.016 Y119.645 E0.01709
G1 X94.326 Y92.955 E1.18685
G1 X94.298 Y93.462 E0.01596
G1 X120.473 Y119.637 E1.16393
G1 X119.929 Y119.628 E0.01709
G1 X94.270 Y93.969 E1.14101
G1 X94.242 Y94.476 E0.01596
G1 X119.386 Y119.620 E1.11809
G1 X118.843 Y119.611 E0.01709
G1 X94.215 Y94.983 E1.09517
G1 X94.187 Y95.490 E0.01596
G1 X118.299 Y119.603 E1.07225
G1 X117.756 Y119.594 E0.01709
G1 X94.159 Y95.997 E1.04932
G1 X94.131 Y96.504 E0.01596
G1 X117.213 Y119.585 E1.02640
G1 X116.670 Y119.577 E0.01709
G1 X94.103 Y97.011 E1.00348
G1 X94.075 Y97.517 E0.01596
G1 X116.126 Y119.568 E0.98056
G1 X115.583 Y119.560 E0.01709
G1 X94.047 Y98.024 E0.95764
G1 X94.019 Y98.531 E0.01596
G1 X115.040 Y119.551 E0.93472
G1 X114.496 Y119.543 E0.01709
G1 X93.992 Y99.038 E0.91180
G1 X93.964 Y99.545 E0.01596
G1 X113.953 Y119.534 E0.88888
G1 X113.410 Y119.526 E0.01709
G1 X93.936 Y100.052 E0.86596
G1 X93.908 Y100.559 E0.01596
G1 X112.866 Y119.517 E0.84304
G1 X112.323 Y119.509 E0.01709
G1 X93.880 Y101.066 E0.82012
G1 X93.852 Y101.573 E0.01596
G1 X111.780 Y119.500 E0.79720
G1 X111.236 Y119.492 E0.01709
G1 X93.824 Y102.080 E0.77428
G1 X93.796 Y102.587 E0.01596
G1 X110.693 Y119.483 E0.75136
G1 X110.150 Y119.475 E0.01709
G1 X93.769 Y103.093 E0.72844
M73 P2 R252
G1 X93.741 Y103.600 E0.01596
G1 X109.606 Y119.466 E0.70552
G1 X109.063 Y119.458 E0.01709
G1 X93.713 Y104.107 E0.68260
G1 X93.685 Y104.614 E0.01596
G1 X108.520 Y119.449 E0.65968
G1 X107.976 Y119.441 E0.01709
G1 X93.657 Y105.121 E0.63676
G1 X93.629 Y105.628 E0.01596
