; generated by PrusaSlicer 2.3.0+win64 on 2021-05-02 at 03:50:48 UTC

; 

; external perimeters extrusion width = 0.60mm
; perimeters extrusion width = 0.50mm
; infill extrusion width = 0.50mm
; solid infill extrusion width = 0.50mm
; top infill extrusion width = 0.45mm
; support material extrusion width = 0.38mm
; first layer extrusion width = 0.42mm

M73 P0 R162
M73 Q0 S163
M201 X1000 Y1000 Z200 E5000 ; sets maximum accelerations, mm/sec^2
M203 X200 Y200 Z12 E120 ; sets maximum feedrates, mm/sec
M204 P1250 R1250 T1250 ; sets acceleration (P, T) and retract acceleration (R), mm/sec^2
M205 X8.00 Y8.00 Z0.40 E4.50 ; sets the jerk limits, mm/sec
M205 S0 T0 ; sets the minimum extruding and travel feed rate, mm/sec
M107
;TYPE:Custom
M862.3 P "MK3S" ; printer model check
M862.1 P0.4 ; nozzle diameter check
M115 U3.9.1 ; tell printer latest fw version
G90 ; use absolute coordinates
M83 ; extruder relative mode
M104 S240 ; set extruder temp
M140 S85 ; set bed temp
M190 S85 ; wait for bed temp
M109 S240 ; wait for extruder temp
G28 W ; home all without mesh bed level
G80 ; mesh bed leveling
G1 Y-3.0 F1000.0 ; go outside print area
G92 E0.0
G1 X60.0 E9.0 F1000.0 ; intro line
G1 X100.0 E12.5 F1000.0 ; intro line
G92 E0.0
M221 S95

; Don't change E values below. Excessive value can damage the printer.

M907 E538 ; set extruder motor current
G21 ; set units to millimeters
G90 ; use absolute coordinates
M83 ; use relative distances for extrusion
M900 K0.08 ; Filament gcode LA 1.5
M900 K45 ; Filament gcode LA 1.0
;LAYER_CHANGE
;Z:0.2
;HEIGHT:0.2
;BEFORE_LAYER_CHANGE
G92 E0.0
;0.2


G1 E-1.40000 F2100.000
G1 Z0.200 F10800.000
;AFTER_LAYER_CHANGE
;0.2
G1 Z0.400
G1 X14.506 Y26.631
G1 Z0.200
G1 E1.40000 F2100.000
M204 S1000
;TYPE:Skirt
;WIDTH:0.42
G1 F1200.000
G1 X14.912 Y26.095 E0.02107
G1 X15.804 Y25.344 E0.03657
G1 X28.538 Y17.994 E0.46100
G1 X29.096 Y17.773 E0.01882
G1 X29.688 Y17.700 E0.01870
G1 X168.408 Y19.733 E4.34993
M73 P0 R161
G1 X212.739 Y28.512 E1.41697
G1 X213.475 Y28.806 E0.02484
G1 X214.074 Y29.325 E0.02484
G1 X214.468 Y30.012 E0.02484
G1 X214.615 Y30.790 E0.02484
G1 X213.288 Y57.048 E0.82433
G1 X213.124 Y57.542 E0.01633
G1 X184.648 Y119.207 E2.12966
G1 X184.194 Y119.866 E0.02508
G1 X183.817 Y120.180 E0.01538
G1 X183.388 Y120.408 E0.01526
G1 X182.917 Y120.546 E0.01538
G1 X182.431 Y120.583 E0.01526
G1 X152.818 Y119.084 E0.92970
G1 X152.230 Y118.874 E0.01957
G1 X26.964 Y54.492 E4.41604
G1 X14.290 Y45.436 E0.48839
G1 X13.920 Y45.054 E0.01668
G1 X13.645 Y44.603 E0.01657
G1 X13.476 Y44.098 E0.01668
G1 X13.424 Y43.572 E0.01657
G1 X14.213 Y27.631 E0.50042
G1 X14.304 Y27.115 E0.01645
G1 X14.483 Y26.686 E0.01457
;WIPE_START
G1 F8640.000
G1 X14.912 Y26.095 E-0.16860
G1 X15.804 Y25.344 E-0.26928
G1 X19.150 Y23.413 E-0.89212
;WIPE_END
G1 E-0.07000 F2100.000
G1 Z0.400 F10800.000
G1 X112.337 Y36.986
G1 Z0.200
G1 E1.40000 F2100.000
;TYPE:Perimeter
G1 F1200.000
G1 X112.449 Y36.354 E0.02014
G1 X112.668 Y35.750 E0.02013
G1 X112.984 Y35.192 E0.02010
G1 X113.391 Y34.695 E0.02014
G1 X113.876 Y34.275 E0.02013
G1 X114.425 Y33.942 E0.02012
G1 X115.023 Y33.707 E0.02015
G1 X115.651 Y33.576 E0.02012
G1 X116.262 Y33.555 E0.01919
G1 X116.926 Y33.639 E0.02098
G1 X117.541 Y33.832 E0.02020
G1 X118.112 Y34.125 E0.02012
G1 X118.626 Y34.510 E0.02013
G1 X119.066 Y34.977 E0.02012
G1 X119.422 Y35.511 E0.02012
G1 X119.682 Y36.098 E0.02013
G1 X119.839 Y36.720 E0.02011
G1 X119.889 Y37.360 E0.02012
G1 X119.830 Y37.999 E0.02014
G1 X119.664 Y38.619 E0.02013
G1 X119.395 Y39.203 E0.02013
G1 X119.032 Y39.731 E0.02011
G1 X118.585 Y40.192 E0.02013
G1 X118.066 Y40.570 E0.02013
G1 X117.491 Y40.855 E0.02013
G1 X116.876 Y41.038 E0.02012
G1 X116.256 Y41.113 E0.01960
G1 X115.917 Y41.111 E0.01060
G1 X115.581 Y41.080 E0.01059
G1 X114.971 Y40.944 E0.01960
G1 X114.377 Y40.700 E0.02012
G1 X113.833 Y40.360 E0.02013
G1 X113.354 Y39.933 E0.02012
G1 X112.954 Y39.430 E0.02014
G1 X112.645 Y38.868 E0.02013
G1 X112.436 Y38.261 E0.02013
G1 X112.332 Y37.627 E0.02012
G1 X112.336 Y37.046 E0.01823
G1 X112.713 Y37.049 F10800.000
;TYPE:External perimeter
G1 F1200.000
G1 X112.815 Y36.451 E0.01899
G1 X113.012 Y35.908 E0.01812
G1 X113.296 Y35.406 E0.01810
G1 X113.663 Y34.959 E0.01812
G1 X114.099 Y34.581 E0.01811
G1 X114.593 Y34.281 E0.01811
G1 X115.131 Y34.070 E0.01813
G1 X115.696 Y33.952 E0.01811
G1 X116.245 Y33.933 E0.01722
G1 X116.845 Y34.009 E0.01897
G1 X117.397 Y34.182 E0.01813
G1 X117.911 Y34.446 E0.01812
G1 X118.373 Y34.793 E0.01812
G1 X118.770 Y35.212 E0.01811
G1 X119.090 Y35.693 E0.01811
G1 X119.324 Y36.221 E0.01812
G1 X119.466 Y36.781 E0.01810
G1 X119.511 Y37.357 E0.01811
G1 X119.458 Y37.933 E0.01812
G1 X119.308 Y38.491 E0.01811
G1 X119.066 Y39.015 E0.01812
G1 X118.740 Y39.491 E0.01810
G1 X118.337 Y39.906 E0.01811
G1 X117.870 Y40.246 E0.01811
G1 X117.353 Y40.503 E0.01812
G1 X116.799 Y40.668 E0.01811
G1 X116.234 Y40.736 E0.01784
G1 X115.936 Y40.734 E0.00934
G1 X115.640 Y40.707 E0.00933
G1 X115.085 Y40.583 E0.01784
G1 X114.550 Y40.364 E0.01811
G1 X114.060 Y40.057 E0.01812
G1 X113.629 Y39.673 E0.01811
G1 X113.270 Y39.220 E0.01812
G1 X112.991 Y38.714 E0.01811
G1 X112.803 Y38.168 E0.01811
G1 X112.709 Y37.598 E0.01811
G1 X112.713 Y37.109 E0.01534
G1 X112.385 Y36.820 F10800.000
;WIPE_START
G1 F8640.000
G1 X112.815 Y36.451 E-0.15356
G1 X113.012 Y35.908 E-0.13341
G1 X113.296 Y35.406 E-0.13327
G1 X113.663 Y34.959 E-0.13347
G1 X114.099 Y34.581 E-0.13339
G1 X114.593 Y34.281 E-0.13333
G1 X115.131 Y34.070 E-0.13353
G1 X115.696 Y33.952 E-0.13333
G1 X116.245 Y33.933 E-0.12683
G1 X116.743 Y33.996 E-0.11587
;WIPE_END
G1 E-0.07000 F2100.000
G1 Z0.400 F10800.000
G1 X186.801 Y38.561
M73 Q0 S162
G1 Z0.200
G1 E1.40000 F2100.000
;TYPE:Perimeter
G1 F1200.000
G1 X186.833 Y37.912 E0.02040
G1 X186.972 Y37.289 E0.02000
G1 X187.216 Y36.695 E0.02014
G1 X187.556 Y36.150 E0.02014
G1 X187.984 Y35.671 E0.02015
G1 X188.487 Y35.271 E0.02013
G1 X189.050 Y34.961 E0.02016
G1 X189.658 Y34.752 E0.02015
G1 X190.291 Y34.648 E0.02012
G1 X190.933 Y34.652 E0.02015
G1 X191.565 Y34.765 E0.02013
G1 X192.170 Y34.984 E0.02014
G1 X192.728 Y35.301 E0.02014
G1 X193.225 Y35.708 E0.02014
G1 X193.646 Y36.193 E0.02014
G1 X193.979 Y36.742 E0.02012
G1 X194.215 Y37.340 E0.02016
G1 X194.345 Y37.969 E0.02015
G1 X194.368 Y38.611 E0.02013
G1 X194.281 Y39.247 E0.02014
G1 X194.090 Y39.860 E0.02014
G1 X193.796 Y40.432 E0.02016
G1 X193.410 Y40.946 E0.02013
G1 X192.944 Y41.387 E0.02014
G1 X192.409 Y41.743 E0.02014
G1 X191.821 Y42.003 E0.02014
G1 X191.198 Y42.161 E0.02015
G1 X190.559 Y42.210 E0.02012
G1 X189.919 Y42.152 E0.02014
G1 X189.299 Y41.985 E0.02013
G1 X188.715 Y41.717 E0.02014
G1 X188.185 Y41.353 E0.02015
G1 X187.725 Y40.906 E0.02012
G1 X187.346 Y40.386 E0.02016
G1 X187.061 Y39.810 E0.02015
G1 X186.877 Y39.195 E0.02012
G1 X186.808 Y38.621 E0.01814
G1 X187.182 Y38.576 F10800.000
;TYPE:External perimeter
G1 F1200.000
G1 X187.208 Y37.962 E0.01925
G1 X187.333 Y37.402 E0.01799
G1 X187.552 Y36.867 E0.01813
G1 X187.859 Y36.377 E0.01812
G1 X188.244 Y35.946 E0.01814
G1 X188.696 Y35.586 E0.01812
G1 X189.203 Y35.307 E0.01814
G1 X189.750 Y35.119 E0.01814
G1 X190.320 Y35.025 E0.01811
G1 X190.898 Y35.029 E0.01813
G1 X191.467 Y35.131 E0.01812
G1 X192.011 Y35.327 E0.01813
G1 X192.514 Y35.613 E0.01813
G1 X192.961 Y35.979 E0.01812
G1 X193.340 Y36.416 E0.01813
G1 X193.640 Y36.910 E0.01812
G1 X193.852 Y37.448 E0.01814
G1 X193.969 Y38.015 E0.01813
G1 X193.990 Y38.592 E0.01812
G1 X193.912 Y39.165 E0.01813
G1 X193.740 Y39.717 E0.01812
G1 X193.475 Y40.231 E0.01814
G1 X193.128 Y40.694 E0.01812
G1 X192.708 Y41.091 E0.01812
G1 X192.227 Y41.411 E0.01813
G1 X191.698 Y41.645 E0.01813
G1 X191.137 Y41.787 E0.01813
G1 X190.561 Y41.832 E0.01811
G1 X189.985 Y41.779 E0.01813
G1 X189.427 Y41.629 E0.01812
G1 X188.902 Y41.387 E0.01813
G1 X188.425 Y41.060 E0.01814
G1 X188.011 Y40.657 E0.01811
G1 X187.670 Y40.190 E0.01814
G1 X187.413 Y39.672 E0.01813
G1 X187.248 Y39.118 E0.01811
G1 X187.190 Y38.635 E0.01525
G1 X186.828 Y38.390 F10800.000
;WIPE_START
G1 F8640.000
G1 X187.208 Y37.962 E-0.15546
G1 X187.333 Y37.402 E-0.13250
G1 X187.552 Y36.867 E-0.13352
G1 X187.859 Y36.377 E-0.13345
G1 X188.244 Y35.946 E-0.13356
G1 X188.696 Y35.586 E-0.13343
G1 X189.203 Y35.307 E-0.13360
G1 X189.750 Y35.119 E-0.13356
G1 X190.320 Y35.025 E-0.13338
G1 X190.786 Y35.028 E-0.10754
;WIPE_END
G1 E-0.07000 F2100.000
G1 Z0.400 F10800.000
G1 X43.697 Y36.245
G1 Z0.200
G1 E1.40000 F2100.000
;TYPE:Perimeter
G1 F1200.000
G1 X43.638 Y36.884 E0.02011
G1 X43.472 Y37.504 E0.02013
G1 X43.204 Y38.087 E0.02012
G1 X42.857 Y38.592 E0.01920
G1 X42.395 Y39.075 E0.02097
G1 X41.874 Y39.455 E0.02020
G1 X41.299 Y39.739 E0.02012
G1 X40.684 Y39.923 E0.02013
G1 X40.063 Y39.998 E0.01960
G1 X39.726 Y39.996 E0.01058
G1 X39.389 Y39.965 E0.01060
G1 X38.779 Y39.828 E0.01960
G1 X38.185 Y39.585 E0.02013
G1 X37.641 Y39.245 E0.02012
G1 X37.162 Y38.817 E0.02014
G1 X36.763 Y38.315 E0.02012
G1 X36.454 Y37.752 E0.02011
G1 X36.244 Y37.146 E0.02014
G1 X36.141 Y36.512 E0.02013
G1 X36.145 Y35.870 E0.02012
G1 X36.258 Y35.238 E0.02013
G1 X36.476 Y34.635 E0.02011
G1 X36.793 Y34.077 E0.02014
G1 X37.199 Y33.580 E0.02012
G1 X37.684 Y33.159 E0.02012
G1 X38.233 Y32.827 E0.02014
G1 X38.831 Y32.592 E0.02012
G1 X39.459 Y32.461 E0.02012
G1 X40.071 Y32.439 E0.01920
G1 X40.734 Y32.524 E0.02097
G1 X41.348 Y32.717 E0.02019
G1 X41.920 Y33.009 E0.02014
G1 X42.434 Y33.395 E0.02013
G1 X42.874 Y33.861 E0.02013
G1 X43.230 Y34.396 E0.02012
G1 X43.490 Y34.983 E0.02013
G1 X43.648 Y35.605 E0.02013
G1 X43.693 Y36.185 E0.01824
G1 X43.317 Y36.214 F10800.000
;TYPE:External perimeter
G1 F1200.000
G1 X43.266 Y36.817 E0.01898
G1 X43.116 Y37.375 E0.01812
G1 X42.875 Y37.900 E0.01811
G1 X42.564 Y38.353 E0.01724
G1 X42.146 Y38.790 E0.01896
G1 X41.678 Y39.131 E0.01814
G1 X41.161 Y39.387 E0.01811
G1 X40.607 Y39.552 E0.01812
G1 X40.042 Y39.621 E0.01784
G1 X39.745 Y39.619 E0.00933
G1 X39.448 Y39.591 E0.00934
G1 X38.893 Y39.467 E0.01784
G1 X38.358 Y39.248 E0.01812
G1 X37.868 Y38.942 E0.01811
G1 X37.437 Y38.557 E0.01812
G1 X37.078 Y38.105 E0.01811
G1 X36.800 Y37.599 E0.01811
G1 X36.611 Y37.053 E0.01812
G1 X36.518 Y36.483 E0.01811
G1 X36.522 Y35.905 E0.01811
G1 X36.624 Y35.336 E0.01811
G1 X36.819 Y34.793 E0.01810
G1 X37.105 Y34.291 E0.01812
G1 X37.471 Y33.844 E0.01811
G1 X37.907 Y33.465 E0.01811
G1 X38.401 Y33.166 E0.01812
G1 X38.939 Y32.954 E0.01811
G1 X39.504 Y32.837 E0.01811
G1 X40.054 Y32.817 E0.01724
G1 X40.653 Y32.893 E0.01895
G1 X41.205 Y33.067 E0.01813
G1 X41.720 Y33.330 E0.01813
G1 X42.181 Y33.677 E0.01811
G1 X42.578 Y34.097 E0.01812
G1 X42.898 Y34.578 E0.01811
G1 X43.133 Y35.106 E0.01812
G1 X43.274 Y35.666 E0.01811
G1 X43.312 Y36.154 E0.01534
G1 X43.663 Y36.414 F10800.000
;WIPE_START
G1 F8640.000
G1 X43.266 Y36.817 E-0.15346
G1 X43.116 Y37.375 E-0.13342
G1 X42.875 Y37.900 E-0.13334
G1 X42.564 Y38.353 E-0.12693
G1 X42.146 Y38.790 E-0.13963
G1 X41.678 Y39.131 E-0.13359
G1 X41.161 Y39.387 E-0.13339
G1 X40.607 Y39.552 E-0.13342
G1 X40.042 Y39.621 E-0.13136
G1 X39.745 Y39.619 E-0.06868
G1 X39.560 Y39.602 E-0.04278
;WIPE_END
G1 E-0.07000 F2100.000
G1 Z0.400 F10800.000
G1 X29.862 Y32.352
G1 Z0.200
G1 E1.40000 F2100.000
;TYPE:Perimeter
G1 F1200.000
G1 X30.427 Y20.972 E0.35726
G1 X167.467 Y22.978 E4.29725
G1 X167.348 Y31.063 E0.25353
G1 X211.408 Y31.708 E1.38161
G1 X210.215 Y55.751 E0.75477
G1 X197.814 Y55.569 E0.38889
G1 X195.551 Y55.732 E0.07114
G1 X193.315 Y56.291 E0.07226
G1 X191.206 Y57.228 E0.07236
G1 X189.284 Y58.514 E0.07250
G1 X187.606 Y60.112 E0.07266
G1 X186.218 Y61.974 E0.07282
G1 X185.164 Y64.048 E0.07295
G1 X184.471 Y66.272 E0.07304
G1 X184.165 Y68.550 E0.07206
G1 X181.744 Y117.382 E1.53297
G1 X178.242 Y117.208 E0.10994
G1 X179.500 Y91.839 E0.79640
G1 X162.127 Y90.978 E0.54540
G1 X158.901 Y90.818 E0.10125
G1 X157.643 Y116.187 E0.79640
G1 X154.142 Y116.013 E0.10993
G1 X156.542 Y67.611 E1.51948
G1 X156.478 Y65.451 E0.06776
G1 X156.069 Y63.298 E0.06869
G1 X155.326 Y61.240 E0.06861
G1 X154.269 Y59.328 E0.06850
G1 X152.923 Y57.612 E0.06838
G1 X151.323 Y56.137 E0.06823
G1 X149.511 Y54.940 E0.06809
G1 X147.533 Y54.053 E0.06799
G1 X145.439 Y53.498 E0.06792
G1 X143.316 Y53.293 E0.06687
G1 X28.907 Y51.618 E3.58759
M73 P0 R160
G1 X29.469 Y40.293 E0.35553
G1 X22.130 Y39.929 E0.23039
G1 X16.631 Y42.751 E0.19377
G1 X17.331 Y28.637 E0.44307
G1 X22.523 Y31.988 E0.19377
G1 X29.802 Y32.349 E0.22851
G1 X29.504 Y31.957 F10800.000
;TYPE:External perimeter
G1 F1200.000
G1 X30.068 Y20.590 E0.35685
G1 X167.849 Y22.606 E4.32049
G1 X167.730 Y30.691 E0.25353
G1 X211.804 Y31.337 E1.38203
G1 X210.574 Y56.133 E0.77843
G1 X197.824 Y55.946 E0.39980
G1 X195.611 Y56.106 E0.06960
G1 X193.438 Y56.649 E0.07021
G1 X191.388 Y57.559 E0.07032
G1 X189.521 Y58.809 E0.07047
G1 X187.889 Y60.363 E0.07064
G1 X186.540 Y62.174 E0.07080
G1 X185.515 Y64.191 E0.07094
G1 X184.841 Y66.354 E0.07105
G1 X184.541 Y68.584 E0.07056
G1 X182.102 Y117.777 E1.54429
G1 X177.847 Y117.566 E0.13359
G1 X179.105 Y92.197 E0.79640
G1 X162.108 Y91.355 E0.53357
G1 X159.259 Y91.213 E0.08943
G1 X158.001 Y116.582 E0.79640
G1 X153.746 Y116.371 E0.13357
G1 X156.164 Y67.607 E1.53084
M73 Q1 S161
G1 X156.102 Y65.492 E0.06636
G1 X155.704 Y63.398 E0.06681
G1 X154.982 Y61.396 E0.06673
G1 X153.954 Y59.537 E0.06661
G1 X152.645 Y57.869 E0.06648
G1 X151.090 Y56.435 E0.06632
M73 P1 R160
G1 X149.329 Y55.272 E0.06617
G1 X147.406 Y54.410 E0.06607
G1 X145.372 Y53.870 E0.06599
G1 X143.295 Y53.670 E0.06542
G1 X28.511 Y51.990 E3.59935
G1 X29.073 Y40.651 E0.35595
G1 X22.212 Y40.311 E0.21540
G1 X16.222 Y43.384 E0.21108
G1 X16.986 Y27.966 E0.48402
G1 X22.643 Y31.617 E0.21108
G1 X29.444 Y31.954 E0.21352
G1 X29.901 Y32.011 F10800.000
;WIPE_START
G1 F8640.000
G1 X29.760 Y26.203 E-1.33000
;WIPE_END
G1 E-0.07000 F2100.000
G1 Z0.400 F10800.000
G1 X211.253 Y32.545
G1 Z0.200
G1 E1.40000 F2100.000
;TYPE:Solid infill
;WIDTH:0.420105
G1 F1200.000
G1 X210.688 Y31.980 E0.02506
G1 X210.147 Y31.972 E0.01698
G1 X211.066 Y32.891 E0.04077
G1 X211.041 Y33.400 E0.01596
G1 X209.605 Y31.964 E0.06366
G1 X209.064 Y31.956 E0.01698
G1 X211.015 Y33.908 E0.08656
G1 X210.990 Y34.416 E0.01596
G1 X208.522 Y31.948 E0.10945
G1 X207.981 Y31.941 E0.01698
G1 X210.965 Y34.924 E0.13234
G1 X210.940 Y35.433 E0.01596
G1 X207.440 Y31.933 E0.15524
G1 X206.898 Y31.925 E0.01698
G1 X210.915 Y35.941 E0.17813
G1 X210.889 Y36.449 E0.01596
G1 X206.357 Y31.917 E0.20102
G1 X205.816 Y31.909 E0.01698
G1 X210.864 Y36.957 E0.22392
G1 X210.839 Y37.465 E0.01596
G1 X205.274 Y31.901 E0.24681
G1 X204.733 Y31.893 E0.01698
G1 X210.814 Y37.974 E0.26970
G1 X210.789 Y38.482 E0.01596
G1 X204.192 Y31.885 E0.29260
G1 X203.650 Y31.877 E0.01698
G1 X210.763 Y38.990 E0.31549
G1 X210.738 Y39.498 E0.01596
G1 X203.109 Y31.869 E0.33838
G1 X202.568 Y31.861 E0.01698
G1 X210.713 Y40.007 E0.36127
G1 X210.688 Y40.515 E0.01596
G1 X202.026 Y31.853 E0.38417
G1 X201.485 Y31.845 E0.01698
G1 X210.663 Y41.023 E0.40706
G1 X210.637 Y41.531 E0.01596
G1 X200.944 Y31.838 E0.42995
G1 X200.402 Y31.830 E0.01698
G1 X210.612 Y42.039 E0.45285
G1 X210.587 Y42.548 E0.01596
G1 X199.861 Y31.822 E0.47574
G1 X199.320 Y31.814 E0.01698
G1 X210.562 Y43.056 E0.49863
G1 X210.537 Y43.564 E0.01596
G1 X198.778 Y31.806 E0.52153
G1 X198.237 Y31.798 E0.01698
G1 X210.511 Y44.072 E0.54442
G1 X210.486 Y44.581 E0.01596
G1 X197.696 Y31.790 E0.56731
G1 X197.154 Y31.782 E0.01698
G1 X210.461 Y45.089 E0.59021
G1 X210.436 Y45.597 E0.01596
G1 X196.613 Y31.774 E0.61310
G1 X196.072 Y31.766 E0.01698
G1 X210.411 Y46.105 E0.63599
G1 X210.385 Y46.613 E0.01596
G1 X195.530 Y31.758 E0.65888
G1 X194.989 Y31.750 E0.01698
G1 X210.360 Y47.122 E0.68178
G1 X210.335 Y47.630 E0.01596
G1 X194.448 Y31.742 E0.70467
G1 X193.906 Y31.735 E0.01698
G1 X210.310 Y48.138 E0.72756
G1 X210.285 Y48.646 E0.01596
G1 X193.365 Y31.727 E0.75046
G1 X192.824 Y31.719 E0.01698
M73 P1 R159
G1 X210.259 Y49.155 E0.77335
G1 X210.234 Y49.663 E0.01596
G1 X192.282 Y31.711 E0.79624
G1 X191.741 Y31.703 E0.01698
G1 X210.209 Y50.171 E0.81914
G1 X210.184 Y50.679 E0.01596
G1 X191.199 Y31.695 E0.84203
G1 X190.658 Y31.687 E0.01698
G1 X210.159 Y51.187 E0.86492
G1 X210.133 Y51.696 E0.01596
G1 X190.117 Y31.679 E0.88782
