; generated by PrusaSlicer 2.3.0+win64 on 2021-05-02 at 22:37:09 UTC

; 

; external perimeters extrusion width = 0.60mm
; perimeters extrusion width = 0.50mm
; infill extrusion width = 0.50mm
; solid infill extrusion width = 0.50mm
; top infill extrusion width = 0.45mm
; support material extrusion width = 0.38mm
; first layer extrusion width = 0.42mm

M73 P0 R172
M73 Q0 S173
M201 X1000 Y1000 Z200 E5000 ; sets maximum accelerations, mm/sec^2
M203 X200 Y200 Z12 E120 ; sets maximum feedrates, mm/sec
M204 P1250 R1250 T1250 ; sets acceleration (P, T) and retract acceleration (R), mm/sec^2
M205 X8.00 Y8.00 Z0.40 E4.50 ; sets the jerk limits, mm/sec
M205 S0 T0 ; sets the minimum extruding and travel feed rate, mm/sec
M107
;TYPE:Custom
M862.3 P "MK3S" ; printer model check
M862.1 P0.4 ; nozzle diameter check
M115 U3.9.1 ; tell printer latest fw version
G90 ; use absolute coordinates
M83 ; extruder relative mode
M104 S240 ; set extruder temp
M140 S85 ; set bed temp
M190 S85 ; wait for bed temp
M109 S240 ; wait for extruder temp
G28 W ; home all without mesh bed level
G80 ; mesh bed leveling
G1 Y-3.0 F1000.0 ; go outside print area
G92 E0.0
G1 X60.0 E9.0 F1000.0 ; intro line
G1 X100.0 E12.5 F1000.0 ; intro line
G92 E0.0
M221 S95

; Don't change E values below. Excessive value can damage the printer.

M907 E538 ; set extruder motor current
G21 ; set units to millimeters
G90 ; use absolute coordinates
M83 ; use relative distances for extrusion
M900 K0.08 ; Filament gcode LA 1.5
M900 K45 ; Filament gcode LA 1.0
;LAYER_CHANGE
;Z:0.2
;HEIGHT:0.2
;BEFORE_LAYER_CHANGE
G92 E0.0
;0.2


G1 E-1.40000 F2100.000
G1 Z0.200 F10800.000
;AFTER_LAYER_CHANGE
;0.2
G1 Z0.400
G1 X43.326 Y11.070
G1 Z0.200
G1 E1.40000 F2100.000
M204 S1000
;TYPE:Skirt
;WIDTH:0.42
G1 F1200.000
G1 X43.800 Y10.683 E0.01917
M73 P0 R171
G1 X44.357 Y10.430 E0.01917
G1 X44.960 Y10.328 E0.01917
G1 X74.268 Y10.326 E0.91894
G1 X74.767 Y10.379 E0.01574
G1 X75.240 Y10.535 E0.01562
G1 X203.758 Y68.750 E4.42370
G1 X216.562 Y76.991 E0.47743
G1 X217.021 Y77.395 E0.01917
G1 X217.363 Y77.906 E0.01929
G1 X217.544 Y78.402 E0.01657
G1 X217.611 Y78.927 E0.01657
G1 X217.611 Y94.810 E0.49802
G1 X217.523 Y95.438 E0.01989
G1 X217.273 Y96.021 E0.01989
G1 X216.939 Y96.455 E0.01716
G1 X216.128 Y97.201 E0.03454
G1 X203.788 Y105.164 E0.46050
G1 X203.275 Y105.404 E0.01775
G1 X202.719 Y105.515 E0.01775
G1 X24.198 Y112.163 E5.60131
G1 X20.052 Y111.704 E0.13077
G1 X19.191 Y111.393 E0.02872
G1 X18.743 Y111.046 E0.01775
G1 X11.777 Y104.079 E0.30893
G1 X11.459 Y103.671 E0.01621
G1 X11.238 Y103.208 E0.01609
G1 X11.109 Y102.564 E0.02060
G1 X10.995 Y99.092 E0.10891
G1 X10.995 Y92.477 E0.20741
G1 X11.319 Y88.924 E0.11187
G1 X42.967 Y11.565 E2.62066
G1 X43.291 Y11.119 E0.01729
;WIPE_START
G1 F8640.000
G1 X43.800 Y10.683 E-0.15464
G1 X44.357 Y10.430 E-0.14121
G1 X44.960 Y10.328 E-0.14121
G1 X48.827 Y10.327 E-0.89294
;WIPE_END
G1 E-0.07000 F2100.000
G1 Z0.400 F10800.000
G1 X41.888 Y108.145
G1 Z0.200
G1 E1.40000 F2100.000
;TYPE:Support material
G1 F1200.000
G1 X48.508 Y101.525 E0.29357
G1 X47.403 Y101.563 E0.03467
G1 X41.475 Y107.492 E0.26289
M73 Q0 S172
G1 X40.941 Y106.959 E0.02365
G1 X46.298 Y101.602 E0.23753
G1 X45.609 Y101.626 E0.02163
G1 X45.401 Y101.432 E0.00890
G1 X38.771 Y108.063 E0.29401
G1 X38.237 Y107.530 E0.02365
G1 X44.886 Y100.881 E0.29481
G1 X44.850 Y99.850 E0.03233
G1 X37.704 Y106.996 E0.31686
G1 X37.220 Y106.512 E0.02148
G1 X35.582 Y108.149 E0.07260
G1 X35.533 Y108.101 E0.00216
G1 X44.814 Y98.820 E0.41152
G1 X44.778 Y97.789 E0.03233
G1 X35.000 Y107.567 E0.43357
G1 X34.467 Y107.034 E0.02365
G1 X44.742 Y96.759 E0.45562
G1 X44.706 Y95.728 E0.03233
G1 X32.296 Y108.138 E0.55028
G1 X31.763 Y107.605 E0.02365
G1 X44.670 Y94.698 E0.57233
G1 X44.634 Y93.667 E0.03233
G1 X31.230 Y107.072 E0.59438
G1 X30.696 Y106.538 E0.02365
G1 X44.598 Y92.636 E0.61643
G1 X44.562 Y91.606 E0.03233
G1 X26.888 Y109.280 E0.78369
G1 X26.355 Y108.747 E0.02365
G1 X44.526 Y90.575 E0.80574
G1 X44.490 Y89.545 E0.03233
G1 X25.822 Y108.213 E0.82779
G1 X25.758 Y108.149 E0.00283
G1 X24.121 Y109.787 E0.07260
G1 X23.651 Y109.317 E0.02081
G1 X44.454 Y88.514 E0.92245
G1 X44.418 Y87.484 E0.03233
G1 X23.118 Y108.784 E0.94450
G1 X22.585 Y108.251 E0.02365
G1 X44.382 Y86.453 E0.96655
G1 X44.352 Y85.598 E0.02683
G1 X44.262 Y85.507 E0.00402
G1 X20.414 Y109.355 E1.05745
G1 X19.881 Y108.822 E0.02365
G1 X43.251 Y85.452 E1.03626
G1 X42.146 Y85.490 E0.03467
G1 X19.347 Y108.288 E1.01091
G1 X18.814 Y107.755 E0.02365
G1 X41.040 Y85.529 E0.98555
G1 X39.935 Y85.567 E0.03467
G1 X18.281 Y107.222 E0.96019
G1 X17.748 Y106.689 E0.02365
G1 X38.830 Y85.606 E0.93483
G1 X37.725 Y85.645 E0.03467
G1 X17.214 Y106.155 E0.90948
G1 X16.681 Y105.622 E0.02365
G1 X36.620 Y85.683 E0.88412
G1 X35.515 Y85.722 E0.03467
G1 X16.148 Y105.089 E0.85876
G1 X15.615 Y104.556 E0.02365
G1 X34.410 Y85.760 E0.83341
M73 P0 R170
G1 X33.304 Y85.799 E0.03467
G1 X15.081 Y104.022 E0.80805
G1 X14.548 Y103.489 E0.02365
G1 X32.199 Y85.838 E0.78269
G1 X31.094 Y85.876 E0.03467
G1 X14.015 Y102.956 E0.75733
G1 X13.481 Y102.422 E0.02365
G1 X29.989 Y85.915 E0.73198
G1 X28.884 Y85.953 E0.03467
G1 X14.586 Y100.252 E0.63401
G1 X14.052 Y99.718 E0.02365
G1 X27.779 Y85.992 E0.60866
G1 X26.674 Y86.031 E0.03467
G1 X13.519 Y99.185 E0.58330
G1 X13.372 Y99.038 E0.00652
G1 X15.009 Y97.401 E0.07260
G1 X14.623 Y97.015 E0.01712
G1 X25.569 Y86.069 E0.48534
G1 X24.463 Y86.108 E0.03467
G1 X14.090 Y96.481 E0.45998
G1 X13.557 Y95.948 E0.02365
G1 X23.358 Y86.146 E0.43462
G1 X22.253 Y86.185 E0.03467
G1 X14.661 Y93.777 E0.33666
G1 X14.127 Y93.244 E0.02365
G1 X21.148 Y86.223 E0.31131
G1 X20.043 Y86.262 E0.03467
G1 X13.594 Y92.711 E0.28595
G1 X13.372 Y92.489 E0.00986
G1 X15.009 Y90.851 E0.07260
G1 X14.698 Y90.540 E0.01379
G1 X19.075 Y86.164 E0.19406
G1 X18.532 Y85.640 E0.02365
G1 X14.165 Y90.007 E0.19365
G1 X13.632 Y89.474 E0.02365
G1 X18.651 Y84.455 E0.22255
;WIPE_START
G1 F8640.000
G1 X14.578 Y88.528 E-1.33000
;WIPE_END
G1 E-0.07000 F2100.000
G1 Z0.400 F10800.000
G1 X111.575 Y90.190
G1 Z0.200
G1 E1.40000 F2100.000
;TYPE:Perimeter
G1 F1200.000
G1 X111.705 Y89.209 E0.03102
G1 X112.083 Y88.296 E0.03099
G1 X112.685 Y87.511 E0.03101
G1 X113.470 Y86.909 E0.03102
G1 X114.383 Y86.530 E0.03100
G1 X115.318 Y86.407 E0.02957
G1 X116.341 Y86.529 E0.03228
G1 X117.258 Y86.909 E0.03113
G1 X118.042 Y87.511 E0.03101
G1 X118.645 Y88.295 E0.03101
G1 X119.023 Y89.209 E0.03100
G1 X119.152 Y90.190 E0.03101
G1 X119.023 Y91.170 E0.03100
G1 X118.662 Y92.041 E0.02957
G1 X118.045 Y92.866 E0.03230
G1 X117.258 Y93.470 E0.03112
G1 X116.344 Y93.849 E0.03102
G1 X115.364 Y93.978 E0.03099
G1 X114.383 Y93.849 E0.03101
G1 X113.470 Y93.470 E0.03100
G1 X112.685 Y92.868 E0.03102
G1 X112.083 Y92.083 E0.03101
G1 X111.705 Y91.170 E0.03100
G1 X111.583 Y90.249 E0.02913
G1 X111.957 Y90.200 F10800.000
;TYPE:External perimeter
G1 F1200.000
G1 X112.072 Y89.307 E0.02821
G1 X112.412 Y88.486 E0.02788
G1 X112.954 Y87.780 E0.02790
G1 X113.660 Y87.238 E0.02791
G1 X114.482 Y86.898 E0.02788
G1 X115.321 Y86.787 E0.02653
G1 X116.244 Y86.897 E0.02917
G1 X117.068 Y87.238 E0.02794
G1 X117.773 Y87.780 E0.02789
G1 X118.315 Y88.486 E0.02790
G1 X118.656 Y89.307 E0.02789
G1 X118.772 Y90.190 E0.02790
G1 X118.656 Y91.071 E0.02789
G1 X118.332 Y91.853 E0.02653
G1 X117.775 Y92.599 E0.02918
G1 X117.068 Y93.141 E0.02793
G1 X116.246 Y93.481 E0.02790
G1 X115.364 Y93.597 E0.02788
G1 X114.482 Y93.481 E0.02790
G1 X113.660 Y93.141 E0.02789
G1 X112.954 Y92.599 E0.02791
G1 X112.412 Y91.893 E0.02790
G1 X112.072 Y91.072 E0.02789
G1 X111.965 Y90.259 E0.02570
G1 X111.610 Y90.000 F10800.000
;WIPE_START
G1 F8640.000
G1 X112.072 Y89.307 E-0.22118
G1 X112.412 Y88.486 E-0.20534
G1 X112.954 Y87.780 E-0.20543
G1 X113.660 Y87.238 E-0.20551
G1 X114.482 Y86.898 E-0.20535
G1 X115.321 Y86.787 E-0.19541
G1 X115.715 Y86.834 E-0.09178
;WIPE_END
G1 E-0.07000 F2100.000
G1 Z0.400 F10800.000
G1 X61.983 Y92.186
G1 Z0.200
G1 E1.40000 F2100.000
;TYPE:Perimeter
G1 F1200.000
G1 X61.854 Y93.167 E0.03103
G1 X61.475 Y94.082 E0.03104
G1 X60.872 Y94.867 E0.03103
G1 X60.088 Y95.469 E0.03102
G1 X59.173 Y95.848 E0.03103
G1 X58.192 Y95.977 E0.03104
G1 X57.211 Y95.848 E0.03104
G1 X56.296 Y95.469 E0.03103
G1 X55.511 Y94.867 E0.03102
G1 X54.909 Y94.082 E0.03103
G1 X54.530 Y93.167 E0.03104
G1 X54.401 Y92.186 E0.03103
G1 X54.530 Y91.205 E0.03102
G1 X54.909 Y90.290 E0.03104
G1 X55.512 Y89.505 E0.03103
G1 X56.296 Y88.903 E0.03102
G1 X57.211 Y88.524 E0.03103
G1 X58.192 Y88.395 E0.03104
G1 X59.173 Y88.524 E0.03104
G1 X60.088 Y88.903 E0.03103
G1 X60.872 Y89.505 E0.03102
G1 X61.475 Y90.290 E0.03103
G1 X61.854 Y91.205 E0.03104
G1 X61.975 Y92.126 E0.02914
G1 X61.601 Y92.176 F10800.000
;TYPE:External perimeter
G1 F1200.000
G1 X61.487 Y93.069 E0.02824
G1 X61.146 Y93.892 E0.02792
G1 X60.604 Y94.598 E0.02792
G1 X59.897 Y95.140 E0.02791
G1 X59.075 Y95.481 E0.02792
G1 X58.192 Y95.597 E0.02792
G1 X57.309 Y95.481 E0.02792
G1 X56.487 Y95.140 E0.02791
G1 X55.780 Y94.598 E0.02791
G1 X55.238 Y93.892 E0.02792
G1 X54.897 Y93.069 E0.02792
G1 X54.781 Y92.186 E0.02792
G1 X54.897 Y91.303 E0.02791
G1 X55.238 Y90.480 E0.02792
G1 X55.780 Y89.774 E0.02792
G1 X56.487 Y89.232 E0.02791
G1 X57.309 Y88.891 E0.02792
G1 X58.192 Y88.775 E0.02792
G1 X59.075 Y88.891 E0.02792
G1 X59.897 Y89.232 E0.02791
G1 X60.604 Y89.774 E0.02791
G1 X61.146 Y90.480 E0.02792
G1 X61.487 Y91.303 E0.02792
G1 X61.593 Y92.116 E0.02571
G1 X61.948 Y92.375 F10800.000
;WIPE_START
G1 F8640.000
G1 X61.487 Y93.069 E-0.22136
G1 X61.146 Y93.892 E-0.20562
G1 X60.604 Y94.598 E-0.20561
G1 X59.897 Y95.140 E-0.20554
G1 X59.075 Y95.481 E-0.20558
G1 X58.192 Y95.597 E-0.20563
G1 X57.846 Y95.551 E-0.08067
;WIPE_END
G1 E-0.07000 F2100.000
G1 Z0.400 F10800.000
G1 X187.729 Y87.530
G1 Z0.200
G1 E1.40000 F2100.000
;TYPE:Perimeter
G1 F1200.000
G1 X187.858 Y86.550 E0.03100
G1 X188.219 Y85.678 E0.02957
G1 X188.836 Y84.854 E0.03230
G1 X189.623 Y84.249 E0.03112
G1 X190.537 Y83.871 E0.03102
G1 X191.472 Y83.748 E0.02955
G1 X192.494 Y83.869 E0.03229
G1 X193.411 Y84.249 E0.03112
G1 X194.196 Y84.851 E0.03102
G1 X194.798 Y85.636 E0.03101
G1 X195.176 Y86.550 E0.03100
G1 X195.306 Y87.530 E0.03101
G1 X195.176 Y88.511 E0.03102
G1 X194.798 Y89.424 E0.03100
G1 X194.196 Y90.209 E0.03101
G1 X193.411 Y90.811 E0.03102
G1 X192.498 Y91.189 E0.03100
G1 X191.517 Y91.319 E0.03102
G1 X190.537 Y91.189 E0.03100
G1 X189.623 Y90.811 E0.03101
G1 X188.839 Y90.209 E0.03100
G1 X188.236 Y89.425 E0.03101
G1 X187.858 Y88.511 E0.03101
G1 X187.737 Y87.590 E0.02913
G1 X188.111 Y87.540 F10800.000
;TYPE:External perimeter
G1 F1200.000
G1 X188.225 Y86.648 E0.02821
G1 X188.549 Y85.866 E0.02653
G1 X189.106 Y85.121 E0.02918
G1 X189.813 Y84.579 E0.02793
G1 X190.635 Y84.238 E0.02790
G1 X191.474 Y84.128 E0.02652
G1 X192.398 Y84.238 E0.02918
G1 X193.221 Y84.579 E0.02793
G1 X193.927 Y85.120 E0.02791
G1 X194.469 Y85.826 E0.02790
G1 X194.809 Y86.648 E0.02789
G1 X194.926 Y87.530 E0.02790
G1 X194.809 Y88.412 E0.02790
G1 X194.469 Y89.234 E0.02789
G1 X193.927 Y89.940 E0.02789
G1 X193.221 Y90.482 E0.02790
G1 X192.399 Y90.822 E0.02788
G1 X191.517 Y90.938 E0.02790
G1 X190.635 Y90.822 E0.02788
G1 X189.813 Y90.482 E0.02790
G1 X189.108 Y89.940 E0.02789
G1 X188.566 Y89.234 E0.02790
G1 X188.225 Y88.412 E0.02790
G1 X188.118 Y87.600 E0.02569
G1 X187.764 Y87.341 F10800.000
;WIPE_START
G1 F8640.000
G1 X188.225 Y86.648 E-0.22113
G1 X188.549 Y85.866 E-0.19538
G1 X189.106 Y85.121 E-0.21492
G1 X189.813 Y84.579 E-0.20572
G1 X190.635 Y84.238 E-0.20549
G1 X191.474 Y84.128 E-0.19527
G1 X191.870 Y84.175 E-0.09209
;WIPE_END
G1 E-0.07000 F2100.000
G1 Z0.400 F10800.000
G1 X201.747 Y90.893
G1 Z0.200
G1 E1.40000 F2100.000
;TYPE:Perimeter
G1 F1200.000
G1 X201.747 Y102.288 E0.35726
G1 X64.776 Y107.071 E4.29724
M73 Q0 S171
G1 X64.494 Y98.990 E0.25353
G1 X46.818 Y99.607 E0.55455
G1 X46.252 Y83.370 E0.50940
G1 X20.457 Y84.271 E0.80927
M73 Q1 S171
G1 X20.457 Y76.455 E0.24505
M73 P1 R170
G1 X32.844 Y76.023 E0.38862
G1 X34.537 Y75.853 E0.05337
G1 X36.220 Y75.459 E0.05420
G1 X37.840 Y74.851 E0.05424
G1 X39.369 Y74.037 E0.05431
G1 X40.783 Y73.033 E0.05438
G1 X42.059 Y71.853 E0.05447
G1 X43.176 Y70.518 E0.05457
G1 X44.115 Y69.050 E0.05465
G1 X44.862 Y67.473 E0.05473
G1 X45.404 Y65.812 E0.05478
G1 X45.733 Y64.094 E0.05482
G1 X45.841 Y62.373 E0.05407
G1 X45.841 Y13.490 E1.53271
G1 X49.347 Y13.490 E0.10993
G1 X49.347 Y38.890 E0.79640
G1 X69.971 Y38.890 E0.64665
G1 X69.971 Y13.490 E0.79640
G1 X73.477 Y13.490 E0.10993
G1 X73.477 Y61.944 E1.51925
G1 X73.578 Y63.604 E0.05215
G1 X73.884 Y65.263 E0.05287
G1 X74.389 Y66.870 E0.05284
G1 X75.085 Y68.403 E0.05278
G1 X75.962 Y69.838 E0.05272
G1 X77.007 Y71.152 E0.05264
G1 X78.203 Y72.326 E0.05255
G1 X79.534 Y73.341 E0.05247
G1 X80.978 Y74.183 E0.05241
G1 X82.513 Y74.838 E0.05233
G1 X84.116 Y75.297 E0.05228
G1 X85.763 Y75.551 E0.05225
G1 X87.403 Y75.596 E0.05145
G1 X201.747 Y71.603 E3.58736
G1 X201.747 Y82.943 E0.35554
G1 X209.095 Y82.943 E0.23039
G1 X214.447 Y79.853 E0.19376
G1 X214.447 Y93.983 E0.44306
G1 X209.095 Y90.893 E0.19376
G1 X201.807 Y90.893 E0.22851
G1 X202.124 Y91.271 F10800.000
;TYPE:External perimeter
G1 F1200.000
G1 X202.124 Y102.652 E0.35685
G1 X64.413 Y107.461 E4.32048
M73 P1 R169
G1 X64.130 Y99.380 E0.25353
G1 X46.455 Y99.997 E0.55455
G1 X45.888 Y83.760 E0.50940
G1 X20.080 Y84.661 E0.80969
G1 X20.080 Y76.091 E0.26871
G1 X32.818 Y75.646 E0.39966
G1 X34.475 Y75.480 E0.05221
G1 X36.111 Y75.098 E0.05266
G1 X37.684 Y74.506 E0.05271
G1 X39.171 Y73.716 E0.05278
G1 X40.545 Y72.739 E0.05286
G1 X41.785 Y71.593 E0.05296
G1 X42.871 Y70.295 E0.05306
G1 X43.784 Y68.867 E0.05314
G1 X44.511 Y67.333 E0.05323
G1 X45.038 Y65.717 E0.05328
G1 X45.358 Y64.047 E0.05333
G1 X45.464 Y62.361 E0.05295
G1 X45.464 Y13.113 E1.54416
G1 X49.724 Y13.113 E0.13357
G1 X49.724 Y38.513 E0.79640
G1 X69.594 Y38.513 E0.62300
G1 X69.594 Y13.113 E0.79640
G1 X73.854 Y13.113 E0.13357
G1 X73.854 Y61.933 E1.53072
G1 X73.953 Y63.559 E0.05107
G1 X74.251 Y65.172 E0.05143
G1 X74.742 Y66.735 E0.05139
G1 X75.419 Y68.226 E0.05134
G1 X76.272 Y69.621 E0.05127
G1 X77.288 Y70.899 E0.05118
G1 X78.451 Y72.040 E0.05109
G1 X79.744 Y73.028 E0.05100
G1 X81.147 Y73.846 E0.05094
G1 X82.639 Y74.482 E0.05086
G1 X84.197 Y74.928 E0.05080
G1 X85.797 Y75.174 E0.05076
G1 X87.402 Y75.219 E0.05034
G1 X202.124 Y71.213 E3.59923
G1 X202.124 Y82.566 E0.35596
G1 X208.994 Y82.566 E0.21540
G1 X214.738 Y79.249 E0.20795
G1 X214.824 Y79.273 E0.00280
G1 X214.824 Y94.534 E0.47848
M73 Q1 S170
G1 X214.760 Y94.599 E0.00288
G1 X208.994 Y91.271 E0.20873
G1 X202.184 Y91.271 E0.21352
G1 X201.726 Y91.236 F10800.000
;WIPE_START
G1 F8640.000
G1 X202.154 Y97.030 E-1.33000
;WIPE_END
G1 E-0.07000 F2100.000
G1 Z0.400 F10800.000
G1 X201.010 Y71.742
G1 Z0.200
G1 E1.40000 F2100.000
;TYPE:Solid infill
;WIDTH:0.420219
G1 F1200.000
G1 X201.464 Y72.197 E0.02017
G1 X201.464 Y72.730 E0.01674
G1 X200.658 Y71.924 E0.03577
G1 X200.143 Y71.942 E0.01618
G1 X201.464 Y73.264 E0.05864
G1 X201.464 Y73.798 E0.01674
G1 X199.627 Y71.960 E0.08152
G1 X199.111 Y71.978 E0.01618
G1 X201.464 Y74.331 E0.10439
G1 X201.464 Y74.865 E0.01674
G1 X198.596 Y71.996 E0.12727
G1 X198.080 Y72.014 E0.01618
G1 X201.464 Y75.398 E0.15014
G1 X201.464 Y75.932 E0.01674
G1 X197.565 Y72.032 E0.17302
G1 X197.049 Y72.050 E0.01618
G1 X201.464 Y76.466 E0.19589
G1 X201.464 Y76.999 E0.01674
G1 X196.534 Y72.068 E0.21877
G1 X196.018 Y72.086 E0.01618
G1 X201.464 Y77.533 E0.24164
G1 X201.464 Y78.066 E0.01674
G1 X195.502 Y72.104 E0.26452
G1 X194.987 Y72.122 E0.01618
G1 X201.464 Y78.600 E0.28739
G1 X201.464 Y79.133 E0.01674
G1 X194.471 Y72.140 E0.31027
G1 X193.956 Y72.158 E0.01618
G1 X201.464 Y79.667 E0.33314
G1 X201.464 Y80.201 E0.01674
G1 X193.440 Y72.176 E0.35602
G1 X192.925 Y72.194 E0.01618
G1 X201.464 Y80.734 E0.37889
G1 X201.464 Y81.268 E0.01674
G1 X192.409 Y72.212 E0.40177
G1 X191.893 Y72.230 E0.01618
G1 X201.464 Y81.801 E0.42464
G1 X201.464 Y82.335 E0.01674
G1 X191.214 Y72.084 E0.45479
;WIPE_START
G1 F8640.000
G1 X195.287 Y76.157 E-1.33000
;WIPE_END
G1 E-0.07000 F2100.000
G1 Z0.400 F10800.000
G1 X213.859 Y80.323
G1 Z0.200
G1 E1.40000 F2100.000
G1 F1200.000
G1 X214.164 Y80.628 E0.01354
