; generated by PrusaSlicer 2.3.3+win64 on 2021-12-21 at 20:50:15 UTC

; 

; external perimeters extrusion width = 0.60mm
; perimeters extrusion width = 0.50mm
; infill extrusion width = 0.50mm
; solid infill extrusion width = 0.50mm
; top infill extrusion width = 0.45mm
; support material extrusion width = 0.38mm
; first layer extrusion width = 0.42mm

M73 P0 R149
M73 Q0 S152
M201 X1000 Y1000 Z200 E5000 ; sets maximum accelerations, mm/sec^2
M203 X200 Y200 Z12 E120 ; sets maximum feedrates, mm/sec
M204 P1250 R1250 T1250 ; sets acceleration (P, T) and retract acceleration (R), mm/sec^2
M205 X8.00 Y8.00 Z0.40 E4.50 ; sets the jerk limits, mm/sec
M205 S0 T0 ; sets the minimum extruding and travel feed rate, mm/sec
M107
;TYPE:Custom
M862.3 P "MK3S" ; printer model check
M862.1 P0.4 ; nozzle diameter check
M115 U3.10.0 ; tell printer latest fw version
G90 ; use absolute coordinates
M83 ; extruder relative mode
M104 S240 ; set extruder temp
M140 S85 ; set bed temp
M190 S85 ; wait for bed temp
M109 S240 ; wait for extruder temp
G28 W ; home all without mesh bed level
G80 ; mesh bed leveling
G1 Y-3.0 F1000.0 ; go outside print area
G92 E0.0
G1 X60.0 E9.0 F1000.0 ; intro line
G1 X100.0 E12.5 F1000.0 ; intro line
G92 E0.0
M221 S95

; Don't change E values below. Excessive value can damage the printer.

M907 E538 ; set extruder motor current
G21 ; set units to millimeters
G90 ; use absolute coordinates
M83 ; use relative distances for extrusion
M900 K0.08 ; Filament gcode LA 1.5
M900 K45 ; Filament gcode LA 1.0
;LAYER_CHANGE
;Z:0.2
;HEIGHT:0.2
;BEFORE_LAYER_CHANGE
G92 E0.0
;0.2


G1 E-1.00000 F2100.000
G1 Z0.200 F10800.000
;AFTER_LAYER_CHANGE
;0.2
G1 Z0.400
G1 X43.727 Y62.986
G1 Z0.200
G1 E1.00000 F2100.000
M204 S1000
;TYPE:Skirt
;WIDTH:0.42
G1 F1200.000
G1 X44.071 Y62.348 E0.02273
G1 X44.505 Y61.864 E0.02035
G1 X89.139 Y22.686 E1.86213
M73 Q0 S151
G1 X108.151 Y13.504 E0.66199
G1 X108.647 Y13.334 E0.01645
G1 X109.165 Y13.278 E0.01633
G1 X141.255 Y13.485 E1.00619
G1 X141.842 Y13.670 E0.01929
G1 X160.504 Y22.461 E0.64680
G1 X160.988 Y22.789 E0.01835
G1 X205.490 Y61.860 E1.85678
G1 X205.862 Y62.256 E0.01702
G1 X206.161 Y62.732 E0.01763
G1 X206.394 Y63.385 E0.02175
G1 X206.466 Y64.016 E0.01992
G1 X206.458 Y178.981 E3.60464
M73 P0 R148
G1 X206.260 Y179.756 E0.02508
G1 X205.816 Y180.421 E0.02508
G1 X196.229 Y190.009 E0.42512
G1 X195.606 Y190.449 E0.02390
G1 X195.101 Y190.628 E0.01680
G1 X194.569 Y190.689 E0.01680
G1 X55.272 Y190.683 E4.36754
G1 X54.481 Y190.489 E0.02555
G1 X53.804 Y190.041 E0.02543
G1 X44.214 Y180.452 E0.42524
G1 X43.774 Y179.829 E0.02390
G1 X43.594 Y179.320 E0.01692
G1 X43.534 Y178.787 E0.01682
G1 X43.534 Y64.019 E3.59847
G1 X43.716 Y63.044 E0.03108
; printing object DDI_BASE_V3-new PCB.stl id:0 copy 0
;WIPE_START
G1 F8640.000
G1 X44.071 Y62.348 E-0.18066
G1 X44.505 Y61.864 E-0.14990
G1 X46.521 Y60.095 E-0.61945
;WIPE_END
G1 E-0.05000 F2100.000
G1 Z0.400 F10800.000
G1 X140.837 Y38.511
G1 Z0.200
G1 E1.00000 F2100.000
;TYPE:Support material
G1 F1200.000
G1 X140.837 Y15.825 E0.71131
G1 X140.083 Y15.825 E0.02365
G1 X140.083 Y38.341 E0.70599
G1 X139.329 Y38.341 E0.02365
G1 X139.329 Y15.825 E0.70599
G1 X138.575 Y15.825 E0.02365
G1 X138.575 Y37.265 E0.67224
G1 X138.113 Y36.274 E0.03430
G1 X137.872 Y36.121 E0.00893
G1 X137.821 Y36.121 E0.00162
G1 X137.821 Y15.825 E0.63636
G1 X137.067 Y15.825 E0.02365
G1 X137.067 Y36.121 E0.63636
G1 X136.312 Y36.121 E0.02365
G1 X136.312 Y15.825 E0.63636
G1 X135.558 Y15.825 E0.02365
G1 X135.558 Y36.121 E0.63636
G1 X134.804 Y36.121 E0.02365
G1 X134.804 Y15.825 E0.63636
G1 X134.050 Y15.825 E0.02365
G1 X134.050 Y36.121 E0.63636
G1 X133.296 Y36.125 E0.02365
G1 X133.296 Y15.825 E0.63651
G1 X132.542 Y15.825 E0.02365
G1 X132.542 Y36.312 E0.64238
G1 X131.787 Y36.312 E0.02365
G1 X131.787 Y15.825 E0.64238
G1 X131.033 Y15.825 E0.02365
G1 X131.033 Y36.312 E0.64238
G1 X130.279 Y36.312 E0.02365
G1 X130.279 Y15.825 E0.64238
G1 X129.525 Y15.825 E0.02365
G1 X129.525 Y36.312 E0.64238
G1 X128.771 Y36.312 E0.02365
G1 X128.771 Y15.825 E0.64238
G1 X128.017 Y15.825 E0.02365
G1 X128.017 Y36.312 E0.64238
G1 X127.262 Y36.312 E0.02365
G1 X127.262 Y15.825 E0.64238
G1 X126.508 Y15.825 E0.02365
G1 X126.508 Y36.312 E0.64238
G1 X125.754 Y36.312 E0.02365
G1 X125.754 Y15.825 E0.64238
G1 X125.000 Y15.825 E0.02365
G1 X125.000 Y36.312 E0.64238
G1 X124.246 Y36.312 E0.02365
G1 X124.246 Y15.825 E0.64238
G1 X123.492 Y15.825 E0.02365
G1 X123.492 Y36.312 E0.64238
G1 X122.738 Y36.312 E0.02365
G1 X122.738 Y15.825 E0.64238
G1 X121.983 Y15.825 E0.02365
G1 X121.983 Y36.312 E0.64238
G1 X121.229 Y36.312 E0.02365
G1 X121.229 Y15.825 E0.64238
M73 Q0 S150
G1 X120.475 Y15.825 E0.02365
G1 X120.475 Y36.312 E0.64238
G1 X119.721 Y36.312 E0.02365
G1 X119.721 Y15.825 E0.64238
G1 X118.967 Y15.825 E0.02365
G1 X118.967 Y36.312 E0.64238
G1 X118.213 Y36.312 E0.02365
G1 X118.213 Y15.825 E0.64238
G1 X117.458 Y15.825 E0.02365
G1 X117.458 Y36.312 E0.64238
G1 X116.946 Y36.312 E0.01606
G1 X116.754 Y36.121 E0.00851
G1 X116.704 Y36.121 E0.00157
G1 X116.704 Y15.825 E0.63636
G1 X115.950 Y15.825 E0.02365
G1 X115.950 Y36.121 E0.63636
G1 X115.196 Y36.121 E0.02365
G1 X115.196 Y15.825 E0.63636
G1 X114.442 Y15.825 E0.02365
G1 X114.442 Y36.121 E0.63636
G1 X113.688 Y36.121 E0.02365
G1 X113.688 Y15.825 E0.63636
G1 X112.933 Y15.825 E0.02365
G1 X112.933 Y36.121 E0.63636
G1 X112.179 Y36.122 E0.02365
G1 X112.179 Y15.825 E0.63642
G1 X111.425 Y15.825 E0.02365
G1 X111.425 Y37.382 E0.67593
G1 X110.978 Y38.341 E0.03317
G1 X110.671 Y38.341 E0.00963
G1 X110.671 Y15.825 E0.70599
M73 P0 R147
G1 X109.917 Y15.825 E0.02365
G1 X109.917 Y38.341 E0.70599
G1 X109.163 Y38.341 E0.02365
G1 X109.163 Y15.655 E0.71131
;WIPE_START
G1 F8640.000
G1 X109.163 Y19.769 E-0.95000
;WIPE_END
G1 E-0.05000 F2100.000
G1 Z0.400 F10800.000
G1 X153.334 Y41.384
G1 Z0.200
G1 E1.00000 F2100.000
;TYPE:External perimeter
G1 F1200.000
G1 X153.582 Y41.031 E0.01354
G1 X153.887 Y40.725 E0.01354
G1 X154.241 Y40.477 E0.01354
G1 X154.632 Y40.295 E0.01354
G1 X155.050 Y40.183 E0.01354
G1 X155.452 Y40.148 E0.01265
G1 X155.909 Y40.183 E0.01439
G1 X156.328 Y40.295 E0.01358
G1 X156.719 Y40.477 E0.01354
G1 X157.073 Y40.725 E0.01354
G1 X157.378 Y41.031 E0.01354
G1 X157.626 Y41.384 E0.01354
G1 X157.809 Y41.776 E0.01354
G1 X157.920 Y42.193 E0.01354
G1 X157.958 Y42.623 E0.01354
G1 X157.920 Y43.054 E0.01354
G1 X157.809 Y43.471 E0.01354
G1 X157.626 Y43.862 E0.01354
G1 X157.378 Y44.216 E0.01354
G1 X157.073 Y44.522 E0.01354
G1 X156.742 Y44.753 E0.01265
G1 X156.329 Y44.952 E0.01439
G1 X155.910 Y45.064 E0.01358
G1 X155.480 Y45.101 E0.01354
G1 X155.050 Y45.064 E0.01354
G1 X154.632 Y44.952 E0.01354
G1 X154.241 Y44.769 E0.01354
G1 X153.887 Y44.522 E0.01354
G1 X153.582 Y44.216 E0.01354
G1 X153.334 Y43.862 E0.01354
G1 X153.164 Y43.497 E0.01265
G1 X153.040 Y43.055 E0.01439
G1 X153.002 Y42.623 E0.01358
G1 X153.040 Y42.193 E0.01354
G1 X153.151 Y41.776 E0.01354
G1 X153.309 Y41.439 E0.01166
G1 X153.134 Y41.038 F10800.000
;WIPE_START
G1 F8640.000
G1 X153.582 Y41.031 E-0.11340
G1 X153.887 Y40.725 E-0.09973
G1 X154.241 Y40.477 E-0.09974
G1 X154.632 Y40.295 E-0.09973
G1 X155.050 Y40.183 E-0.09974
G1 X155.452 Y40.148 E-0.09314
G1 X155.909 Y40.183 E-0.10597
G1 X156.328 Y40.295 E-0.10001
G1 X156.719 Y40.477 E-0.09974
G1 X156.857 Y40.574 E-0.03880
;WIPE_END
G1 E-0.05000 F2100.000
G1 Z0.400 F10800.000
G1 X161.024 Y31.120
G1 Z0.200
G1 E1.00000 F2100.000
G1 F1200.000
G1 X160.807 Y30.902 E0.00964
G1 X160.631 Y30.650 E0.00964
G1 X160.501 Y30.372 E0.00964
G1 X160.421 Y30.075 E0.00964
G1 X160.394 Y29.768 E0.00964
G1 X160.421 Y29.462 E0.00964
G1 X160.501 Y29.165 E0.00964
G1 X160.631 Y28.886 E0.00964
G1 X160.807 Y28.634 E0.00966
G1 X161.027 Y28.417 E0.00967
G1 X161.284 Y28.242 E0.00976
G1 X161.573 Y28.123 E0.00980
G1 X161.882 Y28.064 E0.00988
G1 X162.195 Y28.085 E0.00984
G1 X162.486 Y28.171 E0.00949
G1 X162.945 Y28.418 E0.01635
G1 X163.163 Y28.571 E0.00835
G1 X163.354 Y28.761 E0.00845
G1 X163.661 Y29.175 E0.01615
G1 X163.797 Y29.438 E0.00927
G1 X163.879 Y29.741 E0.00986
G1 X163.877 Y30.057 E0.00990
G1 X163.814 Y30.363 E0.00980
G1 X163.685 Y30.647 E0.00979
G1 X163.510 Y30.902 E0.00967
G1 X163.292 Y31.120 E0.00966
G1 X163.040 Y31.296 E0.00964
G1 X162.762 Y31.426 E0.00964
G1 X162.465 Y31.506 E0.00964
G1 X162.158 Y31.532 E0.00964
G1 X161.852 Y31.506 E0.00964
G1 X161.555 Y31.426 E0.00964
G1 X161.276 Y31.296 E0.00964
G1 X161.074 Y31.154 E0.00776
G1 X160.735 Y31.225 F10800.000
;WIPE_START
G1 F8640.000
G1 X160.807 Y30.902 E-0.08468
G1 X160.631 Y30.650 E-0.07100
G1 X160.501 Y30.372 E-0.07101
G1 X160.421 Y30.075 E-0.07100
G1 X160.394 Y29.768 E-0.07101
G1 X160.421 Y29.462 E-0.07100
G1 X160.501 Y29.165 E-0.07101
G1 X160.631 Y28.886 E-0.07101
G1 X160.807 Y28.634 E-0.07114
G1 X161.027 Y28.417 E-0.07123
G1 X161.284 Y28.242 E-0.07186
G1 X161.573 Y28.123 E-0.07217
G1 X161.882 Y28.064 E-0.07276
G1 X161.922 Y28.067 E-0.00913
;WIPE_END
G1 E-0.05000 F2100.000
G1 Z0.400 F10800.000
G1 X97.333 Y42.127
G1 Z0.200
G1 E1.00000 F2100.000
;TYPE:Perimeter
G1 F1200.000
G1 X97.376 Y42.623 E0.01561
G1 X97.333 Y43.119 E0.01561
G1 X97.204 Y43.600 E0.01561
G1 X96.994 Y44.052 E0.01561
G1 X96.708 Y44.460 E0.01561
G1 X96.356 Y44.812 E0.01561
G1 X95.973 Y45.080 E0.01465
G1 X95.500 Y45.307 E0.01646
G1 X95.016 Y45.437 E0.01572
G1 X94.520 Y45.480 E0.01561
G1 X94.024 Y45.437 E0.01561
G1 X93.543 Y45.308 E0.01561
G1 X93.092 Y45.097 E0.01561
G1 X92.684 Y44.812 E0.01561
G1 X92.332 Y44.460 E0.01561
G1 X92.046 Y44.052 E0.01561
G1 X91.836 Y43.600 E0.01561
G1 X91.707 Y43.119 E0.01561
G1 X91.664 Y42.623 E0.01561
G1 X91.707 Y42.127 E0.01561
G1 X91.836 Y41.646 E0.01561
G1 X92.046 Y41.195 E0.01561
G1 X92.332 Y40.787 E0.01561
G1 X92.684 Y40.435 E0.01561
G1 X93.092 Y40.150 E0.01561
G1 X93.543 Y39.939 E0.01561
G1 X94.024 Y39.810 E0.01561
G1 X94.489 Y39.770 E0.01465
G1 X95.013 Y39.809 E0.01646
G1 X95.497 Y39.939 E0.01572
G1 X95.948 Y40.150 E0.01561
G1 X96.356 Y40.435 E0.01561
G1 X96.708 Y40.787 E0.01561
G1 X96.994 Y41.195 E0.01561
M73 P1 R147
G1 X97.204 Y41.646 E0.01561
G1 X97.318 Y42.069 E0.01373
G1 X96.953 Y42.167 F10800.000
;TYPE:External perimeter
G1 F1200.000
G1 X96.998 Y42.623 E0.01438
G1 X96.960 Y43.054 E0.01354
G1 X96.849 Y43.471 E0.01354
G1 X96.666 Y43.862 E0.01354
G1 X96.418 Y44.216 E0.01354
G1 X96.113 Y44.522 E0.01354
G1 X95.782 Y44.753 E0.01265
G1 X95.369 Y44.952 E0.01439
G1 X94.950 Y45.064 E0.01358
G1 X94.520 Y45.101 E0.01354
G1 X94.090 Y45.064 E0.01354
G1 X93.672 Y44.952 E0.01354
G1 X93.281 Y44.769 E0.01354
G1 X92.927 Y44.522 E0.01354
G1 X92.622 Y44.216 E0.01354
G1 X92.374 Y43.862 E0.01354
G1 X92.191 Y43.471 E0.01354
G1 X92.080 Y43.054 E0.01354
G1 X92.042 Y42.623 E0.01354
G1 X92.080 Y42.193 E0.01354
G1 X92.191 Y41.776 E0.01354
G1 X92.374 Y41.384 E0.01354
G1 X92.622 Y41.031 E0.01354
G1 X92.927 Y40.725 E0.01354
G1 X93.281 Y40.477 E0.01354
G1 X93.672 Y40.295 E0.01354
G1 X94.090 Y40.183 E0.01354
G1 X94.492 Y40.148 E0.01265
G1 X94.949 Y40.183 E0.01439
G1 X95.368 Y40.295 E0.01358
G1 X95.759 Y40.477 E0.01354
G1 X96.113 Y40.725 E0.01354
G1 X96.418 Y41.031 E0.01354
M73 Q1 S150
G1 X96.666 Y41.384 E0.01354
G1 X96.849 Y41.776 E0.01354
G1 X96.938 Y42.109 E0.01081
G1 X97.330 Y42.301 F10800.000
;WIPE_START
G1 F8640.000
G1 X96.998 Y42.623 E-0.11957
G1 X96.960 Y43.054 E-0.09974
G1 X96.849 Y43.471 E-0.09974
G1 X96.666 Y43.862 E-0.09974
G1 X96.418 Y44.216 E-0.09974
G1 X96.113 Y44.522 E-0.09973
G1 X95.782 Y44.753 E-0.09314
G1 X95.369 Y44.952 E-0.10597
G1 X94.950 Y45.064 E-0.10001
G1 X94.810 Y45.076 E-0.03263
;WIPE_END
G1 E-0.05000 F2100.000
G1 Z0.400 F10800.000
G1 X96.938 Y48.269
G1 Z0.200
G1 E1.00000 F2100.000
;TYPE:Perimeter
G1 F1200.000
G1 X170.804 Y48.269 E2.31601
G1 X172.076 Y48.317 E0.03994
G1 X173.357 Y48.461 E0.04040
G1 X174.623 Y48.701 E0.04040
G1 X175.867 Y49.034 E0.04040
G1 X177.083 Y49.460 E0.04040
G1 X178.264 Y49.975 E0.04040
G1 X179.403 Y50.577 E0.04040
G1 X180.494 Y51.263 E0.04040
G1 X181.531 Y52.028 E0.04040
G1 X182.507 Y52.868 E0.04040
G1 X183.418 Y53.779 E0.04040
G1 X184.259 Y54.756 E0.04040
G1 X185.024 Y55.792 E0.04040
G1 X185.709 Y56.883 E0.04040
G1 X186.311 Y58.022 E0.04040
G1 X186.827 Y59.203 E0.04040
G1 X187.252 Y60.419 E0.04040
G1 X187.586 Y61.664 E0.04040
G1 X187.825 Y62.930 E0.04040
G1 X187.969 Y64.210 E0.04040
G1 X188.017 Y65.483 E0.03994
G1 X188.017 Y157.091 E2.87229
G1 X187.964 Y158.413 E0.04149
G1 X187.827 Y159.633 E0.03850
G1 X187.589 Y160.894 E0.04024
G1 X187.258 Y162.134 E0.04024
G1 X186.835 Y163.347 E0.04025
G1 X186.300 Y164.574 E0.04198
G1 X185.699 Y165.708 E0.04024
G1 X185.045 Y166.748 E0.03851
G1 X184.252 Y167.826 E0.04196
G1 X183.414 Y168.798 E0.04026
G1 X182.546 Y169.667 E0.03850
G1 X181.531 Y170.546 E0.04210
G1 X180.493 Y171.311 E0.04042
G1 X179.402 Y171.996 E0.04039
G1 X178.263 Y172.598 E0.04039
G1 X177.083 Y173.113 E0.04039
G1 X175.866 Y173.539 E0.04040
G1 X174.622 Y173.872 E0.04038
G1 X173.356 Y174.112 E0.04039
G1 X172.076 Y174.256 E0.04039
G1 X170.804 Y174.304 E0.03993
G1 X79.196 Y174.304 E2.87228
G1 X77.924 Y174.256 E0.03993
G1 X76.644 Y174.112 E0.04040
G1 X75.377 Y173.872 E0.04040
G1 X74.113 Y173.532 E0.04105
G1 X72.917 Y173.113 E0.03972
G1 X71.736 Y172.598 E0.04040
G1 X70.580 Y171.985 E0.04105
G1 X69.507 Y171.311 E0.03973
G1 X68.469 Y170.546 E0.04042
G1 X67.454 Y169.667 E0.04210
G1 X66.586 Y168.798 E0.03850
G1 X65.748 Y167.826 E0.04024
G1 X64.985 Y166.794 E0.04024
G1 X64.302 Y165.708 E0.04024
G1 X63.700 Y164.574 E0.04025
G1 X63.165 Y163.347 E0.04198
G1 X62.742 Y162.134 E0.04025
G1 X62.411 Y160.894 E0.04024
G1 X62.173 Y159.633 E0.04024
G1 X62.030 Y158.358 E0.04024
G1 X61.985 Y157.141 E0.03819
G1 X61.983 Y65.483 E2.87386
G1 X62.031 Y64.210 E0.03994
G1 X62.175 Y62.930 E0.04040
G1 X62.414 Y61.664 E0.04040
G1 X62.748 Y60.419 E0.04040
G1 X63.173 Y59.203 E0.04040
G1 X63.689 Y58.022 E0.04040
G1 X64.291 Y56.883 E0.04040
G1 X64.976 Y55.792 E0.04040
G1 X65.706 Y54.804 E0.03852
G1 X66.581 Y53.780 E0.04224
G1 X67.493 Y52.868 E0.04043
G1 X68.469 Y52.028 E0.04040
G1 X69.506 Y51.263 E0.04040
G1 X70.597 Y50.577 E0.04040
G1 X71.736 Y49.975 E0.04040
G1 X72.917 Y49.460 E0.04040
G1 X74.133 Y49.034 E0.04040
G1 X75.377 Y48.701 E0.04040
G1 X76.643 Y48.461 E0.04040
G1 X77.924 Y48.317 E0.04040
G1 X79.196 Y48.269 E0.03994
G1 X96.878 Y48.269 E0.55439
G1 X96.878 Y48.647 F10800.000
;TYPE:External perimeter
G1 F1200.000
G1 X170.797 Y48.647 E2.31767
G1 X172.048 Y48.693 E0.03927
G1 X173.300 Y48.834 E0.03951
G1 X174.539 Y49.069 E0.03951
G1 X175.756 Y49.395 E0.03951
G1 X176.945 Y49.811 E0.03951
G1 X178.100 Y50.315 E0.03951
G1 X179.215 Y50.904 E0.03951
G1 X180.282 Y51.574 E0.03951
G1 X181.296 Y52.323 E0.03951
G1 X182.251 Y53.145 E0.03951
G1 X183.142 Y54.036 E0.03951
G1 X183.964 Y54.991 E0.03951
G1 X184.712 Y56.005 E0.03951
G1 X185.383 Y57.072 E0.03951
G1 X185.971 Y58.186 E0.03951
G1 X186.475 Y59.341 E0.03951
G1 X186.892 Y60.531 E0.03951
G1 X187.218 Y61.748 E0.03951
G1 X187.452 Y62.986 E0.03951
G1 X187.593 Y64.238 E0.03951
G1 X187.640 Y65.490 E0.03927
G1 X187.640 Y157.083 E2.87184
G1 X187.588 Y158.384 E0.04083
G1 X187.453 Y159.577 E0.03764
G1 X187.221 Y160.811 E0.03936
G1 X186.897 Y162.023 E0.03936
G1 X186.484 Y163.209 E0.03936
G1 X185.960 Y164.410 E0.04108
G1 X185.372 Y165.519 E0.03936
G1 X184.733 Y166.535 E0.03764
G1 X183.957 Y167.590 E0.04107
G1 X183.138 Y168.542 E0.03937
G1 X182.289 Y169.391 E0.03764
G1 X181.295 Y170.251 E0.04121
G1 X180.281 Y170.999 E0.03952
G1 X179.214 Y171.670 E0.03951
G1 X178.100 Y172.258 E0.03951
G1 X176.945 Y172.762 E0.03951
G1 X175.755 Y173.178 E0.03952
G1 X174.538 Y173.504 E0.03950
G1 X173.300 Y173.739 E0.03951
G1 X172.048 Y173.880 E0.03951
G1 X170.797 Y173.926 E0.03927
G1 X79.203 Y173.926 E2.87184
M73 Q1 S149
G1 X77.952 Y173.880 E0.03926
G1 X76.700 Y173.739 E0.03951
G1 X75.462 Y173.504 E0.03951
G1 X74.225 Y173.171 E0.04017
G1 X73.055 Y172.762 E0.03884
G1 X71.900 Y172.258 E0.03951
G1 X70.768 Y171.658 E0.04016
G1 X69.719 Y170.999 E0.03885
G1 X68.705 Y170.251 E0.03952
G1 X67.711 Y169.391 E0.04121
G1 X66.862 Y168.542 E0.03764
G1 X66.043 Y167.591 E0.03936
G1 X65.297 Y166.581 E0.03936
G1 X64.628 Y165.519 E0.03936
G1 X64.040 Y164.410 E0.03936
G1 X63.516 Y163.209 E0.04108
