; generated by PrusaSlicer 2.3.0+win64 on 2021-07-15 at 02:29:09 UTC

; 

; external perimeters extrusion width = 0.45mm
; perimeters extrusion width = 0.45mm
; infill extrusion width = 0.45mm
; solid infill extrusion width = 0.45mm
; top infill extrusion width = 0.40mm
; support material extrusion width = 0.35mm
; first layer extrusion width = 0.42mm

M73 P0 R96
M73 Q0 S97
M201 X1000 Y1000 Z200 E5000 ; sets maximum accelerations, mm/sec^2
M203 X200 Y200 Z12 E120 ; sets maximum feedrates, mm/sec
M204 P1250 R1250 T1250 ; sets acceleration (P, T) and retract acceleration (R), mm/sec^2
M205 X8.00 Y8.00 Z0.40 E4.50 ; sets the jerk limits, mm/sec
M205 S0 T0 ; sets the minimum extruding and travel feed rate, mm/sec
M107
;TYPE:Custom
M862.3 P "MK3S" ; printer model check
M862.1 P0.4 ; nozzle diameter check
M115 U3.9.1 ; tell printer latest fw version
G90 ; use absolute coordinates
M83 ; extruder relative mode
M104 S240 ; set extruder temp
M140 S85 ; set bed temp
M190 S85 ; wait for bed temp
M109 S240 ; wait for extruder temp
G28 W ; home all without mesh bed level
G80 ; mesh bed leveling
G1 Y-3.0 F1000.0 ; go outside print area
G92 E0.0
G1 X60.0 E9.0 F1000.0 ; intro line
G1 X100.0 E12.5 F1000.0 ; intro line
G92 E0.0
M221 S95

; Don't change E values below. Excessive value can damage the printer.
M907 E430 ; set extruder motor current
G21 ; set units to millimeters
G90 ; use absolute coordinates
M83 ; use relative distances for extrusion
M900 K0.08 ; Filament gcode LA 1.5
M900 K45 ; Filament gcode LA 1.0
;LAYER_CHANGE
;Z:0.2
;HEIGHT:0.2
;BEFORE_LAYER_CHANGE
G92 E0.0
;0.2


G1 E-1.40000 F2100.000
G1 Z0.200 F10800.000
;AFTER_LAYER_CHANGE
;0.2
G1 Z0.400
G1 X72.142 Y90.042
G1 Z0.200
G1 E1.40000 F2100.000
M204 S1000
;TYPE:Skirt
;WIDTH:0.42
G1 F1200.000
G1 X72.865 Y89.923 E0.02296
G1 X87.560 Y89.923 E0.46076
G1 X160.523 Y91.457 E2.28821
G1 X172.774 Y94.125 E0.39312
G1 X182.324 Y98.756 E0.33278
G1 X182.794 Y99.116 E0.01858
G1 X191.606 Y107.935 E0.39088
G1 X191.914 Y108.378 E0.01692
G1 X192.114 Y108.879 E0.01692
G1 X192.196 Y109.413 E0.01692
G1 X192.155 Y109.951 E0.01692
G1 X191.934 Y110.593 E0.02130
G1 X191.540 Y111.147 E0.02130
G1 X180.160 Y122.527 E0.50462
G1 X179.482 Y122.994 E0.02579
G1 X178.687 Y123.202 E0.02579
G1 X72.810 Y120.076 E3.32114
G1 X72.276 Y119.998 E0.01692
G1 X71.773 Y119.801 E0.01692
G1 X71.222 Y119.399 E0.02142
G1 X64.829 Y113.006 E0.28344
G1 X64.502 Y112.582 E0.01680
G1 X64.277 Y112.096 E0.01680
G1 X64.157 Y111.370 E0.02308
G1 X64.157 Y98.623 E0.39965
G1 X64.230 Y98.066 E0.01763
G1 X64.432 Y97.541 E0.01763
G1 X64.834 Y96.988 E0.02142
G1 X71.228 Y90.595 E0.28350
G1 X71.655 Y90.265 E0.01692
G1 X72.088 Y90.067 E0.01492
;WIPE_START
G1 F8640.000
G1 X72.865 Y89.923 E-0.18247
G1 X77.835 Y89.923 E-1.14753
;WIPE_END
G1 E-0.07000 F2100.000
G1 Z0.400 F10800.000
G1 X178.492 Y120.833
G1 Z0.200
G1 E1.40000 F2100.000
;TYPE:Support material
G1 F1200.000
G1 X189.821 Y109.505 E0.50232
G1 X189.287 Y108.971 E0.02365
G1 X178.079 Y120.180 E0.49700
G1 X177.546 Y119.646 E0.02365
G1 X188.754 Y108.438 E0.49700
G1 X188.221 Y107.905 E0.02365
G1 X177.012 Y119.113 E0.49700
G1 X176.479 Y118.580 E0.02365
G1 X187.688 Y107.372 E0.49700
G1 X187.154 Y106.838 E0.02365
G1 X175.946 Y118.047 E0.49700
G1 X175.413 Y117.513 E0.02365
G1 X186.621 Y106.305 E0.49700
G1 X186.088 Y105.772 E0.02365
G1 X174.879 Y116.980 E0.49700
G1 X174.346 Y116.447 E0.02365
G1 X185.554 Y105.238 E0.49700
G1 X185.021 Y104.705 E0.02365
G1 X173.813 Y115.914 E0.49700
G1 X173.280 Y115.380 E0.02365
G1 X184.488 Y104.172 E0.49700
G1 X183.955 Y103.639 E0.02365
G1 X172.746 Y114.847 E0.49700
G1 X172.213 Y114.314 E0.02365
G1 X183.421 Y103.105 E0.49700
G1 X182.888 Y102.572 E0.02365
G1 X169.341 Y116.119 E0.60069
G1 X168.808 Y115.586 E0.02365
G1 X182.355 Y102.039 E0.60069
G1 X181.822 Y101.506 E0.02365
G1 X168.275 Y115.052 E0.60069
G1 X167.741 Y114.519 E0.02365
G1 X181.288 Y100.972 E0.60069
G1 X181.123 Y100.807 E0.00733
G1 X178.785 Y103.145 E0.10369
G1 X178.417 Y102.777 E0.01632
G1 X167.208 Y113.986 E0.49700
G1 X167.092 Y113.870 E0.00514
G1 X164.754 Y116.208 E0.10369
G1 X164.336 Y115.791 E0.01851
G1 X177.883 Y102.244 E0.60069
G1 X177.350 Y101.711 E0.02365
G1 X163.803 Y115.258 E0.60069
G1 X163.270 Y114.724 E0.02365
G1 X176.817 Y101.178 E0.60069
M73 Q0 S96
G1 X176.283 Y100.644 E0.02365
G1 X162.737 Y114.191 E0.60069
G1 X162.415 Y113.870 E0.01425
G1 X160.077 Y116.208 E0.10369
G1 X159.865 Y115.996 E0.00940
G1 X175.750 Y100.111 E0.70438
G1 X175.217 Y99.578 E0.02365
G1 X159.332 Y115.463 E0.70438
G1 X158.798 Y114.930 E0.02365
G1 X174.684 Y99.045 E0.70438
G1 X174.150 Y98.511 E0.02365
G1 X158.265 Y114.397 E0.70438
G1 X157.732 Y113.863 E0.02365
G1 X173.617 Y97.978 E0.70438
G1 X173.084 Y97.445 E0.02365
G1 X157.199 Y113.330 E0.70438
G1 X156.665 Y112.797 E0.02365
G1 X172.551 Y96.911 E0.70438
G1 X172.017 Y96.378 E0.02365
G1 X156.132 Y112.264 E0.70438
G1 X155.599 Y111.730 E0.02365
G1 X169.146 Y98.183 E0.60069
G1 X168.612 Y97.650 E0.02365
G1 X152.727 Y113.535 E0.70438
G1 X152.194 Y113.002 E0.02365
G1 X168.079 Y97.117 E0.70438
G1 X167.546 Y96.584 E0.02365
G1 X151.660 Y112.469 E0.70438
G1 X151.127 Y111.936 E0.02365
G1 X164.674 Y98.389 E0.60069
M73 Q1 S96
G1 X164.141 Y97.855 E0.02365
G1 X148.255 Y113.741 E0.70438
M73 P1 R95
G1 X147.722 Y113.208 E0.02365
G1 X163.608 Y97.322 E0.70438
G1 X163.074 Y96.789 E0.02365
G1 X147.189 Y112.674 E0.70438
G1 X146.656 Y112.141 E0.02365
G1 X162.541 Y96.256 E0.70438
G1 X162.008 Y95.722 E0.02365
G1 X146.122 Y111.608 E0.70438
G1 X146.046 Y111.531 E0.00338
G1 X143.708 Y113.870 E0.10369
G1 X143.251 Y113.413 E0.02027
G1 X161.474 Y95.189 E0.80807
G1 X160.941 Y94.656 E0.02365
G1 X142.717 Y112.880 E0.80807
G1 X142.184 Y112.346 E0.02365
G1 X160.408 Y94.123 E0.80807
G1 X160.077 Y93.792 E0.01468
G1 X155.400 Y98.468 E0.20738
G1 X155.198 Y98.266 E0.00897
G1 X141.651 Y111.813 E0.60069
G1 X141.369 Y111.531 E0.01249
G1 X139.031 Y113.870 E0.10369
G1 X138.779 Y113.618 E0.01116
G1 X154.664 Y97.733 E0.70438
G1 X154.131 Y97.200 E0.02365
G1 X138.246 Y113.085 E0.70438
G1 X137.713 Y112.552 E0.02365
G1 X153.598 Y96.666 E0.70438
G1 X153.065 Y96.133 E0.02365
G1 X137.179 Y112.018 E0.70438
G1 X136.692 Y111.531 E0.02159
G1 X134.354 Y113.870 E0.10369
G1 X134.308 Y113.824 E0.00205
G1 X150.193 Y97.938 E0.70438
G1 X149.660 Y97.405 E0.02365
G1 X133.774 Y113.290 E0.70438
G1 X133.241 Y112.757 E0.02365
G1 X149.126 Y96.872 E0.70438
G1 X148.593 Y96.339 E0.02365
G1 X132.708 Y112.224 E0.70438
G1 X132.174 Y111.691 E0.02365
G1 X145.721 Y98.144 E0.60069
G1 X145.188 Y97.610 E0.02365
G1 X126.964 Y115.834 E0.80807
G1 X126.431 Y115.301 E0.02365
G1 X144.655 Y97.077 E0.80807
G1 X144.122 Y96.544 E0.02365
G1 X125.898 Y114.768 E0.80807
G1 X125.364 Y114.234 E0.02365
G1 X141.250 Y98.349 E0.70438
G1 X140.717 Y97.816 E0.02365
G1 X122.493 Y116.040 E0.80807
G1 X121.959 Y115.506 E0.02365
G1 X140.183 Y97.283 E0.80807
G1 X139.650 Y96.749 E0.02365
G1 X121.426 Y114.973 E0.80807
G1 X120.893 Y114.440 E0.02365
G1 X139.117 Y96.216 E0.80807
G1 X139.031 Y96.130 E0.00381
G1 X136.692 Y98.468 E0.10369
G1 X136.245 Y98.021 E0.01983
G1 X120.360 Y113.907 E0.70438
G1 X120.323 Y113.870 E0.00162
G1 X117.985 Y116.208 E0.10369
G1 X117.488 Y115.712 E0.02202
G1 X135.712 Y97.488 E0.80807
G1 X135.178 Y96.955 E0.02365
G1 X116.955 Y115.178 E0.80807
G1 X116.421 Y114.645 E0.02365
G1 X134.645 Y96.421 E0.80807
G1 X134.354 Y96.130 E0.01292
G1 X132.015 Y98.468 E0.10369
G1 X131.773 Y98.227 E0.01073
G1 X115.888 Y114.112 E0.70438
G1 X115.646 Y113.870 E0.01073
G1 X113.308 Y116.208 E0.10369
G1 X113.016 Y115.917 E0.01292
G1 X131.240 Y97.693 E0.80807
G1 X130.707 Y97.160 E0.02365
G1 X112.483 Y115.384 E0.80807
G1 X111.950 Y114.851 E0.02365
G1 X130.174 Y96.627 E0.80807
M73 Q1 S95
G1 X129.640 Y96.093 E0.02365
G1 X111.417 Y114.317 E0.80807
G1 X110.969 Y113.870 E0.01984
G1 X108.631 Y116.208 E0.10369
G1 X108.545 Y116.122 E0.00381
G1 X129.107 Y95.560 E0.91176
G1 X128.574 Y95.027 E0.02365
G1 X108.012 Y115.589 E0.91176
G1 X107.478 Y115.056 E0.02365
G1 X128.041 Y94.494 E0.91176
G1 X127.507 Y93.960 E0.02365
G1 X106.945 Y114.523 E0.91176
G1 X106.412 Y113.989 E0.02365
G1 X124.636 Y95.766 E0.80807
G1 X124.102 Y95.232 E0.02365
G1 X103.540 Y115.795 E0.91176
G1 X103.007 Y115.261 E0.02365
G1 X123.569 Y94.699 E0.91176
G1 X123.036 Y94.166 E0.02365
G1 X102.473 Y114.728 E0.91176
G1 X101.940 Y114.195 E0.02365
G1 X120.164 Y95.971 E0.80807
M73 P2 R95
M73 Q2 S95
G1 X119.631 Y95.438 E0.02365
G1 X101.407 Y113.661 E0.80807
G1 X100.874 Y113.128 E0.02365
G1 X119.097 Y94.904 E0.80807
M73 P2 R94
G1 X118.564 Y94.371 E0.02365
G1 X101.818 Y111.117 E0.74256
G1 X102.168 Y109.701 E0.04576
G1 X118.031 Y93.838 E0.70338
G1 X117.985 Y93.792 E0.00205
G1 X115.646 Y96.130 E0.10369
G1 X115.159 Y95.643 E0.02159
G1 X102.383 Y108.420 E0.56653
G1 X102.471 Y107.871 E0.01744
G1 X102.527 Y107.208 E0.02084
G1 X114.626 Y95.110 E0.53647
G1 X114.093 Y94.577 E0.02365
G1 X102.623 Y106.046 E0.50858
G1 X102.631 Y104.972 E0.03367
G1 X113.559 Y94.043 E0.48460
G1 X113.308 Y93.792 E0.01116
G1 X110.969 Y96.130 E0.10369
G1 X110.688 Y95.848 E0.01249
G1 X102.621 Y103.915 E0.35767
G1 X102.539 Y102.931 E0.03096
G1 X110.154 Y95.315 E0.33769
G1 X109.621 Y94.782 E0.02365
G1 X102.447 Y101.956 E0.31812
G1 X102.293 Y101.044 E0.02901
G1 X109.088 Y94.249 E0.30131
G1 X108.631 Y93.792 E0.02027
G1 X106.292 Y96.130 E0.10369
G1 X106.216 Y96.054 E0.00338
G1 X102.137 Y100.133 E0.18090
G1 X101.920 Y99.283 E0.02750
G1 X105.683 Y95.521 E0.16685
G1 X105.150 Y94.987 E0.02365
G1 X101.703 Y98.434 E0.15285
G1 X101.618 Y98.128 E0.00995
G1 X101.487 Y97.894 E0.00841
G1 X101.340 Y97.731 E0.00691
G1 X104.616 Y94.454 E0.14530
G1 X104.083 Y93.921 E0.02365
G1 X100.713 Y97.291 E0.14942
;WIPE_START
G1 F8640.000
G1 X104.083 Y93.921 E-1.10041
G1 X104.616 Y94.454 E-0.17414
G1 X104.446 Y94.624 E-0.05546
;WIPE_END
G1 E-0.07000 F2100.000
G1 Z0.400 F10800.000
G1 X83.226 Y103.644
G1 Z0.200
G1 E1.40000 F2100.000
;TYPE:Perimeter
G1 F1200.000
G1 X83.397 Y104.828 E0.03751
G1 X83.345 Y105.678 E0.02671
G1 X83.121 Y106.500 E0.02671
G1 X82.735 Y107.260 E0.02671
G1 X82.202 Y107.924 E0.02671
G1 X81.545 Y108.467 E0.02671
G1 X80.791 Y108.864 E0.02671
G1 X79.973 Y109.100 E0.02671
G1 X79.123 Y109.165 E0.02671
G1 X78.279 Y109.055 E0.02671
G1 X77.474 Y108.776 E0.02671
G1 X76.742 Y108.339 E0.02671
G1 X76.115 Y107.762 E0.02671
G1 X75.619 Y107.070 E0.02671
G1 X75.273 Y106.291 E0.02671
G1 X75.093 Y105.458 E0.02671
G1 X75.087 Y104.607 E0.02671
G1 X75.254 Y103.771 E0.02671
G1 X75.587 Y102.987 E0.02671
G1 X76.072 Y102.287 E0.02671
G1 X76.690 Y101.701 E0.02671
G1 X77.708 Y101.071 E0.03751
G1 X83.171 Y103.619 E0.18902
G1 X82.882 Y103.900 F10800.000
;TYPE:External perimeter
G1 F1200.000
G1 X83.018 Y104.844 E0.02991
G1 X82.971 Y105.617 E0.02428
G1 X82.767 Y106.364 E0.02428
G1 X82.416 Y107.054 E0.02428
G1 X81.932 Y107.658 E0.02428
G1 X81.335 Y108.151 E0.02428
G1 X80.650 Y108.513 E0.02428
G1 X79.906 Y108.727 E0.02428
G1 X79.133 Y108.786 E0.02428
G1 X78.366 Y108.686 E0.02428
G1 X77.634 Y108.432 E0.02428
G1 X76.969 Y108.035 E0.02428
G1 X76.399 Y107.511 E0.02428
G1 X75.948 Y106.882 E0.02428
G1 X75.634 Y106.174 E0.02428
G1 X75.470 Y105.417 E0.02428
G1 X75.464 Y104.642 E0.02428
G1 X75.616 Y103.883 E0.02428
G1 X75.919 Y103.170 E0.02428
G1 X76.360 Y102.534 E0.02428
G1 X76.922 Y102.001 E0.02428
G1 X77.733 Y101.499 E0.02991
G1 X82.827 Y103.874 E0.17625
G1 X83.282 Y103.902 F10800.000
;WIPE_START
G1 F8640.000
G1 X83.018 Y104.844 E-0.22812
G1 X82.971 Y105.617 E-0.17881
G1 X82.767 Y106.364 E-0.17881
G1 X82.416 Y107.054 E-0.17881
G1 X81.932 Y107.658 E-0.17882
G1 X81.335 Y108.151 E-0.17882
G1 X80.650 Y108.513 E-0.17882
G1 X80.529 Y108.547 E-0.02899
;WIPE_END
G1 E-0.07000 F2100.000
G1 Z0.400 F10800.000
G1 X73.210 Y93.087
G1 Z0.200
G1 E1.40000 F2100.000
;TYPE:Perimeter
G1 F1200.000
G1 X87.529 Y93.087 E0.44896
G1 X88.455 Y93.150 E0.02910
G1 X89.372 Y93.250 E0.02892
G1 X90.268 Y93.388 E0.02841
G1 X91.143 Y93.565 E0.02800
G1 X91.994 Y93.782 E0.02756
G1 X92.819 Y94.041 E0.02710
G1 X93.623 Y94.344 E0.02693
G1 X94.401 Y94.693 E0.02675
G1 X95.155 Y95.088 E0.02669
G1 X95.891 Y95.531 E0.02693
G1 X96.608 Y96.023 E0.02728
G1 X97.301 Y96.554 E0.02738
G1 X97.982 Y97.133 E0.02802
G1 X98.647 Y97.754 E0.02850
G1 X99.289 Y98.408 E0.02876
G1 X99.802 Y98.976 E0.02398
G1 X100.205 Y100.552 E0.05102
G1 X100.501 Y102.300 E0.05559
G1 X100.651 Y104.068 E0.05565
G1 X100.656 Y105.794 E0.05412
G1 X100.502 Y107.688 E0.05955
G1 X100.212 Y109.416 E0.05494
G1 X99.811 Y110.992 E0.05101
G1 X99.300 Y111.562 E0.02399
G1 X98.656 Y112.221 E0.02890
G1 X97.992 Y112.845 E0.02857
G1 X97.313 Y113.425 E0.02800
G1 X96.618 Y113.961 E0.02754
G1 X95.902 Y114.454 E0.02724
G1 X95.167 Y114.899 E0.02693
G1 X94.411 Y115.297 E0.02679
G1 X93.632 Y115.648 E0.02679
G1 X92.829 Y115.952 E0.02694
G1 X92.001 Y116.213 E0.02721
G1 X91.149 Y116.431 E0.02758
G1 X90.277 Y116.608 E0.02790
G1 X89.375 Y116.748 E0.02862
G1 X88.461 Y116.849 E0.02884
G1 X87.529 Y116.913 E0.02927
G1 X73.210 Y116.913 E0.44895
G1 X67.321 Y111.024 E0.26113
G1 X67.321 Y98.976 E0.37776
G1 X73.168 Y93.130 E0.25924
G1 X73.054 Y92.710 F10800.000
;TYPE:External perimeter
G1 F1200.000
G1 X87.542 Y92.710 E0.45426
G1 X88.489 Y92.774 E0.02974
G1 X89.421 Y92.876 E0.02942
G1 X90.334 Y93.017 E0.02894
G1 X91.227 Y93.197 E0.02857
G1 X92.097 Y93.419 E0.02817
G1 X92.942 Y93.684 E0.02776
G1 X93.767 Y93.995 E0.02762
G1 X94.566 Y94.354 E0.02746
G1 X95.340 Y94.759 E0.02741
G1 X96.095 Y95.214 E0.02762
G1 X96.830 Y95.717 E0.02794
G1 X97.538 Y96.261 E0.02800
G1 X98.233 Y96.851 E0.02859
G1 X98.910 Y97.484 E0.02903
G1 X99.564 Y98.150 E0.02926
G1 X100.144 Y98.792 E0.02714
G1 X100.574 Y100.474 E0.05443
G1 X100.875 Y102.252 E0.05657
G1 X101.028 Y104.052 E0.05662
G1 X101.033 Y105.809 E0.05510
G1 X100.877 Y107.734 E0.06055
G1 X100.581 Y109.493 E0.05593
G1 X100.154 Y111.175 E0.05441
G1 X99.575 Y111.819 E0.02715
G1 X98.920 Y112.490 E0.02940
G1 X98.244 Y113.126 E0.02911
G1 X97.551 Y113.718 E0.02858
G1 X96.840 Y114.266 E0.02815
G1 X96.107 Y114.771 E0.02790
G1 X95.353 Y115.227 E0.02763
G1 X94.577 Y115.636 E0.02751
G1 X93.777 Y115.996 E0.02751
G1 X92.953 Y116.309 E0.02764
G1 X92.104 Y116.576 E0.02788
G1 X91.233 Y116.799 E0.02820
G1 X90.343 Y116.980 E0.02848
G1 X89.424 Y117.122 E0.02916
G1 X88.494 Y117.225 E0.02934
G1 X87.542 Y117.290 E0.02992
G1 X73.054 Y117.290 E0.45426
G1 X66.944 Y111.180 E0.27092
G1 X66.944 Y98.820 E0.38755
G1 X73.012 Y92.752 E0.26904
G1 X73.377 Y92.946 F10800.000
;WIPE_START
G1 F8640.000
G1 X78.772 Y92.736 E-1.33000
;WIPE_END
G1 E-0.07000 F2100.000
G1 Z0.400 F10800.000
G1 X99.760 Y99.267
G1 Z0.200
G1 E1.40000 F2100.000
;TYPE:Solid infill
;WIDTH:0.420574
G1 F1200.000
G1 X98.442 Y97.950 E0.05849
G1 X97.794 Y97.344 E0.02786
G1 X97.124 Y96.774 E0.02763
G1 X96.442 Y96.252 E0.02696
G1 X95.713 Y95.755 E0.02771
G1 X99.708 Y99.749 E0.17740
G1 X99.892 Y100.467 E0.02327
G1 X94.476 Y95.051 E0.24051
G1 X93.485 Y94.594 E0.03428
G1 X100.015 Y101.125 E0.29002
G1 X100.124 Y101.768 E0.02047
G1 X92.636 Y94.280 E0.33255
G1 X91.863 Y94.040 E0.02541
G1 X100.226 Y102.404 E0.37141
G1 X100.276 Y102.988 E0.01840
G1 X91.146 Y93.858 E0.40546
G1 X90.472 Y93.718 E0.02160
G1 X100.325 Y103.571 E0.43758
G1 X100.369 Y104.149 E0.01819
G1 X89.826 Y93.606 E0.46818
G1 X89.202 Y93.516 E0.01980
G1 X100.370 Y104.684 E0.49596
G1 X100.371 Y105.220 E0.01681
G1 X88.602 Y93.451 E0.52265
G1 X88.022 Y93.404 E0.01829
G1 X100.373 Y105.755 E0.54849
G1 X100.335 Y106.251 E0.01563
G1 X87.454 Y93.370 E0.57205
G1 X86.919 Y93.370 E0.01677
G1 X100.295 Y106.745 E0.59399
G1 X100.255 Y107.239 E0.01556
G1 X86.385 Y93.370 E0.61593
G1 X85.851 Y93.370 E0.01677
G1 X100.209 Y107.727 E0.63760
G1 X100.132 Y108.185 E0.01456
G1 X85.317 Y93.370 E0.65791
G1 X84.783 Y93.370 E0.01677
G1 X100.055 Y108.642 E0.67822
G1 X99.978 Y109.099 E0.01456
G1 X84.249 Y93.370 E0.69853
G1 X83.715 Y93.370 E0.01677
G1 X99.888 Y109.543 E0.71823
G1 X99.780 Y109.969 E0.01380
G1 X83.181 Y93.370 E0.73714
G1 X82.647 Y93.370 E0.01677
G1 X99.671 Y110.394 E0.75605
M73 Q2 S94
G1 X99.563 Y110.820 E0.01380
G1 X82.113 Y93.370 E0.77496
G1 X81.579 Y93.370 E0.01677
G1 X99.322 Y111.113 E0.78798
G1 X99.068 Y111.394 E0.01187
