; generated by PrusaSlicer 2.3.0+win64 on 2021-05-03 at 01:17:16 UTC

; 

; external perimeters extrusion width = 0.60mm
; perimeters extrusion width = 0.50mm
; infill extrusion width = 0.50mm
; solid infill extrusion width = 0.50mm
; top infill extrusion width = 0.45mm
; support material extrusion width = 0.38mm
; first layer extrusion width = 0.42mm

M73 P0 R200
M73 Q0 S202
M201 X1000 Y1000 Z200 E5000 ; sets maximum accelerations, mm/sec^2
M203 X200 Y200 Z12 E120 ; sets maximum feedrates, mm/sec
M204 P1250 R1250 T1250 ; sets acceleration (P, T) and retract acceleration (R), mm/sec^2
M205 X8.00 Y8.00 Z0.40 E4.50 ; sets the jerk limits, mm/sec
M205 S0 T0 ; sets the minimum extruding and travel feed rate, mm/sec
M107
;TYPE:Custom
M862.3 P "MK3S" ; printer model check
M862.1 P0.4 ; nozzle diameter check
M115 U3.9.1 ; tell printer latest fw version
G90 ; use absolute coordinates
M83 ; extruder relative mode
M104 S240 ; set extruder temp
M140 S85 ; set bed temp
M190 S85 ; wait for bed temp
M109 S240 ; wait for extruder temp
G28 W ; home all without mesh bed level
G80 ; mesh bed leveling
G1 Y-3.0 F1000.0 ; go outside print area
G92 E0.0
G1 X60.0 E9.0 F1000.0 ; intro line
G1 X100.0 E12.5 F1000.0 ; intro line
G92 E0.0
M221 S95

; Don't change E values below. Excessive value can damage the printer.

M907 E538 ; set extruder motor current
G21 ; set units to millimeters
G90 ; use absolute coordinates
M83 ; use relative distances for extrusion
M900 K0.08 ; Filament gcode LA 1.5
M900 K45 ; Filament gcode LA 1.0
;LAYER_CHANGE
;Z:0.2
;HEIGHT:0.2
;BEFORE_LAYER_CHANGE
G92 E0.0
;0.2


M73 P0 R199
M73 Q0 S201
G1 E-1.40000 F2100.000
G1 Z0.200 F10800.000
;AFTER_LAYER_CHANGE
;0.2
G1 Z0.400
G1 X53.649 Y42.224
G1 Z0.200
G1 E1.40000 F2100.000
M204 S1000
;TYPE:Skirt
;WIDTH:0.42
G1 F1200.000
G1 X54.438 Y41.669 E0.03024
G1 X55.387 Y41.474 E0.03036
G1 X194.343 Y43.138 E4.35719
G1 X194.948 Y43.200 E0.01908
G1 X195.511 Y43.409 E0.01882
G1 X196.084 Y43.828 E0.02225
G1 X196.510 Y44.400 E0.02237
G1 X216.530 Y82.865 E1.35960
G1 X216.717 Y83.350 E0.01633
G1 X216.796 Y83.896 E0.01728
G1 X217.806 Y125.162 E1.29427
G1 X217.743 Y125.755 E0.01870
G1 X217.536 Y126.311 E0.01858
G1 X217.260 Y126.725 E0.01562
G1 X216.901 Y127.076 E0.01574
G1 X216.477 Y127.343 E0.01574
G1 X216.009 Y127.515 E0.01562
G1 X164.566 Y139.599 E1.65686
G1 X78.940 Y142.224 E2.68602
G1 X78.339 Y142.163 E0.01894
G1 X77.772 Y141.953 E0.01894
G1 X62.262 Y132.785 E0.56494
G1 X61.600 Y132.146 E0.02884
G1 X61.230 Y131.304 E0.02884
G1 X53.010 Y44.005 E2.74932
G1 X53.145 Y43.046 E0.03036
G1 X53.618 Y42.275 E0.02836
;WIPE_START
G1 F8640.000
G1 X54.438 Y41.669 E-0.23550
G1 X55.387 Y41.474 E-0.22358
G1 X59.158 Y41.519 E-0.87092
;WIPE_END
G1 E-0.07000 F2100.000
G1 Z0.400 F10800.000
G1 X139.301 Y127.011
G1 Z0.200
G1 E1.40000 F2100.000
;TYPE:Perimeter
G1 F1200.000
G1 X139.754 Y126.556 E0.02013
G1 X140.277 Y126.183 E0.02014
G1 X140.855 Y125.905 E0.02012
G1 X141.472 Y125.728 E0.02013
G1 X142.080 Y125.661 E0.01918
G1 X142.748 Y125.696 E0.02098
G1 X143.376 Y125.843 E0.02020
G1 X143.967 Y126.093 E0.02012
G1 X144.507 Y126.439 E0.02013
G1 X144.981 Y126.872 E0.02012
G1 X145.376 Y127.379 E0.02013
G1 X145.678 Y127.945 E0.02012
G1 X145.881 Y128.553 E0.02011
G1 X145.979 Y129.188 E0.02014
G1 X145.967 Y129.830 E0.02013
G1 X145.847 Y130.460 E0.02012
G1 X145.623 Y131.062 E0.02012
G1 X145.300 Y131.616 E0.02013
G1 X144.887 Y132.108 E0.02013
G1 X144.398 Y132.524 E0.02012
G1 X143.845 Y132.851 E0.02014
G1 X143.273 Y133.068 E0.01919
G1 X142.618 Y133.203 E0.02098
G1 X141.974 Y133.219 E0.02019
G1 X141.339 Y133.126 E0.02014
G1 X140.729 Y132.927 E0.02011
G1 X140.161 Y132.628 E0.02013
G1 X139.652 Y132.237 E0.02012
G1 X139.216 Y131.766 E0.02012
G1 X138.882 Y131.252 E0.01921
G1 X138.613 Y130.640 E0.02096
G1 X138.462 Y130.014 E0.02020
G1 X138.419 Y129.373 E0.02013
G1 X138.485 Y128.735 E0.02013
G1 X138.658 Y128.117 E0.02013
G1 X138.932 Y127.537 E0.02012
G1 X139.267 Y127.060 E0.01825
G1 X139.575 Y127.277 F10800.000
;TYPE:External perimeter
G1 F1200.000
G1 X139.999 Y126.844 E0.01898
G1 X140.470 Y126.509 E0.01813
G1 X140.990 Y126.258 E0.01811
G1 X141.545 Y126.099 E0.01811
G1 X142.091 Y126.039 E0.01722
G1 X142.695 Y126.071 E0.01896
G1 X143.258 Y126.203 E0.01814
G1 X143.790 Y126.428 E0.01811
G1 X144.277 Y126.740 E0.01811
G1 X144.703 Y127.129 E0.01811
G1 X145.058 Y127.585 E0.01812
G1 X145.331 Y128.094 E0.01811
G1 X145.514 Y128.642 E0.01811
G1 X145.601 Y129.213 E0.01812
G1 X145.591 Y129.791 E0.01812
G1 X145.483 Y130.358 E0.01811
G1 X145.281 Y130.900 E0.01811
G1 X144.990 Y131.399 E0.01811
G1 X144.619 Y131.842 E0.01812
G1 X144.179 Y132.216 E0.01811
G1 X143.681 Y132.510 E0.01812
G1 X143.168 Y132.705 E0.01723
G1 X142.575 Y132.827 E0.01897
G1 X141.997 Y132.841 E0.01813
G1 X141.425 Y132.757 E0.01812
G1 X140.876 Y132.578 E0.01810
G1 X140.365 Y132.309 E0.01812
G1 X139.907 Y131.957 E0.01811
G1 X139.515 Y131.533 E0.01812
G1 X139.215 Y131.072 E0.01724
G1 X138.972 Y130.519 E0.01895
G1 X138.836 Y129.957 E0.01814
G1 X138.797 Y129.380 E0.01812
G1 X138.856 Y128.805 E0.01811
G1 X139.012 Y128.249 E0.01812
G1 X139.259 Y127.727 E0.01811
G1 X139.541 Y127.326 E0.01536
G1 X139.436 Y126.902 F10800.000
;WIPE_START
G1 F8640.000
G1 X139.999 Y126.844 E-0.15344
G1 X140.470 Y126.509 E-0.13349
G1 X140.990 Y126.258 E-0.13336
G1 X141.545 Y126.099 E-0.13340
G1 X142.091 Y126.039 E-0.12679
G1 X142.695 Y126.071 E-0.13965
G1 X143.258 Y126.203 E-0.13360
G1 X143.790 Y126.428 E-0.13338
G1 X144.277 Y126.740 E-0.13340
G1 X144.627 Y127.059 E-0.10950
;WIPE_END
G1 E-0.07000 F2100.000
G1 Z0.400 F10800.000
G1 X88.909 Y132.730
G1 Z0.200
G1 E1.40000 F2100.000
;TYPE:Perimeter
G1 F1200.000
G1 X88.897 Y133.372 E0.02013
G1 X88.777 Y134.003 E0.02013
G1 X88.553 Y134.604 E0.02011
G1 X88.230 Y135.159 E0.02012
G1 X87.837 Y135.628 E0.01920
G1 X87.330 Y136.065 E0.02098
G1 X86.775 Y136.393 E0.02020
G1 X86.176 Y136.621 E0.02011
G1 X85.546 Y136.745 E0.02014
G1 X84.904 Y136.761 E0.02013
G1 X84.269 Y136.668 E0.02011
G1 X83.659 Y136.469 E0.02014
G1 X83.091 Y136.170 E0.02013
G1 X82.582 Y135.779 E0.02011
G1 X82.146 Y135.308 E0.02013
G1 X81.796 Y134.769 E0.02013
G1 X81.554 Y134.207 E0.01919
G1 X81.392 Y133.558 E0.02097
G1 X81.349 Y132.916 E0.02020
G1 X81.415 Y132.277 E0.02012
G1 X81.580 Y131.688 E0.01920
G1 X81.861 Y131.081 E0.02097
G1 X82.231 Y130.554 E0.02020
G1 X82.684 Y130.098 E0.02014
G1 X83.207 Y129.726 E0.02012
G1 X83.785 Y129.447 E0.02012
G1 X84.402 Y129.270 E0.02013
G1 X85.011 Y129.204 E0.01920
G1 X85.679 Y129.239 E0.02097
G1 X86.306 Y129.386 E0.02020
G1 X86.897 Y129.636 E0.02013
G1 X87.437 Y129.982 E0.02011
G1 X87.912 Y130.415 E0.02013
G1 X88.306 Y130.921 E0.02012
G1 X88.609 Y131.487 E0.02012
G1 X88.812 Y132.096 E0.02013
G1 X88.900 Y132.671 E0.01825
G1 X88.527 Y132.728 F10800.000
;TYPE:External perimeter
G1 F1200.000
G1 X88.521 Y133.334 E0.01898
G1 X88.413 Y133.901 E0.01812
G1 X88.211 Y134.442 E0.01811
G1 X87.920 Y134.941 E0.01811
G1 X87.567 Y135.363 E0.01723
G1 X87.109 Y135.758 E0.01897
G1 X86.611 Y136.052 E0.01814
G1 X86.072 Y136.258 E0.01810
G1 X85.505 Y136.369 E0.01812
G1 X84.927 Y136.383 E0.01812
G1 X84.356 Y136.300 E0.01810
G1 X83.806 Y136.121 E0.01813
G1 X83.295 Y135.851 E0.01811
G1 X82.837 Y135.500 E0.01810
G1 X82.445 Y135.075 E0.01812
G1 X82.130 Y134.591 E0.01811
G1 X81.913 Y134.086 E0.01723
G1 X81.766 Y133.500 E0.01896
G1 X81.728 Y132.922 E0.01814
G1 X81.787 Y132.348 E0.01811
G1 X81.934 Y131.819 E0.01723
G1 X82.189 Y131.270 E0.01896
G1 X82.521 Y130.797 E0.01814
G1 X82.929 Y130.387 E0.01812
G1 X83.399 Y130.052 E0.01811
G1 X83.920 Y129.801 E0.01811
G1 X84.475 Y129.642 E0.01811
G1 X85.022 Y129.582 E0.01723
G1 X85.625 Y129.613 E0.01896
G1 X86.189 Y129.745 E0.01814
G1 X86.721 Y129.970 E0.01811
G1 X87.207 Y130.282 E0.01810
G1 X87.634 Y130.671 E0.01812
G1 X87.988 Y131.127 E0.01811
G1 X88.261 Y131.637 E0.01811
G1 X88.444 Y132.185 E0.01812
G1 X88.518 Y132.669 E0.01536
G1 X88.887 Y132.902 F10800.000
;WIPE_START
G1 F8640.000
G1 X88.521 Y133.334 E-0.15347
G1 X88.413 Y133.901 E-0.13342
G1 X88.211 Y134.442 E-0.13333
G1 X87.920 Y134.941 E-0.13334
G1 X87.567 Y135.363 E-0.12690
G1 X87.109 Y135.758 E-0.13967
G1 X86.611 Y136.052 E-0.13362
G1 X86.072 Y136.258 E-0.13327
G1 X85.505 Y136.369 E-0.13346
G1 X85.031 Y136.381 E-0.10950
;WIPE_END
G1 E-0.07000 F2100.000
G1 Z0.400 F10800.000
G1 X79.072 Y79.382
G1 Z0.200
G1 E1.40000 F2100.000
;TYPE:Perimeter
G1 F1200.000
G1 X78.431 Y79.398 E0.02013
G1 X77.796 Y79.305 E0.02012
G1 X77.185 Y79.106 E0.02013
G1 X76.618 Y78.806 E0.02012
G1 X76.109 Y78.415 E0.02011
G1 X75.673 Y77.944 E0.02012
G1 X75.339 Y77.431 E0.01921
G1 X75.069 Y76.819 E0.02097
G1 X74.918 Y76.192 E0.02020
G1 X74.876 Y75.552 E0.02012
G1 X74.941 Y74.914 E0.02012
G1 X75.106 Y74.324 E0.01920
G1 X75.388 Y73.717 E0.02098
G1 X75.758 Y73.190 E0.02020
G1 X76.211 Y72.735 E0.02013
G1 X76.734 Y72.362 E0.02013
G1 X77.311 Y72.084 E0.02011
G1 X77.929 Y71.907 E0.02014
G1 X78.537 Y71.840 E0.01918
G1 X79.205 Y71.875 E0.02098
G1 X79.833 Y72.022 E0.02020
G1 X80.424 Y72.272 E0.02013
G1 X80.964 Y72.618 E0.02013
G1 X81.438 Y73.051 E0.02013
G1 X81.832 Y73.557 E0.02011
G1 X82.135 Y74.123 E0.02012
G1 X82.338 Y74.732 E0.02014
G1 X82.435 Y75.367 E0.02013
G1 X82.424 Y76.008 E0.02012
G1 X82.304 Y76.639 E0.02014
G1 X82.079 Y77.241 E0.02013
G1 X81.756 Y77.795 E0.02011
G1 X81.363 Y78.264 E0.01920
G1 X80.857 Y78.701 E0.02097
G1 X80.302 Y79.029 E0.02019
G1 X79.702 Y79.258 E0.02013
G1 X79.131 Y79.370 E0.01825
G1 X79.059 Y79.000 F10800.000
;TYPE:External perimeter
G1 F1200.000
G1 X78.453 Y79.020 E0.01898
G1 X77.882 Y78.936 E0.01811
G1 X77.333 Y78.757 E0.01811
G1 X76.822 Y78.488 E0.01811
G1 X76.364 Y78.136 E0.01810
G1 X75.972 Y77.712 E0.01811
G1 X75.672 Y77.251 E0.01724
G1 X75.428 Y76.698 E0.01896
G1 X75.293 Y76.135 E0.01814
G1 X75.254 Y75.559 E0.01811
G1 X75.313 Y74.984 E0.01811
G1 X75.461 Y74.455 E0.01723
G1 X75.716 Y73.906 E0.01897
G1 X76.048 Y73.433 E0.01814
G1 X76.455 Y73.023 E0.01811
G1 X76.926 Y72.688 E0.01812
G1 X77.446 Y72.437 E0.01810
G1 X78.002 Y72.278 E0.01813
G1 X78.548 Y72.218 E0.01722
G1 X79.152 Y72.250 E0.01896
G1 X79.715 Y72.382 E0.01814
G1 X80.247 Y72.607 E0.01811
G1 X80.734 Y72.918 E0.01811
G1 X81.160 Y73.308 E0.01811
G1 X81.515 Y73.764 E0.01810
G1 X81.788 Y74.273 E0.01811
G1 X81.970 Y74.821 E0.01812
G1 X82.058 Y75.392 E0.01811
G1 X82.047 Y75.970 E0.01811
G1 X81.940 Y76.537 E0.01812
G1 X81.737 Y77.079 E0.01812
G1 X81.447 Y77.578 E0.01810
G1 X81.094 Y77.999 E0.01723
G1 X80.636 Y78.394 E0.01896
G1 X80.138 Y78.688 E0.01814
G1 X79.598 Y78.894 E0.01811
G1 X79.117 Y78.989 E0.01536
G1 X78.900 Y79.367 F10800.000
;WIPE_START
G1 F8640.000
G1 X78.453 Y79.020 E-0.15349
G1 X77.882 Y78.936 E-0.13334
G1 X77.333 Y78.757 E-0.13339
G1 X76.822 Y78.488 E-0.13336
G1 X76.364 Y78.136 E-0.13332
G1 X75.972 Y77.712 E-0.13339
G1 X75.672 Y77.251 E-0.12696
G1 X75.428 Y76.698 E-0.13962
G1 X75.293 Y76.135 E-0.13360
G1 X75.261 Y75.662 E-0.10953
;WIPE_END
G1 E-0.07000 F2100.000
G1 Z0.400 F10800.000
G1 X189.583 Y106.900
G1 Z0.200
G1 E1.40000 F2100.000
;TYPE:Perimeter
G1 F1200.000
G1 X76.300 Y110.275 E3.55351
G1 X75.398 Y80.012 E0.94929
G1 X78.756 Y79.912 E0.10534
G1 X79.456 Y79.836 E0.02207
G1 X80.106 Y79.659 E0.02112
G1 X80.720 Y79.383 E0.02111
G1 X81.284 Y79.014 E0.02111
G1 X81.782 Y78.562 E0.02111
G1 X82.204 Y78.037 E0.02111
G1 X82.538 Y77.453 E0.02111
G1 X82.778 Y76.824 E0.02111
G1 X82.915 Y76.165 E0.02110
G1 X82.949 Y75.461 E0.02209
G1 X82.723 Y67.850 E0.23874
G1 X177.710 Y65.021 E2.97959
G1 X188.643 Y75.321 E0.47095
G1 X189.582 Y106.840 E0.98870
G1 X189.195 Y106.534 F10800.000
;TYPE:External perimeter
G1 F1200.000
G1 X76.665 Y109.887 E3.52987
G1 X75.786 Y80.378 E0.92564
M73 Q0 S200
G1 X78.782 Y80.288 E0.09398
G1 X79.526 Y80.207 E0.02347
G1 X80.234 Y80.015 E0.02298
G1 X80.902 Y79.715 E0.02297
G1 X81.515 Y79.314 E0.02298
G1 X82.057 Y78.821 E0.02297
G1 X82.516 Y78.250 E0.02297
G1 X82.880 Y77.615 E0.02297
G1 X83.141 Y76.930 E0.02297
G1 X83.290 Y76.213 E0.02297
G1 X83.327 Y75.465 E0.02348
G1 X83.111 Y68.216 E0.22738
M73 P0 R198
G1 X177.565 Y65.402 E2.96287
G1 X188.271 Y75.488 E0.46116
G1 X189.194 Y106.474 E0.97198
G1 X189.240 Y106.932 F10800.000
;WIPE_START
G1 F8640.000
G1 X183.436 Y106.649 E-1.33000
;WIPE_END
G1 E-0.07000 F2100.000
G1 Z0.400 F10800.000
G1 X194.404 Y107.883
G1 Z0.200
G1 E1.40000 F2100.000
;TYPE:Perimeter
G1 F1200.000
G1 X194.576 Y107.265 E0.02011
G1 X194.850 Y106.688 E0.02003
G1 X195.224 Y106.156 E0.02039
G1 X195.673 Y105.704 E0.01996
G1 X196.196 Y105.332 E0.02014
G1 X196.774 Y105.054 E0.02012
G1 X197.391 Y104.877 E0.02013
G1 X197.996 Y104.810 E0.01909
G1 X198.667 Y104.845 E0.02105
G1 X199.295 Y104.992 E0.02021
G1 X199.886 Y105.242 E0.02013
G1 X200.426 Y105.588 E0.02013
G1 X200.900 Y106.021 E0.02012
G1 X201.295 Y106.527 E0.02013
G1 X201.597 Y107.093 E0.02012
G1 X201.790 Y107.671 E0.01910
G1 X201.898 Y108.334 E0.02106
G1 X201.886 Y108.979 E0.02022
G1 X201.766 Y109.609 E0.02012
G1 X201.541 Y110.210 E0.02013
G1 X201.218 Y110.765 E0.02013
G1 X200.827 Y111.232 E0.01910
G1 X200.319 Y111.671 E0.02106
G1 X199.764 Y111.999 E0.02020
G1 X199.165 Y112.228 E0.02013
G1 X198.534 Y112.352 E0.02013
G1 X197.893 Y112.367 E0.02012
G1 X197.258 Y112.274 E0.02011
G1 X196.648 Y112.075 E0.02014
G1 X196.080 Y111.776 E0.02013
G1 X195.571 Y111.385 E0.02011
G1 X195.136 Y110.916 E0.02007
G1 X194.785 Y110.376 E0.02020
G1 X194.532 Y109.786 E0.02012
G1 X194.381 Y109.162 E0.02012
G1 X194.338 Y108.521 E0.02014
G1 X194.398 Y107.943 E0.01824
G1 X194.773 Y107.982 F10800.000
;TYPE:External perimeter
G1 F1200.000
G1 X194.931 Y107.398 E0.01898
G1 X195.177 Y106.879 E0.01801
G1 X195.514 Y106.399 E0.01838
G1 X195.918 Y105.993 E0.01795
G1 X196.389 Y105.658 E0.01812
G1 X196.909 Y105.407 E0.01811
G1 X197.464 Y105.248 E0.01811
G1 X198.007 Y105.188 E0.01713
G1 X198.614 Y105.220 E0.01904
G1 X199.177 Y105.352 E0.01814
G1 X199.709 Y105.577 E0.01811
G1 X200.196 Y105.888 E0.01811
G1 X200.622 Y106.278 E0.01811
G1 X200.977 Y106.734 E0.01812
G1 X201.250 Y107.243 E0.01811
G1 X201.423 Y107.762 E0.01714
G1 X201.520 Y108.361 E0.01904
G1 X201.509 Y108.940 E0.01815
G1 X201.402 Y109.507 E0.01811
G1 X201.199 Y110.048 E0.01812
G1 X200.909 Y110.547 E0.01811
G1 X200.558 Y110.967 E0.01714
G1 X200.098 Y111.364 E0.01904
G1 X199.600 Y111.658 E0.01813
G1 X199.060 Y111.864 E0.01811
G1 X198.493 Y111.975 E0.01812
G1 X197.916 Y111.990 E0.01810
G1 X197.345 Y111.906 E0.01810
G1 X196.795 Y111.727 E0.01813
G1 X196.284 Y111.458 E0.01811
G1 X195.826 Y111.106 E0.01810
G1 X195.435 Y110.683 E0.01806
G1 X195.118 Y110.197 E0.01818
G1 X194.891 Y109.667 E0.01811
G1 X194.755 Y109.105 E0.01811
G1 X194.716 Y108.528 E0.01812
G1 X194.767 Y108.042 E0.01534
G1 X194.468 Y107.723 F10800.000
;WIPE_START
G1 F8640.000
G1 X194.931 Y107.398 E-0.15344
G1 X195.177 Y106.879 E-0.13264
G1 X195.514 Y106.399 E-0.13534
G1 X195.918 Y105.993 E-0.13220
G1 X196.389 Y105.658 E-0.13347
G1 X196.909 Y105.407 E-0.13336
G1 X197.464 Y105.248 E-0.13340
G1 X198.007 Y105.188 E-0.12619
G1 X198.614 Y105.220 E-0.14022
G1 X199.077 Y105.328 E-0.10974
;WIPE_END
G1 E-0.07000 F2100.000
G1 Z0.400 F10800.000
G1 X194.597 Y85.287
G1 Z0.200
G1 E1.40000 F2100.000
;TYPE:Perimeter
G1 F1200.000
G1 X213.652 Y84.767 E0.59766
G1 X214.624 Y124.447 E1.24450
G1 X163.174 Y126.042 E1.61395
G1 X163.492 Y136.474 E0.32723
G1 X79.589 Y139.038 E2.63195
G1 X78.697 Y129.536 E0.29924
G1 X64.264 Y129.977 E0.45276
G1 X56.247 Y44.648 E2.68721
G1 X193.642 Y46.293 E4.30824
G1 X194.596 Y85.227 E1.22109
G1 X194.965 Y84.899 F10800.000
;TYPE:External perimeter
G1 F1200.000
G1 X214.020 Y84.380 E0.59766
G1 X215.010 Y124.812 E1.26810
G1 X163.562 Y126.408 E1.61388
G1 X163.881 Y136.839 E0.32723
G1 X79.247 Y139.426 E2.65487
G1 X78.355 Y129.924 E0.29924
G1 X63.922 Y130.365 E0.45276
G1 X55.832 Y44.266 E2.71145
G1 X194.010 Y45.921 E4.33278
M73 P1 R198
M73 Q1 S200
G1 X194.964 Y84.839 E1.22063
M73 Q1 S199
G1 X195.138 Y85.260 F10800.000
;WIPE_START
G1 F8640.000
G1 X200.722 Y84.700 E-1.33000
;WIPE_END
M73 P1 R197
G1 E-0.07000 F2100.000
G1 Z0.400 F10800.000
G1 X193.551 Y47.189
G1 Z0.200
G1 E1.40000 F2100.000
;TYPE:Solid infill
;WIDTH:0.420803
G1 F1200.000
G1 X192.930 Y46.568 E0.02761
