; generated by PrusaSlicer 2.3.3+win64 on 2022-04-09 at 00:32:34 UTC

; 

; external perimeters extrusion width = 0.45mm
; perimeters extrusion width = 0.45mm
; infill extrusion width = 0.45mm
; solid infill extrusion width = 0.45mm
; top infill extrusion width = 0.40mm
; first layer extrusion width = 0.42mm

M73 P0 R57
M73 Q0 S57
M201 X1000 Y1000 Z200 E5000 ; sets maximum accelerations, mm/sec^2
M203 X200 Y200 Z12 E120 ; sets maximum feedrates, mm/sec
M204 P1250 R1250 T1250 ; sets acceleration (P, T) and retract acceleration (R), mm/sec^2
M205 X8.00 Y8.00 Z0.40 E4.50 ; sets the jerk limits, mm/sec
M205 S0 T0 ; sets the minimum extruding and travel feed rate, mm/sec
M107
;TYPE:Custom
M862.3 P "MK3S" ; printer model check
M862.1 P0.4 ; nozzle diameter check
M115 U3.10.1 ; tell printer latest fw version
G90 ; use absolute coordinates
M83 ; extruder relative mode
M104 S240 ; set extruder temp
M140 S85 ; set bed temp
M190 S85 ; wait for bed temp
M109 S240 ; wait for extruder temp
G28 W ; home all without mesh bed level
G80 ; mesh bed leveling
G1 Y-3.0 F1000.0 ; go outside print area
G92 E0.0
G1 X60.0 E9.0 F1000.0 ; intro line
G1 X100.0 E12.5 F1000.0 ; intro line
G92 E0.0
M221 S95

; Don't change E values below. Excessive value can damage the printer.

M907 E538 ; set extruder motor current
G21 ; set units to millimeters
G90 ; use absolute coordinates
M83 ; use relative distances for extrusion
M900 K0.08 ; Filament gcode LA 1.5
M900 K45 ; Filament gcode LA 1.0
;LAYER_CHANGE
;Z:0.2
;HEIGHT:0.2
;BEFORE_LAYER_CHANGE
G92 E0.0
;0.2


G1 E-1.00000 F2100.000
G1 Z0.200 F10800.000
;AFTER_LAYER_CHANGE
;0.2
G1 Z0.400
G1 X125.681 Y52.295
G1 Z0.200
G1 E1.00000 F2100.000
M204 S1000
;TYPE:Skirt
;WIDTH:0.42
G1 F1200.000
G1 X126.003 Y51.634 E0.02308
G1 X126.509 Y51.105 E0.02296
G1 X127.153 Y50.755 E0.02296
G1 X127.876 Y50.618 E0.02308
G1 X177.957 Y50.616 E1.57026
G1 X178.859 Y50.796 E0.02884
G1 X179.623 Y51.301 E0.02872
G1 X180.140 Y52.062 E0.02884
G1 X180.330 Y52.962 E0.02884
G1 X180.330 Y132.041 E2.47947
G1 X180.266 Y133.875 E0.05754
G1 X179.955 Y136.521 E0.08354
G1 X179.585 Y138.352 E0.05856
G1 X179.102 Y140.113 E0.05725
G1 X178.158 Y142.693 E0.08615
G1 X176.962 Y145.162 E0.08603
G1 X175.525 Y147.499 E0.08603
G1 X173.882 Y149.654 E0.08496
G1 X171.989 Y151.682 E0.08698
G1 X169.951 Y153.467 E0.08496
G1 X167.717 Y155.061 E0.08603
G1 X166.075 Y156.034 E0.05985
G1 X163.639 Y157.212 E0.08485
G1 X161.062 Y158.155 E0.08603
G1 X158.408 Y158.835 E0.08591
G1 X155.691 Y159.246 E0.08615
G1 X152.955 Y159.384 E0.08591
G1 X150.214 Y159.246 E0.08603
G1 X147.501 Y158.835 E0.08603
G1 X144.847 Y158.156 E0.08591
G1 X143.115 Y157.555 E0.05749
G1 X141.430 Y156.841 E0.05737
G1 X139.797 Y156.016 E0.05737
G1 X138.220 Y155.081 E0.05749
G1 X136.712 Y154.046 E0.05737
G1 X135.276 Y152.912 E0.05737
G1 X133.919 Y151.684 E0.05737
G1 X132.622 Y150.341 E0.05854
G1 X131.413 Y148.902 E0.05894
G1 X129.899 Y146.771 E0.08197
G1 X128.947 Y145.168 E0.05844
G1 X128.136 Y143.566 E0.05629
G1 X127.406 Y141.848 E0.05856
G1 X126.805 Y140.119 E0.05737
G1 X126.322 Y138.355 E0.05737
G1 X125.962 Y136.588 E0.05653
G1 X125.710 Y134.707 E0.05950
G1 X125.576 Y132.016 E0.08450
G1 X125.576 Y52.990 E2.47781
M73 P0 R56
G1 X125.672 Y52.355 E0.02013
; printing object ears.stl id:1 copy 0
;WIPE_START
G1 F8640.000
G1 X126.003 Y51.634 E-0.18321
G1 X126.509 Y51.105 E-0.16907
G1 X127.153 Y50.755 E-0.16907
G1 X127.876 Y50.618 E-0.16994
G1 X128.996 Y50.618 E-0.25872
;WIPE_END
G1 E-0.05000 F2100.000
G1 Z0.400 F10800.000
G1 X128.740 Y109.077
G1 Z0.200
G1 E1.00000 F2100.000
;TYPE:Perimeter
G1 F1200.000
G1 X130.593 Y109.638 E0.06071
G1 X132.048 Y110.042 E0.04736
G1 X133.511 Y110.419 E0.04736
G1 X134.980 Y110.769 E0.04736
G1 X136.456 Y111.091 E0.04736
G1 X137.937 Y111.386 E0.04736
G1 X139.424 Y111.653 E0.04736
G1 X140.915 Y111.892 E0.04736
G1 X142.411 Y112.103 E0.04736
G1 X143.910 Y112.286 E0.04736
G1 X145.412 Y112.441 E0.04736
G1 X146.917 Y112.568 E0.04736
G1 X148.424 Y112.667 E0.04736
G1 X149.933 Y112.737 E0.04736
G1 X151.443 Y112.780 E0.04736
G1 X152.953 Y112.794 E0.04736
G1 X154.463 Y112.780 E0.04736
G1 X155.973 Y112.737 E0.04736
G1 X157.482 Y112.667 E0.04736
G1 X158.989 Y112.568 E0.04736
G1 X160.494 Y112.441 E0.04736
G1 X161.996 Y112.286 E0.04736
G1 X163.495 Y112.103 E0.04736
G1 X164.991 Y111.892 E0.04736
G1 X166.482 Y111.653 E0.04736
G1 X167.969 Y111.386 E0.04736
G1 X169.450 Y111.091 E0.04736
G1 X170.925 Y110.769 E0.04736
G1 X172.395 Y110.419 E0.04736
G1 X173.857 Y110.042 E0.04736
G1 X175.312 Y109.638 E0.04736
G1 X177.166 Y109.077 E0.06071
G1 X177.166 Y132.000 E0.71874
G1 X177.152 Y132.816 E0.02558
G1 X177.112 Y133.624 E0.02537
G1 X177.044 Y134.430 E0.02537
G1 X176.950 Y135.234 E0.02537
G1 X176.828 Y136.034 E0.02537
G1 X176.680 Y136.829 E0.02537
G1 X176.506 Y137.620 E0.02537
G1 X176.305 Y138.403 E0.02537
G1 X176.079 Y139.180 E0.02537
G1 X175.826 Y139.949 E0.02537
G1 X175.548 Y140.709 E0.02537
G1 X175.244 Y141.459 E0.02537
G1 X174.916 Y142.199 E0.02537
G1 X174.563 Y142.927 E0.02537
G1 X174.186 Y143.643 E0.02537
G1 X173.786 Y144.346 E0.02537
G1 X173.362 Y145.035 E0.02537
G1 X172.915 Y145.710 E0.02537
G1 X172.446 Y146.369 E0.02537
G1 X171.955 Y147.012 E0.02537
G1 X171.443 Y147.639 E0.02537
G1 X170.910 Y148.248 E0.02537
G1 X170.358 Y148.839 E0.02537
G1 X169.785 Y149.411 E0.02537
G1 X169.194 Y149.964 E0.02537
G1 X168.585 Y150.497 E0.02537
G1 X167.959 Y151.009 E0.02537
G1 X167.315 Y151.500 E0.02537
G1 X166.656 Y151.969 E0.02537
G1 X165.981 Y152.415 E0.02537
G1 X165.292 Y152.839 E0.02537
G1 X164.589 Y153.240 E0.02537
G1 X163.873 Y153.617 E0.02537
G1 X163.145 Y153.970 E0.02537
G1 X162.405 Y154.298 E0.02537
G1 X161.655 Y154.601 E0.02537
G1 X160.883 Y154.884 E0.02579
G1 X160.127 Y155.132 E0.02496
G1 X159.350 Y155.359 E0.02537
G1 X158.566 Y155.560 E0.02537
G1 X157.776 Y155.734 E0.02537
G1 X156.980 Y155.882 E0.02537
G1 X156.180 Y156.003 E0.02537
G1 X155.376 Y156.098 E0.02537
G1 X154.570 Y156.165 E0.02537
G1 X153.762 Y156.206 E0.02537
G1 X152.953 Y156.219 E0.02537
G1 X152.144 Y156.206 E0.02537
G1 X151.336 Y156.165 E0.02537
G1 X150.529 Y156.098 E0.02537
G1 X149.726 Y156.003 E0.02537
G1 X148.913 Y155.880 E0.02579
G1 X148.130 Y155.734 E0.02496
G1 X147.340 Y155.560 E0.02537
G1 X146.556 Y155.359 E0.02537
G1 X145.779 Y155.132 E0.02537
G1 X145.010 Y154.880 E0.02537
G1 X144.251 Y154.602 E0.02537
G1 X143.500 Y154.298 E0.02537
G1 X142.761 Y153.970 E0.02537
G1 X142.033 Y153.617 E0.02537
G1 X141.317 Y153.240 E0.02537
G1 X140.614 Y152.839 E0.02537
G1 X139.924 Y152.415 E0.02537
G1 X139.250 Y151.969 E0.02537
G1 X138.590 Y151.500 E0.02537
G1 X137.947 Y151.009 E0.02537
G1 X137.320 Y150.497 E0.02537
G1 X136.711 Y149.964 E0.02537
G1 X136.120 Y149.411 E0.02537
G1 X135.548 Y148.839 E0.02537
G1 X134.987 Y148.238 E0.02579
G1 X134.463 Y147.639 E0.02496
G1 X133.951 Y147.012 E0.02537
G1 X133.460 Y146.369 E0.02537
G1 X132.991 Y145.710 E0.02537
G1 X132.537 Y145.024 E0.02579
G1 X132.120 Y144.346 E0.02496
G1 X131.719 Y143.643 E0.02537
G1 X131.342 Y142.927 E0.02537
G1 X130.990 Y142.199 E0.02537
G1 X130.661 Y141.459 E0.02537
G1 X130.358 Y140.709 E0.02537
G1 X130.080 Y139.949 E0.02537
G1 X129.827 Y139.180 E0.02537
G1 X129.600 Y138.403 E0.02537
G1 X129.400 Y137.620 E0.02537
G1 X129.225 Y136.829 E0.02537
G1 X129.077 Y136.034 E0.02537
G1 X128.956 Y135.234 E0.02537
G1 X128.862 Y134.430 E0.02537
G1 X128.794 Y133.624 E0.02537
G1 X128.754 Y132.816 E0.02537
G1 X128.740 Y132.000 E0.02558
G1 X128.740 Y109.137 E0.71686
G1 X128.363 Y108.561 F10800.000
;TYPE:External perimeter
G1 F1200.000
G1 X130.698 Y109.275 E0.07656
G1 X132.146 Y109.678 E0.04713
G1 X133.602 Y110.053 E0.04713
G1 X135.064 Y110.401 E0.04713
G1 X136.533 Y110.722 E0.04713
G1 X138.007 Y111.015 E0.04713
G1 X139.487 Y111.281 E0.04713
G1 X140.971 Y111.519 E0.04713
G1 X142.460 Y111.729 E0.04713
G1 X143.952 Y111.911 E0.04713
G1 X145.447 Y112.066 E0.04713
G1 X146.945 Y112.192 E0.04713
G1 X148.445 Y112.290 E0.04713
G1 X149.947 Y112.360 E0.04713
G1 X151.450 Y112.403 E0.04713
G1 X152.953 Y112.417 E0.04713
G1 X154.456 Y112.403 E0.04713
G1 X155.959 Y112.360 E0.04713
G1 X157.460 Y112.290 E0.04713
G1 X158.960 Y112.192 E0.04713
G1 X160.458 Y112.066 E0.04713
G1 X161.954 Y111.911 E0.04713
G1 X163.446 Y111.729 E0.04713
G1 X164.935 Y111.519 E0.04713
G1 X166.419 Y111.281 E0.04713
G1 X167.899 Y111.015 E0.04713
G1 X169.373 Y110.722 E0.04713
G1 X170.842 Y110.401 E0.04713
G1 X172.304 Y110.053 E0.04713
G1 X173.760 Y109.678 E0.04713
G1 X175.208 Y109.275 E0.04713
G1 X177.543 Y108.561 E0.07656
G1 X177.543 Y132.003 E0.73501
M73 P1 R56
M73 Q1 S57
G1 X177.529 Y132.828 E0.02587
G1 X177.488 Y133.649 E0.02577
G1 X177.419 Y134.468 E0.02577
G1 X177.323 Y135.284 E0.02577
G1 X177.200 Y136.097 E0.02577
G1 X177.050 Y136.905 E0.02577
G1 X176.873 Y137.707 E0.02577
G1 X176.669 Y138.503 E0.02577
G1 X176.439 Y139.292 E0.02577
G1 X176.182 Y140.073 E0.02577
G1 X175.900 Y140.844 E0.02577
G1 X175.592 Y141.606 E0.02577
G1 X175.258 Y142.357 E0.02577
G1 X174.900 Y143.097 E0.02577
G1 X174.517 Y143.824 E0.02577
G1 X174.110 Y144.538 E0.02577
G1 X173.680 Y145.238 E0.02577
G1 X173.226 Y145.923 E0.02577
G1 X172.749 Y146.593 E0.02577
G1 X172.251 Y147.246 E0.02577
G1 X171.731 Y147.883 E0.02577
G1 X171.190 Y148.501 E0.02577
G1 X170.629 Y149.101 E0.02577
G1 X170.048 Y149.682 E0.02577
G1 X169.447 Y150.244 E0.02577
G1 X168.829 Y150.785 E0.02577
G1 X168.192 Y151.305 E0.02577
G1 X167.539 Y151.803 E0.02577
G1 X166.869 Y152.280 E0.02577
G1 X166.184 Y152.733 E0.02577
G1 X165.484 Y153.164 E0.02577
G1 X164.770 Y153.571 E0.02577
G1 X164.043 Y153.954 E0.02577
G1 X163.304 Y154.312 E0.02577
G1 X162.553 Y154.645 E0.02577
G1 X161.791 Y154.953 E0.02576
G1 X161.006 Y155.240 E0.02619
G1 X160.238 Y155.492 E0.02535
G1 X159.449 Y155.723 E0.02577
G1 X158.653 Y155.927 E0.02577
G1 X157.851 Y156.104 E0.02577
G1 X157.043 Y156.254 E0.02577
G1 X156.230 Y156.377 E0.02577
G1 X155.414 Y156.473 E0.02577
G1 X154.595 Y156.542 E0.02577
G1 X153.775 Y156.583 E0.02577
G1 X152.953 Y156.597 E0.02577
G1 X152.131 Y156.583 E0.02577
G1 X151.310 Y156.542 E0.02577
G1 X150.492 Y156.473 E0.02577
G1 X149.675 Y156.377 E0.02576
G1 X148.850 Y156.252 E0.02619
G1 X148.055 Y156.104 E0.02535
G1 X147.252 Y155.927 E0.02577
G1 X146.456 Y155.723 E0.02577
G1 X145.667 Y155.492 E0.02577
G1 X144.887 Y155.236 E0.02577
G1 X144.115 Y154.953 E0.02577
G1 X143.353 Y154.645 E0.02577
G1 X142.602 Y154.312 E0.02577
G1 X141.863 Y153.954 E0.02577
G1 X141.135 Y153.571 E0.02577
G1 X140.421 Y153.164 E0.02577
G1 X139.721 Y152.733 E0.02577
G1 X139.036 Y152.280 E0.02577
G1 X138.367 Y151.803 E0.02577
G1 X137.713 Y151.305 E0.02577
G1 X137.077 Y150.785 E0.02577
G1 X136.458 Y150.244 E0.02577
G1 X135.858 Y149.682 E0.02577
G1 X135.277 Y149.101 E0.02576
G1 X134.707 Y148.491 E0.02619
G1 X134.175 Y147.883 E0.02535
G1 X133.655 Y147.246 E0.02577
G1 X133.156 Y146.593 E0.02577
G1 X132.680 Y145.923 E0.02576
G1 X132.219 Y145.227 E0.02619
G1 X131.796 Y144.538 E0.02535
G1 X131.389 Y143.824 E0.02577
G1 X131.006 Y143.097 E0.02577
G1 X130.648 Y142.357 E0.02577
G1 X130.314 Y141.606 E0.02577
G1 X130.006 Y140.844 E0.02577
G1 X129.724 Y140.073 E0.02577
G1 X129.467 Y139.292 E0.02577
G1 X129.237 Y138.503 E0.02577
G1 X129.033 Y137.707 E0.02577
G1 X128.856 Y136.905 E0.02577
G1 X128.705 Y136.097 E0.02577
G1 X128.582 Y135.284 E0.02577
G1 X128.486 Y134.468 E0.02577
G1 X128.418 Y133.649 E0.02577
G1 X128.377 Y132.828 E0.02577
G1 X128.363 Y132.003 E0.02587
G1 X128.363 Y108.621 E0.73313
G1 X128.663 Y108.825 F10800.000
;WIPE_START
G1 F8640.000
G1 X130.698 Y109.275 E-0.55989
G1 X132.146 Y109.678 E-0.34711
G1 X132.326 Y109.724 E-0.04299
;WIPE_END
G1 E-0.05000 F2100.000
G1 Z0.400 F10800.000
G1 X177.053 Y109.990
G1 Z0.200
G1 E1.00000 F2100.000
;TYPE:Solid infill
;WIDTH:0.422347
G1 F1200.000
G1 X176.605 Y109.542 E0.01998
G1 X176.193 Y109.667 E0.01358
G1 X176.883 Y110.357 E0.03079
G1 X176.883 Y110.893 E0.01693
G1 X175.781 Y109.791 E0.04917
G1 X175.369 Y109.916 E0.01359
G1 X176.883 Y111.430 E0.06757
G1 X176.883 Y111.967 E0.01693
G1 X174.949 Y110.032 E0.08630
G1 X174.529 Y110.149 E0.01375
G1 X176.883 Y112.503 E0.10504
G1 X176.883 Y113.040 E0.01693
G1 X174.109 Y110.266 E0.12377
G1 X173.685 Y110.379 E0.01383
G1 X176.883 Y113.576 E0.14268
G1 X176.883 Y114.113 E0.01693
G1 X173.259 Y110.489 E0.16171
G1 X172.832 Y110.599 E0.01390
G1 X176.883 Y114.650 E0.18074
G1 X176.883 Y115.186 E0.01693
G1 X172.405 Y110.708 E0.19982
G1 X171.971 Y110.811 E0.01406
G1 X176.883 Y115.723 E0.21916
G1 X176.883 Y116.259 E0.01693
G1 X171.538 Y110.914 E0.23849
G1 X171.104 Y111.017 E0.01406
G1 X176.883 Y116.796 E0.25783
G1 X176.883 Y117.333 E0.01693
G1 X170.666 Y111.115 E0.27740
G1 X170.225 Y111.212 E0.01422
G1 X176.883 Y117.869 E0.29705
G1 X176.883 Y118.406 E0.01693
G1 X169.785 Y111.308 E0.31670
G1 X169.342 Y111.401 E0.01429
G1 X176.883 Y118.942 E0.33647
G1 X176.883 Y119.479 E0.01693
G1 X168.894 Y111.490 E0.35644
G1 X168.447 Y111.579 E0.01440
G1 X176.883 Y120.016 E0.37641
G1 X176.883 Y120.552 E0.01693
G1 X167.999 Y111.668 E0.39640
M73 Q1 S56
G1 X167.544 Y111.750 E0.01458
G1 X176.883 Y121.089 E0.41669
G1 X176.883 Y121.625 E0.01693
G1 X167.089 Y111.831 E0.43699
G1 X166.634 Y111.913 E0.01458
G1 X176.883 Y122.162 E0.45729
G1 X176.883 Y122.698 E0.01693
G1 X166.173 Y111.989 E0.47785
G1 X165.711 Y112.063 E0.01478
G1 X176.883 Y123.235 E0.49848
G1 X176.883 Y123.772 E0.01693
G1 X165.248 Y112.137 E0.51912
G1 X164.782 Y112.207 E0.01489
G1 X176.883 Y124.308 E0.53993
G1 X176.883 Y124.845 E0.01693
G1 X164.311 Y112.273 E0.56091
G1 X163.841 Y112.340 E0.01498
G1 X176.883 Y125.381 E0.58189
G1 X176.883 Y125.918 E0.01693
G1 X163.368 Y112.403 E0.60300
G1 X162.890 Y112.462 E0.01520
G1 X176.883 Y126.455 E0.62433
G1 X176.883 Y126.991 E0.01693
G1 X162.412 Y112.520 E0.64567
G1 X161.932 Y112.577 E0.01524
G1 X176.883 Y127.528 E0.66708
G1 X176.883 Y128.064 E0.01693
G1 X161.446 Y112.627 E0.68878
G1 X160.959 Y112.677 E0.01543
G1 X176.883 Y128.601 E0.71048
G1 X176.883 Y129.138 E0.01693
G1 X160.472 Y112.727 E0.73222
G1 X159.977 Y112.768 E0.01567
G1 X176.883 Y129.674 E0.75430
G1 X176.883 Y130.211 E0.01693
G1 X159.482 Y112.810 E0.77638
G1 X158.987 Y112.851 E0.01568
G1 X176.883 Y130.747 E0.79848
G1 X176.883 Y131.284 E0.01693
G1 X158.483 Y112.884 E0.82094
M73 P2 R56
M73 Q2 S56
G1 X157.980 Y112.917 E0.01592
G1 X176.883 Y131.821 E0.84341
G1 X176.877 Y132.351 E0.01674
G1 X157.476 Y112.950 E0.86564
G1 X156.963 Y112.974 E0.01619
G1 X176.866 Y132.877 E0.88801
G1 X176.840 Y133.388 E0.01614
G1 X156.451 Y112.998 E0.90974
G1 X155.937 Y113.021 E0.01622
G1 X176.806 Y133.889 E0.93110
G1 X176.764 Y134.385 E0.01568
G1 X155.415 Y113.036 E0.95254
G1 X154.893 Y113.050 E0.01647
G1 X176.708 Y134.865 E0.97333
G1 X176.647 Y135.341 E0.01513
G1 X154.370 Y113.063 E0.99398
G1 X153.838 Y113.068 E0.01677
G1 X176.577 Y135.807 E1.01455
M73 P2 R55
G1 X176.498 Y136.265 E0.01465
G1 X153.306 Y113.073 E1.03475
G1 X152.771 Y113.075 E0.01688
G1 X176.414 Y136.717 E1.05487
G1 X176.318 Y137.158 E0.01424
G1 X152.230 Y113.070 E1.07478
G1 X151.688 Y113.065 E0.01709
G1 X176.220 Y137.597 E1.09456
G1 X176.111 Y138.024 E0.01391
G1 X151.141 Y113.054 E1.11410
G1 X150.589 Y113.039 E0.01742
G1 X175.998 Y138.448 E1.13370
G1 X175.877 Y138.863 E0.01365
G1 X150.037 Y113.023 E1.15292
G1 X149.476 Y112.999 E0.01771
G1 X175.750 Y139.273 E1.17230
G1 X175.618 Y139.677 E0.01341
G1 X148.913 Y112.973 E1.19150
G1 X148.349 Y112.945 E0.01782
G1 X175.479 Y140.075 E1.21047
G1 X175.335 Y140.468 E0.01320
G1 X147.775 Y112.908 E1.22967
G1 X147.201 Y112.870 E0.01816
G1 X175.184 Y140.854 E1.24857
M73 P3 R55
M73 Q3 S56
G1 X175.030 Y141.236 E0.01300
G1 X146.621 Y112.827 E1.26754
G1 X146.035 Y112.777 E0.01855
G1 X174.868 Y141.610 E1.28646
M73 Q3 S55
G1 X174.703 Y141.982 E0.01283
G1 X145.449 Y112.728 E1.30525
G1 X144.852 Y112.667 E0.01893
G1 X174.530 Y142.346 E1.32419
G1 X174.355 Y142.708 E0.01267
G1 X144.253 Y112.606 E1.34307
G1 X143.650 Y112.539 E0.01914
G1 X174.173 Y143.062 E1.36184
G1 X173.988 Y143.413 E0.01253
G1 X143.039 Y112.465 E1.38085
G1 X142.428 Y112.390 E0.01943
G1 X173.795 Y143.757 E1.39955
G1 X173.601 Y144.099 E0.01241
G1 X141.804 Y112.303 E1.41868
G1 X141.179 Y112.215 E0.01991
