; generated by PrusaSlicer 2.3.3+win64 on 2022-04-09 at 22:25:52 UTC

; 

; external perimeters extrusion width = 0.45mm
; perimeters extrusion width = 0.45mm
; infill extrusion width = 0.45mm
; solid infill extrusion width = 0.45mm
; top infill extrusion width = 0.40mm
; support material extrusion width = 0.33mm
; first layer extrusion width = 0.42mm

M73 P0 R32
M73 Q0 S32
M201 X1000 Y1000 Z200 E5000 ; sets maximum accelerations, mm/sec^2
M203 X200 Y200 Z12 E120 ; sets maximum feedrates, mm/sec
M204 P1250 R1250 T1250 ; sets acceleration (P, T) and retract acceleration (R), mm/sec^2
M205 X8.00 Y8.00 Z0.40 E4.50 ; sets the jerk limits, mm/sec
M205 S0 T0 ; sets the minimum extruding and travel feed rate, mm/sec
M107
;TYPE:Custom
M862.3 P "MK3S" ; printer model check
M862.1 P0.4 ; nozzle diameter check
M115 U3.10.1 ; tell printer latest fw version
G90 ; use absolute coordinates
M83 ; extruder relative mode
M104 S240 ; set extruder temp
M140 S85 ; set bed temp
M190 S85 ; wait for bed temp
M109 S240 ; wait for extruder temp
G28 W ; home all without mesh bed level
G80 ; mesh bed leveling
G1 Y-3.0 F1000.0 ; go outside print area
G92 E0.0
G1 X60.0 E9.0 F1000.0 ; intro line
G1 X100.0 E12.5 F1000.0 ; intro line
G92 E0.0
M221 S100

; Don't change E values below. Excessive value can damage the printer.
M907 E430 ; set extruder motor current
G21 ; set units to millimeters
G90 ; use absolute coordinates
M83 ; use relative distances for extrusion
M900 K0.08 ; Filament gcode LA 1.5
M900 K45 ; Filament gcode LA 1.0
;LAYER_CHANGE
;Z:0.2
;HEIGHT:0.2
;BEFORE_LAYER_CHANGE
G92 E0.0
;0.2


G1 E-1.00000 F2100.000
G1 Z0.200 F10800.000
;AFTER_LAYER_CHANGE
;0.2
G1 Z0.400
G1 X112.253 Y93.486
G1 Z0.200
G1 E1.00000 F2100.000
M204 S500
;TYPE:Skirt
;WIDTH:0.42
G1 F1200.000
G1 X112.586 Y92.929 E0.02036
G1 X113.057 Y92.482 E0.02036
G1 X113.631 Y92.179 E0.02036
G1 X114.266 Y92.043 E0.02036
G1 X134.052 Y91.867 E0.62041
G1 X135.993 Y92.077 E0.06122
G1 X136.783 Y92.377 E0.02649
G1 X137.225 Y92.719 E0.01752
G1 X137.572 Y93.151 E0.01740
G1 X137.810 Y93.653 E0.01740
G1 X137.926 Y94.199 E0.01752
G1 X138.851 Y117.229 E0.72268
G1 X138.851 Y139.294 E0.69183
G1 X138.475 Y141.189 E0.06056
G1 X138.131 Y141.762 E0.02095
G1 X137.641 Y142.216 E0.02095
G1 X137.044 Y142.515 E0.02095
G1 X136.387 Y142.637 E0.02095
G1 X113.625 Y142.469 E0.71371
G1 X112.736 Y142.282 E0.02849
G1 X111.961 Y141.753 E0.02942
G1 X111.327 Y140.839 E0.03487
G1 X110.998 Y140.048 E0.02688
G1 X110.890 Y139.293 E0.02391
G1 X110.891 Y117.170 E0.69363
G1 X112.069 Y94.276 E0.71877
G1 X112.239 Y93.545 E0.02355
M204 S1000
; printing object ECM_Button_Outer_v2 (1).stl id:1 copy 0
;WIPE_START
G1 F8640.000
G1 X112.586 Y92.929 E-0.16318
G1 X113.057 Y92.482 E-0.14993
G1 X113.631 Y92.179 E-0.14993
G1 X114.266 Y92.043 E-0.14993
G1 X115.726 Y92.030 E-0.33704
;WIPE_END
G1 E-0.05000 F2100.000
G1 Z0.400 F10800.000
G1 X128.745 Y119.250
G1 Z0.200
G1 E1.00000 F2100.000
M204 S500
;TYPE:Support material
G1 F1200.000
G1 X128.745 Y123.950 E0.14737
G1 X127.991 Y123.950 E0.02365
G1 X127.991 Y119.420 E0.14205
G1 X127.236 Y119.420 E0.02365
G1 X127.236 Y123.950 E0.14205
G1 X126.482 Y123.950 E0.02365
G1 X126.482 Y119.420 E0.14205
G1 X125.728 Y119.420 E0.02365
G1 X125.728 Y123.950 E0.14205
G1 X124.974 Y123.950 E0.02365
G1 X124.974 Y119.420 E0.14205
G1 X124.220 Y119.420 E0.02365
G1 X124.220 Y123.950 E0.14205
G1 X123.466 Y123.950 E0.02365
G1 X123.466 Y119.420 E0.14205
G1 X122.712 Y119.420 E0.02365
G1 X122.712 Y123.950 E0.14205
G1 X121.957 Y123.950 E0.02365
G1 X121.957 Y119.420 E0.14205
G1 X121.203 Y119.420 E0.02365
G1 X121.203 Y123.950 E0.14205
G1 X120.668 Y123.950 E0.01678
G1 X120.668 Y132.562 E0.27003
M73 Q1 S32
G1 X121.203 Y132.562 E0.01678
G1 X121.203 Y137.093 E0.14205
M73 P1 R32
G1 X121.957 Y137.093 E0.02365
G1 X121.957 Y132.562 E0.14205
G1 X122.712 Y132.562 E0.02365
G1 X122.712 Y137.093 E0.14205
G1 X123.466 Y137.093 E0.02365
G1 X123.466 Y132.562 E0.14205
M73 P1 R31
G1 X124.220 Y132.562 E0.02365
G1 X124.220 Y137.093 E0.14205
G1 X124.974 Y137.093 E0.02365
G1 X124.974 Y132.562 E0.14205
G1 X125.728 Y132.562 E0.02365
G1 X125.728 Y137.093 E0.14205
G1 X126.482 Y137.093 E0.02365
G1 X126.482 Y132.562 E0.14205
G1 X127.236 Y132.562 E0.02365
G1 X127.236 Y137.093 E0.14205
G1 X127.991 Y137.093 E0.02365
G1 X127.991 Y132.562 E0.14205
G1 X128.745 Y132.562 E0.02365
G1 X128.745 Y137.093 E0.14205
G1 X129.499 Y137.093 E0.02365
G1 X129.499 Y119.420 E0.55412
G1 X130.253 Y119.420 E0.02365
G1 X130.253 Y137.093 E0.55412
G1 X131.007 Y137.093 E0.02365
G1 X131.007 Y119.420 E0.55412
M73 Q1 S31
G1 X131.761 Y119.420 E0.02365
G1 X131.761 Y137.093 E0.55412
G1 X132.516 Y137.093 E0.02365
G1 X132.516 Y119.420 E0.55412
G1 X133.270 Y119.420 E0.02365
G1 X133.270 Y137.262 E0.55944
M204 S1000
;WIPE_START
G1 F8640.000
G1 X133.270 Y133.148 E-0.95000
;WIPE_END
G1 E-0.05000 F2100.000
G1 Z0.400 F10800.000
G1 X136.286 Y140.262
G1 Z0.200
G1 E1.00000 F2100.000
M204 S500
G1 F1200.000
G1 X136.286 Y139.892 E0.01161
G1 X136.022 Y139.960 E0.00855
G1 X135.532 Y139.963 E0.01537
G1 X135.532 Y140.092 E0.00407
G1 X134.778 Y140.092 E0.02365
G1 X134.778 Y139.963 E0.00407
G1 X134.024 Y139.963 E0.02365
G1 X134.024 Y140.092 E0.00407
G1 X133.270 Y140.092 E0.02365
G1 X133.270 Y139.963 E0.00407
G1 X132.516 Y139.963 E0.02365
G1 X132.516 Y140.092 E0.00407
G1 X131.761 Y140.092 E0.02365
G1 X131.761 Y139.963 E0.00407
G1 X131.007 Y139.963 E0.02365
G1 X131.007 Y140.092 E0.00407
G1 X130.253 Y140.092 E0.02365
G1 X130.253 Y139.963 E0.00407
G1 X129.499 Y139.963 E0.02365
G1 X129.499 Y140.092 E0.00407
G1 X128.745 Y140.092 E0.02365
G1 X128.745 Y139.963 E0.00407
G1 X127.991 Y139.963 E0.02365
G1 X127.991 Y140.092 E0.00407
G1 X127.236 Y140.092 E0.02365
G1 X127.236 Y139.963 E0.00407
G1 X126.482 Y139.963 E0.02365
G1 X126.482 Y140.092 E0.00407
G1 X125.728 Y140.092 E0.02365
G1 X125.728 Y139.963 E0.00407
G1 X124.974 Y139.963 E0.02365
G1 X124.974 Y140.092 E0.00407
G1 X124.220 Y140.092 E0.02365
G1 X124.220 Y139.963 E0.00407
G1 X123.466 Y139.963 E0.02365
G1 X123.466 Y140.092 E0.00407
G1 X122.712 Y140.092 E0.02365
G1 X122.712 Y139.963 E0.00407
G1 X121.957 Y139.963 E0.02365
G1 X121.957 Y140.092 E0.00407
G1 X121.203 Y140.092 E0.02365
G1 X121.203 Y139.963 E0.00407
G1 X120.449 Y139.963 E0.02365
G1 X120.449 Y140.092 E0.00407
G1 X119.695 Y140.092 E0.02365
G1 X119.695 Y139.963 E0.00407
G1 X118.941 Y139.963 E0.02365
G1 X118.941 Y140.092 E0.00407
G1 X118.187 Y140.092 E0.02365
G1 X118.187 Y139.963 E0.00407
G1 X117.432 Y139.963 E0.02365
G1 X117.432 Y140.092 E0.00407
G1 X116.678 Y140.092 E0.02365
G1 X116.678 Y139.963 E0.00407
G1 X115.924 Y139.963 E0.02365
G1 X115.924 Y140.092 E0.00407
G1 X115.170 Y140.092 E0.02365
G1 X115.170 Y139.963 E0.00407
G1 X114.416 Y139.963 E0.02365
G1 X114.416 Y140.092 E0.00407
G1 X113.662 Y140.092 E0.02365
G1 X113.662 Y139.892 E0.00629
G1 X113.408 Y139.685 E0.01029
G1 X113.327 Y139.540 E0.00519
G1 X113.267 Y139.270 E0.00868
G1 X113.267 Y117.243 E0.69065
G1 X113.327 Y116.972 E0.00868
G1 X113.408 Y116.828 E0.00519
G1 X113.662 Y116.620 E0.01029
G1 X113.662 Y116.420 E0.00629
G1 X114.416 Y116.420 E0.02365
G1 X114.416 Y116.550 E0.00407
G1 X115.170 Y116.550 E0.02365
G1 X115.170 Y116.420 E0.00407
G1 X115.924 Y116.420 E0.02365
G1 X115.924 Y116.550 E0.00407
G1 X116.678 Y116.550 E0.02365
G1 X116.678 Y116.420 E0.00407
G1 X117.432 Y116.420 E0.02365
G1 X117.432 Y116.550 E0.00407
G1 X118.187 Y116.550 E0.02365
G1 X118.187 Y116.420 E0.00407
G1 X118.941 Y116.420 E0.02365
G1 X118.941 Y116.550 E0.00407
G1 X119.695 Y116.550 E0.02365
G1 X119.695 Y116.420 E0.00407
G1 X120.449 Y116.420 E0.02365
G1 X120.449 Y116.550 E0.00407
G1 X121.203 Y116.550 E0.02365
G1 X121.203 Y116.420 E0.00407
G1 X121.957 Y116.420 E0.02365
G1 X121.957 Y116.550 E0.00407
G1 X122.712 Y116.550 E0.02365
G1 X122.712 Y116.420 E0.00407
G1 X123.466 Y116.420 E0.02365
G1 X123.466 Y116.550 E0.00407
G1 X124.220 Y116.550 E0.02365
G1 X124.220 Y116.420 E0.00407
G1 X124.974 Y116.420 E0.02365
G1 X124.974 Y116.550 E0.00407
G1 X125.728 Y116.550 E0.02365
G1 X125.728 Y116.420 E0.00407
G1 X126.482 Y116.420 E0.02365
G1 X126.482 Y116.550 E0.00407
G1 X127.236 Y116.550 E0.02365
G1 X127.236 Y116.420 E0.00407
G1 X127.991 Y116.420 E0.02365
G1 X127.991 Y116.550 E0.00407
G1 X128.745 Y116.550 E0.02365
G1 X128.745 Y116.420 E0.00407
G1 X129.499 Y116.420 E0.02365
G1 X129.499 Y116.550 E0.00407
G1 X130.253 Y116.550 E0.02365
G1 X130.253 Y116.420 E0.00407
G1 X131.007 Y116.420 E0.02365
G1 X131.007 Y116.550 E0.00407
G1 X131.761 Y116.550 E0.02365
G1 X131.761 Y116.420 E0.00407
G1 X132.516 Y116.420 E0.02365
G1 X132.516 Y116.550 E0.00407
G1 X133.270 Y116.550 E0.02365
G1 X133.270 Y116.420 E0.00407
G1 X134.024 Y116.420 E0.02365
G1 X134.024 Y116.550 E0.00407
G1 X134.778 Y116.550 E0.02365
G1 X134.778 Y116.420 E0.00407
G1 X135.532 Y116.420 E0.02365
G1 X135.532 Y116.550 E0.00407
G1 X136.022 Y116.552 E0.01537
G1 X136.286 Y116.620 E0.00855
G1 X136.286 Y116.250 E0.01161
M204 S1000
;WIPE_START
G1 F8640.000
G1 X136.286 Y116.620 E-0.08548
G1 X136.022 Y116.552 E-0.06296
G1 X135.532 Y116.550 E-0.11318
G1 X135.532 Y116.420 E-0.02997
G1 X134.778 Y116.420 E-0.17414
G1 X134.778 Y116.550 E-0.02997
G1 X134.024 Y116.550 E-0.17414
G1 X134.024 Y116.420 E-0.02997
G1 X133.270 Y116.420 E-0.17414
G1 X133.270 Y116.550 E-0.02997
G1 X133.070 Y116.550 E-0.04608
;WIPE_END
G1 E-0.05000 F2100.000
G1 Z0.400 F10800.000
G1 X120.449 Y137.262
G1 Z0.200
G1 E1.00000 F2100.000
M204 S500
G1 F1200.000
G1 X120.449 Y119.420 E0.55944
G1 X119.695 Y119.420 E0.02365
G1 X119.695 Y137.093 E0.55412
G1 X118.941 Y137.093 E0.02365
G1 X118.941 Y119.420 E0.55412
G1 X118.187 Y119.420 E0.02365
G1 X118.187 Y137.093 E0.55412
M73 Q2 S31
G1 X117.432 Y137.093 E0.02365
G1 X117.432 Y119.420 E0.55412
M73 P2 R31
G1 X116.678 Y119.420 E0.02365
G1 X116.678 Y137.262 E0.55944
M204 S1000
;WIPE_START
G1 F8640.000
G1 X116.678 Y133.148 E-0.95000
;WIPE_END
G1 E-0.05000 F2100.000
G1 Z0.400 F10800.000
G1 X114.937 Y118.219
G1 Z0.200
G1 E1.00000 F2100.000
M204 S500
;TYPE:Perimeter
G1 F1200.000
G1 X135.011 Y118.219 E0.62941
G1 X135.011 Y138.293 E0.62941
G1 X114.937 Y138.293 E0.62941
G1 X114.937 Y118.279 E0.62753
M204 S1000
G1 X115.314 Y118.596 F10800.000
M204 S500
;TYPE:External perimeter
G1 F1200.000
G1 X134.634 Y118.596 E0.60577
G1 X134.634 Y137.916 E0.60577
G1 X115.314 Y137.916 E0.60577
G1 X115.314 Y118.656 E0.60388
M204 S1000
G1 X115.210 Y118.210 F10800.000
;WIPE_START
G1 F8640.000
G1 X119.428 Y118.643 E-0.95000
;WIPE_END
G1 E-0.05000 F2100.000
G1 Z0.400 F10800.000
G1 X114.468 Y117.750
G1 Z0.200
G1 E1.00000 F2100.000
M204 S500
;TYPE:Perimeter
G1 F1200.000
G1 X135.480 Y117.757 E0.65881
G1 X135.480 Y138.762 E0.65859
G1 X114.468 Y138.762 E0.65881
G1 X114.468 Y117.810 E0.65693
M204 S1000
G1 X114.091 Y117.373 F10800.000
M204 S500
;TYPE:External perimeter
G1 F1200.000
G1 X135.857 Y117.380 E0.68246
G1 X135.857 Y139.139 E0.68223
G1 X114.091 Y139.139 E0.68246
G1 X114.091 Y117.433 E0.68058
M204 S1000
M73 P3 R31
M73 Q3 S31
G1 X114.477 Y117.477 F10800.000
G1 X114.710 Y117.993
M204 S500
;TYPE:Gap fill
;WIDTH:0.134708
G1 F1200.000
G1 X135.240 Y117.998 E0.15668
G1 X135.238 Y138.520 E0.15663
G1 X114.710 Y138.520 E0.15667
G1 X114.702 Y118.052 E0.15622
M204 S1000
; stop printing object ECM_Button_Outer_v2 (1).stl id:1 copy 0
; printing object ECM_Button_Angle_Supports_v4 (1).stl id:0 copy 0
;WIPE_START
G1 F8640.000
G1 X118.817 Y118.041 E-0.95000
;WIPE_END
G1 E-0.05000 F2100.000
G1 Z0.400 F10800.000
G1 X114.442 Y115.756
G1 Z0.200
G1 E1.00000 F2100.000
M204 S500
;TYPE:Support material
;WIDTH:0.42
G1 F1200.000
G1 X114.442 Y94.414 E0.66918
G1 X115.196 Y94.414 E0.02365
G1 X115.196 Y115.756 E0.66918
M204 S1000
;WIPE_START
G1 F8640.000
G1 X115.196 Y111.642 E-0.95000
;WIPE_END
G1 E-0.05000 F2100.000
G1 Z0.400 F10800.000
G1 X117.458 Y97.244
G1 Z0.200
G1 E1.00000 F2100.000
M204 S500
G1 F1200.000
G1 X117.458 Y112.586 E0.48106
G1 X118.213 Y112.586 E0.02365
G1 X118.213 Y97.414 E0.47574
G1 X118.967 Y97.414 E0.02365
G1 X118.967 Y112.586 E0.47574
G1 X119.721 Y112.586 E0.02365
G1 X119.721 Y97.414 E0.47574
G1 X120.475 Y97.414 E0.02365
G1 X120.475 Y112.586 E0.47574
G1 X121.229 Y112.586 E0.02365
G1 X121.229 Y97.414 E0.47574
G1 X121.983 Y97.414 E0.02365
G1 X121.983 Y112.586 E0.47574
G1 X122.738 Y112.586 E0.02365
G1 X122.738 Y97.414 E0.47574
G1 X123.492 Y97.414 E0.02365
G1 X123.492 Y112.586 E0.47574
G1 X124.246 Y112.586 E0.02365
G1 X124.246 Y97.414 E0.47574
G1 X125.000 Y97.414 E0.02365
G1 X125.000 Y112.586 E0.47574
G1 X125.754 Y112.586 E0.02365
G1 X125.754 Y97.414 E0.47574
G1 X126.508 Y97.414 E0.02365
G1 X126.508 Y112.586 E0.47574
G1 X127.262 Y112.586 E0.02365
G1 X127.262 Y97.414 E0.47574
M73 P4 R31
M73 Q4 S31
G1 X128.017 Y97.414 E0.02365
G1 X128.017 Y112.586 E0.47574
G1 X128.771 Y112.586 E0.02365
G1 X128.771 Y97.414 E0.47574
G1 X129.525 Y97.414 E0.02365
G1 X129.525 Y112.586 E0.47574
G1 X130.279 Y112.586 E0.02365
G1 X130.279 Y97.414 E0.47574
G1 X131.033 Y97.414 E0.02365
G1 X131.033 Y112.586 E0.47574
M73 P4 R30
G1 X131.787 Y112.586 E0.02365
G1 X131.787 Y97.414 E0.47574
G1 X132.542 Y97.414 E0.02365
G1 X132.542 Y112.756 E0.48106
M204 S1000
;WIPE_START
G1 F8640.000
G1 X132.542 Y108.642 E-0.95000
;WIPE_END
G1 E-0.05000 F2100.000
G1 Z0.400 F10800.000
G1 X135.558 Y115.756
G1 Z0.200
G1 E1.00000 F2100.000
M204 S500
G1 F1200.000
G1 X135.558 Y94.414 E0.66918
G1 X134.804 Y94.414 E0.02365
G1 X134.804 Y115.586 E0.66386
M73 Q4 S30
G1 X134.050 Y115.586 E0.02365
G1 X134.050 Y114.228 E0.04260
G1 X133.874 Y114.333 E0.00644
G1 X133.702 Y114.391 E0.00570
G1 X133.296 Y114.414 E0.01274
G1 X133.296 Y115.586 E0.03677
G1 X132.542 Y115.586 E0.02365
G1 X132.542 Y114.414 E0.03677
G1 X131.787 Y114.414 E0.02365
G1 X131.787 Y115.586 E0.03677
G1 X131.033 Y115.586 E0.02365
G1 X131.033 Y114.414 E0.03677
G1 X130.279 Y114.414 E0.02365
G1 X130.279 Y115.586 E0.03677
G1 X129.525 Y115.586 E0.02365
G1 X129.525 Y114.414 E0.03677
G1 X128.771 Y114.414 E0.02365
G1 X128.771 Y115.586 E0.03677
G1 X128.017 Y115.586 E0.02365
G1 X128.017 Y114.414 E0.03677
G1 X127.262 Y114.414 E0.02365
G1 X127.262 Y115.586 E0.03677
G1 X126.508 Y115.586 E0.02365
G1 X126.508 Y114.414 E0.03677
G1 X125.754 Y114.414 E0.02365
G1 X125.754 Y115.586 E0.03677
G1 X125.000 Y115.586 E0.02365
G1 X125.000 Y114.414 E0.03677
G1 X124.246 Y114.414 E0.02365
G1 X124.246 Y115.586 E0.03677
G1 X123.492 Y115.586 E0.02365
G1 X123.492 Y114.414 E0.03677
G1 X122.738 Y114.414 E0.02365
G1 X122.738 Y115.586 E0.03677
G1 X121.983 Y115.586 E0.02365
G1 X121.983 Y114.414 E0.03677
G1 X121.229 Y114.414 E0.02365
G1 X121.229 Y115.586 E0.03677
G1 X120.475 Y115.586 E0.02365
G1 X120.475 Y114.414 E0.03677
G1 X119.721 Y114.414 E0.02365
G1 X119.721 Y115.586 E0.03677
G1 X118.967 Y115.586 E0.02365
G1 X118.967 Y114.414 E0.03677
G1 X118.213 Y114.414 E0.02365
G1 X118.213 Y115.586 E0.03677
G1 X117.458 Y115.586 E0.02365
G1 X117.458 Y114.414 E0.03677
G1 X116.704 Y114.414 E0.02365
G1 X116.704 Y115.586 E0.03677
G1 X115.950 Y115.586 E0.02365
G1 X115.950 Y114.228 E0.04260
G1 X115.758 Y114.032 E0.00859
G1 X115.667 Y113.874 E0.00573
G1 X115.609 Y113.702 E0.00570
G1 X115.587 Y113.530 E0.00541
G1 X115.586 Y96.490 E0.53429
G1 X115.608 Y96.301 E0.00596
G1 X115.667 Y96.126 E0.00578
G1 X115.758 Y95.968 E0.00573
G1 X115.950 Y95.772 E0.00859
G1 X115.950 Y94.414 E0.04260
G1 X116.704 Y94.414 E0.02365
G1 X116.704 Y95.586 E0.03677
G1 X117.458 Y95.586 E0.02365
G1 X117.458 Y94.414 E0.03677
G1 X118.213 Y94.414 E0.02365
G1 X118.213 Y95.586 E0.03677
G1 X118.967 Y95.586 E0.02365
G1 X118.967 Y94.414 E0.03677
G1 X119.721 Y94.414 E0.02365
G1 X119.721 Y95.586 E0.03677
G1 X120.475 Y95.586 E0.02365
G1 X120.475 Y94.414 E0.03677
G1 X121.229 Y94.414 E0.02365
G1 X121.229 Y95.586 E0.03677
G1 X121.983 Y95.586 E0.02365
G1 X121.983 Y94.414 E0.03677
G1 X122.738 Y94.414 E0.02365
G1 X122.738 Y95.586 E0.03677
G1 X123.492 Y95.586 E0.02365
G1 X123.492 Y94.414 E0.03677
G1 X124.246 Y94.414 E0.02365
G1 X124.246 Y95.586 E0.03677
G1 X125.000 Y95.586 E0.02365
G1 X125.000 Y94.414 E0.03677
G1 X125.754 Y94.414 E0.02365
G1 X125.754 Y95.586 E0.03677
G1 X126.508 Y95.586 E0.02365
G1 X126.508 Y94.414 E0.03677
G1 X127.262 Y94.414 E0.02365
G1 X127.262 Y95.586 E0.03677
