; generated by PrusaSlicer 2.3.0+win64 on 2021-07-30 at 05:48:16 UTC

; 

; external perimeters extrusion width = 0.45mm
; perimeters extrusion width = 0.45mm
; infill extrusion width = 0.45mm
; solid infill extrusion width = 0.45mm
; top infill extrusion width = 0.40mm
; support material extrusion width = 0.35mm
; first layer extrusion width = 0.42mm

M73 P0 R88
M73 Q0 S89
M201 X1000 Y1000 Z200 E5000 ; sets maximum accelerations, mm/sec^2
M203 X200 Y200 Z12 E120 ; sets maximum feedrates, mm/sec
M204 P1250 R1250 T1250 ; sets acceleration (P, T) and retract acceleration (R), mm/sec^2
M205 X8.00 Y8.00 Z0.40 E4.50 ; sets the jerk limits, mm/sec
M205 S0 T0 ; sets the minimum extruding and travel feed rate, mm/sec
M107
;TYPE:Custom
M862.3 P "MK3S" ; printer model check
M862.1 P0.4 ; nozzle diameter check
M115 U3.9.1 ; tell printer latest fw version
G90 ; use absolute coordinates
M83 ; extruder relative mode
M104 S240 ; set extruder temp
M140 S85 ; set bed temp
M190 S85 ; wait for bed temp
M109 S240 ; wait for extruder temp
G28 W ; home all without mesh bed level
G80 ; mesh bed leveling
G1 Y-3.0 F1000.0 ; go outside print area
G92 E0.0
G1 X60.0 E9.0 F1000.0 ; intro line
G1 X100.0 E12.5 F1000.0 ; intro line
G92 E0.0
M221 S95

; Don't change E values below. Excessive value can damage the printer.

M907 E538 ; set extruder motor current
G21 ; set units to millimeters
G90 ; use absolute coordinates
M83 ; use relative distances for extrusion
M900 K0.08 ; Filament gcode LA 1.5
M900 K45 ; Filament gcode LA 1.0
;LAYER_CHANGE
;Z:0.2
;HEIGHT:0.2
;BEFORE_LAYER_CHANGE
G92 E0.0
;0.2


G1 E-1.40000 F2100.000
G1 Z0.200 F10800.000
;AFTER_LAYER_CHANGE
;0.2
G1 Z0.400
G1 X65.186 Y76.993
G1 Z0.200
G1 E1.40000 F2100.000
M204 S1000
;TYPE:Skirt
;WIDTH:0.42
G1 F1200.000
G1 X66.027 Y76.714 E0.02778
G1 X90.991 Y73.543 E0.78902
G1 X125.823 Y73.539 E1.09214
G1 X138.200 Y73.729 E0.38812
G1 X138.864 Y73.919 E0.02166
G1 X139.449 Y74.294 E0.02178
G1 X139.898 Y74.819 E0.02166
G1 X140.177 Y75.451 E0.02166
G1 X140.263 Y76.080 E0.01989
G1 X140.262 Y119.155 E1.35061
G1 X140.168 Y119.763 E0.01929
G1 X139.921 Y120.327 E0.01929
G1 X139.537 Y120.808 E0.01929
G1 X139.040 Y121.176 E0.01941
G1 X138.493 Y121.396 E0.01846
G1 X137.906 Y121.475 E0.01858
G1 X103.172 Y121.475 E1.08907
G1 X91.072 Y121.305 E0.37942
G1 X58.464 Y120.396 E1.02278
G1 X57.443 Y120.256 E0.03230
G1 X56.420 Y120.007 E0.03302
G1 X54.825 Y119.385 E0.05370
G1 X53.896 Y118.872 E0.03326
G1 X53.033 Y118.268 E0.03302
G1 X51.770 Y117.106 E0.05382
G1 X51.093 Y116.294 E0.03314
G1 X50.506 Y115.415 E0.03314
G1 X49.755 Y113.885 E0.05346
G1 X49.444 Y112.967 E0.03039
G1 X49.205 Y111.949 E0.03278
G1 X49.078 Y110.980 E0.03063
G1 X49.108 Y108.968 E0.06310
G1 X49.438 Y107.295 E0.05346
G1 X49.765 Y106.326 E0.03206
G1 X64.238 Y77.963 E0.99840
G1 X64.643 Y77.408 E0.02154
G1 X65.138 Y77.030 E0.01954
;WIPE_START
G1 F8640.000
G1 X66.027 Y76.714 E-0.21775
G1 X70.805 Y76.107 E-1.11225
;WIPE_END
G1 E-0.07000 F2100.000
G1 Z0.400 F10800.000
G1 X78.292 Y106.593
G1 Z0.200
G1 E1.40000 F2100.000
;TYPE:Perimeter
G1 F1200.000
G1 X78.833 Y106.426 E0.01776
G1 X79.393 Y106.342 E0.01776
G1 X79.960 Y106.342 E0.01776
G1 X80.520 Y106.426 E0.01776
G1 X81.061 Y106.593 E0.01776
G1 X81.571 Y106.839 E0.01776
G1 X82.039 Y107.158 E0.01776
G1 X82.454 Y107.543 E0.01776
G1 X82.807 Y107.986 E0.01776
G1 X83.077 Y108.454 E0.01693
G1 X83.297 Y109.002 E0.01851
G1 X83.423 Y109.556 E0.01782
G1 X83.466 Y110.121 E0.01776
G1 X83.425 Y110.659 E0.01693
G1 X83.298 Y111.236 E0.01851
G1 X83.091 Y111.765 E0.01782
G1 X82.807 Y112.255 E0.01776
G1 X82.454 Y112.698 E0.01776
G1 X82.039 Y113.083 E0.01776
G1 X81.571 Y113.402 E0.01776
G1 X81.061 Y113.648 E0.01776
G1 X80.520 Y113.815 E0.01776
G1 X79.960 Y113.899 E0.01776
G1 X79.393 Y113.899 E0.01776
G1 X78.833 Y113.815 E0.01776
G1 X78.292 Y113.648 E0.01776
G1 X77.782 Y113.402 E0.01776
G1 X77.336 Y113.098 E0.01693
G1 X76.900 Y112.700 E0.01851
G1 X76.546 Y112.255 E0.01782
G1 X76.262 Y111.765 E0.01776
G1 X76.065 Y111.262 E0.01693
G1 X75.930 Y110.688 E0.01851
G1 X75.887 Y110.121 E0.01782
G1 X75.930 Y109.556 E0.01776
G1 X76.056 Y109.004 E0.01776
G1 X76.262 Y108.477 E0.01776
G1 X76.546 Y107.986 E0.01776
G1 X76.899 Y107.543 E0.01776
G1 X77.314 Y107.158 E0.01776
G1 X77.782 Y106.839 E0.01776
G1 X78.238 Y106.619 E0.01588
G1 X78.402 Y106.959 F10800.000
;TYPE:External perimeter
G1 F1200.000
G1 X78.917 Y106.795 E0.01697
G1 X79.422 Y106.719 E0.01599
G1 X79.931 Y106.719 E0.01599
G1 X80.436 Y106.795 E0.01599
G1 X80.923 Y106.945 E0.01599
G1 X81.382 Y107.167 E0.01599
G1 X81.803 Y107.454 E0.01599
G1 X82.177 Y107.801 E0.01599
G1 X82.495 Y108.199 E0.01599
G1 X82.737 Y108.619 E0.01520
G1 X82.936 Y109.115 E0.01674
G1 X83.050 Y109.612 E0.01601
G1 X83.088 Y110.121 E0.01599
G1 X83.051 Y110.604 E0.01520
G1 X82.936 Y111.126 E0.01674
G1 X82.750 Y111.601 E0.01601
G1 X82.495 Y112.042 E0.01599
G1 X82.177 Y112.441 E0.01599
G1 X81.803 Y112.788 E0.01599
G1 X81.382 Y113.075 E0.01599
G1 X80.923 Y113.296 E0.01599
G1 X80.436 Y113.446 E0.01599
G1 X79.931 Y113.522 E0.01599
G1 X79.422 Y113.522 E0.01599
G1 X78.917 Y113.446 E0.01599
G1 X78.430 Y113.296 E0.01599
G1 X77.971 Y113.075 E0.01599
G1 X77.570 Y112.802 E0.01520
G1 X77.176 Y112.442 E0.01674
G1 X76.858 Y112.042 E0.01601
G1 X76.603 Y111.601 E0.01599
G1 X76.426 Y111.150 E0.01520
G1 X76.304 Y110.630 E0.01674
G1 X76.265 Y110.121 E0.01601
G1 X76.303 Y109.612 E0.01599
G1 X76.417 Y109.115 E0.01599
G1 X76.603 Y108.641 E0.01599
G1 X76.858 Y108.199 E0.01599
G1 X77.176 Y107.801 E0.01599
G1 X77.550 Y107.454 E0.01599
G1 X77.971 Y107.167 E0.01599
G1 X78.348 Y106.985 E0.01311
G1 X78.459 Y106.563 F10800.000
;WIPE_START
G1 F8640.000
G1 X78.917 Y106.795 E-0.13870
G1 X79.422 Y106.719 E-0.11772
G1 X79.931 Y106.719 E-0.11772
G1 X80.436 Y106.795 E-0.11772
G1 X80.923 Y106.945 E-0.11772
G1 X81.382 Y107.167 E-0.11772
G1 X81.803 Y107.454 E-0.11772
G1 X82.177 Y107.801 E-0.11772
G1 X82.495 Y108.199 E-0.11772
G1 X82.737 Y108.619 E-0.11191
G1 X82.936 Y109.115 E-0.12330
G1 X82.950 Y109.175 E-0.01432
;WIPE_END
G1 E-0.07000 F2100.000
G1 Z0.400 F10800.000
G1 X63.103 Y109.556
G1 Z0.200
G1 E1.40000 F2100.000
;TYPE:Perimeter
G1 F1200.000
G1 X63.146 Y110.121 E0.01776
G1 X63.103 Y110.686 E0.01776
G1 X62.977 Y111.238 E0.01776
G1 X62.771 Y111.765 E0.01776
G1 X62.487 Y112.255 E0.01776
G1 X62.134 Y112.698 E0.01776
G1 X61.719 Y113.083 E0.01776
G1 X61.251 Y113.402 E0.01776
G1 X60.741 Y113.648 E0.01776
G1 X60.200 Y113.815 E0.01776
G1 X59.640 Y113.899 E0.01776
G1 X59.073 Y113.899 E0.01776
G1 X58.513 Y113.815 E0.01776
G1 X57.972 Y113.648 E0.01776
G1 X57.462 Y113.402 E0.01776
G1 X56.994 Y113.083 E0.01776
G1 X56.579 Y112.698 E0.01776
G1 X56.226 Y112.255 E0.01776
G1 X55.942 Y111.765 E0.01776
G1 X55.736 Y111.238 E0.01776
G1 X55.610 Y110.686 E0.01776
G1 X55.567 Y110.121 E0.01776
G1 X55.610 Y109.556 E0.01776
G1 X55.736 Y109.004 E0.01776
G1 X55.942 Y108.477 E0.01776
G1 X56.226 Y107.986 E0.01776
G1 X56.579 Y107.543 E0.01776
G1 X56.994 Y107.158 E0.01776
G1 X57.462 Y106.839 E0.01776
G1 X57.972 Y106.593 E0.01776
G1 X58.513 Y106.426 E0.01776
G1 X59.073 Y106.342 E0.01776
G1 X59.640 Y106.342 E0.01776
G1 X60.200 Y106.426 E0.01776
G1 X60.741 Y106.593 E0.01776
G1 X61.251 Y106.839 E0.01776
G1 X61.719 Y107.158 E0.01776
G1 X62.134 Y107.543 E0.01776
G1 X62.487 Y107.986 E0.01776
G1 X62.771 Y108.477 E0.01776
G1 X62.977 Y109.004 E0.01776
G1 X63.090 Y109.498 E0.01588
G1 X62.722 Y109.581 F10800.000
;TYPE:External perimeter
G1 F1200.000
G1 X62.768 Y110.121 E0.01697
G1 X62.730 Y110.629 E0.01599
G1 X62.616 Y111.126 E0.01599
G1 X62.430 Y111.601 E0.01599
G1 X62.175 Y112.042 E0.01599
G1 X61.857 Y112.441 E0.01599
G1 X61.483 Y112.788 E0.01599
G1 X61.062 Y113.075 E0.01599
G1 X60.603 Y113.296 E0.01599
G1 X60.116 Y113.446 E0.01599
G1 X59.611 Y113.522 E0.01599
G1 X59.102 Y113.522 E0.01599
G1 X58.597 Y113.446 E0.01599
G1 X58.110 Y113.296 E0.01599
G1 X57.651 Y113.075 E0.01599
G1 X57.230 Y112.788 E0.01599
G1 X56.856 Y112.441 E0.01599
G1 X56.538 Y112.042 E0.01599
G1 X56.283 Y111.601 E0.01599
G1 X56.097 Y111.126 E0.01599
G1 X55.983 Y110.629 E0.01599
G1 X55.945 Y110.121 E0.01599
G1 X55.983 Y109.612 E0.01599
G1 X56.097 Y109.115 E0.01599
G1 X56.283 Y108.641 E0.01599
G1 X56.538 Y108.199 E0.01599
G1 X56.856 Y107.801 E0.01599
G1 X57.230 Y107.454 E0.01599
G1 X57.651 Y107.167 E0.01599
G1 X58.110 Y106.945 E0.01599
G1 X58.597 Y106.795 E0.01599
G1 X59.102 Y106.719 E0.01599
G1 X59.611 Y106.719 E0.01599
G1 X60.116 Y106.795 E0.01599
G1 X60.603 Y106.945 E0.01599
G1 X61.062 Y107.167 E0.01599
G1 X61.483 Y107.454 E0.01599
G1 X61.857 Y107.801 E0.01599
G1 X62.175 Y108.199 E0.01599
G1 X62.430 Y108.641 E0.01599
G1 X62.616 Y109.115 E0.01599
G1 X62.709 Y109.523 E0.01311
G1 X63.096 Y109.725 F10800.000
;WIPE_START
G1 F8640.000
G1 X62.768 Y110.121 E-0.13870
G1 X62.730 Y110.629 E-0.11772
G1 X62.616 Y111.126 E-0.11772
G1 X62.430 Y111.601 E-0.11772
G1 X62.175 Y112.042 E-0.11772
G1 X61.857 Y112.441 E-0.11772
G1 X61.483 Y112.788 E-0.11772
G1 X61.062 Y113.075 E-0.11772
G1 X60.603 Y113.296 E-0.11772
G1 X60.116 Y113.446 E-0.11772
G1 X59.611 Y113.522 E-0.11772
G1 X59.550 Y113.522 E-0.01408
;WIPE_END
G1 E-0.07000 F2100.000
G1 Z0.400 F10800.000
G1 X66.823 Y79.857
G1 Z0.200
G1 E1.40000 F2100.000
;TYPE:Perimeter
G1 F1200.000
G1 X72.210 Y79.857 E0.16892
M73 Q0 S88
G1 X86.032 Y106.845 E0.95070
G1 X86.315 Y107.466 E0.02140
G1 X86.533 Y108.093 E0.02082
G1 X86.691 Y108.738 E0.02082
G1 X86.789 Y109.395 E0.02082
G1 X86.826 Y110.058 E0.02082
G1 X86.801 Y110.722 E0.02082
G1 X86.714 Y111.380 E0.02082
G1 X86.567 Y112.028 E0.02082
G1 X86.360 Y112.659 E0.02082
G1 X86.096 Y113.268 E0.02082
G1 X85.776 Y113.850 E0.02082
G1 X85.404 Y114.400 E0.02082
G1 X84.982 Y114.913 E0.02082
G1 X84.515 Y115.384 E0.02082
G1 X84.006 Y115.811 E0.02082
G1 X83.459 Y116.188 E0.02082
G1 X82.880 Y116.513 E0.02082
G1 X82.273 Y116.782 E0.02082
G1 X81.644 Y116.994 E0.02082
G1 X80.997 Y117.147 E0.02082
G1 X80.340 Y117.240 E0.02082
G1 X79.658 Y117.271 E0.02140
G1 X59.375 Y117.271 E0.63597
G1 X58.693 Y117.240 E0.02140
G1 X58.036 Y117.147 E0.02082
G1 X57.389 Y116.994 E0.02082
G1 X56.760 Y116.782 E0.02082
G1 X56.153 Y116.513 E0.02082
G1 X55.574 Y116.188 E0.02082
G1 X55.027 Y115.811 E0.02082
G1 X54.518 Y115.384 E0.02082
G1 X54.051 Y114.913 E0.02082
G1 X53.629 Y114.400 E0.02082
G1 X53.257 Y113.850 E0.02082
G1 X52.937 Y113.268 E0.02082
G1 X52.673 Y112.659 E0.02082
G1 X52.466 Y112.028 E0.02082
G1 X52.319 Y111.380 E0.02082
G1 X52.232 Y110.722 E0.02082
G1 X52.207 Y110.058 E0.02082
G1 X52.244 Y109.395 E0.02082
G1 X52.342 Y108.738 E0.02082
G1 X52.500 Y108.093 E0.02082
G1 X52.718 Y107.466 E0.02082
G1 X53.001 Y106.845 E0.02140
G1 X66.795 Y79.911 E0.94882
G1 X66.592 Y79.480 F10800.000
;TYPE:External perimeter
G1 F1200.000
G1 X72.441 Y79.480 E0.18338
G1 X86.372 Y106.681 E0.95821
G1 X86.665 Y107.326 E0.02222
G1 X86.895 Y107.986 E0.02192
G1 X87.062 Y108.665 E0.02192
G1 X87.165 Y109.357 E0.02192
G1 X87.203 Y110.055 E0.02192
G1 X87.177 Y110.753 E0.02192
G1 X87.086 Y111.447 E0.02192
G1 X86.931 Y112.128 E0.02192
G1 X86.713 Y112.793 E0.02192
G1 X86.435 Y113.434 E0.02192
G1 X86.098 Y114.047 E0.02192
G1 X85.707 Y114.626 E0.02192
G1 X85.263 Y115.166 E0.02192
G1 X84.770 Y115.662 E0.02192
G1 X84.234 Y116.111 E0.02192
G1 X83.659 Y116.508 E0.02192
G1 X83.049 Y116.850 E0.02192
G1 X82.410 Y117.134 E0.02192
G1 X81.748 Y117.357 E0.02192
G1 X81.067 Y117.518 E0.02192
G1 X80.375 Y117.615 E0.02192
G1 X79.667 Y117.648 E0.02222
G1 X59.366 Y117.648 E0.63652
G1 X58.658 Y117.615 E0.02222
G1 X57.966 Y117.518 E0.02192
G1 X57.285 Y117.357 E0.02192
G1 X56.623 Y117.134 E0.02192
G1 X55.984 Y116.850 E0.02192
G1 X55.374 Y116.508 E0.02192
G1 X54.799 Y116.111 E0.02192
G1 X54.263 Y115.662 E0.02192
G1 X53.770 Y115.166 E0.02192
G1 X53.326 Y114.626 E0.02192
G1 X52.935 Y114.047 E0.02192
G1 X52.598 Y113.434 E0.02192
G1 X52.320 Y112.793 E0.02192
G1 X52.102 Y112.128 E0.02192
G1 X51.947 Y111.447 E0.02192
G1 X51.856 Y110.753 E0.02192
G1 X51.830 Y110.055 E0.02192
G1 X51.868 Y109.357 E0.02192
G1 X51.971 Y108.665 E0.02192
G1 X52.138 Y107.986 E0.02192
G1 X52.368 Y107.326 E0.02192
G1 X52.661 Y106.681 E0.02222
G1 X66.565 Y79.534 E0.95633
G1 X66.903 Y79.732 F10800.000
;WIPE_START
G1 F8640.000
G1 X72.325 Y79.481 E-1.33000
;WIPE_END
G1 E-0.07000 F2100.000
G1 Z0.400 F10800.000
G1 X71.369 Y79.970
G1 Z0.200
G1 E1.40000 F2100.000
;TYPE:Solid infill
;WIDTH:0.421001
G1 F1200.000
G1 X72.561 Y81.162 E0.05296
G1 X73.122 Y82.258 E0.03871
G1 X71.004 Y80.140 E0.09414
G1 X70.470 Y80.140 E0.01681
G1 X73.683 Y83.354 E0.14287
G1 X74.245 Y84.450 E0.03871
G1 X69.935 Y80.140 E0.19160
G1 X69.400 Y80.140 E0.01681
G1 X74.806 Y85.546 E0.24033
G1 X75.367 Y86.642 E0.03871
G1 X68.866 Y80.140 E0.28906
G1 X68.331 Y80.140 E0.01681
G1 X75.929 Y87.738 E0.33779
G1 X76.490 Y88.834 E0.03871
G1 X67.796 Y80.140 E0.38652
G1 X67.262 Y80.140 E0.01681
G1 X77.051 Y89.930 E0.43525
G1 X77.613 Y91.026 E0.03871
G1 X66.905 Y80.318 E0.47608
G1 X66.723 Y80.671 E0.01249
G1 X78.174 Y92.122 E0.50909
G1 X78.735 Y93.218 E0.03871
G1 X66.542 Y81.025 E0.54210
G1 X66.361 Y81.379 E0.01249
G1 X79.297 Y94.314 E0.57511
G1 X79.858 Y95.410 E0.03871
G1 X66.180 Y81.732 E0.60811
G1 X65.999 Y82.086 E0.01249
G1 X80.420 Y96.506 E0.64112
G1 X80.981 Y97.602 E0.03871
G1 X65.818 Y82.439 E0.67413
G1 X65.637 Y82.793 E0.01249
G1 X81.542 Y98.698 E0.70714
G1 X82.104 Y99.794 E0.03871
G1 X65.456 Y83.147 E0.74015
M73 P0 R87
G1 X65.275 Y83.500 E0.01249
G1 X82.665 Y100.890 E0.77316
G1 X83.226 Y101.986 E0.03871
M73 Q1 S88
G1 X65.094 Y83.854 E0.80617
M73 P1 R87
G1 X64.913 Y84.207 E0.01249
G1 X83.788 Y103.082 E0.83918
G1 X84.349 Y104.178 E0.03871
G1 X64.731 Y84.561 E0.87219
G1 X64.550 Y84.914 E0.01249
G1 X84.910 Y105.274 E0.90519
G1 X85.472 Y106.371 E0.03871
G1 X64.369 Y85.268 E0.93820
G1 X64.188 Y85.622 E0.01249
G1 X85.981 Y107.414 E0.96888
G1 X86.052 Y107.571 E0.00542
G1 X86.279 Y108.247 E0.02243
G1 X64.007 Y85.975 E0.99021
G1 X63.826 Y86.329 E0.01249
G1 X86.435 Y108.938 E1.00518
G1 X86.515 Y109.552 E0.01947
G1 X63.645 Y86.682 E1.01678
G1 X63.464 Y87.036 E0.01249
G1 X86.541 Y110.113 E1.02599
G1 X86.521 Y110.628 E0.01621
G1 X63.283 Y87.390 E1.03318
G1 X63.102 Y87.743 E0.01249
G1 X86.465 Y111.107 E1.03872
G1 X86.383 Y111.560 E0.01447
G1 X83.452 Y108.628 E0.13034
G1 X83.332 Y108.330 E0.01011
G1 X83.042 Y107.826 E0.01827
G1 X82.662 Y107.351 E0.01914
G1 X82.216 Y106.936 E0.01914
G1 X81.713 Y106.594 E0.01914
G1 X81.148 Y106.324 E0.01967
G1 X62.920 Y88.097 E0.81039
G1 X62.739 Y88.450 E0.01249
G1 X80.414 Y106.124 E0.78578
G1 X79.981 Y106.059 E0.01375
G1 X79.814 Y106.059 E0.00526
G1 X62.558 Y88.804 E0.76716
G1 X62.377 Y89.158 E0.01249
G1 X79.291 Y106.071 E0.75198
G1 X78.826 Y106.142 E0.01477
G1 X62.196 Y89.511 E0.73938
G1 X62.015 Y89.865 E0.01249
G1 X78.411 Y106.261 E0.72896
G1 X78.189 Y106.329 E0.00732
G1 X78.024 Y106.409 E0.00573
G1 X61.834 Y90.218 E0.71981
G1 X61.653 Y90.572 E0.01249
G1 X77.663 Y106.582 E0.71182
G1 X77.343 Y106.796 E0.01212
G1 X61.472 Y90.925 E0.70561
G1 X61.291 Y91.279 E0.01249
G1 X77.039 Y107.027 E0.70017
G1 X76.762 Y107.285 E0.01189
G1 X61.109 Y91.633 E0.69589
G1 X60.928 Y91.986 E0.01249
G1 X76.514 Y107.572 E0.69294
G1 X76.283 Y107.876 E0.01199
G1 X60.747 Y92.340 E0.69071
M73 Q1 S87
G1 X60.566 Y92.693 E0.01249
G1 X76.087 Y108.215 E0.69006
G1 X76.007 Y108.354 E0.00505
G1 X75.918 Y108.580 E0.00765
G1 X60.385 Y93.047 E0.69059
G1 X60.204 Y93.401 E0.01249
G1 X75.773 Y108.970 E0.69220
G1 X75.674 Y109.405 E0.01404
G1 X60.023 Y93.754 E0.69583
G1 X59.842 Y94.108 E0.01249
G1 X75.621 Y109.887 E0.70154
G1 X75.604 Y110.121 E0.00737
G1 X75.627 Y110.427 E0.00966
G1 X59.661 Y94.461 E0.70983
G1 X59.480 Y94.815 E0.01249
G1 X75.956 Y111.291 E0.73252
;WIPE_START
G1 F8640.000
G1 X71.883 Y107.218 E-1.33000
;WIPE_END
G1 E-0.07000 F2100.000
G1 Z0.400 F10800.000
G1 X83.449 Y109.160
G1 Z0.200
G1 E1.40000 F2100.000
G1 F1200.000
G1 X86.281 Y111.992 E0.12591
G1 X86.149 Y112.395 E0.01332
G1 X83.739 Y109.985 E0.10715
G1 X83.749 Y110.121 E0.00428
G1 X83.721 Y110.501 E0.01199
G1 X86.000 Y112.780 E0.10131
G1 X85.837 Y113.152 E0.01277
G1 X83.648 Y110.963 E0.09733
G1 X83.541 Y111.391 E0.01386
G1 X85.648 Y113.497 E0.09365
