; generated by PrusaSlicer 2.3.0+win64 on 2021-07-18 at 06:03:02 UTC

; 

; external perimeters extrusion width = 0.45mm
; perimeters extrusion width = 0.45mm
; infill extrusion width = 0.45mm
; solid infill extrusion width = 0.45mm
; top infill extrusion width = 0.40mm
; first layer extrusion width = 0.42mm

M73 P0 R30
M73 Q0 S30
M201 X1000 Y1000 Z200 E5000 ; sets maximum accelerations, mm/sec^2
M203 X200 Y200 Z12 E120 ; sets maximum feedrates, mm/sec
M204 P1250 R1250 T1250 ; sets acceleration (P, T) and retract acceleration (R), mm/sec^2
M205 X8.00 Y8.00 Z0.40 E4.50 ; sets the jerk limits, mm/sec
M205 S0 T0 ; sets the minimum extruding and travel feed rate, mm/sec
M107
;TYPE:Custom
M862.3 P "MK3S" ; printer model check
M862.1 P0.4 ; nozzle diameter check
M115 U3.9.1 ; tell printer latest fw version
G90 ; use absolute coordinates
M83 ; extruder relative mode
M104 S240 ; set extruder temp
M140 S85 ; set bed temp
M190 S85 ; wait for bed temp
M109 S240 ; wait for extruder temp
G28 W ; home all without mesh bed level
G80 ; mesh bed leveling
G1 Y-3.0 F1000.0 ; go outside print area
G92 E0.0
G1 X60.0 E9.0 F1000.0 ; intro line
G1 X100.0 E12.5 F1000.0 ; intro line
G92 E0.0
M221 S95

; Don't change E values below. Excessive value can damage the printer.

M907 E538 ; set extruder motor current
G21 ; set units to millimeters
G90 ; use absolute coordinates
M83 ; use relative distances for extrusion
M900 K0.08 ; Filament gcode LA 1.5
M900 K45 ; Filament gcode LA 1.0
;LAYER_CHANGE
;Z:0.2
;HEIGHT:0.2
;BEFORE_LAYER_CHANGE
G92 E0.0
;0.2


G1 E-1.40000 F2100.000
G1 Z0.200 F10800.000
;AFTER_LAYER_CHANGE
;0.2
G1 Z0.400
G1 X126.707 Y90.637
G1 Z0.200
G1 E1.40000 F2100.000
M204 S1000
;TYPE:Skirt
;WIDTH:0.42
G1 F1200.000
G1 X127.481 Y91.041 E0.02739
G1 X128.090 Y91.667 E0.02739
G1 X128.474 Y92.457 E0.02752
G1 X132.925 Y113.675 E0.67977
G1 X132.981 Y114.319 E0.02026
G1 X132.879 Y114.978 E0.02090
G1 X132.624 Y115.590 E0.02078
G1 X132.227 Y116.126 E0.02090
G1 X131.717 Y116.548 E0.02078
G1 X127.121 Y119.185 E0.16612
G1 X126.398 Y119.388 E0.02358
G1 X124.912 Y119.503 E0.04671
G1 X123.549 Y119.381 E0.04293
G1 X122.859 Y119.175 E0.02256
G1 X118.226 Y116.511 E0.16758
G1 X117.707 Y116.054 E0.02167
G1 X117.318 Y115.483 E0.02167
G1 X117.084 Y114.832 E0.02167
G1 X117.019 Y114.144 E0.02167
G1 X121.583 Y92.288 E0.70006
G1 X121.831 Y91.786 E0.01758
G1 X122.176 Y91.343 E0.01758
G1 X122.604 Y90.980 E0.01758
G1 X123.096 Y90.711 E0.01758
G1 X123.949 Y90.504 E0.02752
G1 X125.840 Y90.496 E0.05931
G1 X126.647 Y90.627 E0.02564
G1 X126.587 Y90.995 F10800.000
G1 F1200.000
G1 X127.267 Y91.352 E0.02406
G1 X127.794 Y91.902 E0.02390
G1 X128.120 Y92.591 E0.02390
G1 X132.556 Y113.752 E0.67791
G1 X132.604 Y114.309 E0.01752
G1 X132.514 Y114.883 E0.01823
G1 X132.288 Y115.418 E0.01823
G1 X131.941 Y115.880 E0.01811
G1 X131.489 Y116.247 E0.01823
G1 X126.980 Y118.835 E0.16301
G1 X126.339 Y119.016 E0.02088
G1 X124.922 Y119.126 E0.04458
G1 X123.618 Y119.010 E0.04104
G1 X123.007 Y118.828 E0.02000
G1 X118.461 Y116.215 E0.16439
G1 X118.004 Y115.820 E0.01894
G1 X117.661 Y115.323 E0.01894
G1 X117.454 Y114.756 E0.01894
G1 X117.396 Y114.155 E0.01894
G1 X121.929 Y92.441 E0.69550
G1 X122.146 Y91.993 E0.01562
G1 X122.455 Y91.597 E0.01574
G1 X122.837 Y91.278 E0.01562
G1 X123.277 Y91.044 E0.01562
G1 X124.006 Y90.878 E0.02343
G1 X125.840 Y90.873 E0.05751
G1 X126.528 Y90.986 E0.02185
;WIPE_START
G1 F8640.000
G1 X127.267 Y91.352 E-0.19039
G1 X127.794 Y91.902 E-0.17602
G1 X128.120 Y92.591 E-0.17602
G1 X128.820 Y95.929 E-0.78757
;WIPE_END
G1 E-0.07000 F2100.000
G1 Z0.400 F10800.000
G1 X125.088 Y97.499
G1 Z0.200
G1 E1.40000 F2100.000
;TYPE:Perimeter
G1 F1200.000
G1 X129.316 Y113.849 E0.52952
G1 X125.778 Y115.892 E0.12808
G1 X125.000 Y115.960 E0.02450
G1 X124.222 Y115.892 E0.02450
G1 X120.684 Y113.849 E0.12808
G1 X124.912 Y97.499 E0.52952
G1 X125.028 Y97.499 E0.00361
;WIPE_START
G1 F8640.000
G1 X126.489 Y103.071 E-1.33000
;WIPE_END
G1 E-0.07000 F2100.000
G1 Z0.400 F10800.000
G1 X125.426 Y93.660
G1 Z0.200
G1 E1.40000 F2100.000
;TYPE:External perimeter
G1 F1200.000
G1 X125.426 Y97.302 E0.11420
M73 Q1 S30
G1 X129.753 Y114.032 E0.54183
M73 P1 R30
G1 X125.894 Y116.260 E0.13970
G1 X125.000 Y116.338 E0.02815
G1 X124.106 Y116.260 E0.02815
G1 X120.247 Y114.032 E0.13970
G1 X124.574 Y97.302 E0.54183
G1 X124.574 Y93.660 E0.11420
G1 X125.366 Y93.660 E0.02484
G1 X125.396 Y94.059 F10800.000
G1 X125.000 Y93.849
;TYPE:Gap fill
;WIDTH:0.518164
G1 F1200.000
G1 X125.000 Y97.310 E0.13680
;WIPE_START
G1 F8640.000
G1 X125.000 Y93.849 E-0.79937
;WIPE_END
G1 E-0.60063 F2100.000
G1 Z0.400 F10800.000
G1 X124.795 Y98.403
G1 Z0.200
G1 E1.40000 F2100.000
;TYPE:Solid infill
;WIDTH:0.42939
G1 F1200.000
G1 X125.111 Y98.719 E0.01434
G1 X125.302 Y99.456 E0.02447
G1 X124.822 Y98.977 E0.02178
G1 X124.710 Y99.411 E0.01441
G1 X125.492 Y100.193 E0.03555
G1 X125.683 Y100.930 E0.02447
G1 X124.598 Y99.845 E0.04932
G1 X124.485 Y100.279 E0.01441
G1 X125.874 Y101.668 E0.06308
G1 X126.064 Y102.405 E0.02447
G1 X124.373 Y100.714 E0.07685
G1 X124.261 Y101.148 E0.01441
G1 X126.255 Y103.142 E0.09062
G1 X126.446 Y103.879 E0.02447
G1 X124.149 Y101.582 E0.10439
G1 X124.036 Y102.016 E0.01441
G1 X126.636 Y104.616 E0.11816
G1 X126.827 Y105.354 E0.02447
G1 X123.924 Y102.451 E0.13192
G1 X123.812 Y102.885 E0.01441
G1 X127.017 Y106.091 E0.14569
G1 X127.208 Y106.828 E0.02447
G1 X123.699 Y103.319 E0.15946
G1 X123.587 Y103.753 E0.01441
G1 X127.399 Y107.565 E0.17323
G1 X127.589 Y108.302 E0.02447
G1 X123.475 Y104.188 E0.18700
G1 X123.362 Y104.622 E0.01441
G1 X127.780 Y109.040 E0.20077
G1 X127.971 Y109.777 E0.02447
G1 X123.250 Y105.056 E0.21453
G1 X123.138 Y105.490 E0.01441
G1 X128.161 Y110.514 E0.22830
G1 X128.352 Y111.251 E0.02447
G1 X123.025 Y105.925 E0.24207
G1 X122.913 Y106.359 E0.01441
G1 X128.543 Y111.988 E0.25584
G1 X128.733 Y112.726 E0.02447
G1 X122.801 Y106.793 E0.26961
G1 X122.689 Y107.227 E0.01441
G1 X128.924 Y113.463 E0.28337
G1 X128.988 Y113.712 E0.00827
G1 X128.759 Y113.844 E0.00851
G1 X122.576 Y107.662 E0.28098
G1 X122.464 Y108.096 E0.01441
G1 X128.412 Y114.044 E0.27034
G1 X128.066 Y114.244 E0.01286
G1 X122.352 Y108.530 E0.25969
G1 X122.239 Y108.964 E0.01441
G1 X127.719 Y114.445 E0.24905
G1 X127.373 Y114.645 E0.01286
G1 X122.127 Y109.399 E0.23841
G1 X122.015 Y109.833 E0.01441
G1 X127.026 Y114.845 E0.22776
G1 X126.680 Y115.045 E0.01286
G1 X121.902 Y110.267 E0.21712
G1 X121.790 Y110.701 E0.01441
G1 X126.333 Y115.245 E0.20648
G1 X125.987 Y115.445 E0.01286
G1 X121.678 Y111.136 E0.19583
G1 X121.566 Y111.570 E0.01441
G1 X125.618 Y115.622 E0.18415
G1 X125.115 Y115.666 E0.01621
G1 X121.453 Y112.004 E0.16642
M73 P1 R29
G1 X121.341 Y112.438 E0.01441
G1 X124.538 Y115.636 E0.14530
G1 X124.309 Y115.616 E0.00740
G1 X123.511 Y115.155 E0.02961
G1 X121.229 Y112.873 E0.10372
G1 X121.116 Y113.307 E0.01441
G1 X122.681 Y114.872 E0.07112
;LAYER_CHANGE
;Z:0.4
;HEIGHT:0.2
;BEFORE_LAYER_CHANGE
G92 E0.0
;0.4


;WIPE_START
G1 F8640.000
G1 X121.116 Y113.307 E-0.51103
G1 X121.229 Y112.873 E-0.10357
G1 X123.419 Y115.063 E-0.71541
;WIPE_END
G1 E-0.07000 F2100.000
G1 Z0.400 F10800.000
;AFTER_LAYER_CHANGE
;0.4
M104 S250 ; set temperature
M140 S90 ; set bed temperature
G1 Z0.600
G1 X122.859 Y119.175
G1 Z0.400
G1 E1.40000 F2100.000
;TYPE:Skirt
;WIDTH:0.42
G1 F1407
G1 X118.226 Y116.511 E0.16758
G1 X117.707 Y116.054 E0.02167
G1 X117.318 Y115.483 E0.02167
G1 X117.084 Y114.832 E0.02167
G1 X117.019 Y114.144 E0.02167
G1 X121.583 Y92.288 E0.70006
M73 Q1 S29
G1 X121.831 Y91.786 E0.01758
G1 X122.176 Y91.343 E0.01758
G1 X122.604 Y90.980 E0.01758
G1 X123.096 Y90.711 E0.01758
G1 X123.949 Y90.504 E0.02752
G1 X125.840 Y90.496 E0.05931
G1 X126.707 Y90.637 E0.02752
G1 X127.481 Y91.041 E0.02739
G1 X128.090 Y91.667 E0.02739
G1 X128.474 Y92.457 E0.02752
G1 X132.925 Y113.675 E0.67977
G1 X132.981 Y114.319 E0.02026
G1 X132.879 Y114.978 E0.02090
G1 X132.624 Y115.590 E0.02078
G1 X132.227 Y116.126 E0.02090
G1 X131.717 Y116.548 E0.02078
G1 X127.121 Y119.185 E0.16612
G1 X126.398 Y119.388 E0.02358
G1 X124.912 Y119.503 E0.04671
G1 X123.549 Y119.381 E0.04293
G1 X122.917 Y119.192 E0.02068
G1 X123.023 Y118.833 F10800.000
G1 F1407
G1 X118.461 Y116.215 E0.16493
G1 X118.004 Y115.820 E0.01894
G1 X117.661 Y115.323 E0.01894
G1 X117.454 Y114.756 E0.01894
G1 X117.396 Y114.155 E0.01894
G1 X121.929 Y92.441 E0.69550
M73 P2 R29
M73 Q2 S29
G1 X122.146 Y91.993 E0.01562
G1 X122.455 Y91.597 E0.01574
G1 X122.837 Y91.278 E0.01562
G1 X123.277 Y91.044 E0.01562
G1 X124.006 Y90.878 E0.02343
G1 X125.840 Y90.873 E0.05751
G1 X126.592 Y90.996 E0.02390
G1 X127.267 Y91.352 E0.02390
G1 X127.794 Y91.902 E0.02390
G1 X128.120 Y92.591 E0.02390
G1 X132.556 Y113.752 E0.67791
G1 X132.604 Y114.309 E0.01752
G1 X132.514 Y114.883 E0.01823
G1 X132.288 Y115.418 E0.01823
G1 X131.941 Y115.880 E0.01811
G1 X131.489 Y116.247 E0.01823
G1 X126.980 Y118.835 E0.16301
G1 X126.339 Y119.016 E0.02088
G1 X124.922 Y119.126 E0.04458
G1 X123.618 Y119.010 E0.04104
G1 X123.081 Y118.850 E0.01757
;WIPE_START
G1 F8640.000
G1 X118.461 Y116.215 E-1.22807
G1 X118.127 Y115.926 E-0.10193
;WIPE_END
G1 E-0.07000 F2100.000
G1 Z0.600 F10800.000
G1 X120.504 Y113.925
G1 Z0.400
G1 E1.40000 F2100.000
M204 S800
;TYPE:Perimeter
;WIDTH:0.45
G1 F1407
G1 X124.796 Y97.330 E0.58017
G1 X124.796 Y93.882 E0.11672
G1 X125.204 Y93.882 E0.01382
G1 X125.204 Y97.330 E0.11672
G1 X129.496 Y113.925 E0.58017
G1 X125.826 Y116.043 E0.14343
G1 X125.000 Y116.116 E0.02807
G1 X124.174 Y116.043 E0.02807
G1 X120.556 Y113.955 E0.14140
M204 S1000
G1 X120.033 Y114.122 F10800.000
M204 S800
;TYPE:External perimeter
G1 F1407
G1 X124.389 Y97.279 E0.58890
G1 X124.389 Y93.475 E0.12875
G1 X125.611 Y93.475 E0.04137
G1 X125.611 Y97.279 E0.12875
G1 X129.967 Y114.122 E0.58890
G1 X125.951 Y116.441 E0.15696
G1 X125.000 Y116.524 E0.03233
G1 X124.049 Y116.441 E0.03233
G1 X120.085 Y114.152 E0.15493
M204 S1000
G1 X120.331 Y113.856 F10800.000
;WIPE_START
G1 F8640.000
G1 X121.508 Y108.571 E-1.33000
;WIPE_END
G1 E-0.07000 F2100.000
G1 Z0.600 F10800.000
G1 X124.592 Y98.607
G1 Z0.400
G1 E1.40000 F2100.000
;TYPE:Solid infill
;WIDTH:0.453942
G1 F1407
G1 X125.090 Y98.109 E0.02408
G1 X125.209 Y98.571 E0.01630
G1 X124.644 Y99.136 E0.02731
G1 X124.442 Y99.920 E0.02768
G1 X125.329 Y99.033 E0.04289
G1 X125.448 Y99.494 E0.01630
G1 X124.239 Y100.704 E0.05846
G1 X124.036 Y101.488 E0.02768
G1 X125.568 Y99.956 E0.07403
G1 X125.687 Y100.418 E0.01630
G1 X123.833 Y102.272 E0.08961
G1 X123.631 Y103.056 E0.02768
G1 X125.807 Y100.880 E0.10518
G1 X125.926 Y101.342 E0.01630
G1 X123.428 Y103.840 E0.12075
G1 X123.225 Y104.624 E0.02768
G1 X126.046 Y101.804 E0.13633
G1 X126.165 Y102.265 E0.01630
G1 X123.022 Y105.408 E0.15190
G1 X122.819 Y106.192 E0.02768
G1 X126.284 Y102.727 E0.16747
G1 X126.404 Y103.189 E0.01630
G1 X122.617 Y106.976 E0.18304
G1 X122.414 Y107.760 E0.02768
G1 X126.523 Y103.651 E0.19862
G1 X126.643 Y104.113 E0.01630
G1 X122.211 Y108.544 E0.21419
G1 X122.008 Y109.328 E0.02768
G1 X126.762 Y104.575 E0.22976
G1 X126.882 Y105.036 E0.01630
G1 X121.806 Y110.112 E0.24534
G1 X121.603 Y110.896 E0.02768
G1 X127.001 Y105.498 E0.26091
G1 X127.120 Y105.960 E0.01630
G1 X121.400 Y111.680 E0.27648
G1 X121.197 Y112.464 E0.02768
G1 X127.240 Y106.422 E0.29206
G1 X127.359 Y106.884 E0.01630
G1 X120.995 Y113.248 E0.30763
G1 X120.858 Y113.776 E0.01863
G1 X120.979 Y113.846 E0.00475
G1 X127.479 Y107.346 E0.31418
G1 X127.598 Y107.807 E0.01630
G1 X121.347 Y114.059 E0.30214
G1 X121.716 Y114.271 E0.01454
G1 X127.718 Y108.269 E0.29010
G1 X127.837 Y108.731 E0.01630
G1 X122.084 Y114.484 E0.27806
G1 X122.453 Y114.697 E0.01454
G1 X127.957 Y109.193 E0.26602
G1 X128.076 Y109.655 E0.01630
G1 X122.821 Y114.910 E0.25399
G1 X123.190 Y115.122 E0.01454
G1 X128.195 Y110.117 E0.24195
G1 X128.315 Y110.578 E0.01630
G1 X123.558 Y115.335 E0.22991
G1 X123.927 Y115.548 E0.01454
G1 X128.434 Y111.040 E0.21787
G1 X128.554 Y111.502 E0.01630
G1 X124.307 Y115.748 E0.20524
G1 X124.842 Y115.795 E0.01834
G1 X128.673 Y111.964 E0.18518
G1 X128.793 Y112.426 E0.01630
G1 X125.449 Y115.770 E0.16163
G1 X125.732 Y115.745 E0.00972
G1 X126.495 Y115.304 E0.03013
G1 X128.912 Y112.888 E0.11681
G1 X129.032 Y113.349 E0.01630
G1 X127.370 Y115.011 E0.08030
;LAYER_CHANGE
;Z:0.6
;HEIGHT:0.2
;BEFORE_LAYER_CHANGE
G92 E0.0
;0.6


;WIPE_START
G1 F8640.000
G1 X129.032 Y113.349 E-0.54249
G1 X128.912 Y112.888 E-0.11015
G1 X126.838 Y114.962 E-0.67736
;WIPE_END
G1 E-0.07000 F2100.000
G1 Z0.600 F10800.000
;AFTER_LAYER_CHANGE
;0.6
G1 Z0.800
G1 X127.121 Y119.185
G1 Z0.600
G1 E1.40000 F2100.000
;TYPE:Skirt
;WIDTH:0.42
G1 F1415
G1 X126.398 Y119.388 E0.02358
G1 X124.912 Y119.503 E0.04671
G1 X123.549 Y119.381 E0.04293
G1 X122.859 Y119.175 E0.02256
M73 Q3 S29
G1 X118.226 Y116.511 E0.16758
G1 X117.707 Y116.054 E0.02167
G1 X117.318 Y115.483 E0.02167
M73 P3 R29
G1 X117.084 Y114.832 E0.02167
G1 X117.019 Y114.144 E0.02167
G1 X121.583 Y92.288 E0.70006
G1 X121.831 Y91.786 E0.01758
G1 X122.176 Y91.343 E0.01758
G1 X122.604 Y90.980 E0.01758
G1 X123.096 Y90.711 E0.01758
G1 X123.949 Y90.504 E0.02752
G1 X125.840 Y90.496 E0.05931
G1 X126.707 Y90.637 E0.02752
G1 X127.481 Y91.041 E0.02739
G1 X128.090 Y91.667 E0.02739
G1 X128.474 Y92.457 E0.02752
G1 X132.925 Y113.675 E0.67977
G1 X132.981 Y114.319 E0.02026
G1 X132.879 Y114.978 E0.02090
G1 X132.624 Y115.590 E0.02078
G1 X132.227 Y116.126 E0.02090
G1 X131.717 Y116.548 E0.02078
G1 X127.173 Y119.155 E0.16424
G1 X126.987 Y118.831 F10800.000
G1 F1415
G1 X126.339 Y119.016 E0.02113
G1 X124.922 Y119.126 E0.04458
G1 X123.618 Y119.010 E0.04104
G1 X123.007 Y118.828 E0.02000
G1 X118.461 Y116.215 E0.16439
G1 X118.004 Y115.820 E0.01894
G1 X117.661 Y115.323 E0.01894
G1 X117.454 Y114.756 E0.01894
G1 X117.396 Y114.155 E0.01894
G1 X121.929 Y92.441 E0.69550
G1 X122.146 Y91.993 E0.01562
G1 X122.455 Y91.597 E0.01574
G1 X122.837 Y91.278 E0.01562
G1 X123.277 Y91.044 E0.01562
G1 X124.006 Y90.878 E0.02343
G1 X125.840 Y90.873 E0.05751
G1 X126.592 Y90.996 E0.02390
G1 X127.267 Y91.352 E0.02390
G1 X127.794 Y91.902 E0.02390
G1 X128.120 Y92.591 E0.02390
G1 X132.556 Y113.752 E0.67791
G1 X132.604 Y114.309 E0.01752
G1 X132.514 Y114.883 E0.01823
G1 X132.288 Y115.418 E0.01823
G1 X131.941 Y115.880 E0.01811
G1 X131.489 Y116.247 E0.01823
G1 X127.039 Y118.801 E0.16087
;WIPE_START
G1 F8640.000
G1 X126.339 Y119.016 E-0.16911
G1 X124.922 Y119.126 E-0.32831
G1 X123.618 Y119.010 E-0.30222
G1 X123.007 Y118.828 E-0.14731
G1 X121.568 Y118.001 E-0.38305
;WIPE_END
G1 E-0.07000 F2100.000
G1 Z0.800 F10800.000
G1 X129.496 Y113.925
G1 Z0.600
G1 E1.40000 F2100.000
M204 S800
;TYPE:Perimeter
;WIDTH:0.45
G1 F1415
G1 X125.826 Y116.043 E0.14343
G1 X125.000 Y116.116 E0.02807
G1 X124.174 Y116.043 E0.02807
G1 X120.504 Y113.925 E0.14343
G1 X124.796 Y97.330 E0.58017
G1 X124.796 Y93.882 E0.11672
G1 X125.204 Y93.882 E0.01382
G1 X125.204 Y97.330 E0.11672
G1 X129.481 Y113.866 E0.57814
M204 S1000
G1 X129.967 Y114.122 F10800.000
M204 S800
;TYPE:External perimeter
G1 F1415
G1 X125.951 Y116.441 E0.15696
G1 X125.000 Y116.524 E0.03233
G1 X124.049 Y116.441 E0.03233
G1 X120.033 Y114.122 E0.15696
G1 X124.389 Y97.279 E0.58890
G1 X124.389 Y93.475 E0.12875
G1 X125.611 Y93.475 E0.04137
G1 X125.611 Y97.279 E0.12875
G1 X129.952 Y114.064 E0.58687
M204 S1000
G1 X129.569 Y114.080 F10800.000
;WIPE_START
G1 F8640.000
G1 X125.951 Y116.441 E-1.07451
G1 X125.000 Y116.524 E-0.22052
G1 X124.849 Y116.511 E-0.03498
;WIPE_END
G1 E-0.07000 F2100.000
G1 Z0.800 F10800.000
G1 X125.408 Y98.607
G1 Z0.600
G1 E1.40000 F2100.000
;TYPE:Solid infill
;WIDTH:0.453942
G1 F1415
G1 X124.910 Y98.109 E0.02408
G1 X124.790 Y98.571 E0.01630
G1 X125.356 Y99.136 E0.02732
G1 X125.558 Y99.920 E0.02768
G1 X124.671 Y99.033 E0.04289
G1 X124.552 Y99.494 E0.01630
G1 X125.761 Y100.704 E0.05846
G1 X125.964 Y101.488 E0.02768
G1 X124.432 Y99.956 E0.07404
G1 X124.313 Y100.418 E0.01630
G1 X126.167 Y102.272 E0.08961
G1 X126.370 Y103.056 E0.02768
G1 X124.193 Y100.880 E0.10518
G1 X124.074 Y101.342 E0.01630
G1 X126.572 Y103.840 E0.12076
G1 X126.775 Y104.624 E0.02768
G1 X123.954 Y101.804 E0.13633
G1 X123.835 Y102.265 E0.01630
G1 X126.978 Y105.408 E0.15190
G1 X127.181 Y106.192 E0.02768
G1 X123.716 Y102.727 E0.16748
