; generated by PrusaSlicer 2.3.0+win64 on 2021-07-19 at 05:31:00 UTC

; 

; external perimeters extrusion width = 0.45mm
; perimeters extrusion width = 0.45mm
; infill extrusion width = 0.45mm
; solid infill extrusion width = 0.45mm
; top infill extrusion width = 0.40mm
; support material extrusion width = 0.35mm
; first layer extrusion width = 0.42mm

M73 P0 R34
M73 Q0 S35
M201 X1000 Y1000 Z200 E5000 ; sets maximum accelerations, mm/sec^2
M203 X200 Y200 Z12 E120 ; sets maximum feedrates, mm/sec
M204 P1250 R1250 T1250 ; sets acceleration (P, T) and retract acceleration (R), mm/sec^2
M205 X8.00 Y8.00 Z0.40 E4.50 ; sets the jerk limits, mm/sec
M205 S0 T0 ; sets the minimum extruding and travel feed rate, mm/sec
M107
;TYPE:Custom
M862.3 P "MK3S" ; printer model check
M862.1 P0.4 ; nozzle diameter check
M115 U3.9.1 ; tell printer latest fw version
G90 ; use absolute coordinates
M83 ; extruder relative mode
M104 S240 ; set extruder temp
M140 S85 ; set bed temp
M190 S85 ; wait for bed temp
M109 S240 ; wait for extruder temp
G28 W ; home all without mesh bed level
G80 ; mesh bed leveling
G1 Y-3.0 F1000.0 ; go outside print area
G92 E0.0
G1 X60.0 E9.0 F1000.0 ; intro line
G1 X100.0 E12.5 F1000.0 ; intro line
G92 E0.0
M221 S95

; Don't change E values below. Excessive value can damage the printer.

M907 E538 ; set extruder motor current
G21 ; set units to millimeters
G90 ; use absolute coordinates
M83 ; use relative distances for extrusion
M900 K0.08 ; Filament gcode LA 1.5
M900 K45 ; Filament gcode LA 1.0
;LAYER_CHANGE
;Z:0.2
;HEIGHT:0.2
;BEFORE_LAYER_CHANGE
G92 E0.0
;0.2


G1 E-1.40000 F2100.000
G1 Z0.200 F10800.000
;AFTER_LAYER_CHANGE
;0.2
G1 Z0.400
G1 X106.227 Y77.752
M73 Q0 S34
G1 Z0.200
G1 E1.40000 F2100.000
M204 S1000
;TYPE:Skirt
;WIDTH:0.42
G1 F1200.000
G1 X106.593 Y77.295 E0.01835
G1 X107.060 Y76.942 E0.01835
G1 X107.598 Y76.714 E0.01835
G1 X108.177 Y76.624 E0.01835
G1 X141.752 Y76.623 E1.05275
G1 X142.640 Y76.797 E0.02837
G1 X143.402 Y77.292 E0.02849
G1 X143.920 Y78.034 E0.02837
G1 X144.124 Y78.915 E0.02837
G1 X144.127 Y131.015 E1.63356
G1 X144.034 Y131.658 E0.02036
G1 X143.773 Y132.248 E0.02024
G1 X143.404 Y132.707 E0.01846
G1 X142.930 Y133.063 E0.01858
G1 X142.383 Y133.291 E0.01858
G1 X141.801 Y133.377 E0.01846
G1 X108.227 Y133.377 E1.05267
G1 X107.592 Y133.284 E0.02012
G1 X107.002 Y133.023 E0.02024
G1 X106.538 Y132.649 E0.01870
G1 X106.183 Y132.174 E0.01858
G1 X105.956 Y131.622 E0.01870
G1 X105.873 Y131.032 E0.01870
G1 X105.873 Y78.985 E1.63189
G1 X105.966 Y78.342 E0.02036
G1 X106.203 Y77.807 E0.01836
;WIPE_START
G1 F8640.000
G1 X106.593 Y77.295 E-0.14853
G1 X107.060 Y76.942 E-0.13510
G1 X107.598 Y76.714 E-0.13510
G1 X108.177 Y76.624 E-0.13510
G1 X111.538 Y76.624 E-0.77616
;WIPE_END
G1 E-0.07000 F2100.000
G1 Z0.400 F10800.000
G1 X115.950 Y90.481
G1 Z0.200
G1 E1.40000 F2100.000
;TYPE:Support material
G1 F1200.000
G1 X115.950 Y88.807 E0.05250
G1 X115.196 Y88.807 E0.02365
G1 X115.196 Y90.311 E0.04718
G1 X114.442 Y90.311 E0.02365
G1 X114.442 Y88.807 E0.04718
G1 X113.688 Y88.807 E0.02365
G1 X113.688 Y121.363 E1.02078
G1 X114.442 Y119.519 F10800.000
G1 F1200.000
G1 X114.442 Y121.193 E0.05250
G1 X115.196 Y121.193 E0.02365
G1 X115.196 Y119.689 E0.04718
G1 X115.950 Y119.689 E0.02365
G1 X115.950 Y121.363 E0.05250
;WIPE_START
G1 F8640.000
G1 X115.950 Y119.689 E-0.38662
G1 X115.196 Y119.689 E-0.17414
G1 X115.196 Y121.193 E-0.34744
G1 X114.442 Y121.193 E-0.17414
G1 X114.442 Y120.121 E-0.24767
;WIPE_END
G1 E-0.07000 F2100.000
G1 Z0.400 F10800.000
G1 X120.475 Y119.874
G1 Z0.200
G1 E1.40000 F2100.000
G1 F1200.000
G1 X120.475 Y119.519 E0.01113
;WIPE_START
G1 F8640.000
G1 X120.475 Y119.874 E-0.08195
;WIPE_END
G1 E-1.31805 F2100.000
G1 Z0.400 F10800.000
G1 X125.000 Y121.363
G1 Z0.200
G1 E1.40000 F2100.000
G1 F1200.000
G1 X125.000 Y119.689 E0.05250
M73 Q1 S34
G1 X125.754 Y119.689 E0.02365
G1 X125.754 Y121.193 E0.04718
G1 X126.508 Y121.193 E0.02365
G1 X126.508 Y119.689 E0.04718
M73 P1 R34
G1 X127.242 Y119.689 E0.02301
G1 X127.262 Y119.668 E0.00089
G1 X127.262 Y121.363 E0.05313
G1 X128.017 Y121.363 F10800.000
G1 F1200.000
G1 X128.017 Y88.807 E1.02078
G1 X127.262 Y88.807 E0.02365
G1 X127.262 Y90.332 E0.04781
G1 X127.242 Y90.311 E0.00089
G1 X126.508 Y90.311 E0.02301
G1 X126.508 Y88.807 E0.04718
G1 X125.754 Y88.807 E0.02365
G1 X125.754 Y90.311 E0.04718
G1 X125.000 Y90.311 E0.02365
G1 X125.000 Y88.637 E0.05250
;WIPE_START
G1 F8640.000
G1 X125.000 Y90.311 E-0.38662
G1 X125.754 Y90.311 E-0.17414
G1 X125.754 Y88.807 E-0.34744
G1 X126.508 Y88.807 E-0.17414
G1 X126.508 Y89.879 E-0.24766
;WIPE_END
G1 E-0.07000 F2100.000
G1 Z0.400 F10800.000
G1 X120.475 Y90.126
G1 Z0.200
G1 E1.40000 F2100.000
G1 F1200.000
G1 X120.475 Y90.481 E0.01113
;WIPE_START
G1 F8640.000
G1 X120.475 Y90.126 E-0.08195
;WIPE_END
G1 E-1.31805 F2100.000
G1 Z0.400 F10800.000
G1 X114.442 Y114.981
G1 Z0.200
G1 E1.40000 F2100.000
G1 F1200.000
G1 X114.442 Y95.189 E0.62057
G1 X115.196 Y95.188 E0.02365
G1 X115.196 Y114.812 E0.61529
G1 X115.950 Y114.812 E0.02365
G1 X115.950 Y95.188 E0.61533
G1 X116.704 Y95.187 E0.02365
G1 X116.704 Y114.813 E0.61537
G1 X117.458 Y114.814 E0.02365
G1 X117.458 Y95.186 E0.61541
G1 X118.213 Y95.186 E0.02365
G1 X118.213 Y114.814 E0.61545
G1 X118.967 Y114.815 E0.02365
G1 X118.967 Y95.185 E0.61549
G1 X119.721 Y95.184 E0.02365
G1 X119.721 Y114.816 E0.61553
G1 X120.029 Y114.816 E0.00965
G1 X120.475 Y115.399 E0.02303
G1 X120.475 Y94.601 E0.65212
G1 X120.741 Y94.253 E0.01374
G1 X120.545 Y93.491 E0.02466
G1 X120.565 Y93.411 E0.00261
G1 X120.616 Y93.345 E0.00261
G1 X120.688 Y93.304 E0.00260
G1 X120.771 Y93.296 E0.00261
G1 X120.850 Y93.321 E0.00260
G1 X120.913 Y93.375 E0.00261
G1 X120.955 Y93.491 E0.00387
G1 X120.757 Y94.257 E0.02479
G1 X121.229 Y94.873 E0.02434
G1 X121.229 Y115.132 E0.63522
G1 X121.471 Y114.816 E0.01250
G1 X121.983 Y114.816 E0.01605
G1 X121.983 Y95.189 E0.61539
G1 X122.738 Y95.189 E0.02365
G1 X122.738 Y114.815 E0.61537
G1 X123.492 Y114.814 E0.02365
G1 X123.492 Y95.189 E0.61535
G1 X124.246 Y95.189 E0.02365
G1 X124.246 Y114.814 E0.61533
G1 X125.000 Y114.813 E0.02365
G1 X125.000 Y95.189 E0.61531
G1 X125.754 Y95.189 E0.02365
G1 X125.754 Y114.812 E0.61529
G1 X126.508 Y114.812 E0.02365
G1 X126.508 Y95.189 E0.61527
M73 P2 R34
M73 Q2 S34
G1 X127.242 Y95.189 E0.02301
G1 X127.262 Y95.168 E0.00089
G1 X127.262 Y115.072 E0.62406
;WIPE_START
G1 F8640.000
G1 X127.262 Y109.312 E-1.33000
;WIPE_END
G1 E-0.07000 F2100.000
G1 Z0.400 F10800.000
G1 X111.463 Y84.713
G1 Z0.200
G1 E1.40000 F2100.000
;TYPE:Perimeter
G1 F1200.000
G1 X130.037 Y84.713 E0.58238
G1 X130.037 Y125.287 E1.27217
G1 X111.463 Y125.287 E0.58238
G1 X111.463 Y84.773 E1.27029
G1 X111.840 Y85.090 F10800.000
;TYPE:External perimeter
G1 F1200.000
G1 X129.660 Y85.090 E0.55873
G1 X129.660 Y124.910 E1.24853
G1 X111.840 Y124.910 E0.55873
G1 X111.840 Y85.150 E1.24665
M73 P2 R33
G1 X111.784 Y84.694 F10800.000
;WIPE_START
G1 F8640.000
G1 X117.600 Y85.131 E-1.33000
;WIPE_END
G1 E-0.07000 F2100.000
G1 Z0.400 F10800.000
G1 X132.463 Y84.713
G1 Z0.200
G1 E1.40000 F2100.000
;TYPE:Perimeter
G1 F1200.000
G1 X132.463 Y125.287 E1.27217
G1 X140.963 Y125.287 E0.26651
G1 X140.963 Y130.213 E0.15445
G1 X109.037 Y130.213 E1.00101
G1 X109.037 Y79.787 E1.58107
M73 P3 R33
M73 Q3 S34
G1 X140.962 Y79.787 E1.00097
G1 X140.962 Y84.713 E0.15445
G1 X132.523 Y84.713 E0.26459
G1 X132.840 Y85.090 F10800.000
;TYPE:External perimeter
G1 F1200.000
G1 X132.840 Y124.910 E1.24853
M73 Q3 S33
G1 X141.340 Y124.910 E0.26651
G1 X141.340 Y130.590 E0.17809
G1 X108.660 Y130.590 E1.02466
G1 X108.660 Y79.410 E1.60471
G1 X141.339 Y79.410 E1.02462
G1 X141.339 Y85.090 E0.17809
G1 X132.900 Y85.090 E0.26459
G1 X132.448 Y85.168 F10800.000
;WIPE_START
G1 F8640.000
G1 X132.891 Y90.850 E-1.33000
;WIPE_END
G1 E-0.07000 F2100.000
G1 Z0.400 F10800.000
G1 X140.848 Y80.666
G1 Z0.200
G1 E1.40000 F2100.000
;TYPE:Solid infill
;WIDTH:0.421768
G1 F1200.000
G1 X140.252 Y80.070 E0.02657
G1 X139.716 Y80.070 E0.01688
G1 X140.679 Y81.032 E0.04288
G1 X140.679 Y81.568 E0.01688
G1 X139.181 Y80.070 E0.06674
G1 X138.645 Y80.070 E0.01688
G1 X140.679 Y82.104 E0.09061
G1 X140.679 Y82.640 E0.01688
G1 X138.109 Y80.070 E0.11448
G1 X137.573 Y80.070 E0.01688
G1 X140.679 Y83.175 E0.13835
G1 X140.679 Y83.711 E0.01688
G1 X137.037 Y80.070 E0.16222
G1 X136.502 Y80.070 E0.01688
G1 X140.679 Y84.247 E0.18609
G1 X140.679 Y84.430 E0.00577
G1 X140.326 Y84.430 E0.01111
G1 X135.966 Y80.070 E0.19425
G1 X135.430 Y80.070 E0.01688
G1 X139.790 Y84.430 E0.19425
G1 X139.255 Y84.430 E0.01688
G1 X134.894 Y80.070 E0.19425
G1 X134.359 Y80.070 E0.01688
G1 X138.719 Y84.430 E0.19425
G1 X138.183 Y84.430 E0.01688
G1 X133.823 Y80.070 E0.19425
G1 X133.287 Y80.070 E0.01688
G1 X137.647 Y84.430 E0.19425
G1 X137.112 Y84.430 E0.01688
G1 X132.751 Y80.070 E0.19425
G1 X132.216 Y80.070 E0.01688
G1 X136.576 Y84.430 E0.19425
G1 X136.040 Y84.430 E0.01688
G1 X131.680 Y80.070 E0.19425
G1 X131.144 Y80.070 E0.01688
G1 X135.504 Y84.430 E0.19425
G1 X134.968 Y84.430 E0.01688
G1 X130.608 Y80.070 E0.19425
G1 X130.072 Y80.070 E0.01688
G1 X134.433 Y84.430 E0.19425
G1 X133.897 Y84.430 E0.01688
G1 X129.537 Y80.070 E0.19425
G1 X129.001 Y80.070 E0.01688
G1 X133.361 Y84.430 E0.19425
G1 X132.825 Y84.430 E0.01688
G1 X128.465 Y80.070 E0.19425
G1 X127.929 Y80.070 E0.01688
G1 X132.290 Y84.430 E0.19425
G1 X132.180 Y84.430 E0.00345
G1 X132.180 Y84.856 E0.01343
G1 X127.394 Y80.070 E0.21324
G1 X126.858 Y80.070 E0.01688
G1 X132.180 Y85.392 E0.23711
M73 P4 R33
M73 Q4 S33
G1 X132.180 Y85.928 E0.01688
G1 X126.322 Y80.070 E0.26097
G1 X125.786 Y80.070 E0.01688
G1 X132.180 Y86.464 E0.28484
G1 X132.180 Y86.999 E0.01688
G1 X130.320 Y85.139 E0.08287
G1 X130.320 Y85.675 E0.01688
G1 X132.180 Y87.535 E0.08287
G1 X132.180 Y88.071 E0.01688
G1 X130.320 Y86.211 E0.08287
G1 X130.320 Y86.747 E0.01688
G1 X132.180 Y88.607 E0.08287
G1 X132.180 Y89.143 E0.01688
G1 X130.320 Y87.282 E0.08287
G1 X130.320 Y87.818 E0.01688
G1 X132.180 Y89.678 E0.08287
G1 X132.180 Y90.214 E0.01688
G1 X130.320 Y88.354 E0.08287
G1 X130.320 Y88.890 E0.01688
G1 X132.180 Y90.750 E0.08287
G1 X132.180 Y91.286 E0.01688
G1 X130.320 Y89.425 E0.08287
G1 X130.320 Y89.961 E0.01688
G1 X132.180 Y91.821 E0.08287
G1 X132.180 Y92.357 E0.01688
G1 X130.320 Y90.497 E0.08287
G1 X130.320 Y91.033 E0.01688
G1 X132.180 Y92.893 E0.08287
G1 X132.180 Y93.429 E0.01688
G1 X130.320 Y91.569 E0.08287
G1 X130.320 Y92.104 E0.01688
G1 X132.180 Y93.965 E0.08287
G1 X132.180 Y94.500 E0.01688
G1 X130.320 Y92.640 E0.08287
G1 X130.320 Y93.176 E0.01688
G1 X132.180 Y95.036 E0.08287
G1 X132.180 Y95.572 E0.01688
G1 X130.320 Y93.712 E0.08287
G1 X130.320 Y94.247 E0.01688
G1 X132.180 Y96.108 E0.08287
G1 X132.180 Y96.643 E0.01688
G1 X130.320 Y94.783 E0.08287
G1 X130.320 Y95.319 E0.01688
G1 X132.180 Y97.179 E0.08287
G1 X132.180 Y97.715 E0.01688
G1 X130.320 Y95.855 E0.08287
G1 X130.320 Y96.390 E0.01688
G1 X132.180 Y98.251 E0.08287
G1 X132.180 Y98.786 E0.01688
G1 X130.320 Y96.926 E0.08287
G1 X130.320 Y97.462 E0.01688
G1 X132.180 Y99.322 E0.08287
G1 X132.180 Y99.858 E0.01688
G1 X130.320 Y97.998 E0.08287
G1 X130.320 Y98.534 E0.01688
G1 X132.180 Y100.394 E0.08287
G1 X132.180 Y100.930 E0.01688
G1 X130.320 Y99.069 E0.08287
G1 X130.320 Y99.605 E0.01688
G1 X132.180 Y101.465 E0.08287
G1 X132.180 Y102.001 E0.01688
G1 X130.320 Y100.141 E0.08287
G1 X130.320 Y100.677 E0.01688
G1 X132.180 Y102.537 E0.08287
G1 X132.180 Y103.073 E0.01688
G1 X130.320 Y101.212 E0.08287
G1 X130.320 Y101.748 E0.01688
G1 X132.180 Y103.608 E0.08287
G1 X132.180 Y104.144 E0.01688
G1 X130.320 Y102.284 E0.08287
G1 X130.320 Y102.820 E0.01688
G1 X132.180 Y104.680 E0.08287
G1 X132.180 Y105.216 E0.01688
G1 X130.320 Y103.355 E0.08287
G1 X130.320 Y103.891 E0.01688
G1 X132.180 Y105.752 E0.08287
G1 X132.180 Y106.287 E0.01688
G1 X130.320 Y104.427 E0.08287
G1 X130.320 Y104.963 E0.01688
G1 X132.180 Y106.823 E0.08287
G1 X132.180 Y107.359 E0.01688
G1 X130.320 Y105.499 E0.08287
G1 X130.320 Y106.034 E0.01688
G1 X132.180 Y107.895 E0.08287
G1 X132.180 Y108.430 E0.01688
G1 X130.320 Y106.570 E0.08287
G1 X130.320 Y107.106 E0.01688
G1 X132.180 Y108.966 E0.08287
G1 X132.180 Y109.502 E0.01688
G1 X130.320 Y107.642 E0.08287
G1 X130.320 Y108.177 E0.01688
G1 X132.180 Y110.038 E0.08287
G1 X132.180 Y110.573 E0.01688
G1 X130.320 Y108.713 E0.08287
G1 X130.320 Y109.249 E0.01688
G1 X132.180 Y111.109 E0.08287
G1 X132.180 Y111.645 E0.01688
G1 X130.320 Y109.785 E0.08287
G1 X130.320 Y110.321 E0.01688
G1 X132.180 Y112.181 E0.08287
G1 X132.180 Y112.717 E0.01688
G1 X130.320 Y110.856 E0.08287
G1 X130.320 Y111.392 E0.01688
G1 X132.180 Y113.252 E0.08287
G1 X132.180 Y113.788 E0.01688
G1 X130.320 Y111.928 E0.08287
G1 X130.320 Y112.464 E0.01688
G1 X132.180 Y114.324 E0.08287
G1 X132.180 Y114.860 E0.01688
G1 X130.320 Y112.999 E0.08287
G1 X130.320 Y113.535 E0.01688
G1 X132.180 Y115.395 E0.08287
G1 X132.180 Y115.931 E0.01688
G1 X130.320 Y114.071 E0.08287
G1 X130.320 Y114.607 E0.01688
G1 X132.180 Y116.467 E0.08287
G1 X132.180 Y117.003 E0.01688
G1 X130.320 Y115.142 E0.08287
G1 X130.320 Y115.678 E0.01688
G1 X132.180 Y117.538 E0.08287
G1 X132.180 Y118.074 E0.01688
G1 X130.320 Y116.214 E0.08287
G1 X130.320 Y116.750 E0.01688
G1 X132.180 Y118.610 E0.08287
G1 X132.180 Y119.146 E0.01688
G1 X130.320 Y117.286 E0.08287
G1 X130.320 Y117.821 E0.01688
G1 X132.180 Y119.682 E0.08287
G1 X132.180 Y120.217 E0.01688
G1 X130.320 Y118.357 E0.08287
G1 X130.320 Y118.893 E0.01688
G1 X132.180 Y120.753 E0.08287
G1 X132.180 Y121.289 E0.01688
G1 X130.320 Y119.429 E0.08287
G1 X130.320 Y119.964 E0.01688
G1 X132.180 Y121.825 E0.08287
G1 X132.180 Y122.360 E0.01688
G1 X130.320 Y120.500 E0.08287
G1 X130.320 Y121.036 E0.01688
G1 X132.180 Y122.896 E0.08287
G1 X132.180 Y123.432 E0.01688
G1 X130.320 Y121.572 E0.08287
G1 X130.320 Y122.108 E0.01688
G1 X132.180 Y123.968 E0.08287
G1 X132.180 Y124.504 E0.01688
G1 X130.150 Y122.474 E0.09043
;WIPE_START
G1 F8640.000
G1 X132.180 Y124.504 E-0.66287
G1 X132.180 Y123.968 E-0.12371
G1 X130.516 Y122.304 E-0.54342
;WIPE_END
G1 E-0.07000 F2100.000
G1 Z0.400 F10800.000
G1 X140.850 Y126.208
G1 Z0.200
G1 E1.40000 F2100.000
G1 F1200.000
G1 X140.211 Y125.570 E0.02844
G1 X139.676 Y125.570 E0.01688
G1 X140.680 Y126.574 E0.04475
G1 X140.680 Y127.110 E0.01688
G1 X139.140 Y125.570 E0.06861
G1 X138.604 Y125.570 E0.01688
G1 X140.680 Y127.646 E0.09248
G1 X140.680 Y128.182 E0.01688
G1 X138.068 Y125.570 E0.11635
G1 X137.533 Y125.570 E0.01688
G1 X140.680 Y128.717 E0.14022
G1 X140.680 Y129.253 E0.01688
G1 X136.997 Y125.570 E0.16409
G1 X136.461 Y125.570 E0.01688
G1 X140.680 Y129.789 E0.18796
G1 X140.680 Y129.930 E0.00445
G1 X140.286 Y129.930 E0.01243
G1 X135.925 Y125.570 E0.19425
G1 X135.390 Y125.570 E0.01688
G1 X139.750 Y129.930 E0.19425
G1 X139.214 Y129.930 E0.01688
G1 X134.854 Y125.570 E0.19425
G1 X134.318 Y125.570 E0.01688
G1 X138.678 Y129.930 E0.19425
G1 X138.142 Y129.930 E0.01688
G1 X133.782 Y125.570 E0.19425
G1 X133.246 Y125.570 E0.01688
G1 X137.607 Y129.930 E0.19425
G1 X137.071 Y129.930 E0.01688
G1 X132.711 Y125.570 E0.19425
G1 X132.180 Y125.570 E0.01671
G1 X132.180 Y125.039 E0.01671
G1 X130.320 Y123.179 E0.08287
G1 X130.320 Y123.715 E0.01688
G1 X136.535 Y129.930 E0.27689
G1 X135.999 Y129.930 E0.01688
G1 X130.320 Y124.251 E0.25302
G1 X130.320 Y124.786 E0.01688
G1 X135.464 Y129.930 E0.22915
G1 X134.928 Y129.930 E0.01688
G1 X130.320 Y125.322 E0.20528
G1 X130.320 Y125.570 E0.00780
G1 X130.032 Y125.570 E0.00907
G1 X134.392 Y129.930 E0.19425
G1 X133.856 Y129.930 E0.01688
G1 X129.496 Y125.570 E0.19425
G1 X128.960 Y125.570 E0.01688
G1 X133.321 Y129.930 E0.19425
M73 P5 R33
M73 Q5 S33
G1 X132.785 Y129.930 E0.01688
G1 X128.425 Y125.570 E0.19425
G1 X127.889 Y125.570 E0.01688
G1 X132.249 Y129.930 E0.19425
G1 X131.713 Y129.930 E0.01688
G1 X127.353 Y125.570 E0.19425
G1 X126.817 Y125.570 E0.01688
G1 X131.177 Y129.930 E0.19425
G1 X130.642 Y129.930 E0.01688
G1 X126.281 Y125.570 E0.19425
G1 X125.746 Y125.570 E0.01688
G1 X130.106 Y129.930 E0.19425
G1 X129.570 Y129.930 E0.01688
G1 X125.210 Y125.570 E0.19425
G1 X124.674 Y125.570 E0.01688
G1 X129.034 Y129.930 E0.19425
G1 X128.499 Y129.930 E0.01688
G1 X124.138 Y125.570 E0.19425
G1 X123.603 Y125.570 E0.01688
