; generated by PrusaSlicer 2.3.0+win64 on 2021-07-17 at 01:08:10 UTC

; 

; external perimeters extrusion width = 0.60mm
; perimeters extrusion width = 0.50mm
; infill extrusion width = 0.50mm
; solid infill extrusion width = 0.50mm
; top infill extrusion width = 0.45mm
; first layer extrusion width = 0.42mm

M73 P0 R6
M73 Q0 S6
M201 X1000 Y1000 Z200 E5000 ; sets maximum accelerations, mm/sec^2
M203 X200 Y200 Z12 E120 ; sets maximum feedrates, mm/sec
M204 P1250 R1250 T1250 ; sets acceleration (P, T) and retract acceleration (R), mm/sec^2
M205 X8.00 Y8.00 Z0.40 E4.50 ; sets the jerk limits, mm/sec
M205 S0 T0 ; sets the minimum extruding and travel feed rate, mm/sec
M107
;TYPE:Custom
M862.3 P "MK3S" ; printer model check
M862.1 P0.4 ; nozzle diameter check
M115 U3.9.1 ; tell printer latest fw version
G90 ; use absolute coordinates
M83 ; extruder relative mode
M104 S240 ; set extruder temp
M140 S85 ; set bed temp
M190 S85 ; wait for bed temp
M109 S240 ; wait for extruder temp
G28 W ; home all without mesh bed level
G80 ; mesh bed leveling
G1 Y-3.0 F1000.0 ; go outside print area
G92 E0.0
G1 X60.0 E9.0 F1000.0 ; intro line
M73 P1 R6
M73 Q1 S6
G1 X100.0 E12.5 F1000.0 ; intro line
G92 E0.0
M221 S95

; Don't change E values below. Excessive value can damage the printer.

M907 E538 ; set extruder motor current
G21 ; set units to millimeters
G90 ; use absolute coordinates
M83 ; use relative distances for extrusion
M900 K0.08 ; Filament gcode LA 1.5
M900 K45 ; Filament gcode LA 1.0
;LAYER_CHANGE
;Z:0.2
;HEIGHT:0.2
;BEFORE_LAYER_CHANGE
G92 E0.0
;0.2


G1 E-1.40000 F2100.000
G1 Z0.200 F10800.000
;AFTER_LAYER_CHANGE
;0.2
G1 Z0.400
G1 X116.445 Y90.472
M73 P2 R6
M73 Q2 S6
G1 Z0.200
G1 E1.40000 F2100.000
M204 S1000
;TYPE:Skirt
;WIDTH:0.42
G1 F1200.000
G1 X116.808 Y89.832 E0.02307
G1 X117.328 Y89.311 E0.02307
G1 X117.964 Y88.948 E0.02294
G1 X118.676 Y88.765 E0.02307
G1 X131.004 Y88.746 E0.38654
G1 X132.005 Y88.936 E0.03195
G1 X132.869 Y89.477 E0.03195
G1 X133.475 Y90.291 E0.03183
G1 X133.745 Y91.274 E0.03195
G1 X133.754 Y118.516 E0.85417
G1 X133.555 Y119.528 E0.03233
G1 X133.182 Y120.181 E0.02358
G1 X132.649 Y120.706 E0.02345
G1 X131.995 Y121.068 E0.02345
G1 X131.267 Y121.241 E0.02345
G1 X118.963 Y121.254 E0.38577
M73 Q3 S6
G1 X117.972 Y121.055 E0.03170
M73 P3 R6
G1 X117.293 Y120.661 E0.02460
G1 X116.755 Y120.096 E0.02447
G1 X116.398 Y119.402 E0.02447
G1 X116.249 Y118.636 E0.02447
G1 X116.246 Y91.480 E0.85147
G1 X116.433 Y90.531 E0.03032
G1 X116.799 Y90.604 F10800.000
G1 F1200.000
G1 X117.118 Y90.048 E0.02008
G1 X117.572 Y89.600 E0.02000
G1 X118.132 Y89.287 E0.02012
G1 X118.752 Y89.136 E0.02000
G1 X131.004 Y89.123 E0.38415
G1 X131.871 Y89.288 E0.02767
G1 X132.620 Y89.761 E0.02778
G1 X133.143 Y90.471 E0.02767
G1 X133.371 Y91.328 E0.02778
G1 X133.377 Y118.515 E0.85245
M73 P4 R5
M73 Q4 S6
G1 X133.201 Y119.399 E0.02825
G1 X132.873 Y119.964 E0.02048
G1 X132.407 Y120.416 E0.02036
G1 X131.836 Y120.725 E0.02036
G1 X131.203 Y120.868 E0.02036
G1 X118.970 Y120.877 E0.38356
G1 X118.101 Y120.701 E0.02778
G1 X117.521 Y120.361 E0.02107
G1 X117.057 Y119.870 E0.02119
G1 X116.750 Y119.268 E0.02119
G1 X116.625 Y118.604 E0.02119
G1 X116.623 Y91.485 E0.85030
M73 Q4 S5
G1 X116.787 Y90.663 E0.02629
;WIPE_START
G1 F8640.000
G1 X117.118 Y90.048 E-0.16107
G1 X117.572 Y89.600 E-0.14731
G1 X118.132 Y89.287 E-0.14818
G1 X118.752 Y89.136 E-0.14731
G1 X121.896 Y89.133 E-0.72612
;WIPE_END
G1 E-0.07000 F2100.000
G1 Z0.400 F10800.000
G1 X122.905 Y98.471
M73 Q5 S5
G1 Z0.200
G1 E1.40000 F2100.000
;TYPE:Perimeter
G1 F1200.000
G1 X123.132 Y98.294 E0.00904
G1 X123.472 Y98.088 E0.01245
G1 X123.834 Y97.925 E0.01245
G1 X124.213 Y97.807 E0.01245
M73 P5 R5
G1 X124.604 Y97.735 E0.01245
G1 X124.976 Y97.713 E0.01169
G1 X125.394 Y97.735 E0.01314
G1 X125.787 Y97.807 E0.01252
G1 X126.166 Y97.925 E0.01245
G1 X126.528 Y98.088 E0.01245
G1 X126.847 Y98.281 E0.01169
G1 X127.179 Y98.537 E0.01314
G1 X127.461 Y98.819 E0.01252
G1 X127.706 Y99.132 E0.01245
G1 X127.912 Y99.472 E0.01245
G1 X128.075 Y99.834 E0.01245
G1 X128.193 Y100.213 E0.01245
G1 X128.265 Y100.604 E0.01245
G1 X128.287 Y100.976 E0.01170
G1 X128.287 Y109.024 E0.25233
G1 X128.265 Y109.396 E0.01170
G1 X128.193 Y109.787 E0.01245
G1 X128.075 Y110.166 E0.01245
G1 X127.912 Y110.528 E0.01245
G1 X127.706 Y110.868 E0.01245
G1 X127.461 Y111.181 E0.01245
G1 X127.181 Y111.461 E0.01245
G1 X126.887 Y111.691 E0.01169
G1 X126.530 Y111.911 E0.01314
G1 X126.166 Y112.075 E0.01252
G1 X125.787 Y112.193 E0.01245
G1 X125.396 Y112.265 E0.01245
G1 X125.000 Y112.289 E0.01245
G1 X124.604 Y112.265 E0.01245
G1 X124.213 Y112.193 E0.01245
G1 X123.834 Y112.075 E0.01245
G1 X123.472 Y111.912 E0.01245
G1 X123.132 Y111.706 E0.01245
G1 X122.819 Y111.461 E0.01245
G1 X122.539 Y111.181 E0.01245
G1 X122.294 Y110.868 E0.01245
G1 X122.088 Y110.528 E0.01245
G1 X121.925 Y110.166 E0.01245
G1 X121.807 Y109.787 E0.01245
G1 X121.735 Y109.396 E0.01245
G1 X121.713 Y109.024 E0.01170
G1 X121.713 Y100.976 E0.25233
G1 X121.735 Y100.604 E0.01170
G1 X121.807 Y100.213 E0.01245
G1 X121.925 Y99.834 E0.01245
G1 X122.088 Y99.472 E0.01245
G1 X122.294 Y99.132 E0.01245
G1 X122.539 Y98.819 E0.01245
G1 X122.858 Y98.508 E0.01398
G1 X123.090 Y98.805 F10800.000
;TYPE:External perimeter
G1 F1200.000
G1 X123.347 Y98.605 E0.01020
G1 X123.647 Y98.423 E0.01102
G1 X123.968 Y98.278 E0.01102
G1 X124.303 Y98.174 E0.01102
G1 X124.649 Y98.110 E0.01102
G1 X124.977 Y98.091 E0.01030
G1 X125.350 Y98.110 E0.01171
G1 X125.697 Y98.174 E0.01105
G1 X126.032 Y98.278 E0.01102
G1 X126.353 Y98.423 E0.01102
G1 X126.634 Y98.593 E0.01030
G1 X126.930 Y98.821 E0.01171
G1 X127.179 Y99.070 E0.01105
G1 X127.395 Y99.347 E0.01102
G1 X127.577 Y99.647 E0.01102
G1 X127.722 Y99.968 E0.01102
G1 X127.826 Y100.303 E0.01102
G1 X127.890 Y100.649 E0.01102
G1 X127.910 Y100.988 E0.01063
G1 X127.910 Y109.012 E0.25161
G1 X127.890 Y109.351 E0.01063
G1 X127.826 Y109.697 E0.01102
G1 X127.722 Y110.032 E0.01102
G1 X127.577 Y110.353 E0.01102
G1 X127.395 Y110.653 E0.01102
G1 X127.179 Y110.930 E0.01102
G1 X126.930 Y111.179 E0.01102
G1 X126.672 Y111.381 E0.01030
G1 X126.353 Y111.577 E0.01171
G1 X126.032 Y111.722 E0.01105
G1 X125.697 Y111.826 E0.01102
G1 X125.351 Y111.890 E0.01102
G1 X125.000 Y111.911 E0.01102
G1 X124.649 Y111.890 E0.01102
G1 X124.303 Y111.826 E0.01102
G1 X123.968 Y111.722 E0.01102
G1 X123.647 Y111.577 E0.01102
G1 X123.347 Y111.395 E0.01102
G1 X123.070 Y111.179 E0.01102
G1 X122.821 Y110.930 E0.01102
G1 X122.605 Y110.653 E0.01102
G1 X122.423 Y110.353 E0.01102
G1 X122.278 Y110.032 E0.01102
G1 X122.174 Y109.697 E0.01102
G1 X122.110 Y109.351 E0.01102
G1 X122.090 Y109.012 E0.01063
G1 X122.090 Y100.988 E0.25161
M73 Q6 S5
G1 X122.110 Y100.649 E0.01063
G1 X122.174 Y100.303 E0.01102
G1 X122.278 Y99.968 E0.01102
G1 X122.423 Y99.647 E0.01102
M73 P6 R5
G1 X122.605 Y99.347 E0.01102
G1 X122.821 Y99.070 E0.01102
G1 X123.046 Y98.845 E0.00996
G1 X123.026 Y98.486 F10800.000
;WIPE_START
G1 F8640.000
G1 X123.347 Y98.605 E-0.08893
G1 X123.647 Y98.423 E-0.08116
G1 X123.968 Y98.278 E-0.08116
G1 X124.303 Y98.174 E-0.08116
G1 X124.649 Y98.110 E-0.08116
G1 X124.977 Y98.091 E-0.07586
G1 X125.350 Y98.110 E-0.08624
G1 X125.697 Y98.174 E-0.08135
G1 X126.032 Y98.278 E-0.08116
G1 X126.353 Y98.423 E-0.08116
G1 X126.634 Y98.593 E-0.07586
G1 X126.930 Y98.821 E-0.08624
G1 X127.179 Y99.070 E-0.08135
G1 X127.395 Y99.347 E-0.08116
G1 X127.577 Y99.647 E-0.08116
G1 X127.722 Y99.968 E-0.08116
G1 X127.752 Y100.066 E-0.02373
;WIPE_END
G1 E-0.07000 F2100.000
G1 Z0.400 F10800.000
G1 X119.787 Y92.287
G1 Z0.200
G1 E1.40000 F2100.000
;TYPE:Perimeter
G1 F1200.000
G1 X130.213 Y92.287 E0.32689
G1 X130.213 Y117.713 E0.79721
G1 X119.787 Y117.713 E0.32689
G1 X119.787 Y92.347 E0.79533
M73 P7 R5
M73 Q7 S5
G1 X119.410 Y91.910 F10800.000
;TYPE:External perimeter
G1 F1200.000
G1 X130.590 Y91.910 E0.35054
G1 X130.590 Y118.090 E0.82086
G1 X119.410 Y118.090 E0.35054
M73 Q8 S5
G1 X119.410 Y91.970 E0.81897
M73 P8 R5
G1 X119.780 Y92.062 F10800.000
;WIPE_START
G1 F8640.000
G1 X125.170 Y91.939 E-1.33000
;WIPE_END
G1 E-0.07000 F2100.000
G1 Z0.400 F10800.000
G1 X129.331 Y92.400
G1 Z0.200
G1 E1.40000 F2100.000
;TYPE:Solid infill
;WIDTH:0.422986
G1 F1200.000
G1 X129.930 Y92.999 E0.02677
G1 X129.930 Y93.537 E0.01699
G1 X128.963 Y92.570 E0.04321
G1 X128.426 Y92.570 E0.01699
G1 X129.930 Y94.074 E0.06723
G1 X129.930 Y94.612 E0.01699
G1 X127.888 Y92.570 E0.09125
G1 X127.351 Y92.570 E0.01699
G1 X129.930 Y95.149 E0.11527
G1 X129.930 Y95.687 E0.01699
G1 X126.813 Y92.570 E0.13929
G1 X126.276 Y92.570 E0.01699
G1 X129.930 Y96.224 E0.16332
G1 X129.930 Y96.762 E0.01699
G1 X125.738 Y92.570 E0.18734
G1 X125.201 Y92.570 E0.01699
G1 X129.930 Y97.299 E0.21136
M73 P9 R5
M73 Q9 S5
G1 X129.930 Y97.837 E0.01699
G1 X124.663 Y92.570 E0.23538
G1 X124.126 Y92.570 E0.01699
G1 X129.930 Y98.374 E0.25941
G1 X129.930 Y98.912 E0.01699
G1 X123.588 Y92.570 E0.28343
G1 X123.051 Y92.570 E0.01699
G1 X129.930 Y99.449 E0.30745
G1 X129.930 Y99.987 E0.01699
G1 X122.513 Y92.570 E0.33147
G1 X121.976 Y92.570 E0.01699
G1 X129.930 Y100.524 E0.35549
G1 X129.930 Y101.062 E0.01699
G1 X121.438 Y92.570 E0.37952
M73 P10 R5
M73 Q10 S5
G1 X120.901 Y92.570 E0.01699
G1 X125.867 Y97.536 E0.22194
G1 X125.427 Y97.454 E0.01413
G1 X125.237 Y97.444 E0.00601
G1 X120.363 Y92.570 E0.21782
G1 X120.070 Y92.570 E0.00928
G1 X120.070 Y92.814 E0.00771
G1 X124.702 Y97.446 E0.20704
G1 X124.234 Y97.516 E0.01495
G1 X120.070 Y93.351 E0.18612
G1 X120.070 Y93.889 E0.01699
G1 X123.816 Y97.635 E0.16741
G1 X123.437 Y97.794 E0.01297
G1 X120.070 Y94.426 E0.15050
G1 X120.070 Y94.964 E0.01699
G1 X123.093 Y97.987 E0.13511
G1 X122.779 Y98.211 E0.01218
G1 X120.070 Y95.501 E0.12109
G1 X120.070 Y96.039 E0.01699
G1 X122.495 Y98.463 E0.10836
G1 X122.238 Y98.744 E0.01202
G1 X120.070 Y96.576 E0.09690
G1 X120.070 Y97.114 E0.01699
M73 Q11 S5
G1 X122.010 Y99.054 E0.08672
G1 X121.813 Y99.394 E0.01243
G1 X120.070 Y97.651 E0.07790
M73 P11 R5
G1 X120.070 Y98.189 E0.01699
G1 X121.649 Y99.768 E0.07059
G1 X121.525 Y100.182 E0.01364
G1 X120.070 Y98.726 E0.06505
G1 X120.070 Y99.264 E0.01699
G1 X121.450 Y100.644 E0.06167
G1 X121.430 Y101.161 E0.01638
G1 X120.070 Y99.801 E0.06079
G1 X120.070 Y100.339 E0.01699
G1 X121.430 Y101.699 E0.06079
G1 X121.430 Y102.236 E0.01699
G1 X120.070 Y100.876 E0.06079
G1 X120.070 Y101.414 E0.01699
G1 X121.430 Y102.774 E0.06079
G1 X121.430 Y103.311 E0.01699
G1 X120.070 Y101.951 E0.06079
G1 X120.070 Y102.489 E0.01699
G1 X121.430 Y103.849 E0.06079
G1 X121.430 Y104.386 E0.01699
G1 X120.070 Y103.026 E0.06079
G1 X120.070 Y103.564 E0.01699
G1 X121.430 Y104.924 E0.06079
G1 X121.430 Y105.461 E0.01699
G1 X120.070 Y104.101 E0.06079
G1 X120.070 Y104.639 E0.01699
G1 X121.430 Y105.999 E0.06079
G1 X121.430 Y106.536 E0.01699
G1 X120.070 Y105.176 E0.06079
G1 X120.070 Y105.714 E0.01699
G1 X121.430 Y107.074 E0.06079
G1 X121.430 Y107.611 E0.01699
G1 X120.070 Y106.251 E0.06079
G1 X120.070 Y106.789 E0.01699
G1 X121.430 Y108.149 E0.06079
G1 X121.430 Y108.686 E0.01699
G1 X120.070 Y107.326 E0.06079
G1 X120.070 Y107.864 E0.01699
G1 X121.442 Y109.236 E0.06134
G1 X121.454 Y109.431 E0.00615
G1 X121.536 Y109.867 E0.01403
G1 X119.900 Y108.231 E0.07310
;WIPE_START
G1 F8640.000
G1 X121.536 Y109.867 E-0.53409
G1 X121.454 Y109.431 E-0.10252
G1 X121.442 Y109.236 E-0.04496
G1 X120.070 Y107.864 E-0.44821
G1 X120.070 Y107.326 E-0.12411
G1 X120.303 Y107.559 E-0.07612
;WIPE_END
G1 E-0.07000 F2100.000
G1 Z0.400 F10800.000
G1 X128.206 Y99.875
M73 Q12 S5
G1 Z0.200
G1 E1.40000 F2100.000
G1 F1200.000
G1 X129.930 Y101.599 E0.07705
M73 P12 R5
G1 X129.930 Y102.137 E0.01699
G1 X128.558 Y100.764 E0.06134
G1 X128.570 Y101.314 E0.01738
G1 X129.930 Y102.674 E0.06079
G1 X129.930 Y103.212 E0.01699
G1 X128.570 Y101.851 E0.06079
G1 X128.570 Y102.389 E0.01699
G1 X129.930 Y103.749 E0.06079
G1 X129.930 Y104.286 E0.01699
G1 X128.570 Y102.926 E0.06079
G1 X128.570 Y103.464 E0.01699
G1 X129.930 Y104.824 E0.06079
G1 X129.930 Y105.361 E0.01699
G1 X128.570 Y104.001 E0.06079
G1 X128.570 Y104.539 E0.01699
G1 X129.930 Y105.899 E0.06079
G1 X129.930 Y106.436 E0.01699
G1 X128.570 Y105.076 E0.06079
G1 X128.570 Y105.614 E0.01699
G1 X129.930 Y106.974 E0.06079
G1 X129.930 Y107.511 E0.01699
G1 X128.570 Y106.151 E0.06079
G1 X128.570 Y106.689 E0.01699
G1 X129.930 Y108.049 E0.06079
G1 X129.930 Y108.586 E0.01699
G1 X128.570 Y107.226 E0.06079
G1 X128.570 Y107.764 E0.01699
G1 X129.930 Y109.124 E0.06079
G1 X129.930 Y109.661 E0.01699
G1 X128.570 Y108.301 E0.06079
G1 X128.570 Y108.839 E0.01699
G1 X129.930 Y110.199 E0.06079
G1 X129.930 Y110.736 E0.01699
G1 X128.550 Y109.357 E0.06167
G1 X128.475 Y109.818 E0.01479
G1 X129.930 Y111.274 E0.06505
G1 X129.930 Y111.811 E0.01699
G1 X128.351 Y110.232 E0.07060
G1 X128.187 Y110.606 E0.01290
G1 X129.930 Y112.349 E0.07790
G1 X129.930 Y112.886 E0.01699
G1 X127.990 Y110.946 E0.08672
G1 X127.762 Y111.256 E0.01215
G1 X129.930 Y113.424 E0.09690
G1 X129.930 Y113.961 E0.01699
G1 X127.505 Y111.537 E0.10837
M73 Q13 S5
G1 X127.221 Y111.789 E0.01203
G1 X129.930 Y114.499 E0.12109
M73 P13 R5
G1 X129.930 Y115.036 E0.01699
G1 X126.906 Y112.012 E0.13517
G1 X126.563 Y112.206 E0.01246
G1 X129.930 Y115.574 E0.15050
G1 X129.930 Y116.111 E0.01699
G1 X126.184 Y112.365 E0.16742
G1 X125.766 Y112.484 E0.01375
G1 X129.930 Y116.649 E0.18612
G1 X129.930 Y117.186 E0.01699
G1 X125.298 Y112.554 E0.20704
G1 X125.000 Y112.572 E0.00942
G1 X124.764 Y112.558 E0.00748
G1 X129.636 Y117.430 E0.21777
G1 X129.099 Y117.430 E0.01699
G1 X123.875 Y112.206 E0.23348
;WIPE_START
G1 F8640.000
G1 X127.948 Y116.279 E-1.33000
;WIPE_END
G1 E-0.07000 F2100.000
G1 Z0.400 F10800.000
G1 X119.900 Y108.769
G1 Z0.200
G1 E1.40000 F2100.000
G1 F1200.000
G1 X128.561 Y117.430 E0.38709
M73 P14 R5
M73 Q14 S5
G1 X128.024 Y117.430 E0.01699
G1 X120.070 Y109.476 E0.35549
G1 X120.070 Y110.014 E0.01699
G1 X127.486 Y117.430 E0.33147
G1 X126.949 Y117.430 E0.01699
G1 X120.070 Y110.551 E0.30744
G1 X120.070 Y111.089 E0.01699
G1 X126.411 Y117.430 E0.28342
G1 X125.874 Y117.430 E0.01699
G1 X120.070 Y111.626 E0.25940
G1 X120.070 Y112.164 E0.01699
G1 X125.336 Y117.430 E0.23538
G1 X124.799 Y117.430 E0.01699
G1 X120.070 Y112.701 E0.21135
M73 P15 R5
M73 Q15 S5
G1 X120.070 Y113.239 E0.01699
G1 X124.261 Y117.430 E0.18733
G1 X123.724 Y117.430 E0.01699
G1 X120.070 Y113.776 E0.16331
G1 X120.070 Y114.314 E0.01699
G1 X123.186 Y117.430 E0.13929
G1 X122.649 Y117.430 E0.01699
G1 X120.070 Y114.851 E0.11527
G1 X120.070 Y115.389 E0.01699
G1 X122.111 Y117.430 E0.09124
G1 X121.574 Y117.430 E0.01699
G1 X120.070 Y115.926 E0.06722
G1 X120.070 Y116.464 E0.01699
G1 X121.036 Y117.430 E0.04320
G1 X120.499 Y117.430 E0.01699
G1 X119.900 Y116.831 E0.02676
;LAYER_CHANGE
;Z:0.5
;HEIGHT:0.3
;BEFORE_LAYER_CHANGE
G92 E0.0
;0.5


;WIPE_START
G1 F8640.000
G1 X120.499 Y117.430 E-0.19553
G1 X121.036 Y117.430 E-0.12411
G1 X120.070 Y116.464 E-0.31564
G1 X120.070 Y115.926 E-0.12411
G1 X121.574 Y117.430 E-0.49115
G1 X121.918 Y117.430 E-0.07946
;WIPE_END
G1 E-0.07000 F2100.000
G1 Z0.400 F10800.000
G1 Z0.500
;AFTER_LAYER_CHANGE
;0.5
M104 S250 ; set temperature
M140 S90 ; set bed temperature
G1 Z0.700
G1 X117.972 Y121.055
G1 Z0.500
G1 E1.40000 F2100.000
;TYPE:Skirt
;WIDTH:0.42
G1 F2628
G1 X117.293 Y120.661 E0.03480
G1 X116.755 Y120.096 E0.03462
G1 X116.398 Y119.402 E0.03462
G1 X116.249 Y118.636 E0.03462
G1 X116.246 Y91.480 E1.20452
G1 X116.445 Y90.472 E0.04556
G1 X116.808 Y89.832 E0.03264
G1 X117.328 Y89.311 E0.03264
G1 X117.964 Y88.948 E0.03246
G1 X118.676 Y88.765 E0.03264
G1 X131.004 Y88.746 E0.54681
M73 P16 R5
M73 Q16 S5
G1 X132.005 Y88.936 E0.04520
G1 X132.869 Y89.477 E0.04520
G1 X133.475 Y90.291 E0.04502
G1 X133.745 Y91.274 E0.04520
G1 X133.754 Y118.516 E1.20833
G1 X133.555 Y119.528 E0.04574
G1 X133.182 Y120.181 E0.03336
G1 X132.649 Y120.706 E0.03318
G1 X131.995 Y121.068 E0.03318
G1 X131.267 Y121.241 E0.03318
G1 X118.963 Y121.254 E0.54573
G1 X118.031 Y121.067 E0.04218
G1 X118.105 Y120.701 F10800.000
G1 F2628
G1 X117.521 Y120.361 E0.02996
G1 X117.057 Y119.870 E0.02997
G1 X116.750 Y119.268 E0.02997
G1 X116.625 Y118.604 E0.02997
G1 X116.623 Y91.485 E1.20286
G1 X116.799 Y90.601 E0.03997
G1 X117.118 Y90.048 E0.02830
