; generated by PrusaSlicer 2.3.0+win64 on 2021-07-20 at 04:28:30 UTC

; 

; external perimeters extrusion width = 0.45mm
; perimeters extrusion width = 0.45mm
; infill extrusion width = 0.45mm
; solid infill extrusion width = 0.45mm
; top infill extrusion width = 0.40mm
; support material extrusion width = 0.35mm
; first layer extrusion width = 0.42mm

M73 P0 R143
M73 Q0 S144
M201 X1000 Y1000 Z200 E5000 ; sets maximum accelerations, mm/sec^2
M203 X200 Y200 Z12 E120 ; sets maximum feedrates, mm/sec
M204 P1250 R1250 T1250 ; sets acceleration (P, T) and retract acceleration (R), mm/sec^2
M205 X8.00 Y8.00 Z0.40 E4.50 ; sets the jerk limits, mm/sec
M205 S0 T0 ; sets the minimum extruding and travel feed rate, mm/sec
M107
;TYPE:Custom
M862.3 P "MK3S" ; printer model check
M862.1 P0.4 ; nozzle diameter check
M115 U3.9.1 ; tell printer latest fw version
G90 ; use absolute coordinates
M83 ; extruder relative mode
M104 S240 ; set extruder temp
M140 S85 ; set bed temp
M190 S85 ; wait for bed temp
M109 S240 ; wait for extruder temp
G28 W ; home all without mesh bed level
G80 ; mesh bed leveling
G1 Y-3.0 F1000.0 ; go outside print area
G92 E0.0
G1 X60.0 E9.0 F1000.0 ; intro line
G1 X100.0 E12.5 F1000.0 ; intro line
G92 E0.0
M221 S95

; Don't change E values below. Excessive value can damage the printer.

M907 E538 ; set extruder motor current
G21 ; set units to millimeters
G90 ; use absolute coordinates
M83 ; use relative distances for extrusion
M900 K0.08 ; Filament gcode LA 1.5
M900 K45 ; Filament gcode LA 1.0
;LAYER_CHANGE
;Z:0.2
;HEIGHT:0.2
;BEFORE_LAYER_CHANGE
G92 E0.0
;0.2


M73 P0 R142
M73 Q0 S143
G1 E-1.40000 F2100.000
G1 Z0.200 F10800.000
;AFTER_LAYER_CHANGE
;0.2
G1 Z0.400
G1 X107.053 Y71.176
G1 Z0.200
G1 E1.40000 F2100.000
M204 S1000
;TYPE:Skirt
;WIDTH:0.42
G1 F1200.000
G1 X107.412 Y70.663 E0.01965
G1 X107.894 Y70.261 E0.01965
G1 X108.463 Y70.000 E0.01965
G1 X109.081 Y69.896 E0.01965
G1 X144.500 Y69.894 E1.11055
G1 X145.096 Y69.970 E0.01882
G1 X145.653 Y70.193 E0.01882
G1 X146.137 Y70.548 E0.01882
G1 X146.517 Y71.013 E0.01882
G1 X149.790 Y77.905 E0.23923
G1 X149.993 Y78.686 E0.02532
G1 X150.002 Y131.296 E1.64953
G1 X149.933 Y131.854 E0.01763
G1 X149.734 Y132.380 E0.01763
G1 X145.792 Y139.105 E0.24442
G1 X145.131 Y139.734 E0.02860
G1 X144.282 Y140.067 E0.02860
G1 X109.159 Y140.275 E1.10126
G1 X108.597 Y140.207 E0.01775
G1 X108.067 Y140.008 E0.01775
G1 X107.651 Y139.733 E0.01562
G1 X107.302 Y139.378 E0.01562
G1 X107.037 Y138.961 E0.01550
G1 X106.862 Y138.495 E0.01562
G1 X105.873 Y131.536 E0.22039
G1 X105.873 Y78.454 E1.66434
G1 X106.817 Y71.889 E0.20796
G1 X107.034 Y71.233 E0.02167
;WIPE_START
G1 F8640.000
G1 X107.412 Y70.663 E-0.15802
G1 X107.894 Y70.261 E-0.14470
G1 X108.463 Y70.000 E-0.14470
G1 X109.081 Y69.896 E-0.14470
G1 X112.277 Y69.896 E-0.73789
;WIPE_END
G1 E-0.07000 F2100.000
G1 Z0.400 F10800.000
G1 X109.163 Y77.481
G1 Z0.200
G1 E1.40000 F2100.000
;TYPE:Support material
G1 F1200.000
G1 X109.163 Y72.271 E0.16335
G1 X109.917 Y72.271 E0.02365
G1 X109.917 Y77.311 E0.15803
G1 X110.671 Y77.311 E0.02365
G1 X110.671 Y72.271 E0.15803
G1 X111.425 Y72.271 E0.02365
G1 X111.425 Y77.311 E0.15803
G1 X112.179 Y77.311 E0.02365
G1 X112.179 Y72.271 E0.15803
G1 X112.933 Y72.271 E0.02365
G1 X112.933 Y77.311 E0.15803
G1 X113.688 Y77.311 E0.02365
G1 X113.688 Y72.271 E0.15803
G1 X114.442 Y72.271 E0.02365
G1 X114.442 Y77.311 E0.15803
G1 X115.196 Y77.311 E0.02365
G1 X115.196 Y72.271 E0.15803
G1 X115.950 Y72.271 E0.02365
G1 X115.950 Y77.311 E0.15803
G1 X116.704 Y77.311 E0.02365
G1 X116.704 Y72.271 E0.15803
G1 X117.458 Y72.271 E0.02365
G1 X117.458 Y77.311 E0.15803
G1 X118.213 Y77.311 E0.02365
G1 X118.213 Y72.271 E0.15803
G1 X118.967 Y72.271 E0.02365
G1 X118.967 Y77.311 E0.15803
G1 X119.242 Y77.311 E0.00864
G1 X119.721 Y77.790 E0.02122
G1 X119.721 Y72.271 E0.17303
G1 X120.475 Y72.271 E0.02365
G1 X120.475 Y84.811 E0.39319
G1 X121.229 Y84.811 E0.02365
G1 X121.229 Y72.271 E0.39319
G1 X121.983 Y72.271 E0.02365
G1 X121.983 Y77.586 E0.16663
G1 X122.258 Y77.311 E0.01216
G1 X122.738 Y77.311 E0.01504
G1 X122.738 Y72.271 E0.15803
G1 X123.492 Y72.271 E0.02365
G1 X123.492 Y77.311 E0.15803
G1 X124.246 Y77.311 E0.02365
G1 X124.246 Y72.271 E0.15803
G1 X125.000 Y72.271 E0.02365
G1 X125.000 Y77.311 E0.15803
G1 X125.754 Y77.311 E0.02365
G1 X125.754 Y72.271 E0.15803
G1 X126.508 Y72.271 E0.02365
G1 X126.508 Y77.311 E0.15803
G1 X127.262 Y77.311 E0.02365
G1 X127.262 Y72.271 E0.15803
G1 X128.017 Y72.271 E0.02365
G1 X128.017 Y77.311 E0.15803
G1 X128.771 Y77.311 E0.02365
G1 X128.771 Y72.271 E0.15803
G1 X129.525 Y72.271 E0.02365
G1 X129.525 Y77.311 E0.15803
G1 X130.279 Y77.311 E0.02365
G1 X130.279 Y72.271 E0.15803
G1 X131.033 Y72.271 E0.02365
G1 X131.033 Y77.311 E0.15803
G1 X131.787 Y77.311 E0.02365
G1 X131.787 Y72.271 E0.15803
G1 X132.542 Y72.271 E0.02365
G1 X132.542 Y77.311 E0.15803
G1 X133.296 Y77.311 E0.02365
G1 X133.296 Y72.271 E0.15803
G1 X134.050 Y72.271 E0.02365
G1 X134.050 Y77.311 E0.15803
G1 X134.804 Y77.311 E0.02365
G1 X134.804 Y72.271 E0.15803
G1 X135.558 Y72.271 E0.02365
G1 X135.558 Y77.311 E0.15803
G1 X136.312 Y77.311 E0.02365
G1 X136.312 Y72.271 E0.15803
G1 X137.067 Y72.271 E0.02365
G1 X137.067 Y77.311 E0.15803
G1 X137.821 Y77.311 E0.02365
G1 X137.821 Y72.271 E0.15803
G1 X138.575 Y72.271 E0.02365
G1 X138.575 Y77.311 E0.15803
G1 X139.329 Y77.311 E0.02365
G1 X139.329 Y72.271 E0.15803
G1 X140.083 Y72.271 E0.02365
G1 X140.083 Y77.311 E0.15803
G1 X140.837 Y77.311 E0.02365
G1 X140.837 Y72.271 E0.15803
G1 X141.592 Y72.271 E0.02365
G1 X141.591 Y77.311 E0.15803
G1 X142.242 Y77.311 E0.02041
G1 X142.346 Y77.415 E0.00458
G1 X142.346 Y72.271 E0.16127
G1 X143.100 Y72.271 E0.02365
G1 X143.100 Y91.430 E0.60069
G1 X143.854 Y91.430 E0.02365
G1 X143.854 Y72.271 E0.60069
G1 X144.500 Y72.271 E0.02027
G1 X144.500 Y78.886 E0.20738
G1 X144.608 Y78.886 E0.00338
G1 X144.608 Y91.430 E0.39331
G1 X145.362 Y91.430 E0.02365
G1 X145.362 Y78.886 E0.39331
G1 X146.116 Y78.886 E0.02365
G1 X146.116 Y91.430 E0.39331
G1 X146.871 Y91.430 E0.02365
G1 X146.871 Y78.886 E0.39331
G1 X147.625 Y78.886 E0.02365
G1 X147.625 Y91.599 E0.39863
;WIPE_START
G1 F8640.000
G1 X147.625 Y85.839 E-1.33000
;WIPE_END
G1 E-0.07000 F2100.000
G1 Z0.400 F10800.000
G1 X111.425 Y115.481
G1 Z0.200
G1 E1.40000 F2100.000
G1 F1200.000
G1 X111.425 Y94.689 E0.65194
G1 X112.179 Y94.689 E0.02365
G1 X112.179 Y115.311 E0.64662
G1 X112.933 Y115.311 E0.02365
G1 X112.933 Y94.689 E0.64662
G1 X113.688 Y94.689 E0.02365
G1 X113.688 Y115.311 E0.64662
G1 X114.442 Y115.311 E0.02365
G1 X114.442 Y94.689 E0.64662
G1 X115.196 Y94.689 E0.02365
G1 X115.196 Y115.311 E0.64662
G1 X115.950 Y115.311 E0.02365
G1 X115.950 Y94.689 E0.64662
G1 X116.704 Y94.689 E0.02365
G1 X116.704 Y115.311 E0.64662
G1 X117.458 Y115.311 E0.02365
G1 X117.458 Y94.689 E0.64662
G1 X118.213 Y94.689 E0.02365
G1 X118.213 Y115.311 E0.64662
G1 X118.967 Y115.311 E0.02365
G1 X118.967 Y94.689 E0.64662
G1 X119.721 Y94.689 E0.02365
G1 X119.721 Y115.311 E0.64662
G1 X120.475 Y115.311 E0.02365
G1 X120.475 Y94.689 E0.64662
G1 X121.229 Y94.689 E0.02365
G1 X121.229 Y115.311 E0.64662
G1 X121.983 Y115.311 E0.02365
G1 X121.983 Y94.689 E0.64662
G1 X122.738 Y94.689 E0.02365
G1 X122.738 Y115.311 E0.64662
G1 X123.492 Y115.311 E0.02365
G1 X123.492 Y94.689 E0.64662
G1 X124.246 Y94.689 E0.02365
G1 X124.246 Y115.311 E0.64662
G1 X125.000 Y115.311 E0.02365
G1 X125.000 Y94.689 E0.64662
G1 X125.754 Y94.689 E0.02365
G1 X125.754 Y115.311 E0.64662
G1 X126.508 Y115.311 E0.02365
G1 X126.508 Y94.689 E0.64662
G1 X127.262 Y94.689 E0.02365
G1 X127.262 Y115.311 E0.64662
G1 X128.017 Y115.311 E0.02365
G1 X128.017 Y94.689 E0.64662
G1 X128.771 Y94.689 E0.02365
G1 X128.771 Y115.311 E0.64662
M73 P0 R141
M73 Q0 S142
G1 X129.525 Y115.311 E0.02365
G1 X129.525 Y94.689 E0.64662
G1 X130.279 Y94.689 E0.02365
G1 X130.279 Y115.311 E0.64662
G1 X131.033 Y115.311 E0.02365
G1 X131.033 Y94.689 E0.64662
G1 X131.742 Y94.689 E0.02223
G1 X131.787 Y94.643 E0.00200
G1 X131.787 Y115.357 E0.64945
G1 X132.439 Y116.008 E0.02887
G1 X132.439 Y119.561 E0.11143
G1 X132.542 Y119.561 E0.00323
G1 X132.542 Y90.439 E0.91313
G1 X133.296 Y90.439 E0.02365
G1 X133.296 Y119.561 E0.91313
G1 X134.050 Y119.561 E0.02365
G1 X134.050 Y90.439 E0.91313
G1 X134.804 Y90.439 E0.02365
G1 X134.804 Y119.561 E0.91313
G1 X135.558 Y119.561 E0.02365
G1 X135.558 Y90.439 E0.91313
G1 X136.312 Y90.439 E0.02365
G1 X136.312 Y119.561 E0.91313
G1 X137.067 Y119.561 E0.02365
G1 X137.067 Y90.439 E0.91313
G1 X137.821 Y90.439 E0.02365
G1 X137.821 Y119.731 E0.91845
;WIPE_START
G1 F8640.000
G1 X137.821 Y113.971 E-1.33000
;WIPE_END
G1 E-0.07000 F2100.000
G1 Z0.400 F10800.000
G1 X147.625 Y131.284
G1 Z0.200
G1 E1.40000 F2100.000
G1 F1200.000
G1 X147.625 Y118.570 E0.39863
G1 X146.871 Y118.570 E0.02365
G1 X146.871 Y131.114 E0.39331
G1 X146.116 Y131.114 E0.02365
G1 X146.116 Y118.570 E0.39331
G1 X145.362 Y118.570 E0.02365
G1 X145.362 Y131.114 E0.39331
G1 X144.608 Y131.114 E0.02365
G1 X144.608 Y118.570 E0.39331
M73 P1 R141
M73 Q1 S142
G1 X143.854 Y118.570 E0.02365
G1 X143.854 Y137.729 E0.60069
G1 X143.100 Y137.729 E0.02365
G1 X143.100 Y118.570 E0.60069
G1 X142.939 Y118.570 E0.00506
G1 X142.939 Y131.992 E0.42083
G1 X142.346 Y132.585 E0.02629
G1 X142.346 Y137.729 E0.16127
G1 X141.591 Y137.729 E0.02365
G1 X141.591 Y132.689 E0.15803
G1 X140.837 Y132.689 E0.02365
G1 X140.837 Y137.729 E0.15803
G1 X140.083 Y137.729 E0.02365
G1 X140.083 Y132.689 E0.15803
G1 X139.329 Y132.689 E0.02365
G1 X139.329 Y137.729 E0.15803
G1 X138.575 Y137.729 E0.02365
G1 X138.575 Y132.689 E0.15803
G1 X137.821 Y132.689 E0.02365
G1 X137.821 Y137.729 E0.15803
G1 X137.067 Y137.729 E0.02365
G1 X137.067 Y132.689 E0.15803
G1 X136.312 Y132.689 E0.02365
G1 X136.312 Y137.729 E0.15803
G1 X135.558 Y137.729 E0.02365
G1 X135.558 Y132.689 E0.15803
G1 X134.804 Y132.689 E0.02365
G1 X134.804 Y137.729 E0.15803
G1 X134.050 Y137.729 E0.02365
G1 X134.050 Y132.689 E0.15803
G1 X133.296 Y132.689 E0.02365
G1 X133.296 Y137.729 E0.15803
G1 X132.542 Y137.729 E0.02365
G1 X132.542 Y132.689 E0.15803
G1 X131.787 Y132.689 E0.02365
G1 X131.787 Y137.729 E0.15803
G1 X131.033 Y137.729 E0.02365
G1 X131.033 Y132.689 E0.15803
G1 X130.279 Y132.689 E0.02365
G1 X130.279 Y137.729 E0.15803
G1 X129.525 Y137.729 E0.02365
G1 X129.525 Y132.689 E0.15803
G1 X128.771 Y132.689 E0.02365
G1 X128.771 Y137.729 E0.15803
G1 X128.017 Y137.729 E0.02365
G1 X128.017 Y132.689 E0.15803
G1 X127.262 Y132.689 E0.02365
G1 X127.262 Y137.729 E0.15803
G1 X126.508 Y137.729 E0.02365
G1 X126.508 Y132.689 E0.15803
G1 X125.754 Y132.689 E0.02365
G1 X125.754 Y137.729 E0.15803
G1 X125.000 Y137.729 E0.02365
G1 X125.000 Y132.689 E0.15803
G1 X124.246 Y132.689 E0.02365
G1 X124.246 Y137.729 E0.15803
G1 X123.492 Y137.729 E0.02365
G1 X123.492 Y132.689 E0.15803
G1 X122.738 Y132.689 E0.02365
G1 X122.738 Y137.729 E0.15803
G1 X121.983 Y137.729 E0.02365
G1 X121.983 Y132.414 E0.16663
G1 X121.561 Y131.992 E0.01871
G1 X121.561 Y125.189 E0.21333
G1 X121.229 Y125.189 E0.01042
G1 X121.229 Y137.729 E0.39319
G1 X120.475 Y137.729 E0.02365
G1 X120.475 Y125.189 E0.39319
G1 X119.939 Y125.189 E0.01682
G1 X119.939 Y131.992 E0.21333
G1 X119.721 Y132.210 E0.00965
G1 X119.721 Y137.729 E0.17303
G1 X118.967 Y137.729 E0.02365
G1 X118.967 Y132.689 E0.15803
G1 X118.213 Y132.689 E0.02365
G1 X118.213 Y137.729 E0.15803
G1 X117.458 Y137.729 E0.02365
G1 X117.458 Y132.689 E0.15803
G1 X116.704 Y132.689 E0.02365
G1 X116.704 Y137.729 E0.15803
G1 X115.950 Y137.729 E0.02365
G1 X115.950 Y132.689 E0.15803
G1 X115.196 Y132.689 E0.02365
G1 X115.196 Y137.729 E0.15803
G1 X114.442 Y137.729 E0.02365
G1 X114.442 Y132.689 E0.15803
G1 X113.688 Y132.689 E0.02365
G1 X113.688 Y137.729 E0.15803
G1 X112.933 Y137.729 E0.02365
G1 X112.933 Y132.689 E0.15803
G1 X112.179 Y132.689 E0.02365
G1 X112.179 Y137.729 E0.15803
G1 X111.425 Y137.729 E0.02365
G1 X111.425 Y132.689 E0.15803
G1 X110.671 Y132.689 E0.02365
G1 X110.671 Y137.729 E0.15803
G1 X109.917 Y137.729 E0.02365
G1 X109.917 Y132.689 E0.15803
G1 X109.163 Y132.689 E0.02365
G1 X109.163 Y137.898 E0.16335
;WIPE_START
G1 F8640.000
G1 X109.163 Y132.689 E-1.20295
G1 X109.713 Y132.689 E-0.12705
;WIPE_END
G1 E-0.07000 F2100.000
G1 Z0.400 F10800.000
G1 X109.590 Y116.910
G1 Z0.200
G1 E1.40000 F2100.000
;TYPE:External perimeter
G1 F1200.000
G1 X109.590 Y93.090 E0.74686
G1 X130.840 Y93.090 E0.66628
G1 X130.840 Y88.840 E0.13326
G1 X140.160 Y88.840 E0.29222
G1 X140.160 Y121.160 E1.01337
G1 X130.840 Y121.160 E0.29222
G1 X130.840 Y116.910 E0.13326
G1 X109.650 Y116.910 E0.66440
G1 X109.191 Y116.884 F10800.000
;WIPE_START
G1 F8640.000
G1 X109.635 Y111.150 E-1.33000
;WIPE_END
G1 E-0.07000 F2100.000
G1 Z0.400 F10800.000
G1 X117.963 Y86.787
G1 Z0.200
G1 E1.40000 F2100.000
;TYPE:Perimeter
G1 F1200.000
G1 X123.537 Y86.787 E0.17477
G1 X123.537 Y79.287 E0.23516
G1 X140.963 Y79.287 E0.54638
G1 X140.963 Y130.713 E1.61242
G1 X123.537 Y130.713 E0.54638
G1 X123.537 Y123.213 E0.23516
G1 X117.963 Y123.213 E0.17477
G1 X117.963 Y130.713 E0.23516
G1 X109.037 Y130.713 E0.27986
G1 X109.037 Y117.287 E0.42096
G1 X130.463 Y117.287 E0.67179
G1 X130.463 Y121.537 E0.13326
G1 X140.537 Y121.537 E0.31587
G1 X140.537 Y88.463 E1.03702
G1 X130.463 Y88.463 E0.31587
G1 X130.463 Y92.713 E0.13326
G1 X109.037 Y92.713 E0.67179
G1 X109.037 Y79.287 E0.42096
G1 X117.963 Y79.287 E0.27986
M73 P1 R140
M73 Q1 S141
G1 X117.963 Y86.727 E0.23328
G1 X118.340 Y86.410 F10800.000
;TYPE:External perimeter
G1 F1200.000
G1 X123.160 Y86.410 E0.15113
G1 X123.160 Y78.910 E0.23516
G1 X141.340 Y78.910 E0.57002
G1 X141.340 Y131.090 E1.63607
G1 X123.160 Y131.090 E0.57002
G1 X123.160 Y123.590 E0.23516
G1 X118.340 Y123.590 E0.15113
G1 X118.340 Y131.090 E0.23516
G1 X108.660 Y131.090 E0.30351
G1 X108.660 Y78.910 E1.63607
G1 X118.340 Y78.910 E0.30351
G1 X118.340 Y86.350 E0.23328
G1 X118.460 Y86.792 F10800.000
;WIPE_START
G1 F8640.000
G1 X123.160 Y86.410 E-1.11304
G1 X123.160 Y85.470 E-0.21696
;WIPE_END
G1 E-0.07000 F2100.000
G1 Z0.400 F10800.000
G1 X109.125 Y92.901
G1 Z0.200
G1 E1.40000 F2100.000
;TYPE:Gap fill
;WIDTH:0.595842
G1 F1200.000
G1 X109.125 Y117.099 E1.11248
;WIPE_START
G1 F8640.000
G1 X109.125 Y111.339 E-1.33000
;WIPE_END
G1 E-0.07000 F2100.000
G1 Z0.400 F10800.000
G1 X140.084 Y79.400
G1 Z0.200
G1 E1.40000 F2100.000
;TYPE:Solid infill
;WIDTH:0.421448
G1 F1200.000
G1 X140.680 Y79.996 E0.02651
G1 X140.680 Y80.531 E0.01685
G1 X139.719 Y79.570 E0.04279
G1 X139.184 Y79.570 E0.01685
G1 X140.680 Y81.066 E0.06662
G1 X140.680 Y81.602 E0.01685
G1 X138.648 Y79.570 E0.09045
G1 X138.113 Y79.570 E0.01685
G1 X140.680 Y82.137 E0.11427
G1 X140.680 Y82.672 E0.01685
G1 X137.578 Y79.570 E0.13810
G1 X137.042 Y79.570 E0.01685
G1 X140.680 Y83.208 E0.16193
G1 X140.680 Y83.743 E0.01685
G1 X136.507 Y79.570 E0.18576
G1 X135.972 Y79.570 E0.01685
G1 X140.680 Y84.278 E0.20959
G1 X140.680 Y84.814 E0.01685
G1 X135.436 Y79.570 E0.23341
G1 X134.901 Y79.570 E0.01685
G1 X140.680 Y85.349 E0.25724
G1 X140.680 Y85.884 E0.01685
G1 X134.366 Y79.570 E0.28107
G1 X133.830 Y79.570 E0.01685
G1 X140.680 Y86.420 E0.30490
G1 X140.680 Y86.955 E0.01685
G1 X133.295 Y79.570 E0.32873
G1 X132.760 Y79.570 E0.01685
G1 X140.680 Y87.490 E0.35255
G1 X140.680 Y88.026 E0.01685
G1 X132.224 Y79.570 E0.37638
G1 X131.689 Y79.570 E0.01685
G1 X140.299 Y88.180 E0.38326
G1 X139.764 Y88.180 E0.01685
G1 X131.154 Y79.570 E0.38326
G1 X130.618 Y79.570 E0.01685
G1 X139.229 Y88.180 E0.38326
G1 X138.693 Y88.180 E0.01685
G1 X130.083 Y79.570 E0.38326
G1 X129.548 Y79.570 E0.01685
G1 X138.158 Y88.180 E0.38326
G1 X137.623 Y88.180 E0.01685
G1 X129.012 Y79.570 E0.38326
G1 X128.477 Y79.570 E0.01685
G1 X137.087 Y88.180 E0.38326
G1 X136.552 Y88.180 E0.01685
G1 X127.942 Y79.570 E0.38326
G1 X127.406 Y79.570 E0.01685
G1 X136.017 Y88.180 E0.38326
G1 X135.481 Y88.180 E0.01685
G1 X126.871 Y79.570 E0.38326
G1 X126.336 Y79.570 E0.01685
G1 X134.946 Y88.180 E0.38326
G1 X134.411 Y88.180 E0.01685
G1 X125.801 Y79.570 E0.38326
G1 X125.265 Y79.570 E0.01685
G1 X133.875 Y88.180 E0.38326
G1 X133.340 Y88.180 E0.01685
G1 X124.730 Y79.570 E0.38326
G1 X124.195 Y79.570 E0.01685
G1 X132.805 Y88.180 E0.38326
G1 X132.269 Y88.180 E0.01685
G1 X123.820 Y79.731 E0.37611
