; generated by PrusaSlicer 2.3.0+win64 on 2021-07-17 at 00:42:06 UTC

; 

; external perimeters extrusion width = 0.60mm
; perimeters extrusion width = 0.50mm
; infill extrusion width = 0.50mm
; solid infill extrusion width = 0.50mm
; top infill extrusion width = 0.45mm
; first layer extrusion width = 0.42mm

M73 P0 R6
M73 Q0 S6
M201 X1000 Y1000 Z200 E5000 ; sets maximum accelerations, mm/sec^2
M203 X200 Y200 Z12 E120 ; sets maximum feedrates, mm/sec
M204 P1250 R1250 T1250 ; sets acceleration (P, T) and retract acceleration (R), mm/sec^2
M205 X8.00 Y8.00 Z0.40 E4.50 ; sets the jerk limits, mm/sec
M205 S0 T0 ; sets the minimum extruding and travel feed rate, mm/sec
M107
;TYPE:Custom
M862.3 P "MK3S" ; printer model check
M862.1 P0.4 ; nozzle diameter check
M115 U3.9.1 ; tell printer latest fw version
G90 ; use absolute coordinates
M83 ; extruder relative mode
M104 S240 ; set extruder temp
M140 S85 ; set bed temp
M190 S85 ; wait for bed temp
M109 S240 ; wait for extruder temp
G28 W ; home all without mesh bed level
G80 ; mesh bed leveling
G1 Y-3.0 F1000.0 ; go outside print area
G92 E0.0
G1 X60.0 E9.0 F1000.0 ; intro line
M73 P1 R6
M73 Q1 S6
G1 X100.0 E12.5 F1000.0 ; intro line
G92 E0.0
M221 S95

; Don't change E values below. Excessive value can damage the printer.

M907 E538 ; set extruder motor current
G21 ; set units to millimeters
G90 ; use absolute coordinates
M83 ; use relative distances for extrusion
M900 K0.08 ; Filament gcode LA 1.5
M900 K45 ; Filament gcode LA 1.0
;LAYER_CHANGE
;Z:0.2
;HEIGHT:0.2
;BEFORE_LAYER_CHANGE
G92 E0.0
;0.2


G1 E-1.40000 F2100.000
G1 Z0.200 F10800.000
;AFTER_LAYER_CHANGE
;0.2
G1 Z0.400
G1 X116.445 Y90.472
M73 Q2 S6
G1 Z0.200
G1 E1.40000 F2100.000
M204 S1000
;TYPE:Skirt
;WIDTH:0.42
M73 P2 R6
G1 F1200.000
G1 X116.808 Y89.832 E0.02307
G1 X117.328 Y89.311 E0.02307
G1 X117.964 Y88.948 E0.02294
G1 X118.676 Y88.765 E0.02307
G1 X131.004 Y88.746 E0.38654
G1 X132.005 Y88.936 E0.03195
G1 X132.869 Y89.477 E0.03195
G1 X133.475 Y90.291 E0.03183
G1 X133.745 Y91.274 E0.03195
G1 X133.754 Y118.516 E0.85417
G1 X133.555 Y119.528 E0.03233
G1 X133.182 Y120.181 E0.02358
G1 X132.649 Y120.706 E0.02345
G1 X131.995 Y121.068 E0.02345
G1 X131.267 Y121.241 E0.02345
G1 X118.963 Y121.254 E0.38577
G1 X117.972 Y121.055 E0.03170
G1 X117.293 Y120.661 E0.02460
G1 X116.755 Y120.096 E0.02447
M73 Q3 S6
G1 X116.398 Y119.402 E0.02447
G1 X116.249 Y118.636 E0.02447
G1 X116.246 Y91.480 E0.85147
M73 P3 R6
G1 X116.433 Y90.531 E0.03032
G1 X116.799 Y90.604 F10800.000
G1 F1200.000
G1 X117.118 Y90.048 E0.02008
G1 X117.572 Y89.600 E0.02000
G1 X118.132 Y89.287 E0.02012
G1 X118.752 Y89.136 E0.02000
G1 X131.004 Y89.123 E0.38415
G1 X131.871 Y89.288 E0.02767
G1 X132.620 Y89.761 E0.02778
G1 X133.143 Y90.471 E0.02767
G1 X133.371 Y91.328 E0.02778
G1 X133.377 Y118.515 E0.85245
M73 P4 R6
M73 Q4 S6
G1 X133.201 Y119.399 E0.02825
G1 X132.873 Y119.964 E0.02048
G1 X132.407 Y120.416 E0.02036
G1 X131.836 Y120.725 E0.02036
G1 X131.203 Y120.868 E0.02036
G1 X118.970 Y120.877 E0.38356
G1 X118.101 Y120.701 E0.02778
G1 X117.521 Y120.361 E0.02107
G1 X117.057 Y119.870 E0.02119
G1 X116.750 Y119.268 E0.02119
G1 X116.625 Y118.604 E0.02119
G1 X116.623 Y91.485 E0.85030
G1 X116.787 Y90.663 E0.02629
;WIPE_START
G1 F8640.000
G1 X117.118 Y90.048 E-0.16107
G1 X117.572 Y89.600 E-0.14731
G1 X118.132 Y89.287 E-0.14818
G1 X118.752 Y89.136 E-0.14731
G1 X121.896 Y89.133 E-0.72612
;WIPE_END
G1 E-0.07000 F2100.000
G1 Z0.400 F10800.000
G1 X122.981 Y99.128
G1 Z0.200
G1 E1.40000 F2100.000
;TYPE:Perimeter
G1 F1200.000
G1 X123.306 Y98.911 E0.01226
G1 X123.657 Y98.738 E0.01226
G1 X124.027 Y98.613 E0.01226
G1 X124.411 Y98.537 E0.01226
G1 X124.776 Y98.513 E0.01150
G1 X125.189 Y98.536 E0.01295
G1 X125.574 Y98.613 E0.01234
G1 X125.945 Y98.739 E0.01226
G1 X126.295 Y98.912 E0.01225
G1 X126.600 Y99.116 E0.01151
G1 X126.913 Y99.387 E0.01298
G1 X127.172 Y99.682 E0.01233
G1 X127.376 Y99.987 E0.01147
G1 X127.561 Y100.356 E0.01298
G1 X127.688 Y100.729 E0.01234
G1 X127.763 Y101.112 E0.01225
G1 X127.787 Y101.473 E0.01134
G1 X127.787 Y108.527 E0.22114
M73 P5 R6
M73 Q5 S6
G1 X127.763 Y108.888 E0.01134
G1 X127.688 Y109.271 E0.01225
G1 X127.561 Y109.644 E0.01234
G1 X127.376 Y110.013 E0.01298
G1 X127.172 Y110.318 E0.01147
G1 X126.915 Y110.612 E0.01225
G1 X126.620 Y110.870 E0.01230
G1 X126.293 Y111.089 E0.01234
G1 X125.922 Y111.269 E0.01294
G1 X125.574 Y111.387 E0.01150
G1 X125.191 Y111.463 E0.01226
G1 X124.798 Y111.489 E0.01234
G1 X124.387 Y111.459 E0.01295
G1 X124.027 Y111.387 E0.01149
G1 X123.655 Y111.261 E0.01233
G1 X123.286 Y111.075 E0.01295
G1 X122.981 Y110.871 E0.01149
G1 X122.685 Y110.612 E0.01234
G1 X122.415 Y110.299 E0.01295
G1 X122.212 Y109.995 E0.01148
G1 X122.038 Y109.642 E0.01234
G1 X121.908 Y109.250 E0.01296
G1 X121.837 Y108.890 E0.01148
G1 X121.813 Y108.526 E0.01145
G1 X121.813 Y101.474 E0.22111
G1 X121.837 Y101.110 E0.01145
G1 X121.913 Y100.726 E0.01226
G1 X122.039 Y100.356 E0.01226
G1 X122.212 Y100.005 E0.01226
G1 X122.415 Y99.701 E0.01148
G1 X122.685 Y99.388 E0.01295
G1 X122.936 Y99.168 E0.01046
G1 X123.185 Y99.452 F10800.000
;TYPE:External perimeter
G1 F1200.000
G1 X123.495 Y99.239 E0.01181
G1 X123.801 Y99.088 E0.01071
G1 X124.125 Y98.978 E0.01071
G1 X124.460 Y98.911 E0.01071
G1 X124.778 Y98.891 E0.00999
G1 X125.141 Y98.911 E0.01139
G1 X125.477 Y98.978 E0.01074
G1 X125.800 Y99.088 E0.01071
G1 X126.106 Y99.239 E0.01071
G1 X126.371 Y99.417 E0.01000
G1 X126.647 Y99.655 E0.01142
G1 X126.873 Y99.912 E0.01073
G1 X127.049 Y100.177 E0.00997
G1 X127.213 Y100.502 E0.01142
G1 X127.322 Y100.827 E0.01074
G1 X127.389 Y101.162 E0.01071
G1 X127.410 Y101.486 E0.01019
G1 X127.410 Y108.514 E0.22037
G1 X127.389 Y108.838 E0.01019
G1 X127.322 Y109.173 E0.01071
G1 X127.213 Y109.498 E0.01074
G1 X127.049 Y109.823 E0.01142
G1 X126.873 Y110.088 E0.00997
G1 X126.648 Y110.345 E0.01071
G1 X126.390 Y110.571 E0.01074
G1 X126.105 Y110.761 E0.01074
G1 X125.778 Y110.919 E0.01139
G1 X125.476 Y111.022 E0.01000
G1 X125.142 Y111.088 E0.01071
G1 X124.800 Y111.111 E0.01074
G1 X124.437 Y111.084 E0.01139
G1 X124.125 Y111.022 E0.00999
G1 X123.801 Y110.912 E0.01074
G1 X123.476 Y110.749 E0.01140
G1 X123.211 Y110.572 E0.00999
G1 X122.954 Y110.346 E0.01074
G1 X122.716 Y110.071 E0.01140
G1 X122.539 Y109.806 E0.00998
G1 X122.388 Y109.499 E0.01074
G1 X122.274 Y109.153 E0.01141
G1 X122.212 Y108.841 E0.00998
G1 X122.190 Y108.514 E0.01029
G1 X122.190 Y101.486 E0.22034
G1 X122.212 Y101.159 E0.01029
G1 X122.278 Y100.824 E0.01071
G1 X122.388 Y100.500 E0.01071
G1 X122.539 Y100.194 E0.01071
G1 X122.716 Y99.929 E0.00998
G1 X122.954 Y99.654 E0.01140
G1 X123.139 Y99.491 E0.00775
G1 X123.131 Y99.079 F10800.000
;WIPE_START
G1 F8640.000
G1 X123.495 Y99.239 E-0.10072
G1 X123.801 Y99.088 E-0.07887
G1 X124.125 Y98.978 E-0.07887
G1 X124.460 Y98.911 E-0.07885
G1 X124.778 Y98.891 E-0.07360
G1 X125.141 Y98.911 E-0.08390
G1 X125.477 Y98.978 E-0.07907
G1 X125.800 Y99.088 E-0.07887
G1 X126.106 Y99.239 E-0.07885
G1 X126.371 Y99.417 E-0.07366
G1 X126.647 Y99.655 E-0.08411
G1 X126.873 Y99.912 E-0.07905
G1 X127.049 Y100.177 E-0.07343
G1 X127.213 Y100.502 E-0.08411
G1 X127.322 Y100.827 E-0.07907
G1 X127.389 Y101.162 E-0.07885
G1 X127.402 Y101.361 E-0.04612
;WIPE_END
G1 E-0.07000 F2100.000
G1 Z0.400 F10800.000
G1 X119.787 Y92.287
G1 Z0.200
G1 E1.40000 F2100.000
;TYPE:Perimeter
G1 F1200.000
G1 X130.213 Y92.287 E0.32689
M73 P6 R6
M73 Q6 S6
G1 X130.213 Y117.713 E0.79721
G1 X119.787 Y117.713 E0.32689
G1 X119.787 Y92.347 E0.79533
G1 X119.410 Y91.910 F10800.000
;TYPE:External perimeter
G1 F1200.000
G1 X130.590 Y91.910 E0.35054
M73 P7 R6
M73 Q7 S6
G1 X130.590 Y118.090 E0.82086
M73 P7 R5
G1 X119.410 Y118.090 E0.35054
G1 X119.410 Y91.970 E0.81897
M73 Q7 S5
G1 X119.780 Y92.062 F10800.000
;WIPE_START
M73 Q8 S5
G1 F8640.000
G1 X125.170 Y91.939 E-1.33000
;WIPE_END
G1 E-0.07000 F2100.000
M73 P8 R5
G1 Z0.400 F10800.000
G1 X129.331 Y92.400
G1 Z0.200
G1 E1.40000 F2100.000
;TYPE:Solid infill
;WIDTH:0.422986
G1 F1200.000
G1 X129.930 Y92.999 E0.02677
G1 X129.930 Y93.537 E0.01699
G1 X128.963 Y92.570 E0.04321
G1 X128.426 Y92.570 E0.01699
G1 X129.930 Y94.074 E0.06723
G1 X129.930 Y94.612 E0.01699
G1 X127.888 Y92.570 E0.09125
G1 X127.351 Y92.570 E0.01699
G1 X129.930 Y95.149 E0.11527
G1 X129.930 Y95.687 E0.01699
G1 X126.813 Y92.570 E0.13929
G1 X126.276 Y92.570 E0.01699
G1 X129.930 Y96.224 E0.16332
G1 X129.930 Y96.762 E0.01699
G1 X125.738 Y92.570 E0.18734
G1 X125.201 Y92.570 E0.01699
G1 X129.930 Y97.299 E0.21136
G1 X129.930 Y97.837 E0.01699
G1 X124.663 Y92.570 E0.23538
G1 X124.126 Y92.570 E0.01699
G1 X129.930 Y98.374 E0.25941
G1 X129.930 Y98.912 E0.01699
G1 X123.588 Y92.570 E0.28343
M73 P9 R5
M73 Q9 S5
G1 X123.051 Y92.570 E0.01699
G1 X129.930 Y99.449 E0.30745
G1 X129.930 Y99.987 E0.01699
G1 X122.513 Y92.570 E0.33147
G1 X121.976 Y92.570 E0.01699
G1 X129.930 Y100.524 E0.35549
G1 X129.930 Y101.062 E0.01699
G1 X121.438 Y92.570 E0.37952
G1 X120.901 Y92.570 E0.01699
G1 X129.930 Y101.599 E0.40354
G1 X129.930 Y102.137 E0.01699
G1 X120.363 Y92.570 E0.42756
M73 P10 R5
M73 Q10 S5
G1 X120.070 Y92.570 E0.00928
G1 X120.070 Y92.814 E0.00771
G1 X125.583 Y98.327 E0.24638
G1 X125.225 Y98.255 E0.01154
G1 X124.959 Y98.240 E0.00842
G1 X120.070 Y93.351 E0.21849
G1 X120.070 Y93.889 E0.01699
G1 X124.433 Y98.252 E0.19500
G1 X123.978 Y98.334 E0.01461
G1 X120.070 Y94.426 E0.17466
G1 X120.070 Y94.964 E0.01699
G1 X123.574 Y98.468 E0.15661
G1 X123.211 Y98.643 E0.01272
G1 X120.070 Y95.501 E0.14040
G1 X120.070 Y96.039 E0.01699
G1 X122.884 Y98.853 E0.12578
G1 X122.589 Y99.096 E0.01207
G1 X120.070 Y96.576 E0.11260
G1 X120.070 Y97.114 E0.01699
G1 X122.327 Y99.371 E0.10086
G1 X122.093 Y99.674 E0.01211
G1 X120.070 Y97.651 E0.09042
G1 X120.070 Y98.189 E0.01699
G1 X121.893 Y100.012 E0.08149
G1 X121.730 Y100.386 E0.01290
G1 X120.070 Y98.726 E0.07419
G1 X120.070 Y99.264 E0.01699
G1 X121.609 Y100.803 E0.06881
G1 X121.556 Y101.072 E0.00867
M73 Q11 S5
G1 X121.543 Y101.274 E0.00638
G1 X120.070 Y99.801 E0.06582
M73 P11 R5
G1 X120.070 Y100.339 E0.01699
G1 X121.530 Y101.799 E0.06526
G1 X121.530 Y102.336 E0.01699
G1 X120.070 Y100.876 E0.06526
G1 X120.070 Y101.414 E0.01699
G1 X121.530 Y102.874 E0.06526
G1 X121.530 Y103.411 E0.01699
G1 X120.070 Y101.951 E0.06526
G1 X120.070 Y102.489 E0.01699
G1 X121.530 Y103.949 E0.06526
G1 X121.530 Y104.486 E0.01699
G1 X120.070 Y103.026 E0.06526
G1 X120.070 Y103.564 E0.01699
G1 X121.530 Y105.024 E0.06526
G1 X121.530 Y105.561 E0.01699
G1 X120.070 Y104.101 E0.06526
G1 X120.070 Y104.639 E0.01699
G1 X121.530 Y106.099 E0.06526
G1 X121.530 Y106.636 E0.01699
G1 X120.070 Y105.176 E0.06526
G1 X120.070 Y105.714 E0.01699
G1 X121.530 Y107.174 E0.06526
G1 X121.530 Y107.711 E0.01699
G1 X120.070 Y106.251 E0.06526
G1 X120.070 Y106.789 E0.01699
G1 X121.530 Y108.249 E0.06526
G1 X121.548 Y108.804 E0.01755
G1 X119.900 Y107.156 E0.07363
;WIPE_START
G1 F8640.000
G1 X121.548 Y108.804 E-0.53801
G1 X121.530 Y108.249 E-0.12825
G1 X120.070 Y106.789 E-0.47684
G1 X120.070 Y106.251 E-0.12411
G1 X120.262 Y106.443 E-0.06280
;WIPE_END
G1 E-0.07000 F2100.000
G1 Z0.400 F10800.000
G1 X127.716 Y100.460
G1 Z0.200
G1 E1.40000 F2100.000
G1 F1200.000
G1 X129.930 Y102.674 E0.09897
G1 X129.930 Y103.212 E0.01699
G1 X128.062 Y101.343 E0.08349
G1 X128.070 Y101.889 E0.01724
G1 X129.930 Y103.749 E0.08314
G1 X129.930 Y104.286 E0.01699
G1 X128.070 Y102.426 E0.08314
G1 X128.070 Y102.964 E0.01699
G1 X129.930 Y104.824 E0.08314
G1 X129.930 Y105.361 E0.01699
M73 Q12 S5
G1 X128.070 Y103.501 E0.08314
M73 P12 R5
G1 X128.070 Y104.039 E0.01699
G1 X129.930 Y105.899 E0.08314
G1 X129.930 Y106.436 E0.01699
G1 X128.070 Y104.576 E0.08314
G1 X128.070 Y105.114 E0.01699
G1 X129.930 Y106.974 E0.08314
G1 X129.930 Y107.511 E0.01699
G1 X128.070 Y105.651 E0.08314
G1 X128.070 Y106.189 E0.01699
G1 X129.930 Y108.049 E0.08314
G1 X129.930 Y108.586 E0.01699
G1 X128.070 Y106.726 E0.08314
G1 X128.070 Y107.264 E0.01699
G1 X129.930 Y109.124 E0.08314
G1 X129.930 Y109.661 E0.01699
G1 X128.070 Y107.801 E0.08314
G1 X128.070 Y108.339 E0.01699
G1 X129.930 Y110.199 E0.08314
G1 X129.930 Y110.736 E0.01699
G1 X128.049 Y108.855 E0.08408
G1 X127.968 Y109.312 E0.01465
G1 X129.930 Y111.274 E0.08770
G1 X129.930 Y111.811 E0.01699
G1 X127.835 Y109.717 E0.09362
G1 X127.660 Y110.078 E0.01271
G1 X129.930 Y112.349 E0.10148
G1 X129.930 Y112.886 E0.01699
G1 X127.452 Y110.408 E0.11076
G1 X127.210 Y110.704 E0.01207
G1 X129.930 Y113.424 E0.12157
G1 X129.930 Y113.961 E0.01699
G1 X126.937 Y110.969 E0.13376
G1 X126.793 Y111.095 E0.00607
G1 X126.633 Y111.202 E0.00607
G1 X129.930 Y114.499 E0.14735
G1 X129.930 Y115.036 E0.01699
G1 X126.296 Y111.402 E0.16243
M73 P13 R5
M73 Q13 S5
G1 X125.923 Y111.567 E0.01288
G1 X129.930 Y115.574 E0.17908
G1 X129.930 Y116.111 E0.01699
G1 X125.507 Y111.688 E0.19767
G1 X125.228 Y111.744 E0.00899
G1 X125.038 Y111.757 E0.00603
G1 X129.930 Y116.649 E0.21865
G1 X129.930 Y117.186 E0.01699
G1 X124.301 Y111.557 E0.25160
;WIPE_START
G1 F8640.000
G1 X128.374 Y115.630 E-1.33000
;WIPE_END
G1 E-0.07000 F2100.000
G1 Z0.400 F10800.000
G1 X119.900 Y107.694
G1 Z0.200
G1 E1.40000 F2100.000
G1 F1200.000
G1 X121.687 Y109.480 E0.07984
G1 X121.775 Y109.749 E0.00895
G1 X121.966 Y110.136 E0.01364
G1 X122.190 Y110.471 E0.01271
G1 X122.484 Y110.812 E0.01423
G1 X122.808 Y111.096 E0.01364
G1 X123.143 Y111.320 E0.01271
G1 X123.545 Y111.522 E0.01422
G1 X123.823 Y111.616 E0.00926
G1 X129.636 Y117.430 E0.25983
G1 X129.099 Y117.430 E0.01699
G1 X120.070 Y108.401 E0.40353
G1 X120.070 Y108.939 E0.01699
G1 X128.561 Y117.430 E0.37951
M73 P14 R5
M73 Q14 S5
G1 X128.024 Y117.430 E0.01699
G1 X120.070 Y109.476 E0.35549
G1 X120.070 Y110.014 E0.01699
G1 X127.486 Y117.430 E0.33147
G1 X126.949 Y117.430 E0.01699
G1 X120.070 Y110.551 E0.30744
G1 X120.070 Y111.089 E0.01699
G1 X126.411 Y117.430 E0.28342
G1 X125.874 Y117.430 E0.01699
G1 X120.070 Y111.626 E0.25940
G1 X120.070 Y112.164 E0.01699
G1 X125.336 Y117.430 E0.23538
G1 X124.799 Y117.430 E0.01699
M73 P15 R5
G1 X120.070 Y112.701 E0.21135
M73 Q15 S5
G1 X120.070 Y113.239 E0.01699
G1 X124.261 Y117.430 E0.18733
G1 X123.724 Y117.430 E0.01699
G1 X120.070 Y113.776 E0.16331
G1 X120.070 Y114.314 E0.01699
G1 X123.186 Y117.430 E0.13929
G1 X122.649 Y117.430 E0.01699
G1 X120.070 Y114.851 E0.11527
G1 X120.070 Y115.389 E0.01699
G1 X122.111 Y117.430 E0.09124
G1 X121.574 Y117.430 E0.01699
G1 X120.070 Y115.926 E0.06722
G1 X120.070 Y116.464 E0.01699
G1 X121.036 Y117.430 E0.04320
G1 X120.499 Y117.430 E0.01699
G1 X119.900 Y116.831 E0.02676
;LAYER_CHANGE
;Z:0.5
;HEIGHT:0.3
;BEFORE_LAYER_CHANGE
G92 E0.0
;0.5


;WIPE_START
G1 F8640.000
G1 X120.499 Y117.430 E-0.19553
G1 X121.036 Y117.430 E-0.12411
G1 X120.070 Y116.464 E-0.31564
G1 X120.070 Y115.926 E-0.12411
G1 X121.574 Y117.430 E-0.49115
G1 X121.918 Y117.430 E-0.07946
;WIPE_END
G1 E-0.07000 F2100.000
G1 Z0.400 F10800.000
G1 Z0.500
;AFTER_LAYER_CHANGE
;0.5
M104 S250 ; set temperature
M140 S90 ; set bed temperature
G1 Z0.700
G1 X117.972 Y121.055
G1 Z0.500
G1 E1.40000 F2100.000
;TYPE:Skirt
;WIDTH:0.42
G1 F2700.000
G1 X117.293 Y120.661 E0.03480
G1 X116.755 Y120.096 E0.03462
G1 X116.398 Y119.402 E0.03462
G1 X116.249 Y118.636 E0.03462
G1 X116.246 Y91.480 E1.20452
G1 X116.445 Y90.472 E0.04556
G1 X116.808 Y89.832 E0.03264
G1 X117.328 Y89.311 E0.03264
G1 X117.964 Y88.948 E0.03246
G1 X118.676 Y88.765 E0.03264
G1 X131.004 Y88.746 E0.54681
M73 P16 R5
M73 Q16 S5
G1 X132.005 Y88.936 E0.04520
G1 X132.869 Y89.477 E0.04520
G1 X133.475 Y90.291 E0.04502
G1 X133.745 Y91.274 E0.04520
G1 X133.754 Y118.516 E1.20833
G1 X133.555 Y119.528 E0.04574
G1 X133.182 Y120.181 E0.03336
G1 X132.649 Y120.706 E0.03318
G1 X131.995 Y121.068 E0.03318
G1 X131.267 Y121.241 E0.03318
G1 X118.963 Y121.254 E0.54573
G1 X118.031 Y121.067 E0.04218
G1 X118.105 Y120.701 F10800.000
G1 F2700.000
G1 X117.521 Y120.361 E0.02996
G1 X117.057 Y119.870 E0.02997
G1 X116.750 Y119.268 E0.02997
G1 X116.625 Y118.604 E0.02997
G1 X116.623 Y91.485 E1.20286
G1 X116.799 Y90.601 E0.03997
G1 X117.118 Y90.048 E0.02830
G1 X117.572 Y89.600 E0.02830
G1 X118.132 Y89.287 E0.02847
G1 X118.752 Y89.136 E0.02830
G1 X131.004 Y89.123 E0.54344
G1 X131.871 Y89.288 E0.03914
G1 X132.620 Y89.761 E0.03930
