; generated by PrusaSlicer 2.3.0+win64 on 2021-07-17 at 00:55:30 UTC

; 

; external perimeters extrusion width = 0.60mm
; perimeters extrusion width = 0.50mm
; infill extrusion width = 0.50mm
; solid infill extrusion width = 0.50mm
; top infill extrusion width = 0.45mm
; first layer extrusion width = 0.42mm

M73 P0 R19
M73 Q0 S19
M201 X1000 Y1000 Z200 E5000 ; sets maximum accelerations, mm/sec^2
M203 X200 Y200 Z12 E120 ; sets maximum feedrates, mm/sec
M204 P1250 R1250 T1250 ; sets acceleration (P, T) and retract acceleration (R), mm/sec^2
M205 X8.00 Y8.00 Z0.40 E4.50 ; sets the jerk limits, mm/sec
M205 S0 T0 ; sets the minimum extruding and travel feed rate, mm/sec
M107
;TYPE:Custom
M862.3 P "MK3S" ; printer model check
M862.1 P0.4 ; nozzle diameter check
M115 U3.9.1 ; tell printer latest fw version
G90 ; use absolute coordinates
M83 ; extruder relative mode
M104 S240 ; set extruder temp
M140 S85 ; set bed temp
M190 S85 ; wait for bed temp
M109 S240 ; wait for extruder temp
G28 W ; home all without mesh bed level
G80 ; mesh bed leveling
G1 Y-3.0 F1000.0 ; go outside print area
G92 E0.0
M73 P0 R18
G1 X60.0 E9.0 F1000.0 ; intro line
M73 Q0 S18
G1 X100.0 E12.5 F1000.0 ; intro line
G92 E0.0
M221 S95

; Don't change E values below. Excessive value can damage the printer.

M907 E538 ; set extruder motor current
G21 ; set units to millimeters
G90 ; use absolute coordinates
M83 ; use relative distances for extrusion
M900 K0.08 ; Filament gcode LA 1.5
M900 K45 ; Filament gcode LA 1.0
;LAYER_CHANGE
;Z:0.2
;HEIGHT:0.2
;BEFORE_LAYER_CHANGE
G92 E0.0
;0.2


G1 E-1.40000 F2100.000
G1 Z0.200 F10800.000
;AFTER_LAYER_CHANGE
;0.2
G1 Z0.400
G1 X116.835 Y90.787
G1 Z0.200
G1 E1.40000 F2100.000
M204 S1000
;TYPE:Skirt
;WIDTH:0.42
G1 F1200.000
G1 X117.352 Y90.287 E0.02256
G1 X117.981 Y89.938 E0.02256
G1 X118.679 Y89.764 E0.02256
G1 X131.013 Y89.746 E0.38671
G1 X132.007 Y89.933 E0.03170
G1 X132.869 Y90.469 E0.03183
G1 X133.478 Y91.280 E0.03183
G1 X133.752 Y92.258 E0.03183
G1 X133.763 Y117.525 E0.79223
G1 X133.703 Y118.074 E0.01733
G1 X133.535 Y118.596 E0.01720
G1 X133.155 Y119.226 E0.02307
G1 X132.625 Y119.730 E0.02294
G1 X131.977 Y120.079 E0.02307
G1 X131.259 Y120.243 E0.02307
G1 X118.946 Y120.254 E0.38608
G1 X118.409 Y120.192 E0.01694
G1 X117.895 Y120.027 E0.01694
G1 X117.243 Y119.628 E0.02396
G1 X116.728 Y119.069 E0.02383
G1 X116.384 Y118.387 E0.02396
G1 X116.240 Y117.636 E0.02396
G1 X116.237 Y92.475 E0.78889
M73 P1 R18
M73 Q1 S18
G1 X116.297 Y91.926 E0.01733
G1 X116.465 Y91.404 E0.01720
G1 X116.804 Y90.838 E0.02068
G1 X116.814 Y91.545 F10800.000
G1 F1200.000
G1 X117.139 Y91.009 E0.01965
G1 X117.593 Y90.577 E0.01965
G1 X118.144 Y90.279 E0.01965
G1 X118.754 Y90.135 E0.01965
G1 X131.013 Y90.123 E0.38436
G1 X131.879 Y90.288 E0.02767
G1 X132.626 Y90.758 E0.02767
G1 X133.150 Y91.468 E0.02767
G1 X133.379 Y92.320 E0.02767
G1 X133.386 Y117.519 E0.79010
G1 X133.186 Y118.455 E0.03001
G1 X132.853 Y119.000 E0.02000
G1 X132.388 Y119.436 E0.02000
G1 X131.823 Y119.733 E0.02000
G1 X131.200 Y119.869 E0.02000
G1 X118.957 Y119.877 E0.38388
G1 X118.036 Y119.677 E0.02954
G1 X117.477 Y119.332 E0.02060
G1 X117.031 Y118.845 E0.02071
G1 X116.737 Y118.253 E0.02071
G1 X116.616 Y117.604 E0.02071
G1 X116.614 Y92.481 E0.78771
G1 X116.802 Y91.604 E0.02813
;WIPE_START
G1 F8640.000
G1 X117.139 Y91.009 E-0.15785
G1 X117.593 Y90.577 E-0.14470
G1 X118.144 Y90.279 E-0.14470
G1 X118.754 Y90.135 E-0.14470
G1 X121.951 Y90.132 E-0.73806
;WIPE_END
G1 E-0.07000 F2100.000
G1 Z0.400 F10800.000
G1 X123.602 Y104.802
G1 Z0.200
G1 E1.40000 F2100.000
;TYPE:Perimeter
G1 F1200.000
G1 X123.982 Y104.637 E0.01300
G1 X124.382 Y104.525 E0.01300
G1 X124.793 Y104.468 E0.01300
G1 X125.207 Y104.468 E0.01300
G1 X125.618 Y104.525 E0.01300
G1 X126.018 Y104.637 E0.01300
G1 X126.398 Y104.802 E0.01300
G1 X126.752 Y105.017 E0.01300
G1 X127.074 Y105.279 E0.01300
G1 X127.357 Y105.582 E0.01300
G1 X127.597 Y105.921 E0.01300
G1 X127.777 Y106.270 E0.01231
G1 X127.926 Y106.678 E0.01362
G1 X128.011 Y107.086 E0.01308
G1 X128.039 Y107.500 E0.01300
G1 X128.011 Y107.914 E0.01300
G1 X127.926 Y108.320 E0.01300
G1 X127.787 Y108.711 E0.01300
G1 X127.597 Y109.079 E0.01300
G1 X127.357 Y109.418 E0.01300
G1 X127.074 Y109.721 E0.01300
G1 X126.752 Y109.983 E0.01300
G1 X126.398 Y110.198 E0.01300
G1 X126.018 Y110.363 E0.01300
G1 X125.618 Y110.475 E0.01300
G1 X125.207 Y110.532 E0.01300
G1 X124.793 Y110.532 E0.01300
G1 X124.382 Y110.475 E0.01300
G1 X123.982 Y110.363 E0.01300
G1 X123.602 Y110.198 E0.01300
G1 X123.248 Y109.983 E0.01300
G1 X122.926 Y109.721 E0.01300
G1 X122.643 Y109.418 E0.01300
G1 X122.403 Y109.079 E0.01300
G1 X122.213 Y108.711 E0.01300
G1 X122.074 Y108.320 E0.01300
G1 X121.989 Y107.914 E0.01300
G1 X121.963 Y107.522 E0.01231
G1 X121.989 Y107.088 E0.01362
G1 X122.074 Y106.680 E0.01308
G1 X122.213 Y106.289 E0.01300
G1 X122.403 Y105.921 E0.01300
G1 X122.643 Y105.582 E0.01300
G1 X122.926 Y105.279 E0.01300
G1 X123.248 Y105.017 E0.01300
G1 X123.551 Y104.833 E0.01112
G1 X123.747 Y105.155 F10800.000
;TYPE:External perimeter
G1 F1200.000
G1 X124.109 Y104.993 E0.01245
G1 X124.459 Y104.895 E0.01139
G1 X124.818 Y104.845 E0.01139
G1 X125.182 Y104.845 E0.01139
G1 X125.541 Y104.895 E0.01139
G1 X125.891 Y104.993 E0.01139
G1 X126.224 Y105.137 E0.01139
G1 X126.535 Y105.326 E0.01139
G1 X126.816 Y105.555 E0.01139
G1 X127.064 Y105.821 E0.01139
G1 X127.274 Y106.117 E0.01139
G1 X127.431 Y106.422 E0.01074
G1 X127.562 Y106.781 E0.01200
G1 X127.636 Y107.138 E0.01141
G1 X127.661 Y107.500 E0.01139
G1 X127.636 Y107.862 E0.01139
G1 X127.562 Y108.218 E0.01139
G1 X127.441 Y108.560 E0.01139
G1 X127.274 Y108.883 E0.01139
G1 X127.064 Y109.179 E0.01139
G1 X126.816 Y109.445 E0.01139
G1 X126.535 Y109.674 E0.01139
G1 X126.224 Y109.863 E0.01139
G1 X125.891 Y110.007 E0.01139
G1 X125.541 Y110.105 E0.01139
G1 X125.182 Y110.155 E0.01139
G1 X124.818 Y110.155 E0.01139
G1 X124.459 Y110.105 E0.01139
G1 X124.109 Y110.007 E0.01139
G1 X123.776 Y109.863 E0.01139
G1 X123.465 Y109.674 E0.01139
G1 X123.184 Y109.445 E0.01139
G1 X122.936 Y109.179 E0.01139
G1 X122.726 Y108.883 E0.01139
G1 X122.559 Y108.560 E0.01139
G1 X122.438 Y108.218 E0.01139
G1 X122.364 Y107.862 E0.01139
G1 X122.340 Y107.521 E0.01074
G1 X122.364 Y107.138 E0.01200
G1 X122.438 Y106.782 E0.01141
G1 X122.559 Y106.440 E0.01139
G1 X122.726 Y106.117 E0.01139
G1 X122.936 Y105.821 E0.01139
G1 X123.184 Y105.555 E0.01139
G1 X123.465 Y105.326 E0.01139
G1 X123.695 Y105.186 E0.00843
G1 X123.761 Y104.758 F10800.000
;WIPE_START
G1 F8640.000
G1 X124.109 Y104.993 E-0.10545
G1 X124.459 Y104.895 E-0.08386
G1 X124.818 Y104.845 E-0.08386
G1 X125.182 Y104.845 E-0.08386
G1 X125.541 Y104.895 E-0.08386
G1 X125.891 Y104.993 E-0.08386
G1 X126.224 Y105.137 E-0.08386
G1 X126.535 Y105.326 E-0.08386
G1 X126.816 Y105.555 E-0.08386
G1 X127.064 Y105.821 E-0.08386
G1 X127.274 Y106.117 E-0.08386
G1 X127.431 Y106.422 E-0.07910
G1 X127.562 Y106.781 E-0.08840
G1 X127.636 Y107.138 E-0.08404
G1 X127.661 Y107.500 E-0.08386
G1 X127.646 Y107.718 E-0.05056
;WIPE_END
G1 E-0.07000 F2100.000
G1 Z0.400 F10800.000
G1 X119.778 Y116.713
G1 Z0.200
G1 E1.40000 F2100.000
;TYPE:Perimeter
G1 F1200.000
G1 X119.778 Y93.287 E0.73450
G1 X130.222 Y93.287 E0.32745
G1 X130.222 Y116.713 E0.73450
M73 Q2 S18
G1 X119.838 Y116.713 E0.32557
M73 P2 R18
G1 X119.401 Y117.090 F10800.000
;TYPE:External perimeter
G1 F1200.000
G1 X119.401 Y92.910 E0.75815
G1 X130.599 Y92.910 E0.35110
G1 X130.599 Y117.090 E0.75815
G1 X119.461 Y117.090 E0.34922
G1 X119.459 Y116.694 F10800.000
;WIPE_START
G1 F8640.000
G1 X119.447 Y111.330 E-1.33000
;WIPE_END
G1 E-0.07000 F2100.000
G1 Z0.400 F10800.000
G1 X130.109 Y94.173
G1 Z0.200
G1 E1.40000 F2100.000
;TYPE:Solid infill
;WIDTH:0.424899
G1 F1200.000
G1 X129.506 Y93.570 E0.02708
G1 X128.966 Y93.570 E0.01716
G1 X129.939 Y94.543 E0.04373
G1 X129.939 Y95.084 E0.01716
G1 X128.425 Y93.570 E0.06799
G1 X127.885 Y93.570 E0.01716
G1 X129.939 Y95.624 E0.09226
G1 X129.939 Y96.164 E0.01716
G1 X127.345 Y93.570 E0.11652
G1 X126.805 Y93.570 E0.01716
G1 X129.939 Y96.704 E0.14079
G1 X129.939 Y97.244 E0.01716
G1 X126.265 Y93.570 E0.16505
G1 X125.724 Y93.570 E0.01716
G1 X129.939 Y97.785 E0.18931
G1 X129.939 Y98.325 E0.01716
G1 X125.184 Y93.570 E0.21358
G1 X124.644 Y93.570 E0.01716
G1 X129.939 Y98.865 E0.23784
G1 X129.939 Y99.405 E0.01716
G1 X124.104 Y93.570 E0.26211
G1 X123.564 Y93.570 E0.01716
G1 X129.939 Y99.945 E0.28637
G1 X129.939 Y100.486 E0.01716
G1 X123.023 Y93.570 E0.31064
G1 X122.483 Y93.570 E0.01716
G1 X129.939 Y101.026 E0.33490
G1 X129.939 Y101.566 E0.01716
G1 X121.943 Y93.570 E0.35917
G1 X121.403 Y93.570 E0.01716
G1 X129.939 Y102.106 E0.38343
G1 X129.939 Y102.646 E0.01716
G1 X120.863 Y93.570 E0.40770
M73 Q3 S18
G1 X120.322 Y93.570 E0.01716
G1 X129.939 Y103.187 E0.43196
M73 P3 R18
G1 X129.939 Y103.727 E0.01716
G1 X120.061 Y93.849 E0.44370
G1 X120.061 Y94.389 E0.01716
G1 X129.939 Y104.267 E0.44370
G1 X129.939 Y104.807 E0.01716
G1 X120.061 Y94.929 E0.44370
G1 X120.061 Y95.469 E0.01716
G1 X129.939 Y105.347 E0.44370
G1 X129.939 Y105.888 E0.01716
G1 X120.061 Y96.010 E0.44370
G1 X120.061 Y96.550 E0.01716
G1 X129.939 Y106.428 E0.44370
G1 X129.939 Y106.968 E0.01716
G1 X120.061 Y97.090 E0.44370
G1 X120.061 Y97.630 E0.01716
G1 X129.939 Y107.508 E0.44370
G1 X129.939 Y108.048 E0.01716
G1 X128.026 Y106.135 E0.08592
G1 X127.839 Y105.774 E0.01294
G1 X127.577 Y105.403 E0.01440
G1 X127.268 Y105.072 E0.01440
G1 X126.916 Y104.786 E0.01440
G1 X126.529 Y104.550 E0.01440
G1 X126.373 Y104.483 E0.00537
G1 X120.061 Y98.170 E0.28354
G1 X120.061 Y98.711 E0.01716
G1 X125.585 Y104.235 E0.24813
G1 X125.227 Y104.185 E0.01149
G1 X124.996 Y104.185 E0.00734
G1 X120.061 Y99.251 E0.22165
G1 X120.061 Y99.791 E0.01716
G1 X124.494 Y104.224 E0.19911
G1 X124.324 Y104.247 E0.00544
G1 X124.053 Y104.323 E0.00894
G1 X120.061 Y100.331 E0.17931
G1 X120.061 Y100.871 E0.01716
G1 X123.659 Y104.469 E0.16159
G1 X123.471 Y104.550 E0.00648
G1 X123.302 Y104.653 E0.00629
G1 X120.061 Y101.412 E0.14560
G1 X120.061 Y101.952 E0.01716
G1 X122.980 Y104.871 E0.13111
G1 X122.688 Y105.119 E0.01217
G1 X120.061 Y102.492 E0.11801
G1 X120.061 Y103.032 E0.01716
G1 X122.427 Y105.398 E0.10629
G1 X122.203 Y105.714 E0.01231
G1 X120.061 Y103.572 E0.09622
G1 X120.061 Y104.113 E0.01716
G1 X122.011 Y106.063 E0.08761
G1 X121.856 Y106.448 E0.01318
G1 X120.061 Y104.653 E0.08064
G1 X120.061 Y105.193 E0.01716
G1 X121.744 Y106.876 E0.07561
G1 X121.708 Y107.051 E0.00567
G1 X121.689 Y107.361 E0.00987
G1 X120.061 Y105.733 E0.07313
G1 X120.061 Y106.273 E0.01716
G1 X121.919 Y108.131 E0.08346
;WIPE_START
M73 Q4 S18
G1 F8640.000
G1 X120.061 Y106.273 E-0.60676
G1 X120.061 Y105.733 E-0.12473
G1 X121.689 Y107.361 E-0.53164
G1 X121.707 Y107.072 E-0.06687
;WIPE_END
G1 E-0.07000 F2100.000
G1 Z0.400 F10800.000
M73 P4 R18
G1 X128.045 Y106.694
G1 Z0.200
G1 E1.40000 F2100.000
G1 F1200.000
G1 X129.939 Y108.589 E0.08509
G1 X129.939 Y109.129 E0.01716
G1 X128.322 Y107.511 E0.07265
G1 X128.280 Y108.010 E0.01588
G1 X129.939 Y109.669 E0.07454
G1 X129.939 Y110.209 E0.01716
G1 X128.180 Y108.450 E0.07901
G1 X128.036 Y108.846 E0.01338
G1 X129.939 Y110.749 E0.08549
G1 X129.939 Y111.290 E0.01716
G1 X127.851 Y109.202 E0.09377
G1 X127.630 Y109.521 E0.01233
G1 X129.939 Y111.830 E0.10369
G1 X129.939 Y112.370 E0.01716
G1 X127.379 Y109.809 E0.11501
G1 X127.268 Y109.928 E0.00516
G1 X127.096 Y110.068 E0.00702
G1 X129.939 Y112.910 E0.12769
G1 X129.939 Y113.450 E0.01716
G1 X126.783 Y110.295 E0.14174
G1 X126.438 Y110.489 E0.01260
G1 X129.939 Y113.991 E0.15727
G1 X129.939 Y114.531 E0.01716
G1 X126.055 Y110.647 E0.17446
G1 X125.628 Y110.760 E0.01404
G1 X129.939 Y115.071 E0.19366
G1 X129.939 Y115.611 E0.01716
G1 X125.142 Y110.815 E0.21545
G1 X124.773 Y110.815 E0.01173
G1 X124.575 Y110.787 E0.00636
G1 X129.939 Y116.151 E0.24094
G1 X129.939 Y116.430 E0.00885
G1 X129.678 Y116.430 E0.00830
G1 X123.871 Y110.623 E0.26083
G1 X123.471 Y110.450 E0.01383
G1 X123.084 Y110.214 E0.01440
G1 X122.732 Y109.928 E0.01440
G1 X122.423 Y109.597 E0.01440
G1 X122.161 Y109.226 E0.01440
G1 X121.953 Y108.824 E0.01440
G1 X121.887 Y108.640 E0.00619
G1 X120.061 Y106.814 E0.08204
G1 X120.061 Y107.354 E0.01716
G1 X129.137 Y116.430 E0.40769
G1 X128.597 Y116.430 E0.01716
G1 X120.061 Y107.894 E0.38343
G1 X120.061 Y108.434 E0.01716
G1 X128.057 Y116.430 E0.35916
G1 X127.517 Y116.430 E0.01716
G1 X120.061 Y108.974 E0.33490
G1 X120.061 Y109.515 E0.01716
G1 X126.977 Y116.430 E0.31063
G1 X126.436 Y116.430 E0.01716
G1 X120.061 Y110.055 E0.28637
G1 X120.061 Y110.595 E0.01716
G1 X125.896 Y116.430 E0.26211
G1 X125.356 Y116.430 E0.01716
G1 X120.061 Y111.135 E0.23784
G1 X120.061 Y111.675 E0.01716
G1 X124.816 Y116.430 E0.21358
G1 X124.276 Y116.430 E0.01716
G1 X120.061 Y112.216 E0.18931
G1 X120.061 Y112.756 E0.01716
G1 X123.735 Y116.430 E0.16505
G1 X123.195 Y116.430 E0.01716
G1 X120.061 Y113.296 E0.14078
G1 X120.061 Y113.836 E0.01716
G1 X122.655 Y116.430 E0.11652
G1 X122.115 Y116.430 E0.01716
G1 X120.061 Y114.376 E0.09225
G1 X120.061 Y114.917 E0.01716
G1 X121.575 Y116.430 E0.06799
G1 X121.034 Y116.430 E0.01716
G1 X120.061 Y115.457 E0.04372
M73 Q5 S18
G1 X120.061 Y115.997 E0.01716
G1 X120.664 Y116.600 E0.02708
;LAYER_CHANGE
;Z:0.5
;HEIGHT:0.3
;BEFORE_LAYER_CHANGE
G92 E0.0
;0.5


;WIPE_START
G1 F8640.000
G1 X120.061 Y115.997 E-0.19688
G1 X120.061 Y115.457 E-0.12473
G1 X121.034 Y116.430 E-0.31787
M73 P5 R18
G1 X121.575 Y116.430 E-0.12473
G1 X120.061 Y114.917 E-0.49427
G1 X120.061 Y114.607 E-0.07152
;WIPE_END
G1 E-0.07000 F2100.000
G1 Z0.400 F10800.000
G1 Z0.500
;AFTER_LAYER_CHANGE
;0.5
M104 S250 ; set temperature
M140 S90 ; set bed temperature
G1 Z0.700
G1 X116.384 Y118.387
G1 Z0.500
G1 E1.40000 F2100.000
;TYPE:Skirt
;WIDTH:0.42
G1 F2698
G1 X116.240 Y117.636 E0.03390
G1 X116.237 Y92.475 E1.11599
G1 X116.297 Y91.926 E0.02451
G1 X116.465 Y91.404 E0.02433
G1 X116.835 Y90.787 E0.03192
G1 X117.352 Y90.287 E0.03191
G1 X117.981 Y89.938 E0.03192
G1 X118.679 Y89.764 E0.03192
G1 X131.013 Y89.746 E0.54705
G1 X132.007 Y89.933 E0.04484
G1 X132.869 Y90.469 E0.04502
G1 X133.478 Y91.280 E0.04502
G1 X133.752 Y92.258 E0.04502
G1 X133.763 Y117.525 E1.12071
G1 X133.703 Y118.074 E0.02451
G1 X133.535 Y118.596 E0.02433
G1 X133.155 Y119.226 E0.03264
G1 X132.625 Y119.730 E0.03246
G1 X131.977 Y120.079 E0.03264
G1 X131.259 Y120.243 E0.03264
G1 X118.946 Y120.254 E0.54616
G1 X118.409 Y120.192 E0.02397
G1 X117.895 Y120.027 E0.02397
G1 X117.243 Y119.628 E0.03390
G1 X116.728 Y119.069 E0.03372
G1 X116.411 Y118.440 E0.03124
;WIPE_START
G1 F8640.000
G1 X116.240 Y117.636 E-0.18982
G1 X116.240 Y112.698 E-1.14018
;WIPE_END
G1 E-0.07000 F2100.000
G1 Z0.700 F10800.000
G1 X118.036 Y119.677
G1 Z0.500
G1 E1.40000 F2100.000
G1 F2698
G1 X117.477 Y119.332 E0.02913
G1 X117.031 Y118.845 E0.02930
G1 X116.737 Y118.253 E0.02930
G1 X116.616 Y117.604 E0.02930
G1 X116.614 Y92.481 E1.11432
G1 X116.814 Y91.545 E0.04245
G1 X117.139 Y91.009 E0.02780
G1 X117.593 Y90.577 E0.02780
G1 X118.144 Y90.279 E0.02780
G1 X118.754 Y90.135 E0.02780
G1 X131.013 Y90.123 E0.54372
G1 X131.879 Y90.288 E0.03914
G1 X132.626 Y90.758 E0.03914
G1 X133.150 Y91.468 E0.03914
G1 X133.379 Y92.320 E0.03914
G1 X133.386 Y117.519 E1.11770
M73 P5 R17
G1 X133.186 Y118.455 E0.04245
G1 X132.853 Y119.000 E0.02830
G1 X132.388 Y119.436 E0.02830
G1 X131.823 Y119.733 E0.02830
G1 X131.200 Y119.869 E0.02830
G1 X118.957 Y119.877 E0.54305
G1 X118.095 Y119.690 E0.03913
;WIPE_START
G1 F8640.000
G1 X117.477 Y119.332 E-0.16480
G1 X117.031 Y118.845 E-0.15254
G1 X116.737 Y118.253 E-0.15254
G1 X116.616 Y117.604 E-0.15254
G1 X116.616 Y114.539 E-0.70758
;WIPE_END
G1 E-0.07000 F2100.000
G1 Z0.700 F10800.000
G1 X123.603 Y110.197
G1 Z0.500
G1 E1.40000 F2100.000
M204 S800
;TYPE:Perimeter
;WIDTH:0.5
G1 F1800.000
G1 X123.248 Y109.982 E0.02252
G1 X122.927 Y109.720 E0.02252
G1 X122.644 Y109.417 E0.02252
G1 X122.405 Y109.078 E0.02252
G1 X122.214 Y108.710 E0.02252
G1 X122.075 Y108.319 E0.02252
G1 X121.991 Y107.914 E0.02252
G1 X121.963 Y107.500 E0.02252
G1 X121.991 Y107.086 E0.02252
G1 X122.075 Y106.681 E0.02252
G1 X122.206 Y106.313 E0.02117
G1 X122.403 Y105.925 E0.02368
G1 X122.644 Y105.583 E0.02272
G1 X122.927 Y105.280 E0.02252
