; generated by PrusaSlicer 2.3.0+win64 on 2021-07-17 at 07:35:59 UTC

; 

; external perimeters extrusion width = 0.45mm
; perimeters extrusion width = 0.45mm
; infill extrusion width = 0.45mm
; solid infill extrusion width = 0.45mm
; top infill extrusion width = 0.40mm
; first layer extrusion width = 0.42mm

M73 P0 R26
M73 Q0 S26
M201 X1000 Y1000 Z200 E5000 ; sets maximum accelerations, mm/sec^2
M203 X200 Y200 Z12 E120 ; sets maximum feedrates, mm/sec
M204 P1250 R1250 T1250 ; sets acceleration (P, T) and retract acceleration (R), mm/sec^2
M205 X8.00 Y8.00 Z0.40 E4.50 ; sets the jerk limits, mm/sec
M205 S0 T0 ; sets the minimum extruding and travel feed rate, mm/sec
M107
;TYPE:Custom
M862.3 P "MK3S" ; printer model check
M862.1 P0.4 ; nozzle diameter check
M115 U3.9.1 ; tell printer latest fw version
G90 ; use absolute coordinates
M83 ; extruder relative mode
M104 S240 ; set extruder temp
M140 S85 ; set bed temp
M190 S85 ; wait for bed temp
M109 S240 ; wait for extruder temp
G28 W ; home all without mesh bed level
G80 ; mesh bed leveling
G1 Y-3.0 F1000.0 ; go outside print area
G92 E0.0
G1 X60.0 E9.0 F1000.0 ; intro line
G1 X100.0 E12.5 F1000.0 ; intro line
G92 E0.0
M221 S95

; Don't change E values below. Excessive value can damage the printer.

M907 E538 ; set extruder motor current
G21 ; set units to millimeters
G90 ; use absolute coordinates
M83 ; use relative distances for extrusion
M900 K0.08 ; Filament gcode LA 1.5
M900 K45 ; Filament gcode LA 1.0
;LAYER_CHANGE
;Z:0.2
;HEIGHT:0.2
;BEFORE_LAYER_CHANGE
G92 E0.0
;0.2


G1 E-1.40000 F2100.000
G1 Z0.200 F10800.000
;AFTER_LAYER_CHANGE
;0.2
G1 Z0.400
G1 X122.381 Y93.061
G1 Z0.200
G1 E1.40000 F2100.000
M204 S1000
;TYPE:Skirt
;WIDTH:0.42
G1 F1200.000
G1 X123.237 Y92.478 E0.03246
G1 X124.068 Y92.265 E0.02689
G1 X125.671 Y92.246 E0.05029
G1 X126.499 Y92.374 E0.02625
G1 X127.249 Y92.745 E0.02625
G1 X127.854 Y93.325 E0.02625
G1 X128.256 Y94.059 E0.02625
G1 X133.173 Y112.371 E0.59451
G1 X133.262 Y113.151 E0.02460
G1 X133.149 Y113.853 E0.02231
G1 X132.860 Y114.503 E0.02231
G1 X132.414 Y115.057 E0.02231
G1 X131.841 Y115.479 E0.02231
G1 X125.861 Y117.616 E0.19911
G1 X124.920 Y117.753 E0.02980
G1 X124.116 Y117.608 E0.02562
G1 X118.104 Y115.447 E0.20032
G1 X117.523 Y114.995 E0.02307
G1 X117.083 Y114.406 E0.02307
G1 X116.815 Y113.720 E0.02307
G1 X116.738 Y112.989 E0.02307
G1 X116.829 Y112.361 E0.01988
G1 X121.801 Y93.918 E0.59892
G1 X122.348 Y93.110 E0.03058
G1 X122.656 Y93.319 F10800.000
G1 F1200.000
G1 X123.422 Y92.810 E0.02884
G1 X124.133 Y92.637 E0.02296
G1 X125.672 Y92.623 E0.04824
G1 X126.392 Y92.736 E0.02284
G1 X127.043 Y93.061 E0.02284
G1 X127.566 Y93.569 E0.02284
G1 X127.910 Y94.211 E0.02284
G1 X132.808 Y112.464 E0.59255
G1 X132.885 Y113.139 E0.02130
G1 X132.785 Y113.754 E0.01953
G1 X132.529 Y114.322 E0.01953
G1 X132.134 Y114.803 E0.01953
G1 X131.627 Y115.166 E0.01953
G1 X125.743 Y117.258 E0.19580
G1 X124.929 Y117.376 E0.02579
G1 X124.238 Y117.252 E0.02201
G1 X118.330 Y115.142 E0.19671
G1 X117.815 Y114.753 E0.02024
G1 X117.423 Y114.240 E0.02024
G1 X117.184 Y113.641 E0.02024
G1 X117.115 Y112.995 E0.02036
G1 X117.194 Y112.457 E0.01704
G1 X122.140 Y94.085 E0.59656
G1 X122.622 Y93.369 E0.02707
;WIPE_START
G1 F8640.000
G1 X123.422 Y92.810 E-0.22525
G1 X124.133 Y92.637 E-0.16907
G1 X125.672 Y92.623 E-0.35528
G1 X126.392 Y92.736 E-0.16820
G1 X127.043 Y93.061 E-0.16820
G1 X127.566 Y93.569 E-0.16820
G1 X127.721 Y93.858 E-0.07580
;WIPE_END
G1 E-0.07000 F2100.000
G1 Z0.400 F10800.000
G1 X124.913 Y95.874
G1 Z0.200
G1 E1.40000 F2100.000
;TYPE:Perimeter
G1 F1200.000
G1 X125.087 Y95.874 E0.00544
G1 X129.560 Y112.567 E0.54187
G1 X125.000 Y114.166 E0.15150
G1 X120.440 Y112.567 E0.15150
M73 Q1 S26
G1 X124.898 Y95.932 E0.53999
M73 P1 R26
G1 X124.647 Y95.410 F10800.000
;TYPE:External perimeter
G1 F1200.000
G1 X125.353 Y95.410 E0.02213
G1 X130.014 Y112.807 E0.56471
G1 X125.000 Y114.566 E0.16661
G1 X119.986 Y112.807 E0.16661
G1 X124.632 Y95.468 E0.56283
G1 X124.995 Y95.608 F10800.000
G1 X124.780 Y95.642
;TYPE:Gap fill
;WIDTH:0.129468
G1 F1200.000
G1 X125.175 Y95.642 E0.00284
G1 X125.231 Y95.685 E0.00051
;WIPE_START
G1 F8640.000
G1 X125.175 Y95.642 E-0.01641
G1 X124.780 Y95.642 E-0.09120
;WIPE_END
G1 E-1.29240 F2100.000
G1 Z0.400 F10800.000
G1 X125.353 Y97.304
G1 Z0.200
G1 E1.40000 F2100.000
;TYPE:Solid infill
;WIDTH:0.420078
G1 F1200.000
G1 X124.935 Y96.886 E0.01855
G1 X124.822 Y97.307 E0.01366
G1 X125.308 Y97.793 E0.02157
G1 X125.504 Y98.521 E0.02366
G1 X124.709 Y97.727 E0.03522
G1 X124.597 Y98.148 E0.01366
G1 X125.699 Y99.250 E0.04888
G1 X125.894 Y99.979 E0.02366
G1 X124.484 Y98.569 E0.06254
G1 X124.371 Y98.989 E0.01366
G1 X126.089 Y100.707 E0.07620
G1 X126.284 Y101.436 E0.02366
G1 X124.258 Y99.410 E0.08986
G1 X124.146 Y99.831 E0.01366
G1 X126.480 Y102.165 E0.10351
G1 X126.675 Y102.893 E0.02366
G1 X124.033 Y100.251 E0.11717
G1 X123.920 Y100.672 E0.01366
G1 X126.870 Y103.622 E0.13083
G1 X127.065 Y104.350 E0.02366
G1 X123.808 Y101.093 E0.14449
G1 X123.695 Y101.513 E0.01366
G1 X127.261 Y105.079 E0.15814
G1 X127.456 Y105.808 E0.02366
G1 X123.582 Y101.934 E0.17180
G1 X123.469 Y102.355 E0.01366
G1 X127.651 Y106.536 E0.18546
G1 X127.846 Y107.265 E0.02366
G1 X123.357 Y102.775 E0.19912
G1 X123.244 Y103.196 E0.01366
G1 X128.042 Y107.993 E0.21278
G1 X128.237 Y108.722 E0.02366
G1 X123.131 Y103.617 E0.22643
G1 X123.019 Y104.037 E0.01366
G1 X128.432 Y109.451 E0.24009
G1 X128.627 Y110.179 E0.02366
G1 X122.906 Y104.458 E0.25375
G1 X122.793 Y104.879 E0.01366
G1 X128.822 Y110.908 E0.26741
G1 X129.018 Y111.637 E0.02366
G1 X122.680 Y105.299 E0.28106
G1 X122.568 Y105.720 E0.01366
G1 X129.219 Y112.387 E0.29533
G1 X128.836 Y112.521 E0.01273
G1 X122.455 Y106.141 E0.28299
G1 X122.342 Y106.561 E0.01366
G1 X128.441 Y112.660 E0.27047
G1 X128.046 Y112.798 E0.01312
G1 X122.230 Y106.982 E0.25796
G1 X122.117 Y107.403 E0.01366
G1 X127.651 Y112.937 E0.24544
G1 X127.256 Y113.075 E0.01312
G1 X122.004 Y107.823 E0.23293
G1 X121.891 Y108.244 E0.01366
G1 X126.861 Y113.214 E0.22041
G1 X126.466 Y113.352 E0.01312
G1 X121.779 Y108.665 E0.20790
G1 X121.666 Y109.085 E0.01366
G1 X126.071 Y113.491 E0.19538
G1 X125.676 Y113.629 E0.01312
G1 X121.553 Y109.506 E0.18287
G1 X121.441 Y109.927 E0.01366
G1 X125.281 Y113.768 E0.17035
G1 X125.000 Y113.866 E0.00936
G1 X124.764 Y113.784 E0.00784
G1 X121.328 Y110.347 E0.15240
G1 X121.215 Y110.768 E0.01366
G1 X123.943 Y113.495 E0.12097
G1 X123.121 Y113.207 E0.02730
G1 X121.102 Y111.189 E0.08954
G1 X120.990 Y111.609 E0.01366
G1 X122.300 Y112.919 E0.05811
G1 X121.478 Y112.631 E0.02730
G1 X120.738 Y111.891 E0.03282
;LAYER_CHANGE
;Z:0.4
;HEIGHT:0.2
;BEFORE_LAYER_CHANGE
G92 E0.0
;0.4


;WIPE_START
G1 F8640.000
G1 X121.478 Y112.631 E-0.24163
G1 X122.300 Y112.919 E-0.20100
G1 X120.990 Y111.609 E-0.42782
G1 X121.102 Y111.189 E-0.10056
G1 X122.202 Y112.288 E-0.35899
;WIPE_END
G1 E-0.07000 F2100.000
G1 Z0.400 F10800.000
;AFTER_LAYER_CHANGE
;0.4
M104 S250 ; set temperature
M140 S90 ; set bed temperature
G1 Z0.600
G1 X118.104 Y115.447
G1 Z0.400
G1 E1.40000 F2100.000
;TYPE:Skirt
;WIDTH:0.42
G1 F1354
G1 X117.523 Y114.995 E0.02307
G1 X117.083 Y114.406 E0.02307
G1 X116.815 Y113.720 E0.02307
G1 X116.738 Y112.989 E0.02307
G1 X116.829 Y112.361 E0.01988
G1 X121.801 Y93.918 E0.59892
M73 P2 R26
M73 Q2 S26
G1 X122.381 Y93.061 E0.03246
G1 X123.237 Y92.478 E0.03246
G1 X124.068 Y92.265 E0.02689
G1 X125.671 Y92.246 E0.05029
G1 X126.499 Y92.374 E0.02625
G1 X127.249 Y92.745 E0.02625
G1 X127.854 Y93.325 E0.02625
G1 X128.256 Y94.059 E0.02625
G1 X133.173 Y112.371 E0.59451
G1 X133.262 Y113.151 E0.02460
G1 X133.149 Y113.853 E0.02231
G1 X132.860 Y114.503 E0.02231
G1 X132.414 Y115.057 E0.02231
G1 X131.841 Y115.479 E0.02231
G1 X125.861 Y117.616 E0.19911
G1 X124.920 Y117.753 E0.02980
G1 X124.116 Y117.608 E0.02562
G1 X118.160 Y115.468 E0.19844
G1 X118.330 Y115.142 F10800.000
G1 F1354
G1 X117.815 Y114.753 E0.02024
G1 X117.423 Y114.240 E0.02024
G1 X117.184 Y113.641 E0.02024
G1 X117.115 Y112.995 E0.02036
G1 X117.194 Y112.457 E0.01704
G1 X122.140 Y94.085 E0.59656
G1 X122.656 Y93.319 E0.02896
G1 X123.422 Y92.810 E0.02884
G1 X124.133 Y92.637 E0.02296
G1 X125.672 Y92.623 E0.04824
G1 X126.392 Y92.736 E0.02284
G1 X127.043 Y93.061 E0.02284
G1 X127.566 Y93.569 E0.02284
G1 X127.910 Y94.211 E0.02284
G1 X132.808 Y112.464 E0.59255
G1 X132.885 Y113.139 E0.02130
G1 X132.785 Y113.754 E0.01953
G1 X132.529 Y114.322 E0.01953
G1 X132.134 Y114.803 E0.01953
G1 X131.627 Y115.166 E0.01953
G1 X125.743 Y117.258 E0.19580
G1 X124.929 Y117.376 E0.02579
G1 X124.238 Y117.252 E0.02201
G1 X118.386 Y115.163 E0.19483
;WIPE_START
G1 F8640.000
G1 X117.815 Y114.753 E-0.16233
G1 X117.423 Y114.240 E-0.14906
G1 X117.184 Y113.641 E-0.14905
G1 X117.115 Y112.995 E-0.14993
G1 X117.194 Y112.457 E-0.12550
G1 X117.863 Y109.973 E-0.59414
;WIPE_END
G1 E-0.07000 F2100.000
G1 Z0.600 F10800.000
G1 X120.253 Y112.666
G1 Z0.400
G1 E1.40000 F2100.000
M204 S800
;TYPE:Perimeter
;WIDTH:0.45
G1 F1354
G1 X124.817 Y95.635 E0.59680
G1 X125.184 Y95.637 E0.01243
G1 X129.747 Y112.666 E0.59672
G1 X125.000 Y114.330 E0.17026
G1 X120.310 Y112.685 E0.16823
M204 S1000
G1 X119.762 Y112.925 F10800.000
M204 S800
;TYPE:External perimeter
G1 F1354
G1 X124.505 Y95.226 E0.62022
G1 X125.497 Y95.232 E0.03358
G1 X130.238 Y112.925 E0.62001
G1 X125.000 Y114.762 E0.18787
G1 X119.819 Y112.945 E0.18584
M204 S1000
G1 X120.020 Y112.618 F10800.000
;WIPE_START
G1 F8640.000
G1 X121.292 Y107.376 E-1.33000
;WIPE_END
G1 E-0.07000 F2100.000
G1 Z0.600 F10800.000
G1 X125.243 Y96.328
G1 Z0.400
G1 E1.40000 F2100.000
;TYPE:Solid infill
;WIDTH:0.454315
G1 F1354
G1 X124.839 Y96.732 E0.01953
G1 X124.626 Y97.527 E0.02815
G1 X125.216 Y96.937 E0.02855
G1 X125.339 Y97.395 E0.01625
G1 X124.413 Y98.321 E0.04480
G1 X124.200 Y99.116 E0.02815
G1 X125.462 Y97.854 E0.06105
G1 X125.585 Y98.313 E0.01625
G1 X123.987 Y99.911 E0.07730
G1 X123.774 Y100.706 E0.02815
G1 X125.708 Y98.772 E0.09355
G1 X125.831 Y99.231 E0.01625
G1 X123.561 Y101.500 E0.10980
G1 X123.348 Y102.295 E0.02815
G1 X125.954 Y99.690 E0.12605
G1 X126.077 Y100.149 E0.01625
G1 X123.135 Y103.090 E0.14230
G1 X122.922 Y103.885 E0.02815
G1 X126.200 Y100.607 E0.15855
G1 X126.323 Y101.066 E0.01625
G1 X122.709 Y104.680 E0.17480
G1 X122.496 Y105.474 E0.02815
G1 X126.445 Y101.525 E0.19105
G1 X126.568 Y101.984 E0.01625
G1 X122.283 Y106.269 E0.20730
G1 X122.070 Y107.064 E0.02815
G1 X126.691 Y102.443 E0.22355
G1 X126.814 Y102.902 E0.01625
G1 X121.857 Y107.859 E0.23980
G1 X121.645 Y108.653 E0.02815
G1 X126.937 Y103.360 E0.25605
G1 X127.060 Y103.819 E0.01625
G1 X121.432 Y109.448 E0.27230
G1 X121.219 Y110.243 E0.02815
G1 X127.183 Y104.278 E0.28855
G1 X127.306 Y104.737 E0.01625
G1 X121.006 Y111.038 E0.30480
G1 X120.793 Y111.832 E0.02815
G1 X127.429 Y105.196 E0.32105
M73 Q3 S26
G1 X127.552 Y105.655 E0.01625
G1 X120.706 Y112.501 E0.33119
M73 P3 R26
G1 X121.137 Y112.652 E0.01561
G1 X127.675 Y106.114 E0.31630
G1 X127.798 Y106.572 E0.01625
G1 X121.567 Y112.803 E0.30141
G1 X121.998 Y112.954 E0.01561
G1 X127.921 Y107.031 E0.28652
G1 X128.044 Y107.490 E0.01625
G1 X122.429 Y113.105 E0.27163
G1 X122.860 Y113.256 E0.01561
G1 X128.167 Y107.949 E0.25674
G1 X128.290 Y108.408 E0.01625
G1 X123.290 Y113.407 E0.24185
G1 X123.721 Y113.558 E0.01561
G1 X128.413 Y108.867 E0.22696
G1 X128.536 Y109.326 E0.01625
G1 X124.152 Y113.709 E0.21207
G1 X124.583 Y113.860 E0.01561
G1 X128.659 Y109.784 E0.19718
G1 X128.782 Y110.243 E0.01625
G1 X125.028 Y113.997 E0.18159
G1 X125.924 Y113.683 E0.03248
G1 X128.904 Y110.702 E0.14419
M73 P3 R25
G1 X129.027 Y111.161 E0.01625
G1 X126.820 Y113.368 E0.10679
G1 X127.716 Y113.054 E0.03248
G1 X129.150 Y111.620 E0.06939
G1 X129.273 Y112.079 E0.01625
G1 X128.313 Y113.039 E0.04646
;LAYER_CHANGE
;Z:0.6
;HEIGHT:0.2
;BEFORE_LAYER_CHANGE
G92 E0.0
;0.6


;WIPE_START
G1 F8640.000
G1 X129.273 Y112.079 E-0.31358
G1 X129.150 Y111.620 E-0.10969
G1 X127.716 Y113.054 E-0.46839
G1 X126.820 Y113.368 E-0.21924
G1 X127.491 Y112.697 E-0.21910
;WIPE_END
G1 E-0.07000 F2100.000
G1 Z0.600 F10800.000
;AFTER_LAYER_CHANGE
;0.6
G1 Z0.800
G1 X124.920 Y117.753
G1 Z0.600
G1 E1.40000 F2100.000
;TYPE:Skirt
;WIDTH:0.42
G1 F1357
G1 X124.116 Y117.608 E0.02562
G1 X118.104 Y115.447 E0.20032
G1 X117.523 Y114.995 E0.02307
G1 X117.083 Y114.406 E0.02307
G1 X116.815 Y113.720 E0.02307
G1 X116.738 Y112.989 E0.02307
G1 X116.829 Y112.361 E0.01988
G1 X121.801 Y93.918 E0.59892
M73 Q3 S25
G1 X122.381 Y93.061 E0.03246
G1 X123.237 Y92.478 E0.03246
G1 X124.068 Y92.265 E0.02689
G1 X125.671 Y92.246 E0.05029
G1 X126.499 Y92.374 E0.02625
G1 X127.249 Y92.745 E0.02625
G1 X127.854 Y93.325 E0.02625
G1 X128.256 Y94.059 E0.02625
G1 X133.173 Y112.371 E0.59451
G1 X133.262 Y113.151 E0.02460
G1 X133.149 Y113.853 E0.02231
G1 X132.860 Y114.503 E0.02231
G1 X132.414 Y115.057 E0.02231
G1 X131.841 Y115.479 E0.02231
G1 X125.861 Y117.616 E0.19911
G1 X124.980 Y117.744 E0.02792
G1 X124.929 Y117.376 F10800.000
G1 F1357
G1 X124.238 Y117.252 E0.02201
G1 X118.330 Y115.142 E0.19671
G1 X117.815 Y114.753 E0.02024
G1 X117.423 Y114.240 E0.02024
G1 X117.184 Y113.641 E0.02024
G1 X117.115 Y112.995 E0.02036
G1 X117.194 Y112.457 E0.01704
G1 X122.140 Y94.085 E0.59656
G1 X122.656 Y93.319 E0.02896
G1 X123.422 Y92.810 E0.02884
G1 X124.133 Y92.637 E0.02296
G1 X125.672 Y92.623 E0.04824
G1 X126.392 Y92.736 E0.02284
G1 X127.043 Y93.061 E0.02284
G1 X127.566 Y93.569 E0.02284
G1 X127.910 Y94.211 E0.02284
G1 X132.808 Y112.464 E0.59255
G1 X132.885 Y113.139 E0.02130
G1 X132.785 Y113.754 E0.01953
G1 X132.529 Y114.322 E0.01953
G1 X132.134 Y114.803 E0.01953
G1 X131.627 Y115.166 E0.01953
G1 X125.743 Y117.258 E0.19580
G1 X124.989 Y117.367 E0.02390
;WIPE_START
G1 F8640.000
G1 X124.238 Y117.252 E-0.17531
G1 X119.529 Y115.570 E-1.15469
;WIPE_END
G1 E-0.07000 F2100.000
G1 Z0.800 F10800.000
G1 X125.000 Y114.330
G1 Z0.600
G1 E1.40000 F2100.000
M204 S800
;TYPE:Perimeter
;WIDTH:0.45
G1 F1357
G1 X120.253 Y112.666 E0.17026
G1 X124.817 Y95.632 E0.59690
G1 X125.183 Y95.632 E0.01236
G1 X129.747 Y112.666 E0.59690
G1 X125.057 Y114.310 E0.16823
M204 S1000
G1 X125.000 Y114.762 F10800.000
M204 S800
;TYPE:External perimeter
G1 F1357
G1 X119.762 Y112.925 E0.18787
G1 X124.505 Y95.225 E0.62025
G1 X125.495 Y95.225 E0.03350
G1 X130.238 Y112.925 E0.62025
M73 Q4 S25
G1 X125.057 Y114.742 E0.18584
M204 S1000
M73 P4 R25
G1 X124.709 Y114.487 F10800.000
;WIPE_START
G1 F8640.000
G1 X119.762 Y112.925 E-1.29242
G1 X119.805 Y112.768 E-0.03758
;WIPE_END
G1 E-0.07000 F2100.000
G1 Z0.800 F10800.000
G1 X125.420 Y96.991
G1 Z0.600
G1 E1.40000 F2100.000
;TYPE:Solid infill
;WIDTH:0.454314
G1 F1357
G1 X124.907 Y96.478 E0.02484
G1 X124.784 Y96.937 E0.01625
G1 X125.374 Y97.527 E0.02855
G1 X125.587 Y98.322 E0.02815
G1 X124.661 Y97.396 E0.04480
G1 X124.538 Y97.854 E0.01625
G1 X125.800 Y99.116 E0.06105
G1 X126.013 Y99.911 E0.02815
G1 X124.415 Y98.313 E0.07730
G1 X124.292 Y98.772 E0.01625
G1 X126.226 Y100.706 E0.09355
G1 X126.439 Y101.501 E0.02815
G1 X124.169 Y99.231 E0.10980
G1 X124.046 Y99.690 E0.01625
G1 X126.652 Y102.295 E0.12605
G1 X126.865 Y103.090 E0.02815
G1 X123.923 Y100.149 E0.14230
G1 X123.800 Y100.607 E0.01625
G1 X127.078 Y103.885 E0.15855
G1 X127.291 Y104.680 E0.02815
G1 X123.677 Y101.066 E0.17480
G1 X123.554 Y101.525 E0.01625
G1 X127.504 Y105.474 E0.19105
G1 X127.717 Y106.269 E0.02815
G1 X123.432 Y101.984 E0.20730
G1 X123.309 Y102.443 E0.01625
G1 X127.930 Y107.064 E0.22355
G1 X128.143 Y107.859 E0.02815
G1 X123.186 Y102.902 E0.23980
G1 X123.063 Y103.361 E0.01625
G1 X128.356 Y108.653 E0.25605
G1 X128.568 Y109.448 E0.02815
G1 X122.940 Y103.819 E0.27230
G1 X122.817 Y104.278 E0.01625
G1 X128.781 Y110.243 E0.28855
G1 X128.994 Y111.038 E0.02815
G1 X122.694 Y104.737 E0.30480
G1 X122.571 Y105.196 E0.01625
G1 X129.207 Y111.832 E0.32105
G1 X129.378 Y112.471 E0.02262
G1 X129.294 Y112.501 E0.00306
G1 X122.448 Y105.655 E0.33119
G1 X122.325 Y106.114 E0.01625
G1 X128.863 Y112.652 E0.31630
G1 X128.432 Y112.803 E0.01561
G1 X122.202 Y106.573 E0.30141
G1 X122.079 Y107.031 E0.01625
G1 X128.002 Y112.954 E0.28652
G1 X127.571 Y113.105 E0.01561
G1 X121.956 Y107.490 E0.27163
G1 X121.833 Y107.949 E0.01625
G1 X127.140 Y113.256 E0.25674
