; generated by PrusaSlicer 2.3.0+win64 on 2021-07-18 at 01:24:18 UTC

; 

; external perimeters extrusion width = 0.45mm
; perimeters extrusion width = 0.45mm
; infill extrusion width = 0.45mm
; solid infill extrusion width = 0.45mm
; top infill extrusion width = 0.40mm
; support material extrusion width = 0.35mm
; first layer extrusion width = 0.42mm

M73 P0 R132
M73 Q0 S133
M201 X1000 Y1000 Z200 E5000 ; sets maximum accelerations, mm/sec^2
M203 X200 Y200 Z12 E120 ; sets maximum feedrates, mm/sec
M204 P1250 R1250 T1250 ; sets acceleration (P, T) and retract acceleration (R), mm/sec^2
M205 X8.00 Y8.00 Z0.40 E4.50 ; sets the jerk limits, mm/sec
M205 S0 T0 ; sets the minimum extruding and travel feed rate, mm/sec
M107
;TYPE:Custom
M862.3 P "MK3S" ; printer model check
M862.1 P0.4 ; nozzle diameter check
M115 U3.9.1 ; tell printer latest fw version
G90 ; use absolute coordinates
M83 ; extruder relative mode
M104 S240 ; set extruder temp
M140 S85 ; set bed temp
M190 S85 ; wait for bed temp
M109 S240 ; wait for extruder temp
G28 W ; home all without mesh bed level
G80 ; mesh bed leveling
G1 Y-3.0 F1000.0 ; go outside print area
G92 E0.0
G1 X60.0 E9.0 F1000.0 ; intro line
G1 X100.0 E12.5 F1000.0 ; intro line
G92 E0.0
M221 S95

; Don't change E values below. Excessive value can damage the printer.

M907 E538 ; set extruder motor current
G21 ; set units to millimeters
G90 ; use absolute coordinates
M83 ; use relative distances for extrusion
M900 K0.08 ; Filament gcode LA 1.5
M900 K45 ; Filament gcode LA 1.0
;LAYER_CHANGE
;Z:0.2
;HEIGHT:0.2
;BEFORE_LAYER_CHANGE
G92 E0.0
;0.2


G1 E-1.40000 F2100.000
G1 Z0.200 F10800.000
;AFTER_LAYER_CHANGE
;0.2
G1 Z0.400
G1 X107.102 Y74.394
G1 Z0.200
G1 E1.40000 F2100.000
M204 S1000
;TYPE:Skirt
;WIDTH:0.42
G1 F1200.000
G1 X107.464 Y73.916 E0.01882
G1 X107.938 Y73.541 E0.01894
G1 X108.491 Y73.298 E0.01894
G1 X109.087 Y73.203 E0.01894
G1 X144.500 Y73.201 E1.11036
G1 X145.410 Y73.382 E0.02907
G1 X146.178 Y73.895 E0.02896
G1 X149.483 Y77.403 E0.15111
G1 X149.832 Y78.003 E0.02178
G1 X149.993 Y78.678 E0.02178
G1 X150.002 Y131.296 E1.64977
G1 X149.919 Y131.905 E0.01929
G1 X149.685 Y132.470 E0.01917
G1 X149.189 Y133.074 E0.02449
G1 X145.306 Y136.304 E0.15836
G1 X144.732 Y136.631 E0.02071
G1 X144.090 Y136.787 E0.02071
G1 X109.155 Y136.968 E1.09537
M73 Q0 S132
G1 X108.545 Y136.887 E0.01929
G1 X107.977 Y136.651 E0.01929
G1 X107.272 Y136.032 E0.02942
G1 X106.862 Y135.188 E0.02942
G1 X105.873 Y128.534 E0.21093
G1 X105.874 Y81.447 E1.47638
G1 X106.821 Y75.171 E0.19899
G1 X107.081 Y74.451 E0.02402
;WIPE_START
G1 F8640.000
G1 X107.464 Y73.916 E-0.15188
G1 X107.938 Y73.541 E-0.13946
G1 X108.491 Y73.298 E-0.13946
G1 X109.087 Y73.203 E-0.13946
G1 X112.377 Y73.202 E-0.75973
;WIPE_END
G1 E-0.07000 F2100.000
G1 Z0.400 F10800.000
G1 X109.163 Y80.981
G1 Z0.200
G1 E1.40000 F2100.000
;TYPE:Support material
G1 F1200.000
G1 X109.163 Y75.578 E0.16940
G1 X109.917 Y75.578 E0.02365
G1 X109.917 Y80.811 E0.16408
G1 X110.671 Y80.811 E0.02365
G1 X110.671 Y75.578 E0.16408
G1 X111.425 Y75.578 E0.02365
G1 X111.425 Y80.811 E0.16408
G1 X112.179 Y80.811 E0.02365
G1 X112.179 Y75.578 E0.16408
G1 X112.933 Y75.578 E0.02365
G1 X112.933 Y80.811 E0.16408
G1 X113.688 Y80.811 E0.02365
G1 X113.688 Y75.578 E0.16408
G1 X114.442 Y75.578 E0.02365
G1 X114.442 Y80.811 E0.16408
G1 X115.196 Y80.811 E0.02365
G1 X115.196 Y75.578 E0.16408
G1 X115.950 Y75.578 E0.02365
G1 X115.950 Y80.811 E0.16408
G1 X116.704 Y80.811 E0.02365
G1 X116.704 Y75.578 E0.16408
G1 X117.458 Y75.578 E0.02365
G1 X117.458 Y80.811 E0.16408
G1 X118.213 Y80.811 E0.02365
G1 X118.213 Y75.578 E0.16408
G1 X118.967 Y75.578 E0.02365
G1 X118.967 Y80.811 E0.16408
G1 X119.035 Y80.811 E0.00215
G1 X119.439 Y81.215 E0.01788
G1 X119.439 Y85.311 E0.12845
G1 X119.721 Y85.311 E0.00885
G1 X119.721 Y75.578 E0.30517
G1 X120.475 Y75.578 E0.02365
G1 X120.475 Y85.311 E0.30517
G1 X121.229 Y85.311 E0.02365
G1 X121.229 Y75.578 E0.30517
G1 X121.983 Y75.578 E0.02365
G1 X121.983 Y85.311 E0.30517
G1 X122.061 Y85.311 E0.00245
G1 X122.061 Y81.215 E0.12845
G1 X122.465 Y80.811 E0.01788
G1 X122.738 Y80.811 E0.00855
G1 X122.738 Y75.578 E0.16408
G1 X123.492 Y75.578 E0.02365
G1 X123.492 Y80.811 E0.16408
G1 X124.246 Y80.811 E0.02365
G1 X124.246 Y75.578 E0.16408
G1 X125.000 Y75.578 E0.02365
G1 X125.000 Y80.811 E0.16408
G1 X125.754 Y80.811 E0.02365
G1 X125.754 Y75.578 E0.16408
G1 X126.508 Y75.578 E0.02365
G1 X126.508 Y80.811 E0.16408
G1 X127.262 Y80.811 E0.02365
G1 X127.262 Y75.578 E0.16408
G1 X128.017 Y75.578 E0.02365
G1 X128.017 Y80.811 E0.16408
G1 X128.771 Y80.811 E0.02365
G1 X128.771 Y75.578 E0.16408
G1 X129.525 Y75.578 E0.02365
G1 X129.525 Y80.811 E0.16408
G1 X130.279 Y80.811 E0.02365
G1 X130.279 Y75.578 E0.16408
G1 X131.033 Y75.578 E0.02365
G1 X131.033 Y80.811 E0.16408
G1 X131.787 Y80.811 E0.02365
G1 X131.787 Y75.578 E0.16408
M73 P0 R131
G1 X132.542 Y75.578 E0.02365
G1 X132.542 Y80.811 E0.16408
G1 X133.296 Y80.811 E0.02365
G1 X133.296 Y75.578 E0.16408
G1 X134.050 Y75.578 E0.02365
G1 X134.050 Y80.811 E0.16408
G1 X134.804 Y80.811 E0.02365
G1 X134.804 Y75.578 E0.16408
G1 X135.558 Y75.578 E0.02365
G1 X135.558 Y80.811 E0.16408
G1 X136.312 Y80.811 E0.02365
G1 X136.312 Y75.578 E0.16408
G1 X137.067 Y75.578 E0.02365
G1 X137.067 Y80.811 E0.16408
G1 X137.821 Y80.811 E0.02365
G1 X137.821 Y75.578 E0.16408
G1 X138.575 Y75.578 E0.02365
G1 X138.575 Y80.811 E0.16408
G1 X139.329 Y80.811 E0.02365
G1 X139.329 Y75.578 E0.16408
G1 X140.083 Y75.578 E0.02365
G1 X140.083 Y80.811 E0.16408
G1 X140.837 Y80.811 E0.02365
G1 X140.837 Y75.578 E0.16408
G1 X141.592 Y75.578 E0.02365
G1 X141.591 Y80.811 E0.16408
G1 X142.035 Y80.811 E0.01391
G1 X142.346 Y81.122 E0.01377
G1 X142.346 Y75.578 E0.17381
G1 X143.100 Y75.578 E0.02365
G1 X143.100 Y91.430 E0.49700
G1 X143.854 Y91.430 E0.02365
G1 X143.854 Y75.578 E0.49700
G1 X144.500 Y75.578 E0.02027
G1 X144.500 Y78.886 E0.10369
G1 X144.608 Y78.886 E0.00338
G1 X144.608 Y91.430 E0.39331
G1 X145.362 Y91.430 E0.02365
G1 X145.362 Y78.886 E0.39331
G1 X146.116 Y78.886 E0.02365
G1 X146.116 Y91.430 E0.39331
G1 X146.871 Y91.430 E0.02365
G1 X146.871 Y78.886 E0.39331
G1 X147.625 Y78.886 E0.02365
G1 X147.625 Y91.599 E0.39863
;WIPE_START
G1 F8640.000
G1 X147.625 Y85.839 E-1.33000
;WIPE_END
G1 E-0.07000 F2100.000
G1 Z0.400 F10800.000
G1 X111.425 Y112.981
G1 Z0.200
G1 E1.40000 F2100.000
G1 F1200.000
G1 X111.425 Y97.189 E0.49517
G1 X112.179 Y97.189 E0.02365
G1 X112.179 Y112.811 E0.48985
G1 X112.933 Y112.811 E0.02365
G1 X112.933 Y97.189 E0.48985
G1 X113.688 Y97.189 E0.02365
G1 X113.688 Y112.811 E0.48985
G1 X114.442 Y112.811 E0.02365
G1 X114.442 Y97.189 E0.48985
G1 X115.196 Y97.189 E0.02365
G1 X115.196 Y112.811 E0.48985
G1 X115.950 Y112.811 E0.02365
G1 X115.950 Y97.189 E0.48985
G1 X116.704 Y97.189 E0.02365
G1 X116.704 Y112.811 E0.48985
G1 X117.458 Y112.811 E0.02365
G1 X117.458 Y97.189 E0.48985
G1 X118.213 Y97.189 E0.02365
G1 X118.213 Y112.811 E0.48985
G1 X118.967 Y112.811 E0.02365
G1 X118.967 Y97.189 E0.48985
G1 X119.721 Y97.189 E0.02365
G1 X119.721 Y112.811 E0.48985
G1 X120.475 Y112.811 E0.02365
G1 X120.475 Y97.189 E0.48985
G1 X121.229 Y97.189 E0.02365
G1 X121.229 Y112.811 E0.48985
G1 X121.983 Y112.811 E0.02365
G1 X121.983 Y97.189 E0.48985
G1 X122.738 Y97.189 E0.02365
G1 X122.738 Y112.811 E0.48985
G1 X123.492 Y112.811 E0.02365
G1 X123.492 Y97.189 E0.48985
G1 X124.246 Y97.189 E0.02365
G1 X124.246 Y112.811 E0.48985
G1 X125.000 Y112.811 E0.02365
G1 X125.000 Y97.189 E0.48985
G1 X125.754 Y97.189 E0.02365
G1 X125.754 Y112.811 E0.48985
G1 X126.508 Y112.811 E0.02365
G1 X126.508 Y97.189 E0.48985
G1 X127.262 Y97.189 E0.02365
G1 X127.262 Y112.811 E0.48985
G1 X128.017 Y112.811 E0.02365
G1 X128.017 Y97.189 E0.48985
G1 X128.771 Y97.189 E0.02365
G1 X128.771 Y112.811 E0.48985
G1 X129.525 Y112.811 E0.02365
G1 X129.525 Y97.189 E0.48985
G1 X130.279 Y97.189 E0.02365
G1 X130.279 Y112.811 E0.48985
G1 X131.033 Y112.811 E0.02365
G1 X131.033 Y97.189 E0.48985
G1 X131.535 Y97.189 E0.01574
G1 X131.787 Y96.936 E0.01118
G1 X131.787 Y113.064 E0.50566
G1 X131.939 Y113.215 E0.00670
G1 X131.939 Y118.061 E0.15196
G1 X132.542 Y118.061 E0.01891
G1 X132.542 Y91.939 E0.81907
G1 X133.296 Y91.939 E0.02365
G1 X133.296 Y118.061 E0.81907
G1 X134.050 Y118.061 E0.02365
G1 X134.050 Y91.939 E0.81907
G1 X134.804 Y91.939 E0.02365
G1 X134.804 Y118.061 E0.81907
G1 X135.558 Y118.061 E0.02365
G1 X135.558 Y91.939 E0.81907
G1 X136.312 Y91.939 E0.02365
G1 X136.312 Y118.061 E0.81907
G1 X137.067 Y118.061 E0.02365
G1 X137.067 Y91.939 E0.81907
G1 X137.821 Y91.939 E0.02365
G1 X137.821 Y118.231 E0.82439
;WIPE_START
M73 Q0 S131
G1 F8640.000
G1 X137.821 Y112.471 E-1.33000
;WIPE_END
G1 E-0.07000 F2100.000
G1 Z0.400 F10800.000
G1 X147.625 Y131.284
G1 Z0.200
G1 E1.40000 F2100.000
G1 F1200.000
G1 X147.625 Y118.570 E0.39863
G1 X146.871 Y118.570 E0.02365
G1 X146.871 Y131.114 E0.39331
G1 X146.116 Y131.114 E0.02365
G1 X146.116 Y118.570 E0.39331
G1 X145.362 Y118.570 E0.02365
G1 X145.362 Y131.114 E0.39331
G1 X144.608 Y131.114 E0.02365
G1 X144.608 Y118.570 E0.39331
G1 X143.854 Y118.570 E0.02365
G1 X143.854 Y134.422 E0.49700
G1 X143.100 Y134.422 E0.02365
G1 X143.100 Y118.570 E0.49700
M73 P1 R131
M73 Q1 S131
G1 X142.439 Y118.570 E0.02073
G1 X142.439 Y128.785 E0.32028
G1 X142.346 Y128.878 E0.00412
G1 X142.346 Y134.422 E0.17381
G1 X141.591 Y134.422 E0.02365
G1 X141.591 Y129.189 E0.16408
G1 X140.837 Y129.189 E0.02365
G1 X140.837 Y134.422 E0.16408
G1 X140.083 Y134.422 E0.02365
G1 X140.083 Y129.189 E0.16408
G1 X139.329 Y129.189 E0.02365
G1 X139.329 Y134.422 E0.16408
G1 X138.575 Y134.422 E0.02365
G1 X138.575 Y129.189 E0.16408
G1 X137.821 Y129.189 E0.02365
G1 X137.821 Y134.422 E0.16408
G1 X137.067 Y134.422 E0.02365
G1 X137.067 Y129.189 E0.16408
G1 X136.312 Y129.189 E0.02365
G1 X136.312 Y134.422 E0.16408
G1 X135.558 Y134.422 E0.02365
G1 X135.558 Y129.189 E0.16408
G1 X134.804 Y129.189 E0.02365
G1 X134.804 Y134.422 E0.16408
G1 X134.050 Y134.422 E0.02365
G1 X134.050 Y129.189 E0.16408
G1 X133.296 Y129.189 E0.02365
G1 X133.296 Y134.422 E0.16408
G1 X132.542 Y134.422 E0.02365
G1 X132.542 Y129.189 E0.16408
G1 X131.787 Y129.189 E0.02365
G1 X131.787 Y134.422 E0.16408
G1 X131.033 Y134.422 E0.02365
G1 X131.033 Y129.189 E0.16408
G1 X130.279 Y129.189 E0.02365
G1 X130.279 Y134.422 E0.16408
G1 X129.525 Y134.422 E0.02365
G1 X129.525 Y129.189 E0.16408
G1 X128.771 Y129.189 E0.02365
G1 X128.771 Y134.422 E0.16408
G1 X128.017 Y134.422 E0.02365
G1 X128.017 Y129.189 E0.16408
G1 X127.262 Y129.189 E0.02365
G1 X127.262 Y134.422 E0.16408
G1 X126.508 Y134.422 E0.02365
G1 X126.508 Y129.189 E0.16408
G1 X125.754 Y129.189 E0.02365
G1 X125.754 Y134.422 E0.16408
G1 X125.000 Y134.422 E0.02365
G1 X125.000 Y129.189 E0.16408
G1 X124.246 Y129.189 E0.02365
G1 X124.246 Y134.422 E0.16408
G1 X123.492 Y134.422 E0.02365
G1 X123.492 Y129.189 E0.16408
G1 X122.738 Y129.189 E0.02365
G1 X122.738 Y134.422 E0.16408
G1 X121.983 Y134.422 E0.02365
G1 X121.983 Y124.689 E0.30517
M73 P1 R130
G1 X121.229 Y124.689 E0.02365
G1 X121.229 Y134.422 E0.30517
G1 X120.475 Y134.422 E0.02365
G1 X120.475 Y124.689 E0.30517
G1 X119.721 Y124.689 E0.02365
G1 X119.721 Y134.422 E0.30517
G1 X118.967 Y134.422 E0.02365
G1 X118.967 Y129.189 E0.16408
G1 X118.213 Y129.189 E0.02365
G1 X118.213 Y134.422 E0.16408
G1 X117.458 Y134.422 E0.02365
G1 X117.458 Y129.189 E0.16408
G1 X116.704 Y129.189 E0.02365
G1 X116.704 Y134.422 E0.16408
G1 X115.950 Y134.422 E0.02365
G1 X115.950 Y129.189 E0.16408
G1 X115.196 Y129.189 E0.02365
G1 X115.196 Y134.422 E0.16408
G1 X114.442 Y134.422 E0.02365
G1 X114.442 Y129.189 E0.16408
G1 X113.688 Y129.189 E0.02365
G1 X113.688 Y134.422 E0.16408
G1 X112.933 Y134.422 E0.02365
G1 X112.933 Y129.189 E0.16408
G1 X112.179 Y129.189 E0.02365
G1 X112.179 Y134.422 E0.16408
G1 X111.425 Y134.422 E0.02365
G1 X111.425 Y129.189 E0.16408
G1 X110.671 Y129.189 E0.02365
G1 X110.671 Y134.422 E0.16408
G1 X109.917 Y134.422 E0.02365
G1 X109.917 Y129.189 E0.16408
G1 X109.163 Y129.189 E0.02365
G1 X109.163 Y134.591 E0.16940
;WIPE_START
G1 F8640.000
G1 X109.163 Y129.189 E-1.24750
G1 X109.520 Y129.189 E-0.08250
;WIPE_END
G1 E-0.07000 F2100.000
G1 Z0.400 F10800.000
G1 X109.590 Y113.910
G1 Z0.200
G1 E1.40000 F2100.000
;TYPE:External perimeter
G1 F1200.000
G1 X109.590 Y96.090 E0.55873
G1 X130.840 Y96.090 E0.66628
G1 X130.840 Y90.840 E0.16461
G1 X140.160 Y90.840 E0.29222
G1 X140.160 Y96.910 E0.19032
G1 X139.160 Y96.910 E0.03135
G1 X139.160 Y113.090 E0.50731
G1 X140.160 Y113.090 E0.03135
G1 X140.160 Y119.160 E0.19032
G1 X130.840 Y119.160 E0.29222
G1 X130.840 Y113.910 E0.16461
G1 X109.650 Y113.910 E0.66440
G1 X109.191 Y113.878 F10800.000
;WIPE_START
G1 F8640.000
G1 X109.631 Y108.150 E-1.33000
;WIPE_END
G1 E-0.07000 F2100.000
G1 Z0.400 F10800.000
G1 X117.963 Y86.787
G1 Z0.200
G1 E1.40000 F2100.000
;TYPE:Perimeter
G1 F1200.000
G1 X123.537 Y86.787 E0.17477
G1 X123.537 Y82.287 E0.14109
G1 X140.963 Y82.287 E0.54638
G1 X140.963 Y127.713 E1.42430
G1 X123.537 Y127.713 E0.54638
G1 X123.537 Y123.213 E0.14109
G1 X117.963 Y123.213 E0.17477
G1 X117.963 Y127.713 E0.14109
G1 X109.037 Y127.713 E0.27986
G1 X109.037 Y114.287 E0.42096
G1 X130.463 Y114.287 E0.67179
G1 X130.463 Y119.537 E0.16461
G1 X140.537 Y119.537 E0.31587
G1 X140.537 Y112.713 E0.21397
G1 X139.537 Y112.713 E0.03135
G1 X139.537 Y97.287 E0.48367
G1 X140.537 Y97.287 E0.03135
G1 X140.537 Y90.463 E0.21397
G1 X130.463 Y90.463 E0.31587
G1 X130.463 Y95.713 E0.16461
G1 X109.037 Y95.713 E0.67179
G1 X109.037 Y82.287 E0.42096
G1 X117.963 Y82.287 E0.27986
G1 X117.963 Y86.727 E0.13921
G1 X118.340 Y86.410 F10800.000
;TYPE:External perimeter
G1 F1200.000
G1 X123.160 Y86.410 E0.15113
G1 X123.160 Y81.910 E0.14109
G1 X141.340 Y81.910 E0.57002
G1 X141.340 Y128.090 E1.44794
G1 X123.160 Y128.090 E0.57002
G1 X123.160 Y123.590 E0.14109
G1 X118.340 Y123.590 E0.15113
G1 X118.340 Y128.090 E0.14109
G1 X108.660 Y128.090 E0.30351
G1 X108.660 Y81.910 E1.44794
G1 X118.340 Y81.910 E0.30351
G1 X118.340 Y86.350 E0.13921
G1 X118.488 Y86.782 F10800.000
;WIPE_START
G1 F8640.000
G1 X123.160 Y86.410 E-1.11304
G1 X123.160 Y85.470 E-0.21696
;WIPE_END
G1 E-0.07000 F2100.000
G1 Z0.400 F10800.000
G1 X109.125 Y95.901
G1 Z0.200
G1 E1.40000 F2100.000
;TYPE:Gap fill
;WIDTH:0.595842
G1 F1200.000
G1 X109.125 Y114.099 E0.83662
;WIPE_START
G1 F8640.000
G1 X109.125 Y108.339 E-1.33000
;WIPE_END
G1 E-0.07000 F2100.000
G1 Z0.400 F10800.000
G1 X140.850 Y83.164
G1 Z0.200
G1 E1.40000 F2100.000
;TYPE:Solid infill
;WIDTH:0.420901
G1 F1200.000
G1 X140.255 Y82.570 E0.02642
G1 X139.721 Y82.570 E0.01680
G1 X140.680 Y83.529 E0.04264
G1 X140.680 Y84.064 E0.01680
G1 X139.186 Y82.570 E0.06640
G1 X138.652 Y82.570 E0.01680
G1 X140.680 Y84.598 E0.09016
G1 X140.680 Y85.133 E0.01680
G1 X138.117 Y82.570 E0.11392
G1 X137.583 Y82.570 E0.01680
G1 X140.680 Y85.667 E0.13768
G1 X140.680 Y86.202 E0.01680
G1 X137.048 Y82.570 E0.16144
G1 X136.513 Y82.570 E0.01680
G1 X140.680 Y86.737 E0.18520
G1 X140.680 Y87.271 E0.01680
G1 X135.979 Y82.570 E0.20896
G1 X135.444 Y82.570 E0.01680
G1 X140.680 Y87.806 E0.23272
G1 X140.680 Y88.340 E0.01680
G1 X134.910 Y82.570 E0.25648
G1 X134.375 Y82.570 E0.01680
G1 X140.680 Y88.875 E0.28023
G1 X140.680 Y89.409 E0.01680
G1 X133.841 Y82.570 E0.30399
G1 X133.306 Y82.570 E0.01680
G1 X140.680 Y89.944 E0.32775
G1 X140.680 Y90.180 E0.00743
G1 X140.382 Y90.180 E0.00937
G1 X132.772 Y82.570 E0.33826
G1 X132.237 Y82.570 E0.01680
G1 X139.847 Y90.180 E0.33826
G1 X139.313 Y90.180 E0.01680
G1 X131.703 Y82.570 E0.33826
G1 X131.168 Y82.570 E0.01680
G1 X138.778 Y90.180 E0.33826
G1 X138.244 Y90.180 E0.01680
G1 X130.633 Y82.570 E0.33826
M73 Q1 S130
G1 X130.099 Y82.570 E0.01680
G1 X137.709 Y90.180 E0.33826
G1 X137.175 Y90.180 E0.01680
G1 X129.564 Y82.570 E0.33826
G1 X129.030 Y82.570 E0.01680
G1 X136.640 Y90.180 E0.33826
G1 X136.106 Y90.180 E0.01680
G1 X128.495 Y82.570 E0.33826
G1 X127.961 Y82.570 E0.01680
G1 X135.571 Y90.180 E0.33826
G1 X135.036 Y90.180 E0.01680
G1 X127.426 Y82.570 E0.33826
G1 X126.892 Y82.570 E0.01680
G1 X134.502 Y90.180 E0.33826
G1 X133.967 Y90.180 E0.01680
G1 X126.357 Y82.570 E0.33826
G1 X125.823 Y82.570 E0.01680
G1 X133.433 Y90.180 E0.33826
G1 X132.898 Y90.180 E0.01680
