; generated by PrusaSlicer 2.3.0+win64 on 2021-07-19 at 23:24:17 UTC

; 

; external perimeters extrusion width = 0.60mm
; perimeters extrusion width = 0.50mm
; infill extrusion width = 0.50mm
; solid infill extrusion width = 0.50mm
; top infill extrusion width = 0.45mm
; first layer extrusion width = 0.42mm

M73 P0 R20
M73 Q0 S20
M201 X1000 Y1000 Z200 E5000 ; sets maximum accelerations, mm/sec^2
M203 X200 Y200 Z12 E120 ; sets maximum feedrates, mm/sec
M204 P1250 R1250 T1250 ; sets acceleration (P, T) and retract acceleration (R), mm/sec^2
M205 X8.00 Y8.00 Z0.40 E4.50 ; sets the jerk limits, mm/sec
M205 S0 T0 ; sets the minimum extruding and travel feed rate, mm/sec
M107
;TYPE:Custom
M862.3 P "MK3S" ; printer model check
M862.1 P0.4 ; nozzle diameter check
M115 U3.9.1 ; tell printer latest fw version
G90 ; use absolute coordinates
M83 ; extruder relative mode
M104 S240 ; set extruder temp
M140 S85 ; set bed temp
M190 S85 ; wait for bed temp
M109 S240 ; wait for extruder temp
G28 W ; home all without mesh bed level
G80 ; mesh bed leveling
G1 Y-3.0 F1000.0 ; go outside print area
G92 E0.0
G1 X60.0 E9.0 F1000.0 ; intro line
G1 X100.0 E12.5 F1000.0 ; intro line
G92 E0.0
M221 S95

; Don't change E values below. Excessive value can damage the printer.

M907 E538 ; set extruder motor current
G21 ; set units to millimeters
G90 ; use absolute coordinates
M83 ; use relative distances for extrusion
M900 K0.08 ; Filament gcode LA 1.5
M900 K45 ; Filament gcode LA 1.0
;LAYER_CHANGE
;Z:0.2
;HEIGHT:0.2
;BEFORE_LAYER_CHANGE
G92 E0.0
;0.2


G1 E-1.40000 F2100.000
G1 Z0.200 F10800.000
;AFTER_LAYER_CHANGE
;0.2
G1 Z0.400
G1 X126.707 Y90.637
G1 Z0.200
G1 E1.40000 F2100.000
M204 S1000
;TYPE:Skirt
;WIDTH:0.42
G1 F1200.000
G1 X127.481 Y91.041 E0.02739
G1 X128.090 Y91.667 E0.02739
G1 X128.474 Y92.457 E0.02752
G1 X132.925 Y113.675 E0.67977
G1 X132.981 Y114.319 E0.02026
G1 X132.879 Y114.978 E0.02090
G1 X132.624 Y115.590 E0.02078
G1 X132.227 Y116.126 E0.02090
G1 X131.717 Y116.548 E0.02078
G1 X127.120 Y119.186 E0.16619
G1 X126.412 Y119.387 E0.02307
G1 X124.914 Y119.503 E0.04710
G1 X123.555 Y119.381 E0.04278
G1 X122.850 Y119.172 E0.02305
G1 X118.225 Y116.510 E0.16734
G1 X117.706 Y116.053 E0.02167
G1 X117.318 Y115.482 E0.02167
G1 X117.084 Y114.831 E0.02167
G1 X117.019 Y114.143 E0.02167
G1 X121.583 Y92.288 E0.70003
G1 X121.831 Y91.786 E0.01758
G1 X122.176 Y91.343 E0.01758
G1 X122.604 Y90.980 E0.01758
G1 X123.096 Y90.711 E0.01758
G1 X123.949 Y90.504 E0.02752
G1 X125.840 Y90.496 E0.05931
G1 X126.647 Y90.627 E0.02564
G1 X126.587 Y90.995 F10800.000
G1 F1200.000
G1 X127.267 Y91.352 E0.02406
G1 X127.794 Y91.902 E0.02390
G1 X128.120 Y92.591 E0.02390
G1 X132.556 Y113.752 E0.67791
M73 Q1 S20
G1 X132.604 Y114.309 E0.01752
G1 X132.514 Y114.883 E0.01823
G1 X132.288 Y115.418 E0.01823
G1 X131.941 Y115.880 E0.01811
G1 X131.489 Y116.247 E0.01823
M73 P1 R20
G1 X126.975 Y118.838 E0.16321
G1 X126.350 Y119.015 E0.02036
G1 X124.923 Y119.126 E0.04486
G1 X123.624 Y119.010 E0.04089
G1 X123.000 Y118.826 E0.02043
G1 X118.464 Y116.216 E0.16408
G1 X118.006 Y115.822 E0.01894
G1 X117.662 Y115.326 E0.01894
G1 X117.453 Y114.755 E0.01906
G1 X117.396 Y114.154 E0.01894
G1 X121.929 Y92.441 E0.69547
G1 X122.146 Y91.993 E0.01562
G1 X122.455 Y91.597 E0.01574
G1 X122.837 Y91.278 E0.01562
G1 X123.277 Y91.044 E0.01562
G1 X124.006 Y90.878 E0.02343
G1 X125.840 Y90.873 E0.05751
G1 X126.528 Y90.986 E0.02185
;WIPE_START
G1 F8640.000
G1 X127.267 Y91.352 E-0.19039
G1 X127.794 Y91.902 E-0.17602
G1 X128.120 Y92.591 E-0.17602
G1 X128.820 Y95.929 E-0.78757
;WIPE_END
G1 E-0.07000 F2100.000
G1 Z0.400 F10800.000
G1 X125.088 Y97.499
G1 Z0.200
G1 E1.40000 F2100.000
;TYPE:Perimeter
G1 F1200.000
G1 X129.316 Y113.849 E0.52952
G1 X125.778 Y115.892 E0.12808
G1 X125.000 Y115.960 E0.02450
G1 X124.222 Y115.892 E0.02450
G1 X120.684 Y113.849 E0.12808
G1 X124.912 Y97.499 E0.52952
G1 X125.028 Y97.499 E0.00361
;WIPE_START
G1 F8640.000
G1 X126.489 Y103.071 E-1.33000
;WIPE_END
G1 E-0.07000 F2100.000
G1 Z0.400 F10800.000
G1 X125.426 Y93.660
G1 Z0.200
G1 E1.40000 F2100.000
;TYPE:External perimeter
G1 F1200.000
G1 X125.426 Y97.302 E0.11420
G1 X129.753 Y114.032 E0.54183
G1 X125.894 Y116.260 E0.13970
G1 X125.000 Y116.338 E0.02815
G1 X124.106 Y116.260 E0.02815
G1 X120.247 Y114.032 E0.13970
G1 X124.574 Y97.302 E0.54183
G1 X124.574 Y93.660 E0.11420
G1 X125.366 Y93.660 E0.02484
G1 X125.396 Y94.059 F10800.000
G1 X125.000 Y93.849
;TYPE:Gap fill
;WIDTH:0.518164
G1 F1200.000
G1 X125.000 Y97.310 E0.13680
;WIPE_START
G1 F8640.000
G1 X125.000 Y93.849 E-0.79937
;WIPE_END
G1 E-0.60063 F2100.000
G1 Z0.400 F10800.000
G1 X124.795 Y98.403
G1 Z0.200
G1 E1.40000 F2100.000
;TYPE:Solid infill
;WIDTH:0.42939
G1 F1200.000
G1 X125.111 Y98.719 E0.01434
G1 X125.302 Y99.456 E0.02447
G1 X124.822 Y98.977 E0.02178
G1 X124.710 Y99.411 E0.01441
G1 X125.492 Y100.193 E0.03555
G1 X125.683 Y100.930 E0.02447
G1 X124.598 Y99.845 E0.04932
G1 X124.485 Y100.279 E0.01441
G1 X125.874 Y101.668 E0.06308
G1 X126.064 Y102.405 E0.02447
G1 X124.373 Y100.714 E0.07685
G1 X124.261 Y101.148 E0.01441
G1 X126.255 Y103.142 E0.09062
G1 X126.446 Y103.879 E0.02447
G1 X124.149 Y101.582 E0.10439
G1 X124.036 Y102.016 E0.01441
G1 X126.636 Y104.616 E0.11816
G1 X126.827 Y105.354 E0.02447
G1 X123.924 Y102.451 E0.13192
G1 X123.812 Y102.885 E0.01441
G1 X127.017 Y106.091 E0.14569
G1 X127.208 Y106.828 E0.02447
G1 X123.699 Y103.319 E0.15946
G1 X123.587 Y103.753 E0.01441
G1 X127.399 Y107.565 E0.17323
G1 X127.589 Y108.302 E0.02447
G1 X123.475 Y104.188 E0.18700
G1 X123.362 Y104.622 E0.01441
G1 X127.780 Y109.040 E0.20077
G1 X127.971 Y109.777 E0.02447
G1 X123.250 Y105.056 E0.21453
M73 Q2 S20
G1 X123.138 Y105.490 E0.01441
G1 X128.161 Y110.514 E0.22830
M73 P2 R20
G1 X128.352 Y111.251 E0.02447
G1 X123.025 Y105.925 E0.24207
G1 X122.913 Y106.359 E0.01441
G1 X128.543 Y111.988 E0.25584
G1 X128.733 Y112.726 E0.02447
G1 X122.801 Y106.793 E0.26961
G1 X122.689 Y107.227 E0.01441
G1 X128.924 Y113.463 E0.28337
G1 X128.988 Y113.712 E0.00827
G1 X128.759 Y113.844 E0.00851
G1 X122.576 Y107.662 E0.28098
G1 X122.464 Y108.096 E0.01441
G1 X128.412 Y114.044 E0.27034
G1 X128.066 Y114.244 E0.01286
G1 X122.352 Y108.530 E0.25969
G1 X122.239 Y108.964 E0.01441
G1 X127.719 Y114.445 E0.24905
G1 X127.373 Y114.645 E0.01286
G1 X122.127 Y109.399 E0.23841
G1 X122.015 Y109.833 E0.01441
G1 X127.026 Y114.845 E0.22776
G1 X126.680 Y115.045 E0.01286
G1 X121.902 Y110.267 E0.21712
G1 X121.790 Y110.701 E0.01441
G1 X126.333 Y115.245 E0.20648
G1 X125.987 Y115.445 E0.01286
G1 X121.678 Y111.136 E0.19583
G1 X121.566 Y111.570 E0.01441
G1 X125.618 Y115.622 E0.18415
G1 X125.115 Y115.666 E0.01621
G1 X121.453 Y112.004 E0.16642
G1 X121.341 Y112.438 E0.01441
G1 X124.538 Y115.636 E0.14530
G1 X124.309 Y115.616 E0.00740
G1 X123.511 Y115.155 E0.02961
G1 X121.229 Y112.873 E0.10372
G1 X121.116 Y113.307 E0.01441
G1 X122.681 Y114.872 E0.07112
;LAYER_CHANGE
;Z:0.5
;HEIGHT:0.3
;BEFORE_LAYER_CHANGE
G92 E0.0
;0.5


;WIPE_START
G1 F8640.000
G1 X121.116 Y113.307 E-0.51103
G1 X121.229 Y112.873 E-0.10357
G1 X123.419 Y115.063 E-0.71541
;WIPE_END
G1 E-0.07000 F2100.000
G1 Z0.400 F10800.000
G1 Z0.500
;AFTER_LAYER_CHANGE
;0.5
M104 S250 ; set temperature
M140 S90 ; set bed temperature
G1 Z0.700
G1 X122.850 Y119.172
G1 Z0.500
G1 E1.40000 F2100.000
;TYPE:Skirt
;WIDTH:0.42
G1 F1309
G1 X118.225 Y116.510 E0.23672
G1 X117.706 Y116.053 E0.03065
G1 X117.318 Y115.482 E0.03065
G1 X117.084 Y114.831 E0.03065
G1 X117.019 Y114.143 E0.03065
G1 X121.583 Y92.288 E0.99028
G1 X121.831 Y91.786 E0.02487
G1 X122.176 Y91.343 E0.02487
G1 X122.604 Y90.980 E0.02487
G1 X123.096 Y90.711 E0.02487
G1 X123.949 Y90.504 E0.03893
G1 X125.840 Y90.496 E0.08391
G1 X126.707 Y90.637 E0.03893
G1 X127.481 Y91.041 E0.03875
G1 X128.090 Y91.667 E0.03875
G1 X128.474 Y92.457 E0.03893
G1 X132.925 Y113.675 E0.96163
G1 X132.981 Y114.319 E0.02867
G1 X132.879 Y114.978 E0.02957
G1 X132.624 Y115.590 E0.02939
G1 X132.227 Y116.126 E0.02957
G1 X131.717 Y116.548 E0.02939
G1 X127.120 Y119.186 E0.23510
G1 X126.412 Y119.387 E0.03264
G1 X124.914 Y119.503 E0.06663
G1 X123.555 Y119.381 E0.06051
G1 X122.908 Y119.189 E0.02995
G1 X123.014 Y118.830 F10800.000
G1 F1309
G1 X118.464 Y116.216 E0.23276
G1 X118.006 Y115.822 E0.02679
G1 X117.662 Y115.326 E0.02679
G1 X117.453 Y114.755 E0.02696
G1 X117.396 Y114.154 E0.02679
G1 X121.929 Y92.441 E0.98383
M73 P3 R20
M73 Q3 S20
G1 X122.146 Y91.993 E0.02209
G1 X122.455 Y91.597 E0.02226
G1 X122.837 Y91.278 E0.02209
G1 X123.277 Y91.044 E0.02209
G1 X124.006 Y90.878 E0.03314
G1 X125.840 Y90.873 E0.08135
G1 X126.592 Y90.996 E0.03381
G1 X127.267 Y91.352 E0.03381
G1 X127.794 Y91.902 E0.03381
G1 X128.120 Y92.591 E0.03381
G1 X132.556 Y113.752 E0.95900
G1 X132.604 Y114.309 E0.02478
G1 X132.514 Y114.883 E0.02578
G1 X132.288 Y115.418 E0.02578
G1 X131.941 Y115.880 E0.02562
G1 X131.489 Y116.247 E0.02578
G1 X126.975 Y118.838 E0.23088
G1 X126.350 Y119.015 E0.02880
G1 X124.923 Y119.126 E0.06346
G1 X123.624 Y119.010 E0.05785
G1 X123.071 Y118.847 E0.02557
;WIPE_START
G1 F8640.000
G1 X118.464 Y116.216 E-1.22518
G1 X118.119 Y115.920 E-0.10482
;WIPE_END
G1 E-0.07000 F2100.000
G1 Z0.700 F10800.000
G1 X120.682 Y113.850
G1 Z0.500
G1 E1.40000 F2100.000
M204 S800
;TYPE:Perimeter
;WIDTH:0.5
G1 F1309
G1 X124.899 Y97.546 E0.91500
G1 X125.101 Y97.546 E0.01100
G1 X129.318 Y113.850 E0.91500
G1 X125.779 Y115.893 E0.22203
G1 X125.000 Y115.961 E0.04247
G1 X124.221 Y115.893 E0.04247
G1 X120.734 Y113.880 E0.21877
M204 S1000
G1 X120.120 Y114.086 F10800.000
M204 S800
;TYPE:External perimeter
;WIDTH:0.6
G1 F1309
G1 X124.464 Y97.288 E1.15910
G1 X124.464 Y93.550 E0.24973
G1 X125.536 Y93.550 E0.07164
G1 X125.536 Y97.288 E0.24973
G1 X129.880 Y114.086 E1.15910
G1 X125.928 Y116.368 E0.30486
G1 X125.000 Y116.449 E0.06225
G1 X124.072 Y116.368 E0.06225
G1 X120.172 Y114.116 E0.30085
M204 S1000
G1 X120.418 Y113.820 F10800.000
;WIPE_START
G1 F8640.000
G1 X121.595 Y108.535 E-1.33000
;WIPE_END
G1 E-0.07000 F2100.000
G1 Z0.700 F10800.000
G1 X127.034 Y115.018
G1 Z0.500
G1 E1.40000 F2100.000
;TYPE:Solid infill
;WIDTH:0.506175
G1 F1309
G1 X128.820 Y113.231 E0.13924
G1 X128.692 Y112.735 E0.02825
G1 X126.091 Y115.336 E0.20269
G1 X125.678 Y115.574 E0.02626
G1 X125.185 Y115.617 E0.02730
G1 X128.563 Y112.238 E0.26331
G1 X128.435 Y111.742 E0.02825
G1 X124.580 Y115.597 E0.30039
G1 X124.322 Y115.574 E0.01429
G1 X124.104 Y115.448 E0.01387
G1 X128.307 Y111.246 E0.32751
G1 X128.178 Y110.749 E0.02825
G1 X123.708 Y115.220 E0.34837
G1 X123.312 Y114.991 E0.02520
G1 X128.050 Y110.253 E0.36923
G1 X127.922 Y109.756 E0.02825
G1 X122.916 Y114.762 E0.39010
G1 X122.520 Y114.534 E0.02520
G1 X127.793 Y109.260 E0.41096
G1 X127.665 Y108.763 E0.02825
G1 X122.123 Y114.305 E0.43182
G1 X121.727 Y114.076 E0.02520
G1 X127.536 Y108.267 E0.45269
G1 X127.408 Y107.771 E0.02825
G1 X121.331 Y113.847 E0.47355
G1 X121.061 Y113.691 E0.01721
G1 X121.130 Y113.424 E0.01521
G1 X127.280 Y107.274 E0.47924
G1 X127.151 Y106.778 E0.02825
G1 X121.348 Y112.581 E0.45225
M73 Q4 S20
G1 X121.566 Y111.739 E0.04797
G1 X127.023 Y106.281 E0.42526
M73 P4 R20
G1 X126.895 Y105.785 E0.02825
G1 X121.784 Y110.896 E0.39827
G1 X122.002 Y110.053 E0.04797
G1 X126.766 Y105.289 E0.37128
G1 X126.638 Y104.792 E0.02825
G1 X122.220 Y109.210 E0.34430
G1 X122.438 Y108.368 E0.04797
G1 X126.509 Y104.296 E0.31731
G1 X126.381 Y103.799 E0.02825
G1 X122.656 Y107.525 E0.29032
G1 X122.873 Y106.682 E0.04797
G1 X126.253 Y103.303 E0.26333
G1 X126.124 Y102.807 E0.02825
G1 X123.091 Y105.839 E0.23634
G1 X123.309 Y104.997 E0.04797
G1 X125.996 Y102.310 E0.20935
G1 X125.867 Y101.814 E0.02825
G1 X123.527 Y104.154 E0.18237
G1 X123.745 Y103.311 E0.04797
G1 X125.739 Y101.317 E0.15538
G1 X125.611 Y100.821 E0.02825
G1 X123.963 Y102.468 E0.12839
G1 X124.181 Y101.626 E0.04797
G1 X125.482 Y100.324 E0.10140
G1 X125.354 Y99.828 E0.02825
G1 X124.399 Y100.783 E0.07441
G1 X124.617 Y99.940 E0.04797
G1 X125.226 Y99.332 E0.04742
G1 X125.097 Y98.835 E0.02825
G1 X124.562 Y99.371 E0.04172
;WIPE_START
G1 F8640.000
G1 X125.097 Y98.835 E-0.17481
G1 X125.226 Y99.332 E-0.11839
G1 X124.617 Y99.940 E-0.19872
G1 X124.399 Y100.783 E-0.20099
G1 X125.354 Y99.828 E-0.31182
M73 P4 R19
G1 X125.482 Y100.324 E-0.11839
G1 X124.849 Y100.958 E-0.20687
;WIPE_END
G1 E-0.07000 F2100.000
G1 Z0.700 F10800.000
G1 X125.000 Y97.303
G1 Z0.500
G1 E1.40000 F2100.000
;TYPE:Gap fill
;WIDTH:0.651085
G1 F1309
G1 X125.000 Y93.793 E0.25686
;LAYER_CHANGE
;Z:0.8
;HEIGHT:0.3
;BEFORE_LAYER_CHANGE
G92 E0.0
;0.8


;WIPE_START
G1 F8640.000
G1 X125.000 Y97.303 E-0.81050
;WIPE_END
G1 E-0.58950 F2100.000
G1 Z0.700 F10800.000
M73 Q4 S19
G1 Z0.800
;AFTER_LAYER_CHANGE
;0.8
G1 Z1.000
G1 X121.583 Y92.288
G1 Z0.800
G1 E1.40000 F2100.000
;TYPE:Skirt
;WIDTH:0.42
G1 F1315
G1 X121.831 Y91.786 E0.02487
G1 X122.176 Y91.343 E0.02487
G1 X122.604 Y90.980 E0.02487
G1 X123.096 Y90.711 E0.02487
G1 X123.949 Y90.504 E0.03893
G1 X125.840 Y90.496 E0.08391
G1 X126.707 Y90.637 E0.03893
G1 X127.481 Y91.041 E0.03875
G1 X128.090 Y91.667 E0.03875
G1 X128.474 Y92.457 E0.03893
G1 X132.925 Y113.675 E0.96163
G1 X132.981 Y114.319 E0.02867
G1 X132.879 Y114.978 E0.02957
G1 X132.624 Y115.590 E0.02939
G1 X132.227 Y116.126 E0.02957
G1 X131.717 Y116.548 E0.02939
G1 X127.120 Y119.186 E0.23510
G1 X126.412 Y119.387 E0.03264
G1 X124.914 Y119.503 E0.06663
G1 X123.555 Y119.381 E0.06051
G1 X122.850 Y119.172 E0.03261
G1 X118.225 Y116.510 E0.23672
G1 X117.706 Y116.053 E0.03065
G1 X117.318 Y115.482 E0.03065
G1 X117.084 Y114.831 E0.03065
G1 X117.019 Y114.143 E0.03065
G1 X121.571 Y92.347 E0.98762
G1 X121.929 Y92.441 F10800.000
G1 F1315
G1 X122.146 Y91.993 E0.02209
G1 X122.455 Y91.597 E0.02226
G1 X122.837 Y91.278 E0.02209
G1 X123.277 Y91.044 E0.02209
G1 X124.006 Y90.878 E0.03314
G1 X125.840 Y90.873 E0.08135
G1 X126.592 Y90.996 E0.03381
G1 X127.267 Y91.352 E0.03381
G1 X127.794 Y91.902 E0.03381
G1 X128.120 Y92.591 E0.03381
G1 X132.556 Y113.752 E0.95900
G1 X132.604 Y114.309 E0.02478
G1 X132.514 Y114.883 E0.02578
G1 X132.288 Y115.418 E0.02578
G1 X131.941 Y115.880 E0.02562
G1 X131.489 Y116.247 E0.02578
G1 X126.975 Y118.838 E0.23088
G1 X126.350 Y119.015 E0.02880
G1 X124.923 Y119.126 E0.06346
G1 X123.624 Y119.010 E0.05785
G1 X123.000 Y118.826 E0.02890
G1 X118.464 Y116.216 E0.23211
G1 X118.006 Y115.822 E0.02679
G1 X117.662 Y115.326 E0.02679
G1 X117.453 Y114.755 E0.02696
G1 X117.396 Y114.154 E0.02679
G1 X121.916 Y92.500 E0.98117
;WIPE_START
G1 F8640.000
G1 X122.146 Y91.993 E-0.12848
G1 X122.455 Y91.597 E-0.11588
G1 X122.837 Y91.278 E-0.11500
G1 X123.277 Y91.044 E-0.11500
G1 X124.006 Y90.878 E-0.17254
G1 X125.840 Y90.873 E-0.42351
G1 X126.592 Y90.996 E-0.17602
G1 X126.912 Y91.165 E-0.08355
;WIPE_END
G1 E-0.07000 F2100.000
G1 Z1.000 F10800.000
G1 X124.899 Y97.546
M73 Q5 S19
G1 Z0.800
G1 E1.40000 F2100.000
M204 S800
;TYPE:Perimeter
;WIDTH:0.5
G1 F1315
G1 X125.101 Y97.546 E0.01100
G1 X129.318 Y113.850 E0.91500
M73 P5 R19
G1 X125.779 Y115.893 E0.22203
G1 X125.000 Y115.961 E0.04247
G1 X124.221 Y115.893 E0.04247
G1 X120.682 Y113.850 E0.22203
G1 X124.884 Y97.604 E0.91174
M204 S1000
;WIPE_START
G1 F8640.000
G1 X125.101 Y97.546 E-0.05196
G1 X126.487 Y102.904 E-1.27804
;WIPE_END
G1 E-0.07000 F2100.000
G1 Z1.000 F10800.000
G1 X124.464 Y93.550
G1 Z0.800
G1 E1.40000 F2100.000
M204 S800
;TYPE:External perimeter
;WIDTH:0.6
G1 F1315
G1 X125.536 Y93.550 E0.07164
G1 X125.536 Y97.288 E0.24973
G1 X129.880 Y114.086 E1.15910
G1 X125.928 Y116.368 E0.30486
G1 X125.000 Y116.449 E0.06225
G1 X124.072 Y116.368 E0.06225
G1 X120.120 Y114.086 E0.30486
G1 X124.464 Y97.288 E1.15910
G1 X124.464 Y93.610 E0.24572
M204 S1000
G1 X124.796 Y93.774 F10800.000
G1 X125.000 Y93.793
;TYPE:Gap fill
;WIDTH:0.651085
G1 F1315
G1 X125.000 Y97.303 E0.25686
;WIPE_START
G1 F8640.000
G1 X125.000 Y93.793 E-0.81050
;WIPE_END
G1 E-0.58950 F2100.000
G1 Z1.000 F10800.000
G1 X125.438 Y99.371
G1 Z0.800
G1 E1.40000 F2100.000
;TYPE:Solid infill
;WIDTH:0.506175
G1 F1315
G1 X124.903 Y98.835 E0.04172
G1 X124.774 Y99.332 E0.02825
G1 X125.383 Y99.940 E0.04743
G1 X125.601 Y100.783 E0.04797
G1 X124.646 Y99.828 E0.07442
G1 X124.518 Y100.325 E0.02825
G1 X125.819 Y101.626 E0.10141
G1 X126.037 Y102.469 E0.04797
