; generated by PrusaSlicer 2.3.0+win64 on 2021-07-19 at 03:48:20 UTC

; 

; external perimeters extrusion width = 0.45mm
; perimeters extrusion width = 0.45mm
; infill extrusion width = 0.45mm
; solid infill extrusion width = 0.45mm
; top infill extrusion width = 0.40mm
; first layer extrusion width = 0.42mm

M73 P0 R34
M73 Q0 S34
M201 X1000 Y1000 Z200 E5000 ; sets maximum accelerations, mm/sec^2
M203 X200 Y200 Z12 E120 ; sets maximum feedrates, mm/sec
M204 P1250 R1250 T1250 ; sets acceleration (P, T) and retract acceleration (R), mm/sec^2
M205 X8.00 Y8.00 Z0.40 E4.50 ; sets the jerk limits, mm/sec
M205 S0 T0 ; sets the minimum extruding and travel feed rate, mm/sec
M107
;TYPE:Custom
M862.3 P "MK3S" ; printer model check
M862.1 P0.4 ; nozzle diameter check
M115 U3.9.1 ; tell printer latest fw version
G90 ; use absolute coordinates
M83 ; extruder relative mode
M104 S240 ; set extruder temp
M140 S85 ; set bed temp
M190 S85 ; wait for bed temp
M109 S240 ; wait for extruder temp
G28 W ; home all without mesh bed level
G80 ; mesh bed leveling
G1 Y-3.0 F1000.0 ; go outside print area
G92 E0.0
G1 X60.0 E9.0 F1000.0 ; intro line
G1 X100.0 E12.5 F1000.0 ; intro line
G92 E0.0
M221 S95

; Don't change E values below. Excessive value can damage the printer.

M907 E538 ; set extruder motor current
G21 ; set units to millimeters
G90 ; use absolute coordinates
M83 ; use relative distances for extrusion
M900 K0.08 ; Filament gcode LA 1.5
M900 K45 ; Filament gcode LA 1.0
;LAYER_CHANGE
;Z:0.2
;HEIGHT:0.2
;BEFORE_LAYER_CHANGE
G92 E0.0
;0.2


M73 P0 R33
G1 E-1.40000 F2100.000
M73 Q0 S33
G1 Z0.200 F10800.000
;AFTER_LAYER_CHANGE
;0.2
G1 Z0.400
G1 X59.979 Y27.369
G1 Z0.200
G1 E1.40000 F2100.000
M204 S1000
;TYPE:Skirt
;WIDTH:0.42
G1 F1200.000
G1 X60.227 Y26.866 E0.01758
G1 X60.572 Y26.424 E0.01758
G1 X60.999 Y26.061 E0.01758
G1 X61.491 Y25.792 E0.01758
G1 X62.344 Y25.585 E0.02752
G1 X64.236 Y25.576 E0.05931
G1 X65.102 Y25.717 E0.02752
G1 X65.877 Y26.121 E0.02739
G1 X66.486 Y26.748 E0.02739
G1 X66.870 Y27.537 E0.02752
G1 X71.321 Y48.756 E0.67977
G1 X71.377 Y49.400 E0.02026
G1 X71.275 Y50.059 E0.02090
G1 X71.020 Y50.670 E0.02078
G1 X70.623 Y51.206 E0.02090
G1 X70.113 Y51.629 E0.02078
G1 X65.522 Y54.262 E0.16597
G1 X64.805 Y54.467 E0.02335
G1 X63.308 Y54.583 E0.04708
G1 X61.941 Y54.460 E0.04305
G1 X61.243 Y54.250 E0.02285
G1 X56.621 Y51.590 E0.16721
G1 X56.102 Y51.133 E0.02167
G1 X55.714 Y50.562 E0.02167
G1 X55.480 Y49.912 E0.02167
G1 X55.415 Y49.224 E0.02167
G1 X59.967 Y27.427 E0.69814
G1 X60.325 Y27.521 F10800.000
G1 F1200.000
G1 X60.542 Y27.073 E0.01562
G1 X60.851 Y26.678 E0.01574
G1 X61.233 Y26.358 E0.01562
G1 X61.673 Y26.125 E0.01562
G1 X62.402 Y25.958 E0.02343
G1 X64.236 Y25.953 E0.05751
G1 X64.988 Y26.077 E0.02390
G1 X65.663 Y26.432 E0.02390
G1 X66.190 Y26.982 E0.02390
G1 X66.516 Y27.671 E0.02390
G1 X70.952 Y48.832 E0.67791
G1 X71.000 Y49.389 E0.01752
G1 X70.910 Y49.963 E0.01823
G1 X70.683 Y50.499 E0.01823
G1 X70.336 Y50.960 E0.01811
G1 X69.885 Y51.327 E0.01823
G1 X65.380 Y53.913 E0.16286
G1 X64.748 Y54.095 E0.02063
G1 X63.318 Y54.206 E0.04499
G1 X62.010 Y54.090 E0.04115
G1 X61.389 Y53.903 E0.02032
G1 X56.856 Y51.294 E0.16399
G1 X56.399 Y50.900 E0.01894
G1 X56.056 Y50.403 E0.01894
G1 X55.849 Y49.835 E0.01894
G1 X55.792 Y49.234 E0.01894
G1 X60.312 Y27.580 E0.69358
;WIPE_START
G1 F8640.000
G1 X60.542 Y27.073 E-0.12848
G1 X60.851 Y26.678 E-0.11588
G1 X61.233 Y26.358 E-0.11500
G1 X61.673 Y26.125 E-0.11500
G1 X62.402 Y25.958 E-0.17254
G1 X64.236 Y25.953 E-0.42351
G1 X64.988 Y26.077 E-0.17602
G1 X65.308 Y26.245 E-0.08355
;WIPE_END
G1 E-0.07000 F2100.000
G1 Z0.400 F10800.000
G1 X63.308 Y32.579
G1 Z0.200
G1 E1.40000 F2100.000
;TYPE:Perimeter
G1 F1200.000
G1 X63.483 Y32.579 E0.00549
G1 X67.712 Y48.930 E0.52952
G1 X64.174 Y50.972 E0.12808
G1 X63.396 Y51.040 E0.02450
G1 X62.618 Y50.972 E0.02450
G1 X59.080 Y48.930 E0.12808
G1 X63.293 Y32.637 E0.52764
;WIPE_START
G1 F8640.000
G1 X63.483 Y32.579 E-0.04592
G1 X64.876 Y37.963 E-1.28408
;WIPE_END
G1 E-0.07000 F2100.000
G1 Z0.400 F10800.000
G1 X62.970 Y28.740
G1 Z0.200
G1 E1.40000 F2100.000
;TYPE:External perimeter
G1 F1200.000
G1 X63.822 Y28.740 E0.02672
G1 X63.822 Y32.382 E0.11420
G1 X68.149 Y49.113 E0.54183
G1 X64.290 Y51.340 E0.13970
G1 X63.396 Y51.419 E0.02815
G1 X62.501 Y51.340 E0.02815
G1 X58.643 Y49.113 E0.13970
G1 X62.970 Y32.383 E0.54182
G1 X62.970 Y28.800 E0.11232
M73 Q1 S33
G1 X63.301 Y28.964 F10800.000
G1 X63.396 Y28.929
;TYPE:Gap fill
;WIDTH:0.518198
G1 F1200.000
G1 X63.396 Y32.391 E0.13681
;WIPE_START
M73 P1 R33
G1 F8640.000
G1 X63.396 Y28.929 E-0.79937
;WIPE_END
G1 E-0.60063 F2100.000
G1 Z0.400 F10800.000
G1 X63.191 Y33.483
G1 Z0.200
G1 E1.40000 F2100.000
;TYPE:Solid infill
;WIDTH:0.42939
G1 F1200.000
G1 X63.507 Y33.799 E0.01434
G1 X63.697 Y34.536 E0.02447
G1 X63.218 Y34.057 E0.02178
G1 X63.106 Y34.491 E0.01441
G1 X63.888 Y35.273 E0.03555
G1 X64.079 Y36.011 E0.02447
G1 X62.994 Y34.925 E0.04932
G1 X62.881 Y35.360 E0.01441
G1 X64.269 Y36.748 E0.06308
G1 X64.460 Y37.485 E0.02447
G1 X62.769 Y35.794 E0.07685
G1 X62.657 Y36.228 E0.01441
G1 X64.651 Y38.222 E0.09062
G1 X64.841 Y38.959 E0.02447
G1 X62.544 Y36.662 E0.10439
G1 X62.432 Y37.097 E0.01441
G1 X65.032 Y39.697 E0.11816
G1 X65.223 Y40.434 E0.02447
G1 X62.320 Y37.531 E0.13192
G1 X62.207 Y37.965 E0.01441
G1 X65.413 Y41.171 E0.14569
G1 X65.604 Y41.908 E0.02447
G1 X62.095 Y38.399 E0.15946
G1 X61.983 Y38.834 E0.01441
G1 X65.795 Y42.645 E0.17323
G1 X65.985 Y43.383 E0.02447
G1 X61.871 Y39.268 E0.18700
G1 X61.758 Y39.702 E0.01441
G1 X66.176 Y44.120 E0.20077
G1 X66.367 Y44.857 E0.02447
G1 X61.646 Y40.136 E0.21453
G1 X61.534 Y40.571 E0.01441
G1 X66.557 Y45.594 E0.22830
G1 X66.748 Y46.332 E0.02447
G1 X61.421 Y41.005 E0.24207
G1 X61.309 Y41.439 E0.01441
G1 X66.939 Y47.069 E0.25584
G1 X67.129 Y47.806 E0.02447
G1 X61.197 Y41.873 E0.26961
G1 X61.084 Y42.308 E0.01441
G1 X67.320 Y48.543 E0.28337
G1 X67.384 Y48.792 E0.00827
G1 X67.155 Y48.925 E0.00851
G1 X60.972 Y42.742 E0.28098
G1 X60.860 Y43.176 E0.01441
G1 X66.808 Y49.125 E0.27034
G1 X66.462 Y49.325 E0.01286
G1 X60.748 Y43.610 E0.25969
G1 X60.635 Y44.045 E0.01441
G1 X66.115 Y49.525 E0.24905
G1 X65.769 Y49.725 E0.01286
G1 X60.523 Y44.479 E0.23841
G1 X60.411 Y44.913 E0.01441
G1 X65.422 Y49.925 E0.22776
G1 X65.076 Y50.125 E0.01286
G1 X60.298 Y45.347 E0.21712
G1 X60.186 Y45.782 E0.01441
G1 X64.729 Y50.325 E0.20648
G1 X64.383 Y50.525 E0.01286
G1 X60.074 Y46.216 E0.19583
G1 X59.961 Y46.650 E0.01441
G1 X64.013 Y50.702 E0.18415
G1 X63.511 Y50.746 E0.01621
G1 X59.849 Y47.084 E0.16642
G1 X59.737 Y47.519 E0.01441
G1 X62.934 Y50.716 E0.14530
G1 X62.705 Y50.696 E0.00740
G1 X61.907 Y50.235 E0.02961
G1 X59.624 Y47.953 E0.10372
G1 X59.512 Y48.387 E0.01441
G1 X61.077 Y49.952 E0.07112
;LAYER_CHANGE
;Z:0.4
;HEIGHT:0.2
;BEFORE_LAYER_CHANGE
G92 E0.0
;0.4


;WIPE_START
G1 F8640.000
G1 X59.512 Y48.387 E-0.51103
G1 X59.624 Y47.953 E-0.10357
G1 X61.815 Y50.144 E-0.71540
;WIPE_END
G1 E-0.07000 F2100.000
G1 Z0.400 F10800.000
;AFTER_LAYER_CHANGE
;0.4
M104 S250 ; set temperature
M140 S90 ; set bed temperature
G1 Z0.600
G1 X61.243 Y54.250
G1 Z0.400
G1 E1.40000 F2100.000
;TYPE:Skirt
;WIDTH:0.42
G1 F1407
G1 X56.621 Y51.590 E0.16721
G1 X56.102 Y51.133 E0.02167
G1 X55.714 Y50.562 E0.02167
G1 X55.480 Y49.912 E0.02167
G1 X55.415 Y49.224 E0.02167
G1 X59.979 Y27.369 E0.70003
G1 X60.227 Y26.866 E0.01758
G1 X60.572 Y26.424 E0.01758
G1 X60.999 Y26.061 E0.01758
G1 X61.491 Y25.792 E0.01758
G1 X62.344 Y25.585 E0.02752
G1 X64.236 Y25.576 E0.05931
G1 X65.102 Y25.717 E0.02752
G1 X65.877 Y26.121 E0.02739
G1 X66.486 Y26.748 E0.02739
G1 X66.870 Y27.537 E0.02752
G1 X71.321 Y48.756 E0.67977
G1 X71.377 Y49.400 E0.02026
G1 X71.275 Y50.059 E0.02090
G1 X71.020 Y50.670 E0.02078
G1 X70.623 Y51.206 E0.02090
G1 X70.113 Y51.629 E0.02078
G1 X65.522 Y54.262 E0.16597
G1 X64.805 Y54.467 E0.02335
G1 X63.308 Y54.583 E0.04708
G1 X61.941 Y54.460 E0.04305
G1 X61.300 Y54.268 E0.02097
G1 X61.408 Y53.909 F10800.000
G1 F1407
G1 X56.856 Y51.294 E0.16458
G1 X56.399 Y50.900 E0.01894
G1 X56.056 Y50.403 E0.01894
G1 X55.849 Y49.835 E0.01894
G1 X55.792 Y49.234 E0.01894
G1 X60.325 Y27.521 E0.69546
G1 X60.542 Y27.073 E0.01562
G1 X60.851 Y26.678 E0.01574
G1 X61.233 Y26.358 E0.01562
G1 X61.673 Y26.125 E0.01562
G1 X62.402 Y25.958 E0.02343
G1 X64.236 Y25.953 E0.05751
G1 X64.988 Y26.077 E0.02390
G1 X65.663 Y26.432 E0.02390
G1 X66.190 Y26.982 E0.02390
G1 X66.516 Y27.671 E0.02390
G1 X70.952 Y48.832 E0.67791
G1 X71.000 Y49.389 E0.01752
G1 X70.910 Y49.963 E0.01823
G1 X70.683 Y50.499 E0.01823
G1 X70.336 Y50.960 E0.01811
G1 X69.885 Y51.327 E0.01823
G1 X65.380 Y53.913 E0.16286
G1 X64.748 Y54.095 E0.02063
G1 X63.318 Y54.206 E0.04499
G1 X62.010 Y54.090 E0.04115
G1 X61.465 Y53.926 E0.01783
;WIPE_START
G1 F8640.000
G1 X56.856 Y51.294 E-1.22552
G1 X56.514 Y50.999 E-0.10448
;WIPE_END
G1 E-0.07000 F2100.000
G1 Z0.600 F10800.000
G1 X58.900 Y49.005
G1 Z0.400
G1 E1.40000 F2100.000
M204 S800
;TYPE:Perimeter
;WIDTH:0.45
G1 F1407
G1 X63.192 Y32.411 E0.58017
G1 X63.192 Y28.962 E0.11672
G1 X63.600 Y28.962 E0.01382
G1 X63.600 Y32.411 E0.11672
G1 X67.891 Y49.005 E0.58017
G1 X64.222 Y51.124 E0.14343
M73 P2 R33
M73 Q2 S33
G1 X63.396 Y51.196 E0.02807
G1 X62.570 Y51.124 E0.02807
G1 X58.952 Y49.035 E0.14140
M204 S1000
G1 X58.429 Y49.203 F10800.000
M204 S800
;TYPE:External perimeter
G1 F1407
G1 X62.785 Y32.359 E0.58890
G1 X62.785 Y28.555 E0.12875
G1 X64.007 Y28.555 E0.04137
G1 X64.007 Y32.359 E0.12875
G1 X68.363 Y49.203 E0.58890
G1 X64.347 Y51.521 E0.15696
G1 X63.396 Y51.604 E0.03233
G1 X62.444 Y51.521 E0.03233
G1 X58.481 Y49.233 E0.15493
M204 S1000
G1 X58.727 Y48.936 F10800.000
;WIPE_START
G1 F8640.000
G1 X59.904 Y43.651 E-1.33000
;WIPE_END
G1 E-0.07000 F2100.000
G1 Z0.600 F10800.000
G1 X62.988 Y33.687
G1 Z0.400
G1 E1.40000 F2100.000
;TYPE:Solid infill
;WIDTH:0.453942
G1 F1407
G1 X63.486 Y33.189 E0.02408
G1 X63.605 Y33.651 E0.01630
G1 X63.040 Y34.216 E0.02731
G1 X62.837 Y35.000 E0.02768
G1 X63.725 Y34.113 E0.04289
G1 X63.844 Y34.575 E0.01630
G1 X62.635 Y35.784 E0.05846
G1 X62.432 Y36.568 E0.02768
G1 X63.964 Y35.036 E0.07403
G1 X64.083 Y35.498 E0.01630
G1 X62.229 Y37.352 E0.08961
G1 X62.026 Y38.136 E0.02768
G1 X64.203 Y35.960 E0.10518
G1 X64.322 Y36.422 E0.01630
G1 X61.824 Y38.920 E0.12075
G1 X61.621 Y39.704 E0.02768
G1 X64.441 Y36.884 E0.13633
G1 X64.561 Y37.346 E0.01630
G1 X61.418 Y40.488 E0.15190
G1 X61.215 Y41.272 E0.02768
G1 X64.680 Y37.807 E0.16747
G1 X64.800 Y38.269 E0.01630
G1 X61.013 Y42.056 E0.18305
G1 X60.810 Y42.840 E0.02768
G1 X64.919 Y38.731 E0.19862
G1 X65.039 Y39.193 E0.01630
G1 X60.607 Y43.625 E0.21419
G1 X60.404 Y44.409 E0.02768
G1 X65.158 Y39.655 E0.22976
G1 X65.277 Y40.117 E0.01630
G1 X60.201 Y45.193 E0.24534
G1 X59.999 Y45.977 E0.02768
G1 X65.397 Y40.578 E0.26091
G1 X65.516 Y41.040 E0.01630
G1 X59.796 Y46.761 E0.27648
G1 X59.593 Y47.545 E0.02768
G1 X65.636 Y41.502 E0.29206
G1 X65.755 Y41.964 E0.01630
G1 X59.390 Y48.329 E0.30763
G1 X59.254 Y48.857 E0.01863
G1 X59.374 Y48.926 E0.00475
G1 X65.875 Y42.426 E0.31418
G1 X65.994 Y42.888 E0.01630
G1 X59.743 Y49.139 E0.30214
G1 X60.111 Y49.352 E0.01454
G1 X66.114 Y43.349 E0.29010
G1 X66.233 Y43.811 E0.01630
G1 X60.480 Y49.564 E0.27806
G1 X60.848 Y49.777 E0.01454
G1 X66.352 Y44.273 E0.26602
G1 X66.472 Y44.735 E0.01630
G1 X61.217 Y49.990 E0.25399
G1 X61.585 Y50.203 E0.01454
G1 X66.591 Y45.197 E0.24195
G1 X66.711 Y45.659 E0.01630
G1 X61.954 Y50.415 E0.22991
G1 X62.322 Y50.628 E0.01454
G1 X66.830 Y46.120 E0.21787
G1 X66.950 Y46.582 E0.01630
G1 X62.703 Y50.829 E0.20524
G1 X63.238 Y50.875 E0.01834
G1 X67.069 Y47.044 E0.18518
G1 X67.188 Y47.506 E0.01630
G1 X63.844 Y50.850 E0.16163
G1 X64.128 Y50.825 E0.00972
G1 X64.891 Y50.385 E0.03013
G1 X67.308 Y47.968 E0.11681
G1 X67.427 Y48.430 E0.01630
G1 X65.766 Y50.091 E0.08030
;LAYER_CHANGE
;Z:0.6
;HEIGHT:0.2
;BEFORE_LAYER_CHANGE
G92 E0.0
;0.6


;WIPE_START
G1 F8640.000
G1 X67.427 Y48.430 E-0.54250
G1 X67.308 Y47.968 E-0.11015
G1 X65.234 Y50.042 E-0.67736
;WIPE_END
G1 E-0.07000 F2100.000
G1 Z0.600 F10800.000
;AFTER_LAYER_CHANGE
;0.6
G1 Z0.800
G1 X65.522 Y54.262
G1 Z0.600
G1 E1.40000 F2100.000
;TYPE:Skirt
;WIDTH:0.42
G1 F1415
G1 X64.805 Y54.467 E0.02335
G1 X63.308 Y54.583 E0.04708
G1 X61.941 Y54.460 E0.04305
G1 X61.243 Y54.250 E0.02285
G1 X56.621 Y51.590 E0.16721
G1 X56.102 Y51.133 E0.02167
G1 X55.714 Y50.562 E0.02167
G1 X55.480 Y49.912 E0.02167
G1 X55.415 Y49.224 E0.02167
G1 X59.979 Y27.369 E0.70003
G1 X60.227 Y26.866 E0.01758
G1 X60.572 Y26.424 E0.01758
G1 X60.999 Y26.061 E0.01758
G1 X61.491 Y25.792 E0.01758
G1 X62.344 Y25.585 E0.02752
G1 X64.236 Y25.576 E0.05931
G1 X65.102 Y25.717 E0.02752
G1 X65.877 Y26.121 E0.02739
G1 X66.486 Y26.748 E0.02739
G1 X66.870 Y27.537 E0.02752
G1 X71.321 Y48.756 E0.67977
G1 X71.377 Y49.400 E0.02026
G1 X71.275 Y50.059 E0.02090
G1 X71.020 Y50.670 E0.02078
G1 X70.623 Y51.206 E0.02090
G1 X70.113 Y51.629 E0.02078
G1 X65.574 Y54.233 E0.16409
G1 X65.388 Y53.908 F10800.000
G1 F1415
G1 X64.748 Y54.095 E0.02088
G1 X63.318 Y54.206 E0.04499
G1 X62.010 Y54.090 E0.04115
G1 X61.389 Y53.903 E0.02032
G1 X56.856 Y51.294 E0.16399
G1 X56.399 Y50.900 E0.01894
G1 X56.056 Y50.403 E0.01894
G1 X55.849 Y49.835 E0.01894
G1 X55.792 Y49.234 E0.01894
G1 X60.325 Y27.521 E0.69546
G1 X60.542 Y27.073 E0.01562
G1 X60.851 Y26.678 E0.01574
G1 X61.233 Y26.358 E0.01562
G1 X61.673 Y26.125 E0.01562
G1 X62.402 Y25.958 E0.02343
G1 X64.236 Y25.953 E0.05751
G1 X64.988 Y26.077 E0.02390
G1 X65.663 Y26.432 E0.02390
G1 X66.190 Y26.982 E0.02390
G1 X66.516 Y27.671 E0.02390
G1 X70.952 Y48.832 E0.67791
G1 X71.000 Y49.389 E0.01752
G1 X70.910 Y49.963 E0.01823
G1 X70.683 Y50.499 E0.01823
G1 X70.336 Y50.960 E0.01811
G1 X69.885 Y51.327 E0.01823
G1 X65.440 Y53.879 E0.16072
;WIPE_START
G1 F8640.000
G1 X64.748 Y54.095 E-0.16728
G1 X63.318 Y54.206 E-0.33129
G1 X62.010 Y54.090 E-0.30308
G1 X61.389 Y53.903 E-0.14967
G1 X59.968 Y53.085 E-0.37868
;WIPE_END
G1 E-0.07000 F2100.000
G1 Z0.800 F10800.000
G1 X67.891 Y49.005
G1 Z0.600
G1 E1.40000 F2100.000
M204 S800
;TYPE:Perimeter
;WIDTH:0.45
G1 F1415
G1 X64.222 Y51.124 E0.14343
G1 X63.396 Y51.196 E0.02807
G1 X62.570 Y51.124 E0.02807
G1 X58.900 Y49.005 E0.14343
M73 Q3 S33
G1 X63.192 Y32.411 E0.58017
M73 P3 R33
G1 X63.192 Y28.962 E0.11672
G1 X63.600 Y28.962 E0.01382
G1 X63.600 Y32.411 E0.11672
G1 X67.876 Y48.947 E0.57814
M204 S1000
G1 X68.363 Y49.203 F10800.000
M204 S800
;TYPE:External perimeter
G1 F1415
G1 X64.347 Y51.521 E0.15696
G1 X63.396 Y51.604 E0.03233
G1 X62.444 Y51.521 E0.03233
G1 X58.429 Y49.203 E0.15696
G1 X62.785 Y32.359 E0.58890
G1 X62.785 Y28.555 E0.12875
G1 X64.007 Y28.555 E0.04137
G1 X64.007 Y32.359 E0.12875
G1 X68.348 Y49.145 E0.58687
M204 S1000
M73 P3 R32
G1 X67.965 Y49.161 F10800.000
;WIPE_START
G1 F8640.000
G1 X64.347 Y51.521 E-1.07451
G1 X63.396 Y51.604 E-0.22052
G1 X63.245 Y51.591 E-0.03498
;WIPE_END
G1 E-0.07000 F2100.000
G1 Z0.800 F10800.000
G1 X63.804 Y33.687
G1 Z0.600
G1 E1.40000 F2100.000
;TYPE:Solid infill
;WIDTH:0.453942
G1 F1415
G1 X63.306 Y33.189 E0.02408
G1 X63.186 Y33.651 E0.01630
G1 X63.752 Y34.216 E0.02732
G1 X63.954 Y35.000 E0.02768
G1 X63.067 Y34.113 E0.04289
G1 X62.947 Y34.575 E0.01630
G1 X64.157 Y35.784 E0.05846
G1 X64.360 Y36.568 E0.02768
G1 X62.828 Y35.037 E0.07404
G1 X62.709 Y35.498 E0.01630
G1 X64.563 Y37.352 E0.08961
G1 X64.765 Y38.136 E0.02768
G1 X62.589 Y35.960 E0.10518
G1 X62.470 Y36.422 E0.01630
M73 Q3 S32
G1 X64.968 Y38.920 E0.12076
G1 X65.171 Y39.704 E0.02768
G1 X62.350 Y36.884 E0.13633
G1 X62.231 Y37.346 E0.01630
G1 X65.374 Y40.489 E0.15190
G1 X65.576 Y41.273 E0.02768
G1 X62.111 Y37.808 E0.16748
G1 X61.992 Y38.269 E0.01630
G1 X65.779 Y42.057 E0.18305
G1 X65.982 Y42.841 E0.02768
G1 X61.873 Y38.731 E0.19862
G1 X61.753 Y39.193 E0.01630
G1 X66.185 Y43.625 E0.21419
G1 X66.387 Y44.409 E0.02768
G1 X61.634 Y39.655 E0.22977
G1 X61.514 Y40.117 E0.01630
G1 X66.590 Y45.193 E0.24534
G1 X66.793 Y45.977 E0.02768
G1 X61.395 Y40.579 E0.26091
G1 X61.275 Y41.040 E0.01630
G1 X66.996 Y46.761 E0.27649
G1 X67.199 Y47.545 E0.02768
G1 X61.156 Y41.502 E0.29206
G1 X61.036 Y41.964 E0.01630
G1 X67.401 Y48.329 E0.30763
G1 X67.538 Y48.857 E0.01863
