; generated by PrusaSlicer 2.3.0+win64 on 2021-07-17 at 11:47:25 UTC

; 

; external perimeters extrusion width = 0.45mm
; perimeters extrusion width = 0.45mm
; infill extrusion width = 0.45mm
; solid infill extrusion width = 0.45mm
; top infill extrusion width = 0.40mm
; support material extrusion width = 0.35mm
; first layer extrusion width = 0.42mm

M73 P0 R196
M73 Q0 S197
M201 X1000 Y1000 Z200 E5000 ; sets maximum accelerations, mm/sec^2
M203 X200 Y200 Z12 E120 ; sets maximum feedrates, mm/sec
M204 P1250 R1250 T1250 ; sets acceleration (P, T) and retract acceleration (R), mm/sec^2
M205 X8.00 Y8.00 Z0.40 E4.50 ; sets the jerk limits, mm/sec
M205 S0 T0 ; sets the minimum extruding and travel feed rate, mm/sec
M107
;TYPE:Custom
M862.3 P "MK3S" ; printer model check
M862.1 P0.4 ; nozzle diameter check
M115 U3.9.1 ; tell printer latest fw version
G90 ; use absolute coordinates
M83 ; extruder relative mode
M104 S240 ; set extruder temp
M140 S85 ; set bed temp
M190 S85 ; wait for bed temp
M109 S240 ; wait for extruder temp
G28 W ; home all without mesh bed level
G80 ; mesh bed leveling
G1 Y-3.0 F1000.0 ; go outside print area
G92 E0.0
G1 X60.0 E9.0 F1000.0 ; intro line
M73 P0 R195
G1 X100.0 E12.5 F1000.0 ; intro line
G92 E0.0
M221 S95

; Don't change E values below. Excessive value can damage the printer.
M907 E430 ; set extruder motor current
G21 ; set units to millimeters
G90 ; use absolute coordinates
M83 ; use relative distances for extrusion
M900 K0.08 ; Filament gcode LA 1.5
M900 K45 ; Filament gcode LA 1.0
;LAYER_CHANGE
;Z:0.2
;HEIGHT:0.2
;BEFORE_LAYER_CHANGE
G92 E0.0
;0.2


G1 E-1.40000 F2100.000
G1 Z0.200 F10800.000
;AFTER_LAYER_CHANGE
;0.2
G1 Z0.400
G1 X154.479 Y73.876
G1 Z0.200
G1 E1.40000 F2100.000
M204 S1000
;TYPE:Skirt
;WIDTH:0.42
G1 F1200.000
G1 X154.997 Y74.622 E0.02849
G1 X155.197 Y75.509 E0.02849
G1 X155.198 Y134.614 E1.85320
G1 X155.049 Y135.419 E0.02567
G1 X154.636 Y136.126 E0.02567
G1 X154.264 Y136.480 E0.01609
G1 X153.825 Y136.746 E0.01609
G1 X153.343 Y136.910 E0.01597
G1 X152.833 Y136.968 E0.01609
G1 X100.923 Y136.968 E1.62759
G1 X100.122 Y136.819 E0.02555
G1 X99.415 Y136.406 E0.02567
G1 X98.839 Y135.685 E0.02896
G1 X95.857 Y129.529 E0.21445
G1 X95.684 Y129.034 E0.01645
G1 X95.623 Y128.509 E0.01657
G1 X95.628 Y81.348 E1.47872
G1 X95.857 Y80.472 E0.02837
G1 X98.833 Y74.498 E0.20928
G1 X99.133 Y74.045 E0.01704
G1 X99.499 Y73.696 E0.01585
G1 X99.930 Y73.431 E0.01585
G1 X100.407 Y73.264 E0.01585
G1 X100.913 Y73.202 E0.01597
G1 X152.825 Y73.201 E1.62766
G1 X153.716 Y73.376 E0.02849
G1 X154.429 Y73.843 E0.02672
;WIPE_START
G1 F8640.000
G1 X154.997 Y74.622 E-0.22268
G1 X155.197 Y75.509 E-0.20978
G1 X155.197 Y79.396 E-0.89753
;WIPE_END
G1 E-0.07000 F2100.000
G1 Z0.400 F10800.000
G1 X122.821 Y83.981
G1 Z0.200
G1 E1.40000 F2100.000
;TYPE:Support material
G1 F1200.000
G1 X122.821 Y75.578 E0.26346
G1 X122.067 Y75.578 E0.02365
G1 X122.067 Y80.811 E0.16408
G1 X121.312 Y80.811 E0.02365
G1 X121.312 Y75.578 E0.16408
G1 X120.558 Y75.578 E0.02365
G1 X120.558 Y80.811 E0.16408
G1 X119.804 Y80.811 E0.02365
G1 X119.804 Y75.578 E0.16408
G1 X119.050 Y75.578 E0.02365
G1 X119.050 Y80.811 E0.16408
G1 X118.296 Y80.811 E0.02365
G1 X118.296 Y75.578 E0.16408
G1 X117.542 Y75.578 E0.02365
G1 X117.542 Y80.811 E0.16408
G1 X116.787 Y80.811 E0.02365
G1 X116.787 Y75.578 E0.16408
G1 X116.033 Y75.578 E0.02365
G1 X116.033 Y80.811 E0.16408
G1 X115.279 Y80.811 E0.02365
G1 X115.279 Y75.578 E0.16408
G1 X114.525 Y75.578 E0.02365
G1 X114.525 Y80.811 E0.16408
G1 X113.771 Y80.811 E0.02365
G1 X113.771 Y75.578 E0.16408
G1 X113.017 Y75.578 E0.02365
G1 X113.017 Y80.811 E0.16408
G1 X112.262 Y80.811 E0.02365
G1 X112.262 Y75.578 E0.16408
G1 X111.508 Y75.578 E0.02365
G1 X111.508 Y85.311 E0.30517
G1 X110.754 Y85.311 E0.02365
G1 X110.754 Y75.578 E0.30517
G1 X110.000 Y75.578 E0.02365
G1 X110.000 Y85.311 E0.30517
G1 X109.246 Y85.311 E0.02365
G1 X109.246 Y75.578 E0.30517
G1 X108.492 Y75.578 E0.02365
G1 X108.492 Y80.811 E0.16408
G1 X107.738 Y80.811 E0.02365
G1 X107.738 Y75.578 E0.16408
G1 X106.983 Y75.578 E0.02365
G1 X106.983 Y80.811 E0.16408
G1 X106.229 Y80.811 E0.02365
G1 X106.229 Y75.578 E0.16408
G1 X105.475 Y75.578 E0.02365
G1 X105.475 Y80.811 E0.16408
G1 X104.721 Y80.811 E0.02365
G1 X104.721 Y75.578 E0.16408
G1 X103.967 Y75.578 E0.02365
G1 X103.967 Y80.811 E0.16408
G1 X103.213 Y80.811 E0.02365
G1 X103.213 Y75.578 E0.16408
G1 X102.458 Y75.578 E0.02365
G1 X102.458 Y80.811 E0.16408
G1 X101.704 Y80.811 E0.02365
G1 X101.704 Y75.578 E0.16408
G1 X100.950 Y75.578 E0.02365
G1 X100.950 Y80.981 E0.16940
;WIPE_START
G1 F8640.000
G1 X100.950 Y75.578 E-1.24750
G1 X101.307 Y75.578 E-0.08250
;WIPE_END
G1 E-0.07000 F2100.000
G1 Z0.400 F10800.000
G1 X100.950 Y97.019
G1 Z0.200
G1 E1.40000 F2100.000
G1 F1200.000
G1 X100.950 Y112.811 E0.49517
G1 X101.704 Y112.811 E0.02365
G1 X101.704 Y97.189 E0.48985
G1 X102.458 Y97.189 E0.02365
G1 X102.458 Y112.811 E0.48985
G1 X103.213 Y112.811 E0.02365
G1 X103.213 Y97.189 E0.48985
G1 X103.967 Y97.189 E0.02365
G1 X103.967 Y112.811 E0.48985
G1 X104.721 Y112.811 E0.02365
G1 X104.721 Y97.189 E0.48985
G1 X105.475 Y97.189 E0.02365
G1 X105.475 Y112.811 E0.48985
G1 X106.229 Y112.811 E0.02365
G1 X106.229 Y97.189 E0.48985
G1 X106.983 Y97.189 E0.02365
G1 X106.983 Y112.811 E0.48985
G1 X107.738 Y112.811 E0.02365
G1 X107.738 Y97.189 E0.48985
G1 X108.492 Y97.189 E0.02365
G1 X108.492 Y112.811 E0.48985
G1 X109.246 Y112.811 E0.02365
G1 X109.246 Y97.189 E0.48985
G1 X110.000 Y97.189 E0.02365
G1 X110.000 Y112.811 E0.48985
M73 Q0 S196
G1 X110.754 Y112.811 E0.02365
G1 X110.754 Y97.189 E0.48985
G1 X111.508 Y97.189 E0.02365
G1 X111.508 Y112.811 E0.48985
G1 X112.262 Y112.811 E0.02365
G1 X112.262 Y97.189 E0.48985
G1 X113.017 Y97.189 E0.02365
G1 X113.017 Y112.811 E0.48985
G1 X113.771 Y112.811 E0.02365
G1 X113.771 Y97.189 E0.48985
G1 X114.525 Y97.189 E0.02365
G1 X114.525 Y112.811 E0.48985
G1 X115.279 Y112.811 E0.02365
G1 X115.279 Y97.189 E0.48985
G1 X116.033 Y97.189 E0.02365
G1 X116.033 Y112.811 E0.48985
G1 X116.787 Y112.811 E0.02365
G1 X116.787 Y97.189 E0.48985
G1 X117.542 Y97.189 E0.02365
G1 X117.542 Y112.811 E0.48985
G1 X118.296 Y112.811 E0.02365
G1 X118.296 Y97.189 E0.48985
G1 X119.050 Y97.189 E0.02365
G1 X119.050 Y112.981 E0.49517
;WIPE_START
G1 F8640.000
G1 X119.050 Y107.221 E-1.33000
;WIPE_END
G1 E-0.07000 F2100.000
G1 Z0.400 F10800.000
G1 X122.821 Y115.981
G1 Z0.200
G1 E1.40000 F2100.000
G1 F1200.000
G1 X122.821 Y108.649 E0.22988
G1 X122.067 Y108.649 E0.02365
G1 X122.067 Y112.811 E0.13050
G1 X121.312 Y112.811 E0.02365
G1 X121.312 Y108.649 E0.13050
G1 X120.558 Y108.649 E0.02365
G1 X120.558 Y112.811 E0.13050
G1 X119.804 Y112.811 E0.02365
G1 X119.804 Y108.649 E0.13050
G1 X119.579 Y108.649 E0.00705
G1 X119.579 Y101.351 E0.22884
G1 X119.804 Y101.351 E0.00705
G1 X119.804 Y97.189 E0.13050
G1 X120.558 Y97.189 E0.02365
G1 X120.558 Y101.351 E0.13050
G1 X121.312 Y101.351 E0.02365
G1 X121.312 Y97.189 E0.13050
G1 X122.067 Y97.189 E0.02365
G1 X122.067 Y101.351 E0.13050
G1 X122.821 Y101.351 E0.02365
G1 X122.821 Y94.019 E0.22988
;WIPE_START
G1 F8640.000
G1 X122.821 Y99.779 E-1.33000
;WIPE_END
G1 E-0.07000 F2100.000
G1 Z0.400 F10800.000
G1 X122.821 Y134.591
G1 Z0.200
G1 E1.40000 F2100.000
G1 F1200.000
G1 X122.821 Y126.189 E0.26346
G1 X122.689 Y126.189 E0.00414
G1 X122.689 Y128.785 E0.08141
G1 X122.285 Y129.189 E0.01788
G1 X122.067 Y129.189 E0.00686
G1 X122.067 Y134.422 E0.16408
G1 X121.312 Y134.422 E0.02365
G1 X121.312 Y129.189 E0.16408
G1 X120.558 Y129.189 E0.02365
G1 X120.558 Y134.422 E0.16408
G1 X119.804 Y134.422 E0.02365
G1 X119.804 Y129.189 E0.16408
G1 X119.050 Y129.189 E0.02365
G1 X119.050 Y134.422 E0.16408
G1 X118.296 Y134.422 E0.02365
G1 X118.296 Y129.189 E0.16408
G1 X117.542 Y129.189 E0.02365
G1 X117.542 Y134.422 E0.16408
G1 X116.787 Y134.422 E0.02365
G1 X116.787 Y129.189 E0.16408
G1 X116.033 Y129.189 E0.02365
G1 X116.033 Y134.422 E0.16408
G1 X115.279 Y134.422 E0.02365
G1 X115.279 Y129.189 E0.16408
G1 X114.525 Y129.189 E0.02365
G1 X114.525 Y134.422 E0.16408
G1 X113.771 Y134.422 E0.02365
G1 X113.771 Y129.189 E0.16408
G1 X113.017 Y129.189 E0.02365
G1 X113.017 Y134.422 E0.16408
G1 X112.262 Y134.422 E0.02365
G1 X112.262 Y129.189 E0.16408
G1 X112.215 Y129.189 E0.00149
G1 X111.811 Y128.785 E0.01788
G1 X111.811 Y124.689 E0.12845
G1 X111.508 Y124.689 E0.00950
G1 X111.508 Y134.422 E0.30517
G1 X110.754 Y134.422 E0.02365
G1 X110.754 Y124.689 E0.30517
G1 X110.000 Y124.689 E0.02365
G1 X110.000 Y134.422 E0.30517
G1 X109.246 Y134.422 E0.02365
G1 X109.246 Y124.689 E0.30517
M73 P0 R194
G1 X109.189 Y124.689 E0.00180
G1 X109.189 Y128.785 E0.12845
G1 X108.785 Y129.189 E0.01788
G1 X108.492 Y129.189 E0.00920
G1 X108.492 Y134.422 E0.16408
G1 X107.738 Y134.422 E0.02365
G1 X107.738 Y129.189 E0.16408
G1 X106.983 Y129.189 E0.02365
G1 X106.983 Y134.422 E0.16408
G1 X106.229 Y134.422 E0.02365
G1 X106.229 Y129.189 E0.16408
G1 X105.475 Y129.189 E0.02365
G1 X105.475 Y134.422 E0.16408
G1 X104.721 Y134.422 E0.02365
G1 X104.721 Y129.189 E0.16408
G1 X103.967 Y129.189 E0.02365
G1 X103.967 Y134.422 E0.16408
G1 X103.213 Y134.422 E0.02365
G1 X103.213 Y129.189 E0.16408
G1 X102.458 Y129.189 E0.02365
G1 X102.458 Y134.422 E0.16408
G1 X101.704 Y134.422 E0.02365
G1 X101.704 Y129.189 E0.16408
G1 X100.950 Y129.189 E0.02365
G1 X100.950 Y134.591 E0.16940
;WIPE_START
G1 F8640.000
G1 X100.950 Y129.189 E-1.24750
G1 X101.307 Y129.189 E-0.08250
;WIPE_END
G1 E-0.07000 F2100.000
G1 Z0.400 F10800.000
G1 X107.713 Y86.787
G1 Z0.200
G1 E1.40000 F2100.000
;TYPE:Perimeter
G1 F1200.000
G1 X113.287 Y86.787 E0.17477
G1 X113.287 Y82.287 E0.14109
G1 X121.213 Y82.287 E0.24851
G1 X121.213 Y95.713 E0.42096
G1 X98.787 Y95.713 E0.70315
G1 X98.787 Y82.287 E0.42096
G1 X107.713 Y82.287 E0.27986
G1 X107.713 Y86.727 E0.13921
;WIPE_START
G1 F8640.000
G1 X113.287 Y86.787 E-1.28716
G1 X113.287 Y86.602 E-0.04284
;WIPE_END
G1 E-0.07000 F2100.000
G1 Z0.400 F10800.000
G1 X113.287 Y123.213
G1 Z0.200
G1 E1.40000 F2100.000
G1 F1200.000
G1 X107.713 Y123.213 E0.17477
G1 X107.713 Y127.713 E0.14109
G1 X98.787 Y127.713 E0.27986
G1 X98.787 Y114.287 E0.42096
G1 X121.213 Y114.287 E0.70315
G1 X121.213 Y127.713 E0.42096
G1 X113.287 Y127.713 E0.24851
G1 X113.287 Y123.273 E0.13921
G1 X112.910 Y123.590 F10800.000
;TYPE:External perimeter
G1 F1200.000
G1 X108.090 Y123.590 E0.15113
G1 X108.090 Y128.090 E0.14109
G1 X98.410 Y128.090 E0.30351
G1 X98.410 Y81.910 E1.44794
G1 X108.090 Y81.910 E0.30351
G1 X108.090 Y86.410 E0.14109
G1 X112.910 Y86.410 E0.15113
G1 X112.910 Y81.910 E0.14109
G1 X121.590 Y81.910 E0.27216
G1 X121.590 Y96.090 E0.44460
G1 X99.340 Y96.090 E0.69763
G1 X99.340 Y113.910 E0.55873
G1 X121.590 Y113.910 E0.69763
G1 X121.590 Y128.090 E0.44460
G1 X112.910 Y128.090 E0.27216
G1 X112.910 Y123.650 E0.13921
G1 X112.768 Y123.216 F10800.000
;WIPE_START
G1 F8640.000
G1 X108.090 Y123.590 E-1.11304
G1 X108.090 Y124.530 E-0.21696
;WIPE_END
G1 E-0.07000 F2100.000
G1 Z0.400 F10800.000
G1 X121.100 Y115.169
G1 Z0.200
G1 E1.40000 F2100.000
;TYPE:Solid infill
;WIDTH:0.422986
G1 F1200.000
G1 X120.501 Y114.570 E0.02677
G1 X119.963 Y114.570 E0.01699
G1 X120.930 Y115.537 E0.04321
G1 X120.930 Y116.074 E0.01699
G1 X119.426 Y114.570 E0.06723
G1 X118.888 Y114.570 E0.01699
G1 X120.930 Y116.612 E0.09125
G1 X120.930 Y117.149 E0.01699
G1 X118.351 Y114.570 E0.11527
G1 X117.813 Y114.570 E0.01699
G1 X120.930 Y117.687 E0.13929
G1 X120.930 Y118.224 E0.01699
G1 X117.276 Y114.570 E0.16332
G1 X116.738 Y114.570 E0.01699
G1 X120.930 Y118.762 E0.18734
G1 X120.930 Y119.299 E0.01699
G1 X116.201 Y114.570 E0.21136
G1 X115.663 Y114.570 E0.01699
G1 X120.930 Y119.837 E0.23538
G1 X120.930 Y120.374 E0.01699
G1 X115.126 Y114.570 E0.25941
G1 X114.588 Y114.570 E0.01699
G1 X120.930 Y120.912 E0.28343
G1 X120.930 Y121.449 E0.01699
G1 X114.051 Y114.570 E0.30745
G1 X113.513 Y114.570 E0.01699
G1 X120.930 Y121.987 E0.33147
G1 X120.930 Y122.524 E0.01699
G1 X112.976 Y114.570 E0.35549
G1 X112.438 Y114.570 E0.01699
G1 X120.930 Y123.062 E0.37952
G1 X120.930 Y123.599 E0.01699
G1 X111.901 Y114.570 E0.40354
G1 X111.363 Y114.570 E0.01699
G1 X120.930 Y124.137 E0.42756
G1 X120.930 Y124.674 E0.01699
G1 X110.826 Y114.570 E0.45158
G1 X110.288 Y114.570 E0.01699
G1 X120.930 Y125.211 E0.47560
G1 X120.930 Y125.749 E0.01699
G1 X109.751 Y114.570 E0.49963
G1 X109.214 Y114.570 E0.01699
G1 X120.930 Y126.286 E0.52365
G1 X120.930 Y126.824 E0.01699
G1 X108.676 Y114.570 E0.54767
G1 X108.139 Y114.570 E0.01699
G1 X120.930 Y127.361 E0.57169
G1 X120.930 Y127.430 E0.00217
G1 X120.461 Y127.430 E0.01482
G1 X107.601 Y114.570 E0.57476
G1 X107.064 Y114.570 E0.01699
G1 X119.924 Y127.430 E0.57476
M73 Q0 S195
G1 X119.386 Y127.430 E0.01699
G1 X106.526 Y114.570 E0.57476
G1 X105.989 Y114.570 E0.01699
G1 X118.849 Y127.430 E0.57476
G1 X118.311 Y127.430 E0.01699
G1 X105.451 Y114.570 E0.57476
G1 X104.914 Y114.570 E0.01699
G1 X117.774 Y127.430 E0.57476
G1 X117.236 Y127.430 E0.01699
G1 X113.570 Y123.764 E0.16386
G1 X113.570 Y124.301 E0.01699
G1 X116.699 Y127.430 E0.13984
G1 X116.161 Y127.430 E0.01699
G1 X113.570 Y124.839 E0.11582
G1 X113.570 Y125.376 E0.01699
G1 X115.624 Y127.430 E0.09180
G1 X115.086 Y127.430 E0.01699
G1 X113.570 Y125.914 E0.06778
G1 X113.570 Y126.451 E0.01699
G1 X114.549 Y127.430 E0.04375
G1 X114.011 Y127.430 E0.01699
G1 X113.400 Y126.819 E0.02732
;WIPE_START
G1 F8640.000
G1 X114.011 Y127.430 E-0.19958
G1 X114.549 Y127.430 E-0.12411
G1 X113.570 Y126.451 E-0.31968
G1 X113.570 Y125.914 E-0.12411
G1 X115.086 Y127.430 E-0.49520
G1 X115.378 Y127.430 E-0.06732
;WIPE_END
G1 E-0.07000 F2100.000
G1 Z0.400 F10800.000
G1 X112.906 Y123.100
G1 Z0.200
G1 E1.40000 F2100.000
G1 F1200.000
G1 X104.376 Y114.570 E0.38123
G1 X103.839 Y114.570 E0.01699
G1 X112.199 Y122.930 E0.37364
G1 X111.661 Y122.930 E0.01699
G1 X103.301 Y114.570 E0.37364
G1 X102.764 Y114.570 E0.01699
G1 X111.124 Y122.930 E0.37364
G1 X110.586 Y122.930 E0.01699
G1 X102.226 Y114.570 E0.37364
G1 X101.689 Y114.570 E0.01699
G1 X110.049 Y122.930 E0.37364
G1 X109.511 Y122.930 E0.01699
G1 X101.151 Y114.570 E0.37364
G1 X100.614 Y114.570 E0.01699
G1 X108.974 Y122.930 E0.37364
G1 X108.436 Y122.930 E0.01699
G1 X100.076 Y114.570 E0.37364
G1 X99.539 Y114.570 E0.01699
G1 X107.899 Y122.930 E0.37364
G1 X107.430 Y122.930 E0.01481
G1 X107.430 Y122.999 E0.00217
G1 X99.070 Y114.639 E0.37364
G1 X99.070 Y115.176 E0.01699
G1 X107.430 Y123.536 E0.37364
G1 X107.430 Y124.074 E0.01699
G1 X99.070 Y115.714 E0.37364
G1 X99.070 Y116.251 E0.01699
G1 X107.430 Y124.611 E0.37364
G1 X107.430 Y125.149 E0.01699
G1 X99.070 Y116.789 E0.37364
G1 X99.070 Y117.326 E0.01699
G1 X107.430 Y125.686 E0.37364
G1 X107.430 Y126.224 E0.01699
G1 X99.070 Y117.864 E0.37364
M73 P1 R194
M73 Q1 S195
G1 X99.070 Y118.401 E0.01699
G1 X107.430 Y126.761 E0.37364
G1 X107.430 Y127.299 E0.01699
G1 X99.070 Y118.939 E0.37364
G1 X99.070 Y119.476 E0.01699
G1 X107.024 Y127.430 E0.35549
G1 X106.486 Y127.430 E0.01699
G1 X99.070 Y120.014 E0.33147
G1 X99.070 Y120.551 E0.01699
G1 X105.949 Y127.430 E0.30745
G1 X105.411 Y127.430 E0.01699
G1 X99.070 Y121.089 E0.28342
G1 X99.070 Y121.626 E0.01699
G1 X104.874 Y127.430 E0.25940
G1 X104.336 Y127.430 E0.01699
G1 X99.070 Y122.164 E0.23538
G1 X99.070 Y122.701 E0.01699
G1 X103.799 Y127.430 E0.21136
G1 X103.261 Y127.430 E0.01699
G1 X99.070 Y123.239 E0.18733
G1 X99.070 Y123.776 E0.01699
G1 X102.724 Y127.430 E0.16331
G1 X102.186 Y127.430 E0.01699
G1 X99.070 Y124.314 E0.13929
M73 P1 R193
G1 X99.070 Y124.851 E0.01699
G1 X101.649 Y127.430 E0.11527
G1 X101.111 Y127.430 E0.01699
G1 X99.070 Y125.389 E0.09125
G1 X99.070 Y125.926 E0.01699
G1 X100.574 Y127.430 E0.06722
G1 X100.037 Y127.430 E0.01699
G1 X99.070 Y126.463 E0.04320
G1 X99.070 Y127.001 E0.01699
G1 X99.669 Y127.600 E0.02676
;WIPE_START
G1 F8640.000
G1 X99.070 Y127.001 E-0.19554
G1 X99.070 Y126.463 E-0.12411
G1 X100.037 Y127.430 E-0.31565
G1 X100.574 Y127.430 E-0.12411
G1 X99.070 Y125.926 E-0.49117
G1 X99.070 Y125.582 E-0.07942
;WIPE_END
G1 E-0.07000 F2100.000
G1 Z0.400 F10800.000
G1 X98.875 Y114.099
G1 Z0.200
G1 E1.40000 F2100.000
;TYPE:Gap fill
;WIDTH:0.595842
G1 F1200.000
G1 X98.875 Y95.901 E0.83662
;WIPE_START
G1 F8640.000
G1 X98.875 Y101.661 E-1.33000
;WIPE_END
