; generated by PrusaSlicer 2.3.0+win64 on 2021-07-17 at 08:01:34 UTC

; 

; external perimeters extrusion width = 0.45mm
; perimeters extrusion width = 0.45mm
; infill extrusion width = 0.45mm
; solid infill extrusion width = 0.45mm
; top infill extrusion width = 0.40mm
; support material extrusion width = 0.35mm
; first layer extrusion width = 0.42mm

M73 P0 R100
M73 Q0 S100
M201 X1000 Y1000 Z200 E5000 ; sets maximum accelerations, mm/sec^2
M203 X200 Y200 Z12 E120 ; sets maximum feedrates, mm/sec
M204 P1250 R1250 T1250 ; sets acceleration (P, T) and retract acceleration (R), mm/sec^2
M205 X8.00 Y8.00 Z0.40 E4.50 ; sets the jerk limits, mm/sec
M205 S0 T0 ; sets the minimum extruding and travel feed rate, mm/sec
M107
;TYPE:Custom
M862.3 P "MK3S" ; printer model check
M862.1 P0.4 ; nozzle diameter check
M115 U3.9.1 ; tell printer latest fw version
G90 ; use absolute coordinates
M83 ; extruder relative mode
M104 S240 ; set extruder temp
M140 S85 ; set bed temp
M190 S85 ; wait for bed temp
M109 S240 ; wait for extruder temp
G28 W ; home all without mesh bed level
G80 ; mesh bed leveling
G1 Y-3.0 F1000.0 ; go outside print area
G92 E0.0
G1 X60.0 E9.0 F1000.0 ; intro line
G1 X100.0 E12.5 F1000.0 ; intro line
G92 E0.0
M221 S95

; Don't change E values below. Excessive value can damage the printer.

M907 E538 ; set extruder motor current
G21 ; set units to millimeters
G90 ; use absolute coordinates
M83 ; use relative distances for extrusion
M900 K0.08 ; Filament gcode LA 1.5
M900 K45 ; Filament gcode LA 1.0
;LAYER_CHANGE
;Z:0.2
;HEIGHT:0.2
;BEFORE_LAYER_CHANGE
G92 E0.0
;0.2


G1 E-1.40000 F2100.000
G1 Z0.200 F10800.000
;AFTER_LAYER_CHANGE
;0.2
G1 Z0.400
G1 X111.865 Y75.076
G1 Z0.200
G1 E1.40000 F2100.000
M204 S1000
;TYPE:Skirt
;WIDTH:0.42
G1 F1200.000
G1 X112.381 Y74.616 E0.02166
G1 X113.007 Y74.324 E0.02166
G1 X113.690 Y74.225 E0.02166
G1 X136.475 Y74.400 E0.71441
G1 X137.136 Y74.541 E0.02119
G1 X137.727 Y74.861 E0.02107
G1 X138.205 Y75.333 E0.02107
G1 X138.533 Y75.923 E0.02119
G1 X138.662 Y76.412 E0.01585
G1 X139.377 Y81.461 E0.15989
G1 X139.376 Y128.553 E1.47653
G1 X138.580 Y134.111 E0.17604
G1 X138.363 Y134.601 E0.01680
G1 X138.044 Y135.027 E0.01668
G1 X137.635 Y135.373 E0.01680
G1 X137.163 Y135.618 E0.01668
G1 X136.310 Y135.775 E0.02720
G1 X113.544 Y135.601 E0.71381
G1 X112.882 Y135.465 E0.02119
G1 X112.283 Y135.146 E0.02130
G1 X111.797 Y134.670 E0.02130
G1 X111.467 Y134.076 E0.02130
G1 X111.338 Y133.588 E0.01585
G1 X110.623 Y128.539 E0.15989
G1 X110.625 Y81.412 E1.47761
M73 P0 R99
G1 X111.337 Y76.245 E0.16356
G1 X111.502 Y75.668 E0.01882
G1 X111.834 Y75.127 E0.01990
;WIPE_START
G1 F8640.000
G1 X112.381 Y74.616 E-0.17282
G1 X113.007 Y74.324 E-0.15950
G1 X113.690 Y74.225 E-0.15950
G1 X117.320 Y74.253 E-0.83818
;WIPE_END
G1 E-0.07000 F2100.000
G1 Z0.400 F10800.000
G1 X113.688 Y76.602
G1 Z0.200
G1 E1.40000 F2100.000
;TYPE:Support material
G1 F1200.000
G1 X113.688 Y80.811 E0.13200
G1 X114.442 Y80.811 E0.02365
G1 X114.442 Y76.771 E0.12667
G1 X115.196 Y76.771 E0.02365
G1 X115.196 Y80.811 E0.12667
G1 X115.950 Y80.811 E0.02365
G1 X115.950 Y76.771 E0.12667
G1 X116.704 Y76.771 E0.02365
G1 X116.704 Y80.811 E0.12667
G1 X117.458 Y80.811 E0.02365
G1 X117.458 Y76.771 E0.12667
G1 X118.213 Y76.771 E0.02365
G1 X118.213 Y80.811 E0.12667
G1 X118.967 Y80.811 E0.02365
G1 X118.967 Y76.771 E0.12667
G1 X119.721 Y76.771 E0.02365
G1 X119.721 Y80.811 E0.12667
G1 X120.475 Y80.811 E0.02365
G1 X120.475 Y76.771 E0.12667
G1 X121.229 Y76.771 E0.02365
G1 X121.229 Y80.811 E0.12667
G1 X121.983 Y80.811 E0.02365
G1 X121.983 Y76.771 E0.12667
G1 X122.738 Y76.771 E0.02365
G1 X122.738 Y80.811 E0.12667
G1 X123.492 Y80.811 E0.02365
G1 X123.492 Y76.771 E0.12667
G1 X124.246 Y76.771 E0.02365
G1 X124.246 Y84.811 E0.25209
G1 X125.000 Y84.811 E0.02365
G1 X125.000 Y76.771 E0.25209
G1 X125.754 Y76.771 E0.02365
G1 X125.754 Y84.811 E0.25209
G1 X126.508 Y84.811 E0.02365
G1 X126.508 Y76.771 E0.25209
G1 X127.262 Y76.771 E0.02365
G1 X127.262 Y80.811 E0.12667
G1 X128.017 Y80.811 E0.02365
G1 X128.017 Y76.771 E0.12667
G1 X128.771 Y76.771 E0.02365
G1 X128.771 Y80.811 E0.12667
G1 X129.525 Y80.811 E0.02365
G1 X129.525 Y76.771 E0.12667
G1 X130.279 Y76.771 E0.02365
G1 X130.279 Y80.811 E0.12667
G1 X131.033 Y80.811 E0.02365
G1 X131.033 Y76.771 E0.12667
G1 X131.787 Y76.771 E0.02365
G1 X131.787 Y80.811 E0.12667
G1 X132.542 Y80.811 E0.02365
G1 X132.542 Y76.771 E0.12667
G1 X133.296 Y76.771 E0.02365
G1 X133.296 Y80.811 E0.12667
G1 X134.050 Y80.811 E0.02365
G1 X134.050 Y76.771 E0.12667
G1 X134.804 Y76.771 E0.02365
G1 X134.804 Y80.811 E0.12667
G1 X135.558 Y80.811 E0.02365
G1 X135.558 Y76.771 E0.12667
G1 X136.312 Y76.771 E0.02365
G1 X136.312 Y80.981 E0.13200
;WIPE_START
G1 F8640.000
G1 X136.312 Y76.771 E-0.97205
G1 X135.558 Y76.771 E-0.17414
G1 X135.558 Y77.567 E-0.18381
;WIPE_END
G1 E-0.07000 F2100.000
G1 Z0.400 F10800.000
G1 X116.704 Y97.019
G1 Z0.200
G1 E1.40000 F2100.000
G1 F1200.000
G1 X116.704 Y112.811 E0.49517
G1 X117.458 Y112.811 E0.02365
G1 X117.458 Y97.189 E0.48985
G1 X118.213 Y97.189 E0.02365
G1 X118.213 Y112.811 E0.48985
G1 X118.967 Y112.811 E0.02365
G1 X118.967 Y97.189 E0.48985
G1 X119.721 Y97.189 E0.02365
G1 X119.721 Y112.811 E0.48985
G1 X120.475 Y112.811 E0.02365
G1 X120.475 Y97.189 E0.48985
G1 X121.229 Y97.189 E0.02365
G1 X121.229 Y112.811 E0.48985
G1 X121.983 Y112.811 E0.02365
G1 X121.983 Y97.189 E0.48985
G1 X122.738 Y97.189 E0.02365
G1 X122.738 Y112.811 E0.48985
G1 X123.492 Y112.811 E0.02365
G1 X123.492 Y97.189 E0.48985
G1 X124.246 Y97.189 E0.02365
G1 X124.246 Y112.811 E0.48985
G1 X125.000 Y112.811 E0.02365
G1 X125.000 Y97.189 E0.48985
G1 X125.754 Y97.189 E0.02365
G1 X125.754 Y112.811 E0.48985
G1 X126.508 Y112.811 E0.02365
G1 X126.508 Y97.189 E0.48985
G1 X127.262 Y97.189 E0.02365
G1 X127.262 Y112.811 E0.48985
G1 X128.017 Y112.811 E0.02365
G1 X128.017 Y97.189 E0.48985
G1 X128.771 Y97.189 E0.02365
G1 X128.771 Y112.811 E0.48985
G1 X129.525 Y112.811 E0.02365
G1 X129.525 Y97.189 E0.48985
G1 X130.279 Y97.189 E0.02365
G1 X130.279 Y112.811 E0.48985
G1 X131.033 Y112.811 E0.02365
G1 X131.033 Y97.189 E0.48985
G1 X131.787 Y97.189 E0.02365
G1 X131.787 Y112.811 E0.48985
G1 X132.542 Y112.811 E0.02365
G1 X132.542 Y97.189 E0.48985
G1 X133.296 Y97.189 E0.02365
G1 X133.296 Y112.811 E0.48985
G1 X134.050 Y112.811 E0.02365
G1 X134.050 Y97.189 E0.48985
G1 X134.804 Y97.189 E0.02365
G1 X134.804 Y112.811 E0.48985
G1 X135.558 Y112.811 E0.02365
G1 X135.558 Y97.189 E0.48985
G1 X136.312 Y97.189 E0.02365
G1 X136.312 Y112.981 E0.49517
;WIPE_START
G1 F8640.000
G1 X136.312 Y107.221 E-1.33000
;WIPE_END
G1 E-0.07000 F2100.000
G1 Z0.400 F10800.000
G1 X136.312 Y133.398
G1 Z0.200
G1 E1.40000 F2100.000
G1 F1200.000
G1 X136.312 Y129.189 E0.13199
G1 X135.558 Y129.189 E0.02365
G1 X135.558 Y133.229 E0.12667
G1 X134.804 Y133.229 E0.02365
G1 X134.804 Y129.189 E0.12667
G1 X134.050 Y129.189 E0.02365
G1 X134.050 Y133.229 E0.12667
G1 X133.296 Y133.229 E0.02365
G1 X133.296 Y129.189 E0.12667
G1 X132.542 Y129.189 E0.02365
G1 X132.542 Y133.229 E0.12667
G1 X131.787 Y133.229 E0.02365
G1 X131.787 Y129.189 E0.12667
G1 X131.033 Y129.189 E0.02365
G1 X131.033 Y133.229 E0.12667
G1 X130.279 Y133.229 E0.02365
G1 X130.279 Y129.189 E0.12667
G1 X129.525 Y129.189 E0.02365
G1 X129.525 Y133.229 E0.12667
G1 X128.771 Y133.229 E0.02365
G1 X128.771 Y129.189 E0.12667
G1 X128.017 Y129.189 E0.02365
G1 X128.017 Y133.229 E0.12667
G1 X127.262 Y133.229 E0.02365
G1 X127.262 Y129.189 E0.12667
G1 X127.215 Y129.189 E0.00149
G1 X126.811 Y128.785 E0.01788
G1 X126.811 Y125.189 E0.11277
G1 X126.508 Y125.189 E0.00950
G1 X126.508 Y133.229 E0.25209
G1 X125.754 Y133.229 E0.02365
G1 X125.754 Y125.189 E0.25209
G1 X125.000 Y125.189 E0.02365
G1 X125.000 Y133.229 E0.25209
G1 X124.246 Y133.229 E0.02365
G1 X124.246 Y125.189 E0.25209
G1 X124.189 Y125.189 E0.00180
G1 X124.189 Y128.785 E0.11277
G1 X123.785 Y129.189 E0.01788
G1 X123.492 Y129.189 E0.00920
G1 X123.492 Y133.229 E0.12667
G1 X122.738 Y133.229 E0.02365
G1 X122.738 Y129.189 E0.12667
G1 X121.983 Y129.189 E0.02365
G1 X121.983 Y133.229 E0.12667
G1 X121.229 Y133.229 E0.02365
G1 X121.229 Y129.189 E0.12667
G1 X120.475 Y129.189 E0.02365
G1 X120.475 Y133.229 E0.12667
G1 X119.721 Y133.229 E0.02365
G1 X119.721 Y129.189 E0.12667
G1 X118.967 Y129.189 E0.02365
G1 X118.967 Y133.229 E0.12667
M73 Q0 S99
G1 X118.213 Y133.229 E0.02365
G1 X118.213 Y129.189 E0.12667
G1 X117.458 Y129.189 E0.02365
G1 X117.458 Y133.229 E0.12667
G1 X116.704 Y133.229 E0.02365
G1 X116.704 Y129.189 E0.12667
G1 X115.950 Y129.189 E0.02365
G1 X115.950 Y133.229 E0.12667
G1 X115.196 Y133.229 E0.02365
G1 X115.196 Y129.189 E0.12667
G1 X114.442 Y129.189 E0.02365
G1 X114.442 Y133.229 E0.12667
G1 X113.688 Y133.229 E0.02365
G1 X113.688 Y129.019 E0.13199
;WIPE_START
G1 F8640.000
G1 X113.688 Y133.229 E-0.97205
G1 X114.442 Y133.229 E-0.17414
G1 X114.442 Y132.433 E-0.18382
;WIPE_END
G1 E-0.07000 F2100.000
G1 Z0.400 F10800.000
G1 X113.787 Y95.713
G1 Z0.200
G1 E1.40000 F2100.000
;TYPE:Perimeter
G1 F1200.000
G1 X113.787 Y82.287 E0.42096
G1 X122.713 Y82.287 E0.27986
G1 X122.713 Y86.287 E0.12542
M73 Q1 S99
G1 X128.287 Y86.287 E0.17477
M73 P1 R99
G1 X128.287 Y82.287 E0.12542
G1 X136.213 Y82.287 E0.24851
G1 X136.213 Y95.713 E0.42096
G1 X113.847 Y95.713 E0.70127
;WIPE_START
G1 F8640.000
G1 X113.821 Y89.953 E-1.33000
;WIPE_END
G1 E-0.07000 F2100.000
G1 Z0.400 F10800.000
G1 X113.847 Y114.287
G1 Z0.200
G1 E1.40000 F2100.000
G1 F1200.000
G1 X136.213 Y114.287 E0.70127
G1 X136.213 Y127.713 E0.42096
G1 X128.287 Y127.713 E0.24851
G1 X128.287 Y123.713 E0.12542
G1 X122.713 Y123.713 E0.17477
G1 X122.713 Y127.713 E0.12542
G1 X113.787 Y127.713 E0.27986
G1 X113.787 Y114.287 E0.42096
;WIPE_START
G1 F8640.000
G1 X119.547 Y114.287 E-1.33000
;WIPE_END
G1 E-0.07000 F2100.000
G1 Z0.400 F10800.000
G1 X123.090 Y85.910
G1 Z0.200
G1 E1.40000 F2100.000
;TYPE:External perimeter
G1 F1200.000
G1 X127.910 Y85.910 E0.15113
G1 X127.910 Y81.910 E0.12542
G1 X136.590 Y81.910 E0.27216
G1 X136.590 Y96.090 E0.44460
G1 X114.340 Y96.090 E0.69763
G1 X114.340 Y113.910 E0.55873
G1 X136.590 Y113.910 E0.69763
G1 X136.590 Y128.090 E0.44460
G1 X127.910 Y128.090 E0.27216
G1 X127.910 Y124.090 E0.12542
G1 X123.090 Y124.090 E0.15113
G1 X123.090 Y128.090 E0.12542
G1 X113.410 Y128.090 E0.30351
G1 X113.410 Y81.910 E1.44794
M73 P1 R98
G1 X123.090 Y81.910 E0.30351
G1 X123.090 Y85.850 E0.12354
G1 X123.243 Y86.280 F10800.000
;WIPE_START
G1 F8640.000
G1 X127.910 Y85.910 E-1.11304
G1 X127.910 Y84.970 E-0.21696
;WIPE_END
G1 E-0.07000 F2100.000
G1 Z0.400 F10800.000
G1 X136.100 Y83.169
G1 Z0.200
G1 E1.40000 F2100.000
;TYPE:Solid infill
;WIDTH:0.422986
G1 F1200.000
G1 X135.501 Y82.570 E0.02677
G1 X134.963 Y82.570 E0.01699
G1 X135.930 Y83.537 E0.04321
G1 X135.930 Y84.074 E0.01699
G1 X134.426 Y82.570 E0.06723
G1 X133.888 Y82.570 E0.01699
G1 X135.930 Y84.612 E0.09125
G1 X135.930 Y85.149 E0.01699
G1 X133.351 Y82.570 E0.11527
G1 X132.813 Y82.570 E0.01699
G1 X135.930 Y85.687 E0.13929
G1 X135.930 Y86.224 E0.01699
G1 X132.276 Y82.570 E0.16332
G1 X131.738 Y82.570 E0.01699
G1 X135.930 Y86.762 E0.18734
G1 X135.930 Y87.299 E0.01699
G1 X131.201 Y82.570 E0.21136
G1 X130.663 Y82.570 E0.01699
G1 X135.930 Y87.837 E0.23538
G1 X135.930 Y88.374 E0.01699
G1 X130.126 Y82.570 E0.25941
G1 X129.588 Y82.570 E0.01699
G1 X135.930 Y88.912 E0.28343
G1 X135.930 Y89.449 E0.01699
G1 X129.051 Y82.570 E0.30745
G1 X128.570 Y82.570 E0.01520
G1 X128.570 Y82.626 E0.00178
G1 X135.930 Y89.987 E0.32895
G1 X135.930 Y90.524 E0.01699
G1 X128.570 Y83.164 E0.32895
G1 X128.570 Y83.701 E0.01699
G1 X135.930 Y91.062 E0.32895
G1 X135.930 Y91.599 E0.01699
G1 X128.570 Y84.239 E0.32895
G1 X128.570 Y84.776 E0.01699
G1 X135.930 Y92.137 E0.32895
G1 X135.930 Y92.674 E0.01699
G1 X128.570 Y85.314 E0.32895
G1 X128.570 Y85.851 E0.01699
G1 X135.930 Y93.211 E0.32895
G1 X135.930 Y93.749 E0.01699
G1 X128.570 Y86.389 E0.32895
G1 X128.570 Y86.570 E0.00572
G1 X128.214 Y86.570 E0.01126
G1 X135.930 Y94.286 E0.34488
G1 X135.930 Y94.824 E0.01699
G1 X127.676 Y86.570 E0.36890
G1 X127.139 Y86.570 E0.01699
G1 X135.930 Y95.361 E0.39292
G1 X135.930 Y95.430 E0.00217
G1 X135.461 Y95.430 E0.01482
G1 X126.601 Y86.570 E0.39599
G1 X126.064 Y86.570 E0.01699
G1 X134.924 Y95.430 E0.39599
G1 X134.386 Y95.430 E0.01699
G1 X125.526 Y86.570 E0.39599
G1 X124.989 Y86.570 E0.01699
G1 X133.849 Y95.430 E0.39599
G1 X133.311 Y95.430 E0.01699
G1 X124.451 Y86.570 E0.39599
G1 X123.914 Y86.570 E0.01699
G1 X132.774 Y95.430 E0.39599
G1 X132.236 Y95.430 E0.01699
G1 X123.206 Y86.400 E0.40357
;WIPE_START
G1 F8640.000
G1 X127.279 Y90.473 E-1.33000
;WIPE_END
G1 E-0.07000 F2100.000
G1 Z0.400 F10800.000
G1 X122.600 Y83.106
G1 Z0.200
G1 E1.40000 F2100.000
G1 F1200.000
G1 X122.064 Y82.570 E0.02397
G1 X121.526 Y82.570 E0.01699
G1 X122.430 Y83.474 E0.04041
G1 X122.430 Y84.011 E0.01699
G1 X120.989 Y82.570 E0.06443
G1 X120.451 Y82.570 E0.01699
G1 X122.430 Y84.549 E0.08845
G1 X122.430 Y85.086 E0.01699
G1 X119.914 Y82.570 E0.11247
G1 X119.376 Y82.570 E0.01699
G1 X122.600 Y85.794 E0.14408
;WIPE_START
G1 F8640.000
G1 X119.376 Y82.570 E-1.05270
G1 X119.914 Y82.570 E-0.12411
G1 X120.383 Y83.039 E-0.15319
;WIPE_END
G1 E-0.07000 F2100.000
G1 Z0.400 F10800.000
G1 X118.669 Y82.400
G1 Z0.200
G1 E1.40000 F2100.000
G1 F1200.000
G1 X122.430 Y86.161 E0.16810
G1 X122.430 Y86.570 E0.01291
G1 X122.839 Y86.570 E0.01291
G1 X131.699 Y95.430 E0.39599
G1 X131.161 Y95.430 E0.01699
G1 X118.301 Y82.570 E0.57476
G1 X117.764 Y82.570 E0.01699
G1 X130.624 Y95.430 E0.57476
G1 X130.086 Y95.430 E0.01699
G1 X117.226 Y82.570 E0.57476
G1 X116.689 Y82.570 E0.01699
G1 X129.549 Y95.430 E0.57476
G1 X129.011 Y95.430 E0.01699
G1 X116.151 Y82.570 E0.57476
G1 X115.614 Y82.570 E0.01699
G1 X128.474 Y95.430 E0.57476
G1 X127.936 Y95.430 E0.01699
G1 X115.076 Y82.570 E0.57476
G1 X114.539 Y82.570 E0.01699
G1 X127.399 Y95.430 E0.57476
G1 X126.861 Y95.430 E0.01699
G1 X114.070 Y82.639 E0.57169
G1 X114.070 Y83.176 E0.01699
G1 X126.324 Y95.430 E0.54767
G1 X125.786 Y95.430 E0.01699
G1 X114.070 Y83.714 E0.52364
G1 X114.070 Y84.251 E0.01699
G1 X125.249 Y95.430 E0.49962
G1 X124.711 Y95.430 E0.01699
G1 X114.070 Y84.789 E0.47560
G1 X114.070 Y85.326 E0.01699
G1 X124.174 Y95.430 E0.45158
G1 X123.636 Y95.430 E0.01699
G1 X114.070 Y85.864 E0.42756
G1 X114.070 Y86.401 E0.01699
G1 X123.099 Y95.430 E0.40353
G1 X122.561 Y95.430 E0.01699
G1 X114.070 Y86.939 E0.37951
G1 X114.070 Y87.476 E0.01699
G1 X122.024 Y95.430 E0.35549
G1 X121.486 Y95.430 E0.01699
G1 X114.070 Y88.014 E0.33147
G1 X114.070 Y88.551 E0.01699
G1 X120.949 Y95.430 E0.30745
G1 X120.411 Y95.430 E0.01699
G1 X114.070 Y89.089 E0.28342
G1 X114.070 Y89.626 E0.01699
G1 X119.874 Y95.430 E0.25940
G1 X119.336 Y95.430 E0.01699
G1 X114.070 Y90.164 E0.23538
G1 X114.070 Y90.701 E0.01699
G1 X118.799 Y95.430 E0.21136
G1 X118.261 Y95.430 E0.01699
G1 X114.070 Y91.239 E0.18733
G1 X114.070 Y91.776 E0.01699
G1 X117.724 Y95.430 E0.16331
G1 X117.186 Y95.430 E0.01699
G1 X114.070 Y92.314 E0.13929
G1 X114.070 Y92.851 E0.01699
G1 X116.649 Y95.430 E0.11527
G1 X116.111 Y95.430 E0.01699
G1 X114.070 Y93.389 E0.09125
G1 X114.070 Y93.926 E0.01699
G1 X115.574 Y95.430 E0.06722
M73 Q1 S98
G1 X115.037 Y95.430 E0.01699
G1 X114.070 Y94.463 E0.04320
G1 X114.070 Y95.001 E0.01699
G1 X114.669 Y95.600 E0.02676
G1 X113.875 Y95.901 F10800.000
;TYPE:Gap fill
;WIDTH:0.595842
G1 F1200.000
G1 X113.875 Y114.099 E0.83662
;WIPE_START
G1 F8640.000
G1 X113.875 Y108.339 E-1.33000
;WIPE_END
G1 E-0.07000 F2100.000
G1 Z0.400 F10800.000
G1 X135.331 Y114.400
G1 Z0.200
G1 E1.40000 F2100.000
;TYPE:Solid infill
;WIDTH:0.422986
G1 F1200.000
G1 X135.930 Y114.999 E0.02677
G1 X135.930 Y115.537 E0.01699
G1 X134.963 Y114.570 E0.04321
G1 X134.426 Y114.570 E0.01699
G1 X135.930 Y116.074 E0.06723
G1 X135.930 Y116.612 E0.01699
G1 X133.888 Y114.570 E0.09125
G1 X133.351 Y114.570 E0.01699
G1 X135.930 Y117.149 E0.11527
G1 X135.930 Y117.687 E0.01699
G1 X132.813 Y114.570 E0.13929
G1 X132.276 Y114.570 E0.01699
G1 X135.930 Y118.224 E0.16332
G1 X135.930 Y118.762 E0.01699
G1 X131.738 Y114.570 E0.18734
G1 X131.201 Y114.570 E0.01699
G1 X135.930 Y119.299 E0.21136
G1 X135.930 Y119.837 E0.01699
G1 X130.663 Y114.570 E0.23538
M73 P2 R98
