; generated by PrusaSlicer 2.3.0+win64 on 2021-07-17 at 05:56:23 UTC

; 

; external perimeters extrusion width = 0.45mm
; perimeters extrusion width = 0.45mm
; infill extrusion width = 0.45mm
; solid infill extrusion width = 0.45mm
; top infill extrusion width = 0.40mm
; support material extrusion width = 0.35mm
; first layer extrusion width = 0.42mm

M73 P0 R87
M73 Q0 S88
M201 X1000 Y1000 Z200 E5000 ; sets maximum accelerations, mm/sec^2
M203 X200 Y200 Z12 E120 ; sets maximum feedrates, mm/sec
M204 P1250 R1250 T1250 ; sets acceleration (P, T) and retract acceleration (R), mm/sec^2
M205 X8.00 Y8.00 Z0.40 E4.50 ; sets the jerk limits, mm/sec
M205 S0 T0 ; sets the minimum extruding and travel feed rate, mm/sec
M107
;TYPE:Custom
M862.3 P "MK3S" ; printer model check
M862.1 P0.4 ; nozzle diameter check
M115 U3.9.1 ; tell printer latest fw version
G90 ; use absolute coordinates
M83 ; extruder relative mode
M104 S240 ; set extruder temp
M140 S85 ; set bed temp
M190 S85 ; wait for bed temp
M109 S240 ; wait for extruder temp
G28 W ; home all without mesh bed level
G80 ; mesh bed leveling
G1 Y-3.0 F1000.0 ; go outside print area
G92 E0.0
G1 X60.0 E9.0 F1000.0 ; intro line
G1 X100.0 E12.5 F1000.0 ; intro line
G92 E0.0
M221 S95

; Don't change E values below. Excessive value can damage the printer.

M907 E538 ; set extruder motor current
G21 ; set units to millimeters
G90 ; use absolute coordinates
M83 ; use relative distances for extrusion
M900 K0.08 ; Filament gcode LA 1.5
M900 K45 ; Filament gcode LA 1.0
;LAYER_CHANGE
;Z:0.2
;HEIGHT:0.2
;BEFORE_LAYER_CHANGE
G92 E0.0
;0.2


G1 E-1.40000 F2100.000
G1 Z0.200 F10800.000
;AFTER_LAYER_CHANGE
;0.2
G1 Z0.400
G1 X111.519 Y75.629
M73 Q0 S87
G1 Z0.200
G1 E1.40000 F2100.000
M204 S1000
;TYPE:Skirt
;WIDTH:0.42
G1 F1200.000
G1 X112.039 Y74.889 E0.02837
G1 X112.798 Y74.397 E0.02837
G1 X113.690 Y74.225 E0.02849
G1 X136.475 Y74.400 E0.71441
G1 X137.136 Y74.541 E0.02119
G1 X137.727 Y74.861 E0.02107
G1 X138.205 Y75.333 E0.02107
G1 X138.533 Y75.923 E0.02119
G1 X138.689 Y76.765 E0.02684
G1 X138.689 Y133.452 E1.77736
G1 X138.570 Y134.144 E0.02201
G1 X138.256 Y134.767 E0.02190
G1 X137.771 Y135.275 E0.02201
G1 X137.163 Y135.618 E0.02190
G1 X136.310 Y135.775 E0.02720
G1 X113.544 Y135.601 E0.71382
G1 X112.882 Y135.465 E0.02119
G1 X112.283 Y135.146 E0.02130
G1 X111.797 Y134.670 E0.02130
G1 X111.467 Y134.076 E0.02130
G1 X111.311 Y133.235 E0.02684
G1 X111.312 Y76.514 E1.77844
G1 X111.505 Y75.688 E0.02661
;WIPE_START
G1 F8640.000
G1 X112.039 Y74.889 E-0.22183
G1 X112.798 Y74.397 E-0.20892
G1 X113.690 Y74.225 E-0.20978
G1 X116.676 Y74.248 E-0.68947
;WIPE_END
G1 E-0.07000 F2100.000
G1 Z0.400 F10800.000
G1 X113.688 Y76.602
G1 Z0.200
G1 E1.40000 F2100.000
;TYPE:Support material
G1 F1200.000
G1 X113.688 Y82.811 E0.19470
G1 X113.811 Y82.811 E0.00388
G1 X113.811 Y80.215 E0.08141
G1 X114.215 Y79.811 E0.01788
G1 X114.442 Y79.811 E0.00712
G1 X114.442 Y76.771 E0.09532
G1 X115.196 Y76.771 E0.02365
G1 X115.196 Y79.811 E0.09532
G1 X115.950 Y79.811 E0.02365
G1 X115.950 Y76.771 E0.09532
G1 X116.704 Y76.771 E0.02365
G1 X116.704 Y79.811 E0.09532
G1 X117.458 Y79.811 E0.02365
G1 X117.458 Y76.771 E0.09532
G1 X118.213 Y76.771 E0.02365
G1 X118.213 Y79.811 E0.09532
G1 X118.967 Y79.811 E0.02365
G1 X118.967 Y76.771 E0.09532
G1 X119.721 Y76.771 E0.02365
G1 X119.721 Y79.811 E0.09532
G1 X120.475 Y79.811 E0.02365
G1 X120.475 Y76.771 E0.09532
G1 X121.229 Y76.771 E0.02365
G1 X121.229 Y79.811 E0.09532
G1 X121.983 Y79.811 E0.02365
G1 X121.983 Y76.771 E0.09532
G1 X122.738 Y76.771 E0.02365
G1 X122.738 Y79.811 E0.09532
G1 X123.492 Y79.811 E0.02365
G1 X123.492 Y76.771 E0.09532
G1 X124.246 Y76.771 E0.02365
G1 X124.246 Y79.811 E0.09532
G1 X125.000 Y79.811 E0.02365
G1 X125.000 Y76.771 E0.09532
G1 X125.754 Y76.771 E0.02365
G1 X125.754 Y79.811 E0.09532
G1 X126.508 Y79.811 E0.02365
G1 X126.508 Y76.771 E0.09532
G1 X127.262 Y76.771 E0.02365
G1 X127.262 Y79.811 E0.09532
G1 X128.017 Y79.811 E0.02365
G1 X128.017 Y76.771 E0.09532
G1 X128.771 Y76.771 E0.02365
G1 X128.771 Y79.811 E0.09532
G1 X129.525 Y79.811 E0.02365
G1 X129.525 Y76.771 E0.09532
G1 X130.279 Y76.771 E0.02365
G1 X130.279 Y79.811 E0.09532
G1 X131.033 Y79.811 E0.02365
G1 X131.033 Y76.771 E0.09532
G1 X131.787 Y76.771 E0.02365
G1 X131.787 Y79.811 E0.09532
G1 X132.542 Y79.811 E0.02365
G1 X132.542 Y76.771 E0.09532
G1 X133.296 Y76.771 E0.02365
G1 X133.296 Y79.811 E0.09532
G1 X134.050 Y79.811 E0.02365
G1 X134.050 Y76.771 E0.09532
G1 X134.804 Y76.771 E0.02365
G1 X134.804 Y79.811 E0.09532
G1 X135.558 Y79.811 E0.02365
G1 X135.558 Y76.771 E0.09532
G1 X136.312 Y76.771 E0.02365
G1 X136.312 Y82.981 E0.19470
;WIPE_START
G1 F8640.000
G1 X136.312 Y77.221 E-1.33000
;WIPE_END
G1 E-0.07000 F2100.000
G1 Z0.400 F10800.000
G1 X113.688 Y93.019
G1 Z0.200
G1 E1.40000 F2100.000
G1 F1200.000
G1 X113.688 Y116.811 E0.74599
G1 X113.811 Y116.811 E0.00388
G1 X113.811 Y114.215 E0.08141
G1 X114.215 Y113.811 E0.01788
G1 X114.442 Y113.811 E0.00712
G1 X114.442 Y96.189 E0.55255
G1 X115.196 Y96.189 E0.02365
G1 X115.196 Y113.811 E0.55255
G1 X115.950 Y113.811 E0.02365
G1 X115.950 Y96.189 E0.55255
G1 X116.704 Y96.189 E0.02365
G1 X116.704 Y113.811 E0.55255
G1 X117.458 Y113.811 E0.02365
G1 X117.458 Y96.189 E0.55255
G1 X118.213 Y96.189 E0.02365
G1 X118.213 Y113.811 E0.55255
M73 P0 R86
G1 X118.967 Y113.811 E0.02365
G1 X118.967 Y96.189 E0.55255
G1 X119.721 Y96.189 E0.02365
G1 X119.721 Y113.811 E0.55255
G1 X120.475 Y113.811 E0.02365
G1 X120.475 Y96.189 E0.55255
G1 X121.229 Y96.189 E0.02365
G1 X121.229 Y113.811 E0.55255
G1 X121.983 Y113.811 E0.02365
G1 X121.983 Y96.189 E0.55255
G1 X122.738 Y96.189 E0.02365
G1 X122.738 Y113.811 E0.55255
G1 X123.492 Y113.811 E0.02365
G1 X123.492 Y96.189 E0.55255
G1 X124.246 Y96.189 E0.02365
G1 X124.246 Y113.811 E0.55255
G1 X125.000 Y113.811 E0.02365
G1 X125.000 Y96.189 E0.55255
G1 X125.754 Y96.189 E0.02365
G1 X125.754 Y113.811 E0.55255
G1 X126.508 Y113.811 E0.02365
G1 X126.508 Y96.189 E0.55255
G1 X127.262 Y96.189 E0.02365
G1 X127.262 Y113.811 E0.55255
G1 X128.017 Y113.811 E0.02365
G1 X128.017 Y96.189 E0.55255
G1 X128.771 Y96.189 E0.02365
G1 X128.771 Y113.811 E0.55255
G1 X129.525 Y113.811 E0.02365
G1 X129.525 Y96.189 E0.55255
G1 X130.279 Y96.189 E0.02365
G1 X130.279 Y113.811 E0.55255
G1 X131.033 Y113.811 E0.02365
G1 X131.033 Y96.189 E0.55255
G1 X131.787 Y96.189 E0.02365
G1 X131.787 Y113.811 E0.55255
G1 X132.542 Y113.811 E0.02365
G1 X132.542 Y96.189 E0.55255
G1 X133.296 Y96.189 E0.02365
G1 X133.296 Y113.811 E0.55255
G1 X134.050 Y113.811 E0.02365
G1 X134.050 Y96.189 E0.55255
G1 X134.804 Y96.189 E0.02365
G1 X134.804 Y113.811 E0.55255
G1 X135.558 Y113.811 E0.02365
G1 X135.558 Y96.189 E0.55255
G1 X135.785 Y96.189 E0.00712
G1 X136.189 Y95.785 E0.01788
G1 X136.189 Y93.189 E0.08141
G1 X136.312 Y93.189 E0.00388
M73 P1 R86
G1 X136.312 Y116.981 E0.74599
;WIPE_START
M73 Q1 S87
G1 F8640.000
G1 X136.312 Y111.221 E-1.33000
;WIPE_END
G1 E-0.07000 F2100.000
G1 Z0.400 F10800.000
G1 X136.312 Y133.398
G1 Z0.200
G1 E1.40000 F2100.000
G1 F1200.000
G1 X136.312 Y127.189 E0.19470
G1 X136.189 Y127.189 E0.00388
G1 X136.189 Y129.785 E0.08141
G1 X135.785 Y130.189 E0.01788
G1 X135.558 Y130.189 E0.00712
G1 X135.558 Y133.229 E0.09532
G1 X134.804 Y133.229 E0.02365
G1 X134.804 Y130.189 E0.09532
G1 X134.050 Y130.189 E0.02365
G1 X134.050 Y133.229 E0.09532
G1 X133.296 Y133.229 E0.02365
G1 X133.296 Y130.189 E0.09532
G1 X132.542 Y130.189 E0.02365
G1 X132.542 Y133.229 E0.09532
G1 X131.787 Y133.229 E0.02365
G1 X131.787 Y130.189 E0.09532
G1 X131.033 Y130.189 E0.02365
G1 X131.033 Y133.229 E0.09532
G1 X130.279 Y133.229 E0.02365
G1 X130.279 Y130.189 E0.09532
G1 X129.525 Y130.189 E0.02365
G1 X129.525 Y133.229 E0.09532
G1 X128.771 Y133.229 E0.02365
G1 X128.771 Y130.189 E0.09532
G1 X128.017 Y130.189 E0.02365
G1 X128.017 Y133.229 E0.09532
G1 X127.262 Y133.229 E0.02365
G1 X127.262 Y130.189 E0.09532
G1 X126.508 Y130.189 E0.02365
G1 X126.508 Y133.229 E0.09532
G1 X125.754 Y133.229 E0.02365
G1 X125.754 Y130.189 E0.09532
G1 X125.000 Y130.189 E0.02365
G1 X125.000 Y133.229 E0.09532
G1 X124.246 Y133.229 E0.02365
G1 X124.246 Y130.189 E0.09532
G1 X123.492 Y130.189 E0.02365
G1 X123.492 Y133.229 E0.09532
G1 X122.738 Y133.229 E0.02365
G1 X122.738 Y130.189 E0.09532
G1 X121.983 Y130.189 E0.02365
G1 X121.983 Y133.229 E0.09532
G1 X121.229 Y133.229 E0.02365
G1 X121.229 Y130.189 E0.09532
G1 X120.475 Y130.189 E0.02365
G1 X120.475 Y133.229 E0.09532
G1 X119.721 Y133.229 E0.02365
G1 X119.721 Y130.189 E0.09532
G1 X118.967 Y130.189 E0.02365
G1 X118.967 Y133.229 E0.09532
G1 X118.213 Y133.229 E0.02365
G1 X118.213 Y130.189 E0.09532
G1 X117.458 Y130.189 E0.02365
G1 X117.458 Y133.229 E0.09532
G1 X116.704 Y133.229 E0.02365
G1 X116.704 Y130.189 E0.09532
G1 X115.950 Y130.189 E0.02365
G1 X115.950 Y133.229 E0.09532
G1 X115.196 Y133.229 E0.02365
G1 X115.196 Y130.189 E0.09532
G1 X114.442 Y130.189 E0.02365
G1 X114.442 Y133.229 E0.09532
G1 X113.688 Y133.229 E0.02365
G1 X113.688 Y127.019 E0.19470
;WIPE_START
G1 F8640.000
G1 X113.688 Y132.779 E-1.33000
;WIPE_END
G1 E-0.07000 F2100.000
G1 Z0.400 F10800.000
G1 X115.287 Y128.713
G1 Z0.200
G1 E1.40000 F2100.000
;TYPE:Perimeter
G1 F1200.000
G1 X115.287 Y115.287 E0.42096
G1 X134.713 Y115.287 E0.60908
G1 X134.713 Y128.713 E0.42096
G1 X115.347 Y128.713 E0.60720
G1 X114.910 Y129.090 F10800.000
;TYPE:External perimeter
G1 F1200.000
G1 X114.910 Y114.910 E0.44460
G1 X135.090 Y114.910 E0.63273
G1 X135.090 Y129.090 E0.44460
M73 Q1 S86
G1 X114.970 Y129.090 E0.63085
G1 X115.036 Y128.710 F10800.000
;WIPE_START
G1 F8640.000
G1 X114.946 Y123.330 E-1.33000
;WIPE_END
G1 E-0.07000 F2100.000
G1 Z0.400 F10800.000
G1 X133.826 Y115.400
G1 Z0.200
G1 E1.40000 F2100.000
;TYPE:Solid infill
;WIDTH:0.425637
G1 F1200.000
G1 X134.430 Y116.005 E0.02721
G1 X134.430 Y116.546 E0.01722
G1 X133.454 Y115.570 E0.04393
G1 X132.913 Y115.570 E0.01722
G1 X134.430 Y117.087 E0.06829
G1 X134.430 Y117.628 E0.01722
G1 X132.372 Y115.570 E0.09265
G1 X131.830 Y115.570 E0.01722
G1 X134.430 Y118.170 E0.11700
G1 X134.430 Y118.711 E0.01722
G1 X131.289 Y115.570 E0.14136
G1 X130.748 Y115.570 E0.01722
G1 X134.430 Y119.252 E0.16572
G1 X134.430 Y119.793 E0.01722
G1 X130.207 Y115.570 E0.19008
G1 X129.665 Y115.570 E0.01722
G1 X134.430 Y120.335 E0.21444
G1 X134.430 Y120.876 E0.01722
G1 X129.124 Y115.570 E0.23880
G1 X128.583 Y115.570 E0.01722
G1 X134.430 Y121.417 E0.26316
G1 X134.430 Y121.958 E0.01722
G1 X128.042 Y115.570 E0.28751
G1 X127.500 Y115.570 E0.01722
G1 X134.430 Y122.500 E0.31187
G1 X134.430 Y123.041 E0.01722
G1 X126.959 Y115.570 E0.33623
G1 X126.418 Y115.570 E0.01722
G1 X134.430 Y123.582 E0.36059
G1 X134.430 Y124.123 E0.01722
G1 X125.877 Y115.570 E0.38495
G1 X125.335 Y115.570 E0.01722
G1 X134.430 Y124.665 E0.40931
G1 X134.430 Y125.206 E0.01722
G1 X124.794 Y115.570 E0.43366
G1 X124.253 Y115.570 E0.01722
G1 X134.430 Y125.747 E0.45802
G1 X134.430 Y126.288 E0.01722
G1 X123.712 Y115.570 E0.48238
G1 X123.170 Y115.570 E0.01722
G1 X134.430 Y126.830 E0.50674
G1 X134.430 Y127.371 E0.01722
G1 X122.629 Y115.570 E0.53110
G1 X122.088 Y115.570 E0.01722
G1 X134.430 Y127.912 E0.55546
G1 X134.430 Y128.430 E0.01649
G1 X134.407 Y128.430 E0.00074
G1 X121.547 Y115.570 E0.57877
G1 X121.005 Y115.570 E0.01722
G1 X133.866 Y128.430 E0.57877
G1 X133.324 Y128.430 E0.01722
G1 X120.464 Y115.570 E0.57877
G1 X119.923 Y115.570 E0.01722
G1 X132.783 Y128.430 E0.57877
G1 X132.242 Y128.430 E0.01722
G1 X119.382 Y115.570 E0.57877
G1 X118.840 Y115.570 E0.01722
G1 X131.701 Y128.430 E0.57877
G1 X131.159 Y128.430 E0.01722
G1 X118.299 Y115.570 E0.57877
G1 X117.758 Y115.570 E0.01722
G1 X130.618 Y128.430 E0.57877
G1 X130.077 Y128.430 E0.01722
G1 X117.217 Y115.570 E0.57877
G1 X116.675 Y115.570 E0.01722
G1 X129.536 Y128.430 E0.57877
G1 X128.994 Y128.430 E0.01722
G1 X116.134 Y115.570 E0.57877
M73 P1 R85
G1 X115.593 Y115.570 E0.01722
G1 X128.453 Y128.430 E0.57877
G1 X127.912 Y128.430 E0.01722
G1 X115.570 Y116.088 E0.55545
G1 X115.570 Y116.629 E0.01722
G1 X127.371 Y128.430 E0.53109
G1 X126.830 Y128.430 E0.01722
G1 X115.570 Y117.170 E0.50674
G1 X115.570 Y117.712 E0.01722
G1 X126.288 Y128.430 E0.48238
G1 X125.747 Y128.430 E0.01722
G1 X115.570 Y118.253 E0.45802
G1 X115.570 Y118.794 E0.01722
G1 X125.206 Y128.430 E0.43366
G1 X124.665 Y128.430 E0.01722
G1 X115.570 Y119.335 E0.40930
G1 X115.570 Y119.877 E0.01722
G1 X124.123 Y128.430 E0.38494
G1 X123.582 Y128.430 E0.01722
G1 X115.570 Y120.418 E0.36059
G1 X115.570 Y120.959 E0.01722
G1 X123.041 Y128.430 E0.33623
G1 X122.500 Y128.430 E0.01722
G1 X115.570 Y121.500 E0.31187
G1 X115.570 Y122.042 E0.01722
G1 X121.958 Y128.430 E0.28751
G1 X121.417 Y128.430 E0.01722
G1 X115.570 Y122.583 E0.26315
G1 X115.570 Y123.124 E0.01722
G1 X120.876 Y128.430 E0.23879
G1 X120.335 Y128.430 E0.01722
G1 X115.570 Y123.665 E0.21444
G1 X115.570 Y124.207 E0.01722
G1 X119.793 Y128.430 E0.19008
G1 X119.252 Y128.430 E0.01722
G1 X115.570 Y124.748 E0.16572
G1 X115.570 Y125.289 E0.01722
G1 X118.711 Y128.430 E0.14136
G1 X118.170 Y128.430 E0.01722
G1 X115.570 Y125.830 E0.11700
G1 X115.570 Y126.372 E0.01722
G1 X117.628 Y128.430 E0.09264
G1 X117.087 Y128.430 E0.01722
G1 X115.570 Y126.913 E0.06828
G1 X115.570 Y127.454 E0.01722
G1 X116.546 Y128.430 E0.04393
G1 X116.005 Y128.430 E0.01722
G1 X115.400 Y127.826 E0.02720
;WIPE_START
G1 F8640.000
G1 X116.005 Y128.430 E-0.19739
G1 X116.546 Y128.430 E-0.12497
G1 X115.570 Y127.454 E-0.31872
G1 X115.570 Y126.913 E-0.12497
G1 X117.087 Y128.430 E-0.49546
G1 X117.384 Y128.430 E-0.06848
;WIPE_END
G1 E-0.07000 F2100.000
G1 Z0.400 F10800.000
G1 X115.400 Y94.713
G1 Z0.200
G1 E1.40000 F2100.000
;TYPE:Perimeter
;WIDTH:0.42
G1 F1200.000
G1 X115.287 Y94.713 E0.00355
G1 X115.287 Y81.287 E0.42096
G1 X134.713 Y81.287 E0.60908
M73 P2 R85
M73 Q2 S86
G1 X134.713 Y94.713 E0.42096
G1 X115.460 Y94.713 E0.60366
G1 X114.910 Y95.090 F10800.000
;TYPE:External perimeter
G1 F1200.000
G1 X114.910 Y80.910 E0.44460
G1 X135.090 Y80.910 E0.63273
G1 X135.090 Y95.090 E0.44460
G1 X114.970 Y95.090 E0.63085
G1 X115.036 Y94.710 F10800.000
;WIPE_START
G1 F8640.000
G1 X114.946 Y89.330 E-1.33000
;WIPE_END
G1 E-0.07000 F2100.000
G1 Z0.400 F10800.000
G1 X133.826 Y81.400
G1 Z0.200
G1 E1.40000 F2100.000
;TYPE:Solid infill
;WIDTH:0.425637
G1 F1200.000
G1 X134.430 Y82.005 E0.02721
G1 X134.430 Y82.546 E0.01722
G1 X133.454 Y81.570 E0.04393
G1 X132.913 Y81.570 E0.01722
G1 X134.430 Y83.087 E0.06829
G1 X134.430 Y83.628 E0.01722
G1 X132.372 Y81.570 E0.09265
G1 X131.830 Y81.570 E0.01722
G1 X134.430 Y84.170 E0.11700
G1 X134.430 Y84.711 E0.01722
G1 X131.289 Y81.570 E0.14136
G1 X130.748 Y81.570 E0.01722
G1 X134.430 Y85.252 E0.16572
G1 X134.430 Y85.793 E0.01722
G1 X130.207 Y81.570 E0.19008
G1 X129.665 Y81.570 E0.01722
G1 X134.430 Y86.335 E0.21444
G1 X134.430 Y86.876 E0.01722
G1 X129.124 Y81.570 E0.23880
G1 X128.583 Y81.570 E0.01722
G1 X134.430 Y87.417 E0.26316
G1 X134.430 Y87.958 E0.01722
G1 X128.042 Y81.570 E0.28751
G1 X127.500 Y81.570 E0.01722
G1 X134.430 Y88.500 E0.31187
G1 X134.430 Y89.041 E0.01722
G1 X126.959 Y81.570 E0.33623
G1 X126.418 Y81.570 E0.01722
G1 X134.430 Y89.582 E0.36059
G1 X134.430 Y90.123 E0.01722
G1 X125.877 Y81.570 E0.38495
G1 X125.335 Y81.570 E0.01722
G1 X134.430 Y90.665 E0.40931
G1 X134.430 Y91.206 E0.01722
G1 X124.794 Y81.570 E0.43366
G1 X124.253 Y81.570 E0.01722
G1 X134.430 Y91.747 E0.45802
G1 X134.430 Y92.288 E0.01722
G1 X123.712 Y81.570 E0.48238
G1 X123.170 Y81.570 E0.01722
G1 X134.430 Y92.830 E0.50674
G1 X134.430 Y93.371 E0.01722
G1 X122.629 Y81.570 E0.53110
G1 X122.088 Y81.570 E0.01722
G1 X134.430 Y93.912 E0.55546
G1 X134.430 Y94.430 E0.01649
G1 X134.407 Y94.430 E0.00074
G1 X121.547 Y81.570 E0.57877
G1 X121.005 Y81.570 E0.01722
G1 X133.866 Y94.430 E0.57877
G1 X133.324 Y94.430 E0.01722
G1 X120.464 Y81.570 E0.57877
G1 X119.923 Y81.570 E0.01722
G1 X132.783 Y94.430 E0.57877
G1 X132.242 Y94.430 E0.01722
G1 X119.382 Y81.570 E0.57877
G1 X118.840 Y81.570 E0.01722
M73 Q2 S85
G1 X131.701 Y94.430 E0.57877
G1 X131.159 Y94.430 E0.01722
G1 X118.299 Y81.570 E0.57877
G1 X117.758 Y81.570 E0.01722
G1 X130.618 Y94.430 E0.57877
G1 X130.077 Y94.430 E0.01722
G1 X117.217 Y81.570 E0.57877
G1 X116.675 Y81.570 E0.01722
