; generated by PrusaSlicer 2.3.0+win64 on 2021-07-17 at 19:43:12 UTC

; 

; external perimeters extrusion width = 0.45mm
; perimeters extrusion width = 0.45mm
; infill extrusion width = 0.45mm
; solid infill extrusion width = 0.45mm
; top infill extrusion width = 0.40mm
; first layer extrusion width = 0.42mm

M73 P0 R33
M73 Q0 S33
M201 X1000 Y1000 Z200 E5000 ; sets maximum accelerations, mm/sec^2
M203 X200 Y200 Z12 E120 ; sets maximum feedrates, mm/sec
M204 P1250 R1250 T1250 ; sets acceleration (P, T) and retract acceleration (R), mm/sec^2
M205 X8.00 Y8.00 Z0.40 E4.50 ; sets the jerk limits, mm/sec
M205 S0 T0 ; sets the minimum extruding and travel feed rate, mm/sec
M107
;TYPE:Custom
M862.3 P "MK3S" ; printer model check
M862.1 P0.4 ; nozzle diameter check
M115 U3.9.1 ; tell printer latest fw version
G90 ; use absolute coordinates
M83 ; extruder relative mode
M104 S240 ; set extruder temp
M140 S85 ; set bed temp
M190 S85 ; wait for bed temp
M109 S240 ; wait for extruder temp
G28 W ; home all without mesh bed level
G80 ; mesh bed leveling
G1 Y-3.0 F1000.0 ; go outside print area
G92 E0.0
G1 X60.0 E9.0 F1000.0 ; intro line
G1 X100.0 E12.5 F1000.0 ; intro line
G92 E0.0
M221 S95

; Don't change E values below. Excessive value can damage the printer.
M907 E430 ; set extruder motor current
G21 ; set units to millimeters
G90 ; use absolute coordinates
M83 ; use relative distances for extrusion
M900 K0.08 ; Filament gcode LA 1.5
M900 K45 ; Filament gcode LA 1.0
;LAYER_CHANGE
;Z:0.2
;HEIGHT:0.2
;BEFORE_LAYER_CHANGE
G92 E0.0
;0.2


G1 E-1.40000 F2100.000
G1 Z0.200 F10800.000
;AFTER_LAYER_CHANGE
;0.2
G1 Z0.400
G1 X121.642 Y93.892
G1 Z0.200
G1 E1.40000 F2100.000
M204 S1000
;TYPE:Skirt
;WIDTH:0.42
G1 F1200.000
G1 X121.905 Y93.425 E0.01681
G1 X122.256 Y93.014 E0.01694
G1 X122.680 Y92.680 E0.01694
G1 X123.158 Y92.436 E0.01681
G1 X123.971 Y92.253 E0.02612
G1 X125.840 Y92.246 E0.05862
G1 X126.675 Y92.377 E0.02651
G1 X127.428 Y92.753 E0.02638
G1 X128.032 Y93.338 E0.02638
G1 X128.432 Y94.079 E0.02638
G1 X133.179 Y112.394 E0.59326
G1 X133.261 Y113.171 E0.02447
G1 X133.143 Y113.872 E0.02231
G1 X132.851 Y114.517 E0.02218
G1 X132.402 Y115.068 E0.02231
G1 X131.830 Y115.485 E0.02218
G1 X125.867 Y117.614 E0.19854
G1 X124.894 Y117.751 E0.03081
G1 X124.110 Y117.606 E0.02498
G1 X118.097 Y115.443 E0.20038
G1 X117.515 Y114.986 E0.02320
G1 X117.076 Y114.391 E0.02320
G1 X116.811 Y113.700 E0.02320
G1 X116.739 Y112.964 E0.02320
G1 X116.824 Y112.381 E0.01848
G1 X121.627 Y93.950 E0.59718
;WIPE_START
G1 F8640.000
G1 X121.905 Y93.425 E-0.13727
G1 X122.256 Y93.014 E-0.12476
G1 X122.680 Y92.680 E-0.12476
G1 X123.158 Y92.436 E-0.12382
G1 X123.971 Y92.253 E-0.19239
G1 X125.840 Y92.246 E-0.43171
G1 X126.675 Y92.377 E-0.19519
G1 X126.676 Y92.377 E-0.00009
;WIPE_END
G1 E-0.07000 F2100.000
G1 Z0.400 F10800.000
G1 X122.523 Y93.280
G1 Z0.200
G1 E1.40000 F2100.000
G1 F1200.000
G1 X123.331 Y92.774 E0.02989
G1 X124.022 Y92.627 E0.02213
G1 X125.840 Y92.623 E0.05701
G1 X126.567 Y92.738 E0.02308
G1 X127.221 Y93.068 E0.02296
G1 X127.743 Y93.581 E0.02296
G1 X128.085 Y94.228 E0.02296
G1 X132.813 Y112.484 E0.59128
G1 X132.884 Y113.156 E0.02119
G1 X132.781 Y113.766 E0.01941
G1 X132.524 Y114.329 E0.01941
G1 X132.127 Y114.810 E0.01953
G1 X131.622 Y115.168 E0.01941
G1 X125.753 Y117.254 E0.19530
G1 X124.910 Y117.375 E0.02671
G1 X124.234 Y117.250 E0.02154
G1 X118.323 Y115.139 E0.19681
G1 X117.807 Y114.745 E0.02036
G1 X117.416 Y114.227 E0.02036
G1 X117.179 Y113.622 E0.02036
G1 X117.116 Y112.980 E0.02024
G1 X117.189 Y112.476 E0.01597
G1 X121.979 Y94.063 E0.59654
G1 X122.489 Y93.329 E0.02801
;WIPE_START
G1 F8640.000
G1 X123.331 Y92.774 E-0.23294
G1 X124.022 Y92.627 E-0.16298
G1 X125.840 Y92.623 E-0.41985
G1 X126.567 Y92.738 E-0.16994
G1 X127.221 Y93.068 E-0.16907
G1 X127.743 Y93.581 E-0.16907
G1 X127.756 Y93.604 E-0.00615
;WIPE_END
G1 E-0.07000 F2100.000
G1 Z0.400 F10800.000
G1 X124.773 Y95.787
G1 Z0.200
G1 E1.40000 F2100.000
;TYPE:Perimeter
G1 F1200.000
G1 X125.227 Y95.787 E0.01422
G1 X129.566 Y112.565 E0.54336
G1 X125.000 Y114.166 E0.15170
G1 X120.434 Y112.565 E0.15170
G1 X124.758 Y95.845 E0.54148
G1 X124.481 Y95.410 F10800.000
;TYPE:External perimeter
G1 F1200.000
G1 X125.519 Y95.410 E0.03253
G1 X130.018 Y112.806 E0.56338
G1 X125.000 Y114.566 E0.16672
G1 X119.982 Y112.806 E0.16672
G1 X124.466 Y95.468 E0.56150
M73 Q1 S33
G1 X124.829 Y95.607 F10800.000
;WIPE_START
G1 F8640.000
G1 X125.519 Y95.410 E-0.24338
G1 X126.697 Y99.966 E-1.08662
;WIPE_END
G1 E-0.07000 F2100.000
G1 Z0.400 F10800.000
G1 X125.412 Y96.957
M73 P1 R33
G1 Z0.200
G1 E1.40000 F2100.000
;TYPE:Solid infill
;WIDTH:0.427835
G1 F1200.000
G1 X124.896 Y96.441 E0.02335
G1 X124.785 Y96.873 E0.01430
G1 X125.366 Y97.454 E0.02631
G1 X125.556 Y98.189 E0.02427
G1 X124.673 Y97.306 E0.03997
G1 X124.561 Y97.738 E0.01430
G1 X125.746 Y98.923 E0.05363
G1 X125.935 Y99.657 E0.02427
G1 X124.449 Y98.171 E0.06728
G1 X124.337 Y98.603 E0.01430
G1 X126.125 Y100.391 E0.08094
G1 X126.315 Y101.126 E0.02427
G1 X124.225 Y99.036 E0.09460
G1 X124.113 Y99.468 E0.01430
G1 X126.505 Y101.860 E0.10826
G1 X126.695 Y102.594 E0.02427
G1 X124.002 Y99.901 E0.12192
G1 X123.890 Y100.333 E0.01430
G1 X126.885 Y103.328 E0.13557
G1 X127.075 Y104.063 E0.02427
G1 X123.778 Y100.766 E0.14923
G1 X123.666 Y101.198 E0.01430
G1 X127.265 Y104.797 E0.16289
G1 X127.455 Y105.531 E0.02427
G1 X123.554 Y101.631 E0.17655
G1 X123.442 Y102.063 E0.01430
G1 X127.644 Y106.265 E0.19020
G1 X127.834 Y106.999 E0.02427
G1 X123.330 Y102.496 E0.20386
G1 X123.219 Y102.928 E0.01430
G1 X128.024 Y107.734 E0.21752
G1 X128.214 Y108.468 E0.02427
G1 X123.107 Y103.361 E0.23118
G1 X122.995 Y103.793 E0.01430
G1 X128.404 Y109.202 E0.24483
G1 X128.594 Y109.936 E0.02427
G1 X122.883 Y104.226 E0.25849
G1 X122.771 Y104.658 E0.01430
G1 X128.784 Y110.671 E0.27215
G1 X128.974 Y111.405 E0.02427
G1 X122.659 Y105.091 E0.28581
G1 X122.547 Y105.523 E0.01430
G1 X129.164 Y112.139 E0.29946
G1 X129.227 Y112.384 E0.00809
G1 X128.958 Y112.478 E0.00911
G1 X122.436 Y105.956 E0.29523
M73 P1 R32
G1 X122.324 Y106.388 E0.01430
G1 X128.555 Y112.620 E0.28205
G1 X128.152 Y112.761 E0.01367
G1 X122.212 Y106.821 E0.26888
G1 X122.100 Y107.253 E0.01430
G1 X127.749 Y112.902 E0.25570
G1 X127.346 Y113.043 E0.01367
G1 X121.988 Y107.686 E0.24252
M73 Q1 S32
G1 X121.876 Y108.118 E0.01430
G1 X126.943 Y113.185 E0.22934
G1 X126.540 Y113.326 E0.01367
G1 X121.765 Y108.551 E0.21616
G1 X121.653 Y108.983 E0.01430
G1 X126.137 Y113.467 E0.20298
G1 X125.734 Y113.609 E0.01367
G1 X121.541 Y109.416 E0.18980
G1 X121.429 Y109.848 E0.01430
G1 X125.331 Y113.750 E0.17662
G1 X125.000 Y113.866 E0.01123
G1 X124.850 Y113.814 E0.00508
G1 X121.317 Y110.281 E0.15992
G1 X121.205 Y110.713 E0.01430
G1 X124.012 Y113.520 E0.12704
G1 X123.174 Y113.226 E0.02843
G1 X121.093 Y111.146 E0.09416
G1 X120.982 Y111.578 E0.01430
G1 X122.335 Y112.932 E0.06127
G1 X121.497 Y112.638 E0.02843
G1 X120.730 Y111.871 E0.03469
;LAYER_CHANGE
;Z:0.4
;HEIGHT:0.2
;BEFORE_LAYER_CHANGE
G92 E0.0
;0.4


;WIPE_START
G1 F8640.000
G1 X121.497 Y112.638 E-0.25030
G1 X122.335 Y112.932 E-0.20513
G1 X120.982 Y111.578 E-0.44206
G1 X121.093 Y111.146 E-0.10315
G1 X122.102 Y112.154 E-0.32935
;WIPE_END
G1 E-0.07000 F2100.000
G1 Z0.400 F10800.000
;AFTER_LAYER_CHANGE
;0.4
M104 S250 ; set temperature
M140 S90 ; set bed temperature
G1 Z0.600
G1 X118.097 Y115.443
G1 Z0.400
G1 E1.40000 F2100.000
;TYPE:Skirt
;WIDTH:0.42
G1 F1372
G1 X117.515 Y114.986 E0.02320
G1 X117.076 Y114.391 E0.02320
G1 X116.811 Y113.700 E0.02320
G1 X116.739 Y112.964 E0.02320
G1 X116.824 Y112.381 E0.01848
G1 X121.642 Y93.892 E0.59906
G1 X121.905 Y93.425 E0.01681
G1 X122.256 Y93.014 E0.01694
G1 X122.680 Y92.680 E0.01694
G1 X123.158 Y92.436 E0.01681
G1 X123.971 Y92.253 E0.02612
G1 X125.840 Y92.246 E0.05862
G1 X126.675 Y92.377 E0.02651
G1 X127.428 Y92.753 E0.02638
G1 X128.032 Y93.338 E0.02638
G1 X128.432 Y94.079 E0.02638
G1 X133.179 Y112.394 E0.59326
G1 X133.261 Y113.171 E0.02447
G1 X133.143 Y113.872 E0.02231
G1 X132.851 Y114.517 E0.02218
G1 X132.402 Y115.068 E0.02231
G1 X131.830 Y115.485 E0.02218
G1 X125.867 Y117.614 E0.19854
G1 X124.894 Y117.751 E0.03081
G1 X124.110 Y117.606 E0.02498
G1 X118.153 Y115.464 E0.19849
G1 X118.323 Y115.139 F10800.000
G1 F1372
G1 X117.807 Y114.745 E0.02036
G1 X117.416 Y114.227 E0.02036
G1 X117.179 Y113.622 E0.02036
G1 X117.116 Y112.980 E0.02024
G1 X117.189 Y112.476 E0.01597
G1 X121.979 Y94.063 E0.59654
G1 X122.523 Y93.280 E0.02989
G1 X123.331 Y92.774 E0.02989
G1 X124.022 Y92.627 E0.02213
G1 X125.840 Y92.623 E0.05701
G1 X126.567 Y92.738 E0.02308
G1 X127.221 Y93.068 E0.02296
G1 X127.743 Y93.581 E0.02296
G1 X128.085 Y94.228 E0.02296
G1 X132.813 Y112.484 E0.59128
G1 X132.884 Y113.156 E0.02119
G1 X132.781 Y113.766 E0.01941
G1 X132.524 Y114.329 E0.01941
G1 X132.127 Y114.810 E0.01953
G1 X131.622 Y115.168 E0.01941
G1 X125.753 Y117.254 E0.19530
G1 X124.910 Y117.375 E0.02671
G1 X124.234 Y117.250 E0.02154
G1 X118.380 Y115.159 E0.19493
;WIPE_START
G1 F8640.000
G1 X117.807 Y114.745 E-0.16318
G1 X117.416 Y114.227 E-0.14993
G1 X117.179 Y113.622 E-0.14993
G1 X117.116 Y112.980 E-0.14906
G1 X117.189 Y112.476 E-0.11763
G1 X117.844 Y109.960 E-0.60028
;WIPE_END
G1 E-0.07000 F2100.000
G1 Z0.600 F10800.000
G1 X120.249 Y112.664
G1 Z0.400
G1 E1.40000 F2100.000
M204 S800
;TYPE:Perimeter
;WIDTH:0.45
G1 F1372
G1 X124.653 Y95.634 E0.59542
G1 X125.348 Y95.636 E0.02352
G1 X129.751 Y112.664 E0.59535
M73 P2 R32
M73 Q2 S32
G1 X125.000 Y114.330 E0.17043
G1 X120.305 Y112.684 E0.16840
M204 S1000
G1 X119.761 Y112.924 F10800.000
M204 S800
;TYPE:External perimeter
G1 F1372
G1 X124.338 Y95.226 E0.61879
G1 X125.663 Y95.230 E0.04486
G1 X130.239 Y112.924 E0.61865
G1 X125.000 Y114.762 E0.18793
G1 X119.817 Y112.944 E0.18590
M204 S1000
G1 X120.016 Y112.616 F10800.000
;WIPE_START
G1 F8640.000
G1 X121.241 Y107.363 E-1.33000
;WIPE_END
G1 E-0.07000 F2100.000
G1 Z0.600 F10800.000
G1 X125.323 Y96.027
G1 Z0.400
G1 E1.40000 F2100.000
;TYPE:Solid infill
;WIDTH:0.458798
G1 F1372
G1 X124.707 Y96.642 E0.03009
G1 X124.502 Y97.435 E0.02834
G1 X125.293 Y96.644 E0.03868
G1 X125.414 Y97.112 E0.01669
G1 X124.297 Y98.229 E0.05462
G1 X124.092 Y99.022 E0.02834
G1 X125.535 Y97.579 E0.07056
G1 X125.656 Y98.046 E0.01669
G1 X123.887 Y99.815 E0.08651
G1 X123.682 Y100.608 E0.02834
G1 X125.777 Y98.513 E0.10245
G1 X125.897 Y98.981 E0.01669
G1 X123.476 Y101.402 E0.11839
G1 X123.271 Y102.195 E0.02834
G1 X126.018 Y99.448 E0.13434
G1 X126.139 Y99.915 E0.01669
G1 X123.066 Y102.988 E0.15028
G1 X122.861 Y103.782 E0.02834
G1 X126.260 Y100.383 E0.16622
G1 X126.381 Y100.850 E0.01669
G1 X122.656 Y104.575 E0.18217
G1 X122.451 Y105.368 E0.02834
G1 X126.502 Y101.317 E0.19811
G1 X126.623 Y101.785 E0.01669
G1 X122.245 Y106.162 E0.21405
G1 X122.040 Y106.955 E0.02834
G1 X126.743 Y102.252 E0.23000
G1 X126.864 Y102.719 E0.01669
G1 X121.835 Y107.748 E0.24594
G1 X121.630 Y108.541 E0.02834
G1 X126.985 Y103.186 E0.26188
G1 X127.106 Y103.654 E0.01669
G1 X121.425 Y109.335 E0.27783
G1 X121.220 Y110.128 E0.02834
G1 X127.227 Y104.121 E0.29377
G1 X127.348 Y104.588 E0.01669
G1 X121.015 Y110.921 E0.30971
G1 X120.809 Y111.715 E0.02834
G1 X127.468 Y105.056 E0.32566
G1 X127.589 Y105.523 E0.01669
G1 X120.636 Y112.476 E0.34005
G1 X121.071 Y112.629 E0.01596
G1 X127.710 Y105.990 E0.32467
G1 X127.831 Y106.457 E0.01669
G1 X121.507 Y112.782 E0.30928
G1 X121.942 Y112.934 E0.01596
G1 X127.952 Y106.925 E0.29390
G1 X128.073 Y107.392 E0.01669
G1 X122.378 Y113.087 E0.27851
G1 X122.813 Y113.240 E0.01596
G1 X128.194 Y107.859 E0.26313
G1 X128.314 Y108.327 E0.01669
G1 X123.249 Y113.392 E0.24774
G1 X123.684 Y113.545 E0.01596
G1 X128.435 Y108.794 E0.23236
G1 X128.556 Y109.261 E0.01669
G1 X124.119 Y113.698 E0.21697
G1 X124.555 Y113.851 E0.01596
G1 X128.677 Y109.728 E0.20159
G1 X128.798 Y110.196 E0.01669
G1 X124.990 Y114.003 E0.18620
G1 X125.886 Y113.696 E0.03273
G1 X128.919 Y110.663 E0.14833
G1 X129.040 Y111.130 E0.01669
G1 X126.791 Y113.378 E0.10994
G1 X127.697 Y113.061 E0.03319
G1 X129.160 Y111.598 E0.07156
G1 X129.281 Y112.065 E0.01669
G1 X128.304 Y113.042 E0.04779
;LAYER_CHANGE
;Z:0.6
;HEIGHT:0.2
;BEFORE_LAYER_CHANGE
G92 E0.0
;0.6


;WIPE_START
G1 F8640.000
G1 X129.281 Y112.065 E-0.31911
G1 X129.160 Y111.598 E-0.11145
G1 X127.697 Y113.061 E-0.47780
G1 X126.791 Y113.378 E-0.22163
G1 X127.404 Y112.766 E-0.20001
;WIPE_END
G1 E-0.07000 F2100.000
G1 Z0.600 F10800.000
;AFTER_LAYER_CHANGE
;0.6
G1 Z0.800
G1 X124.894 Y117.751
G1 Z0.600
G1 E1.40000 F2100.000
;TYPE:Skirt
;WIDTH:0.42
G1 F1375
G1 X124.110 Y117.606 E0.02498
G1 X118.097 Y115.443 E0.20038
G1 X117.515 Y114.986 E0.02320
G1 X117.076 Y114.391 E0.02320
G1 X116.811 Y113.700 E0.02320
G1 X116.739 Y112.964 E0.02320
G1 X116.824 Y112.381 E0.01848
G1 X121.642 Y93.892 E0.59906
G1 X121.905 Y93.425 E0.01681
G1 X122.256 Y93.014 E0.01694
G1 X122.680 Y92.680 E0.01694
G1 X123.158 Y92.436 E0.01681
G1 X123.971 Y92.253 E0.02612
G1 X125.840 Y92.246 E0.05862
G1 X126.675 Y92.377 E0.02651
G1 X127.428 Y92.753 E0.02638
G1 X128.032 Y93.338 E0.02638
G1 X128.432 Y94.079 E0.02638
G1 X133.179 Y112.394 E0.59326
G1 X133.261 Y113.171 E0.02447
G1 X133.143 Y113.872 E0.02231
G1 X132.851 Y114.517 E0.02218
G1 X132.402 Y115.068 E0.02231
G1 X131.830 Y115.485 E0.02218
G1 X125.867 Y117.614 E0.19854
G1 X124.953 Y117.743 E0.02893
G1 X124.910 Y117.375 F10800.000
G1 F1375
G1 X124.234 Y117.250 E0.02154
G1 X118.323 Y115.139 E0.19681
G1 X117.807 Y114.745 E0.02036
G1 X117.416 Y114.227 E0.02036
G1 X117.179 Y113.622 E0.02036
G1 X117.116 Y112.980 E0.02024
G1 X117.189 Y112.476 E0.01597
G1 X121.979 Y94.063 E0.59654
G1 X122.523 Y93.280 E0.02989
G1 X123.331 Y92.774 E0.02989
G1 X124.022 Y92.627 E0.02213
G1 X125.840 Y92.623 E0.05701
G1 X126.567 Y92.738 E0.02308
G1 X127.221 Y93.068 E0.02296
G1 X127.743 Y93.581 E0.02296
G1 X128.085 Y94.228 E0.02296
G1 X132.813 Y112.484 E0.59128
G1 X132.884 Y113.156 E0.02119
G1 X132.781 Y113.766 E0.01941
G1 X132.524 Y114.329 E0.01941
G1 X132.127 Y114.810 E0.01953
G1 X131.622 Y115.168 E0.01941
G1 X125.753 Y117.254 E0.19530
M73 Q3 S32
G1 X124.969 Y117.366 E0.02483
;WIPE_START
G1 F8640.000
G1 X124.234 Y117.250 E-0.17182
G1 X119.511 Y115.563 E-1.15818
;WIPE_END
M73 P3 R32
G1 E-0.07000 F2100.000
G1 Z0.800 F10800.000
G1 X125.000 Y114.330
G1 Z0.600
G1 E1.40000 F2100.000
M204 S800
;TYPE:Perimeter
;WIDTH:0.45
G1 F1375
G1 X120.249 Y112.664 E0.17043
G1 X124.653 Y95.635 E0.59539
G1 X125.348 Y95.638 E0.02355
G1 X129.751 Y112.664 E0.59527
G1 X125.057 Y114.310 E0.16840
M204 S1000
G1 X125.000 Y114.762 F10800.000
M204 S800
;TYPE:External perimeter
G1 F1375
G1 X119.761 Y112.924 E0.18793
G1 X124.338 Y95.226 E0.61878
G1 X125.664 Y95.233 E0.04489
G1 X130.239 Y112.924 E0.61855
G1 X125.057 Y114.742 E0.18590
M204 S1000
G1 X124.710 Y114.486 F10800.000
;WIPE_START
G1 F8640.000
G1 X119.761 Y112.924 E-1.29284
G1 X119.801 Y112.768 E-0.03716
;WIPE_END
G1 E-0.07000 F2100.000
G1 Z0.800 F10800.000
G1 X125.549 Y96.901
G1 Z0.600
G1 E1.40000 F2100.000
;TYPE:Solid infill
;WIDTH:0.458744
G1 F1375
G1 X124.827 Y96.179 E0.03529
G1 X124.706 Y96.647 E0.01669
G1 X125.499 Y97.439 E0.03875
G1 X125.704 Y98.232 E0.02833
G1 X124.585 Y97.114 E0.05469
G1 X124.465 Y97.581 E0.01669
G1 X125.909 Y99.025 E0.07063
G1 X126.114 Y99.819 E0.02833
G1 X124.344 Y98.048 E0.08657
G1 X124.223 Y98.515 E0.01669
G1 X126.319 Y100.612 E0.10250
G1 X126.524 Y101.405 E0.02833
G1 X124.102 Y98.983 E0.11844
G1 X123.981 Y99.450 E0.01669
G1 X126.729 Y102.198 E0.13438
G1 X126.935 Y102.991 E0.02833
G1 X123.860 Y99.917 E0.15032
G1 X123.740 Y100.384 E0.01669
G1 X127.140 Y103.785 E0.16626
G1 X127.345 Y104.578 E0.02833
G1 X123.619 Y100.852 E0.18220
G1 X123.498 Y101.319 E0.01669
G1 X127.550 Y105.371 E0.19814
G1 X127.755 Y106.164 E0.02833
G1 X123.377 Y101.786 E0.21408
G1 X123.256 Y102.253 E0.01669
G1 X127.960 Y106.957 E0.23002
G1 X128.165 Y107.751 E0.02833
G1 X123.135 Y102.720 E0.24596
G1 X123.015 Y103.188 E0.01669
G1 X128.371 Y108.544 E0.26190
G1 X128.576 Y109.337 E0.02833
G1 X122.894 Y103.655 E0.27784
G1 X122.773 Y104.122 E0.01669
G1 X128.781 Y110.130 E0.29377
G1 X128.986 Y110.923 E0.02833
G1 X122.652 Y104.589 E0.30971
G1 X122.531 Y105.057 E0.01669
G1 X129.191 Y111.717 E0.32565
