; generated by PrusaSlicer 2.3.0+win64 on 2021-07-20 at 07:09:14 UTC

; 

; external perimeters extrusion width = 0.45mm
; perimeters extrusion width = 0.45mm
; infill extrusion width = 0.45mm
; solid infill extrusion width = 0.45mm
; top infill extrusion width = 0.40mm
; first layer extrusion width = 0.42mm

M73 P0 R35
M73 Q0 S35
M201 X1000 Y1000 Z200 E5000 ; sets maximum accelerations, mm/sec^2
M203 X200 Y200 Z12 E120 ; sets maximum feedrates, mm/sec
M204 P1250 R1250 T1250 ; sets acceleration (P, T) and retract acceleration (R), mm/sec^2
M205 X8.00 Y8.00 Z0.40 E4.50 ; sets the jerk limits, mm/sec
M205 S0 T0 ; sets the minimum extruding and travel feed rate, mm/sec
M107
;TYPE:Custom
M862.3 P "MK3S" ; printer model check
M862.1 P0.4 ; nozzle diameter check
M115 U3.9.1 ; tell printer latest fw version
G90 ; use absolute coordinates
M83 ; extruder relative mode
M104 S240 ; set extruder temp
M140 S85 ; set bed temp
M190 S85 ; wait for bed temp
M109 S240 ; wait for extruder temp
G28 W ; home all without mesh bed level
G80 ; mesh bed leveling
G1 Y-3.0 F1000.0 ; go outside print area
G92 E0.0
G1 X60.0 E9.0 F1000.0 ; intro line
G1 X100.0 E12.5 F1000.0 ; intro line
G92 E0.0
M221 S95

; Don't change E values below. Excessive value can damage the printer.

M907 E538 ; set extruder motor current
G21 ; set units to millimeters
G90 ; use absolute coordinates
M83 ; use relative distances for extrusion
M900 K0.08 ; Filament gcode LA 1.5
M900 K45 ; Filament gcode LA 1.0
;LAYER_CHANGE
;Z:0.2
;HEIGHT:0.2
;BEFORE_LAYER_CHANGE
G92 E0.0
;0.2


G1 E-1.40000 F2100.000
G1 Z0.200 F10800.000
;AFTER_LAYER_CHANGE
;0.2
G1 Z0.400
G1 X126.765 Y90.387
G1 Z0.200
G1 E1.40000 F2100.000
M204 S1000
;TYPE:Skirt
;WIDTH:0.42
G1 F1200.000
G1 X127.543 Y90.794 E0.02752
G1 X128.153 Y91.424 E0.02752
G1 X128.534 Y92.215 E0.02752
G1 X133.263 Y114.506 E0.71447
G1 X133.320 Y115.154 E0.02039
G1 X133.206 Y115.856 E0.02231
G1 X132.916 Y116.506 E0.02231
G1 X132.470 Y117.059 E0.02231
G1 X131.896 Y117.480 E0.02231
G1 X125.922 Y119.615 E0.19891
G1 X124.965 Y119.750 E0.03032
G1 X124.169 Y119.607 E0.02536
G1 X118.162 Y117.447 E0.20014
G1 X117.579 Y116.992 E0.02320
G1 X117.140 Y116.402 E0.02307
G1 X116.872 Y115.716 E0.02307
G1 X116.797 Y114.980 E0.02320
G1 X121.638 Y92.048 E0.73489
G1 X121.886 Y91.541 E0.01771
G1 X122.230 Y91.098 E0.01758
G1 X122.657 Y90.734 E0.01758
G1 X123.148 Y90.464 E0.01758
G1 X124.005 Y90.254 E0.02765
G1 X125.898 Y90.246 E0.05937
G1 X126.706 Y90.377 E0.02564
G1 X126.645 Y90.745 F10800.000
G1 F1200.000
G1 X127.328 Y91.104 E0.02418
G1 X127.854 Y91.655 E0.02390
G1 X128.179 Y92.345 E0.02390
G1 X132.894 Y114.583 E0.71277
G1 X132.943 Y115.143 E0.01763
G1 X132.842 Y115.758 E0.01953
G1 X132.584 Y116.325 E0.01953
G1 X132.189 Y116.806 E0.01953
G1 X131.681 Y117.168 E0.01953
G1 X125.809 Y119.255 E0.19542
G1 X124.975 Y119.373 E0.02640
G1 X124.288 Y119.249 E0.02190
G1 X118.385 Y117.140 E0.19653
G1 X117.870 Y116.751 E0.02024
G1 X117.479 Y116.237 E0.02024
G1 X117.240 Y115.633 E0.02036
G1 X117.173 Y114.991 E0.02024
G1 X121.984 Y92.200 E0.73034
G1 X122.201 Y91.748 E0.01574
G1 X122.507 Y91.354 E0.01562
G1 X122.890 Y91.031 E0.01574
G1 X123.334 Y90.795 E0.01574
G1 X124.062 Y90.628 E0.02343
G1 X125.898 Y90.623 E0.05757
G1 X126.586 Y90.736 E0.02185
;WIPE_START
G1 F8640.000
G1 X127.328 Y91.104 E-0.19125
G1 X127.854 Y91.655 E-0.17602
G1 X128.179 Y92.345 E-0.17602
G1 X128.886 Y95.678 E-0.78671
;WIPE_END
G1 E-0.07000 F2100.000
G1 Z0.400 F10800.000
G1 X125.146 Y97.249
G1 Z0.200
G1 E1.40000 F2100.000
;TYPE:Perimeter
G1 F1200.000
G1 X129.624 Y114.565 E0.56079
G1 X125.058 Y116.166 E0.15170
G1 X120.492 Y114.565 E0.15170
G1 X124.971 Y97.249 E0.56079
M73 P0 R34
G1 X125.086 Y97.249 E0.00361
;WIPE_START
G1 F8640.000
G1 X126.546 Y102.821 E-1.33000
;WIPE_END
G1 E-0.07000 F2100.000
G1 Z0.400 F10800.000
G1 X125.484 Y93.410
G1 Z0.200
G1 E1.40000 F2100.000
;TYPE:External perimeter
G1 F1200.000
G1 X125.484 Y97.052 E0.11420
G1 X130.076 Y114.806 E0.57497
M73 Q0 S34
G1 X125.058 Y116.566 E0.16672
G1 X120.041 Y114.806 E0.16672
G1 X124.632 Y97.052 E0.57497
G1 X124.632 Y93.410 E0.11420
M73 Q1 S34
G1 X125.424 Y93.410 E0.02484
G1 X125.454 Y93.809 F10800.000
G1 X125.058 Y93.599
;TYPE:Gap fill
;WIDTH:0.518164
G1 F1200.000
G1 X125.058 Y97.060 E0.13680
;WIPE_START
M73 P1 R34
G1 F8640.000
G1 X125.058 Y93.599 E-0.79937
;WIPE_END
G1 E-0.60063 F2100.000
G1 Z0.400 F10800.000
G1 X125.400 Y98.683
G1 Z0.200
G1 E1.40000 F2100.000
;TYPE:Solid infill
;WIDTH:0.421565
G1 F1200.000
G1 X124.996 Y98.279 E0.01797
G1 X124.886 Y98.705 E0.01384
G1 X125.350 Y99.169 E0.02066
G1 X125.537 Y99.891 E0.02349
G1 X124.776 Y99.130 E0.03387
G1 X124.666 Y99.556 E0.01384
G1 X125.724 Y100.613 E0.04709
G1 X125.910 Y101.335 E0.02349
G1 X124.556 Y99.981 E0.06030
G1 X124.446 Y100.407 E0.01384
G1 X126.097 Y102.058 E0.07352
G1 X126.284 Y102.780 E0.02349
G1 X124.336 Y100.832 E0.08674
G1 X124.226 Y101.257 E0.01384
G1 X126.471 Y103.502 E0.09995
G1 X126.658 Y104.225 E0.02349
G1 X124.116 Y101.683 E0.11317
G1 X124.006 Y102.108 E0.01384
G1 X126.844 Y104.947 E0.12639
G1 X127.031 Y105.669 E0.02349
G1 X123.896 Y102.534 E0.13960
G1 X123.786 Y102.959 E0.01384
G1 X127.218 Y106.391 E0.15282
G1 X127.405 Y107.114 E0.02349
G1 X123.676 Y103.385 E0.16603
G1 X123.566 Y103.810 E0.01384
G1 X127.592 Y107.836 E0.17925
G1 X127.778 Y108.558 E0.02349
G1 X123.456 Y104.236 E0.19247
G1 X123.346 Y104.661 E0.01384
G1 X127.965 Y109.281 E0.20568
G1 X128.152 Y110.003 E0.02349
G1 X123.236 Y105.087 E0.21890
G1 X123.126 Y105.512 E0.01384
G1 X128.339 Y110.725 E0.23212
G1 X128.526 Y111.447 E0.02349
G1 X123.016 Y105.937 E0.24533
G1 X122.906 Y106.363 E0.01384
G1 X128.712 Y112.170 E0.25855
G1 X128.899 Y112.892 E0.02349
G1 X122.796 Y106.788 E0.27177
G1 X122.686 Y107.214 E0.01384
G1 X129.086 Y113.614 E0.28498
G1 X129.273 Y114.337 E0.02349
G1 X122.576 Y107.639 E0.29820
G1 X122.466 Y108.065 E0.01384
G1 X128.915 Y114.514 E0.28715
G1 X128.518 Y114.653 E0.01323
G1 X122.356 Y108.490 E0.27440
G1 X122.245 Y108.916 E0.01384
G1 X128.122 Y114.792 E0.26164
G1 X127.725 Y114.931 E0.01323
G1 X122.135 Y109.341 E0.24889
G1 X122.025 Y109.767 E0.01384
G1 X127.329 Y115.070 E0.23614
G1 X126.932 Y115.209 E0.01323
G1 X121.915 Y110.192 E0.22338
G1 X121.805 Y110.617 E0.01384
G1 X126.536 Y115.348 E0.21063
G1 X126.139 Y115.487 E0.01323
G1 X121.695 Y111.043 E0.19788
G1 X121.585 Y111.468 E0.01384
G1 X125.743 Y115.626 E0.18512
G1 X125.347 Y115.765 E0.01323
G1 X121.475 Y111.894 E0.17237
G1 X121.365 Y112.319 E0.01384
G1 X124.833 Y115.787 E0.15442
G1 X124.009 Y115.498 E0.02752
G1 X121.255 Y112.745 E0.12260
G1 X121.145 Y113.170 E0.01384
G1 X123.184 Y115.209 E0.09078
G1 X122.359 Y114.920 E0.02751
G1 X121.035 Y113.596 E0.05896
G1 X120.925 Y114.021 E0.01384
G1 X121.812 Y114.908 E0.03947
;LAYER_CHANGE
;Z:0.4
;HEIGHT:0.2
;BEFORE_LAYER_CHANGE
G92 E0.0
;0.4


;WIPE_START
G1 F8640.000
G1 X120.925 Y114.021 E-0.28946
G1 X121.035 Y113.596 E-0.10147
G1 X122.359 Y114.920 E-0.43239
G1 X123.184 Y115.209 E-0.20179
G1 X122.250 Y114.275 E-0.30489
;WIPE_END
G1 E-0.07000 F2100.000
G1 Z0.400 F10800.000
;AFTER_LAYER_CHANGE
;0.4
M104 S250 ; set temperature
M140 S90 ; set bed temperature
G1 Z0.600
G1 X118.162 Y117.447
G1 Z0.400
G1 E1.40000 F2100.000
;TYPE:Skirt
;WIDTH:0.42
G1 F1475
G1 X117.579 Y116.992 E0.02320
G1 X117.140 Y116.402 E0.02307
G1 X116.872 Y115.716 E0.02307
G1 X116.797 Y114.980 E0.02320
G1 X121.638 Y92.048 E0.73489
G1 X121.886 Y91.541 E0.01771
G1 X122.230 Y91.098 E0.01758
G1 X122.657 Y90.734 E0.01758
G1 X123.148 Y90.464 E0.01758
G1 X124.005 Y90.254 E0.02765
G1 X125.898 Y90.246 E0.05937
G1 X126.765 Y90.387 E0.02752
G1 X127.543 Y90.794 E0.02752
G1 X128.153 Y91.424 E0.02752
G1 X128.534 Y92.215 E0.02752
G1 X133.263 Y114.506 E0.71447
G1 X133.320 Y115.154 E0.02039
G1 X133.206 Y115.856 E0.02231
G1 X132.916 Y116.506 E0.02231
G1 X132.470 Y117.059 E0.02231
G1 X131.896 Y117.480 E0.02231
G1 X125.922 Y119.615 E0.19891
G1 X124.965 Y119.750 E0.03032
G1 X124.169 Y119.607 E0.02536
G1 X118.219 Y117.468 E0.19826
G1 X118.385 Y117.140 F10800.000
G1 F1475
G1 X117.870 Y116.751 E0.02024
G1 X117.479 Y116.237 E0.02024
G1 X117.240 Y115.633 E0.02036
G1 X117.173 Y114.991 E0.02024
G1 X121.984 Y92.200 E0.73034
G1 X122.201 Y91.748 E0.01574
G1 X122.507 Y91.354 E0.01562
G1 X122.890 Y91.031 E0.01574
G1 X123.334 Y90.795 E0.01574
G1 X124.062 Y90.628 E0.02343
G1 X125.898 Y90.623 E0.05757
G1 X126.650 Y90.746 E0.02390
G1 X127.328 Y91.104 E0.02402
G1 X127.854 Y91.655 E0.02390
G1 X128.179 Y92.345 E0.02390
G1 X132.894 Y114.583 E0.71277
G1 X132.943 Y115.143 E0.01763
G1 X132.842 Y115.758 E0.01953
G1 X132.584 Y116.325 E0.01953
G1 X132.189 Y116.806 E0.01953
G1 X131.681 Y117.168 E0.01953
G1 X125.809 Y119.255 E0.19542
G1 X124.975 Y119.373 E0.02640
G1 X124.288 Y119.249 E0.02190
G1 X118.441 Y117.161 E0.19465
;WIPE_START
G1 F8640.000
G1 X117.870 Y116.751 E-0.16232
G1 X117.479 Y116.237 E-0.14906
G1 X117.240 Y115.633 E-0.14993
G1 X117.173 Y114.991 E-0.14905
G1 X117.817 Y111.942 E-0.71964
;WIPE_END
G1 E-0.07000 F2100.000
G1 Z0.600 F10800.000
G1 X120.307 Y114.664
G1 Z0.400
G1 E1.40000 F2100.000
M204 S800
;TYPE:Perimeter
;WIDTH:0.45
G1 F1475
G1 X124.854 Y97.080 E0.61476
G1 X124.854 Y93.632 E0.11672
G1 X125.262 Y93.632 E0.01382
G1 X125.262 Y97.080 E0.11672
G1 X129.810 Y114.664 E0.61476
M73 Q2 S34
G1 X125.058 Y116.330 E0.17043
M73 P2 R34
G1 X120.363 Y114.684 E0.16840
M204 S1000
G1 X119.819 Y114.924 F10800.000
M204 S800
;TYPE:External perimeter
G1 F1475
G1 X124.447 Y97.029 E0.62568
G1 X124.447 Y93.225 E0.12875
G1 X125.669 Y93.225 E0.04137
G1 X125.669 Y97.029 E0.12875
G1 X130.297 Y114.924 E0.62568
G1 X125.058 Y116.762 E0.18793
G1 X119.876 Y114.944 E0.18590
M204 S1000
G1 X120.074 Y114.616 F10800.000
;WIPE_START
G1 F8640.000
G1 X121.300 Y109.363 E-1.33000
;WIPE_END
G1 E-0.07000 F2100.000
G1 Z0.600 F10800.000
G1 X124.649 Y98.360
G1 Z0.400
G1 E1.40000 F2100.000
;TYPE:Solid infill
;WIDTH:0.455114
G1 F1475
G1 X125.149 Y97.861 E0.02421
G1 X125.269 Y98.324 E0.01640
G1 X124.701 Y98.891 E0.02750
G1 X124.498 Y99.678 E0.02784
G1 X125.388 Y98.787 E0.04316
G1 X125.508 Y99.250 E0.01640
G1 X124.294 Y100.464 E0.05883
G1 X124.091 Y101.250 E0.02784
G1 X125.628 Y99.713 E0.07449
G1 X125.748 Y100.177 E0.01640
G1 X123.888 Y102.036 E0.09015
G1 X123.684 Y102.823 E0.02784
G1 X125.867 Y100.640 E0.10581
G1 X125.987 Y101.103 E0.01640
G1 X123.481 Y103.609 E0.12148
G1 X123.278 Y104.395 E0.02784
G1 X126.107 Y101.566 E0.13714
G1 X126.227 Y102.029 E0.01640
G1 X123.074 Y105.182 E0.15280
G1 X122.871 Y105.968 E0.02784
G1 X126.347 Y102.492 E0.16846
G1 X126.466 Y102.955 E0.01640
G1 X122.668 Y106.754 E0.18412
G1 X122.464 Y107.540 E0.02784
G1 X126.586 Y103.419 E0.19979
G1 X126.706 Y103.882 E0.01640
G1 X122.261 Y108.327 E0.21545
G1 X122.058 Y109.113 E0.02784
G1 X126.826 Y104.345 E0.23111
G1 X126.945 Y104.808 E0.01640
G1 X121.854 Y109.899 E0.24677
G1 X121.651 Y110.685 E0.02784
G1 X127.065 Y105.271 E0.26243
G1 X127.185 Y105.734 E0.01640
G1 X121.448 Y111.472 E0.27810
G1 X121.244 Y112.258 E0.02784
G1 X127.305 Y106.198 E0.29376
G1 X127.425 Y106.661 E0.01640
G1 X121.041 Y113.044 E0.30942
G1 X120.838 Y113.831 E0.02784
G1 X127.544 Y107.124 E0.32508
G1 X127.664 Y107.587 E0.01640
G1 X120.754 Y114.497 E0.33494
G1 X121.185 Y114.649 E0.01568
G1 X127.784 Y108.050 E0.31983
G1 X127.904 Y108.513 E0.01640
G1 X121.617 Y114.800 E0.30472
G1 X122.049 Y114.951 E0.01568
G1 X128.023 Y108.976 E0.28960
G1 X128.143 Y109.440 E0.01640
G1 X122.480 Y115.103 E0.27449
G1 X122.912 Y115.254 E0.01568
G1 X128.263 Y109.903 E0.25938
G1 X128.383 Y110.366 E0.01640
G1 X123.343 Y115.405 E0.24426
G1 X123.775 Y115.557 E0.01568
G1 X128.503 Y110.829 E0.22915
G1 X128.622 Y111.292 E0.01640
G1 X124.207 Y115.708 E0.21404
G1 X124.638 Y115.859 E0.01568
G1 X128.742 Y111.755 E0.19892
G1 X128.862 Y112.219 E0.01640
G1 X125.082 Y115.998 E0.18321
G1 X125.980 Y115.683 E0.03261
G1 X128.982 Y112.682 E0.14550
G1 X129.101 Y113.145 E0.01640
G1 X126.878 Y115.369 E0.10779
G1 X127.775 Y115.054 E0.03261
G1 X129.221 Y113.608 E0.07008
G1 X129.341 Y114.071 E0.01640
G1 X128.374 Y115.038 E0.04686
;LAYER_CHANGE
;Z:0.6
;HEIGHT:0.2
;BEFORE_LAYER_CHANGE
G92 E0.0
;0.6


;WIPE_START
G1 F8640.000
G1 X129.341 Y114.071 E-0.31571
G1 X129.221 Y113.608 E-0.11046
G1 X127.775 Y115.054 E-0.47212
G1 X126.878 Y115.369 E-0.21967
G1 X127.527 Y114.719 E-0.21204
;WIPE_END
G1 E-0.07000 F2100.000
G1 Z0.600 F10800.000
;AFTER_LAYER_CHANGE
;0.6
G1 Z0.800
G1 X124.965 Y119.750
G1 Z0.600
G1 E1.40000 F2100.000
;TYPE:Skirt
;WIDTH:0.42
G1 F1478
G1 X124.169 Y119.607 E0.02536
G1 X118.162 Y117.447 E0.20014
G1 X117.579 Y116.992 E0.02320
G1 X117.140 Y116.402 E0.02307
G1 X116.872 Y115.716 E0.02307
G1 X116.797 Y114.980 E0.02320
G1 X121.638 Y92.048 E0.73489
G1 X121.886 Y91.541 E0.01771
G1 X122.230 Y91.098 E0.01758
G1 X122.657 Y90.734 E0.01758
G1 X123.148 Y90.464 E0.01758
G1 X124.005 Y90.254 E0.02765
G1 X125.898 Y90.246 E0.05937
G1 X126.765 Y90.387 E0.02752
G1 X127.543 Y90.794 E0.02752
G1 X128.153 Y91.424 E0.02752
G1 X128.534 Y92.215 E0.02752
G1 X133.263 Y114.506 E0.71447
G1 X133.320 Y115.154 E0.02039
G1 X133.206 Y115.856 E0.02231
G1 X132.916 Y116.506 E0.02231
G1 X132.470 Y117.059 E0.02231
G1 X131.896 Y117.480 E0.02231
G1 X125.922 Y119.615 E0.19891
G1 X125.024 Y119.742 E0.02844
G1 X124.975 Y119.373 F10800.000
G1 F1478
G1 X124.288 Y119.249 E0.02190
G1 X118.385 Y117.140 E0.19653
G1 X117.870 Y116.751 E0.02024
G1 X117.479 Y116.237 E0.02024
G1 X117.240 Y115.633 E0.02036
G1 X117.173 Y114.991 E0.02024
G1 X121.984 Y92.200 E0.73034
G1 X122.201 Y91.748 E0.01574
G1 X122.507 Y91.354 E0.01562
G1 X122.890 Y91.031 E0.01574
G1 X123.334 Y90.795 E0.01574
G1 X124.062 Y90.628 E0.02343
G1 X125.898 Y90.623 E0.05757
G1 X126.650 Y90.746 E0.02390
G1 X127.328 Y91.104 E0.02402
G1 X127.854 Y91.655 E0.02390
G1 X128.179 Y92.345 E0.02390
G1 X132.894 Y114.583 E0.71277
G1 X132.943 Y115.143 E0.01763
G1 X132.842 Y115.758 E0.01953
G1 X132.584 Y116.325 E0.01953
G1 X132.189 Y116.806 E0.01953
G1 X131.681 Y117.168 E0.01953
G1 X125.809 Y119.255 E0.19542
G1 X125.034 Y119.365 E0.02452
;WIPE_START
G1 F8640.000
G1 X124.288 Y119.249 E-0.17445
G1 X119.575 Y117.565 E-1.15555
;WIPE_END
G1 E-0.07000 F2100.000
G1 Z0.800 F10800.000
G1 X125.058 Y116.330
G1 Z0.600
G1 E1.40000 F2100.000
M204 S800
;TYPE:Perimeter
;WIDTH:0.45
G1 F1478
G1 X120.307 Y114.664 E0.17043
G1 X124.854 Y97.080 E0.61476
M73 P3 R34
M73 Q3 S34
G1 X124.854 Y93.632 E0.11672
G1 X125.262 Y93.632 E0.01382
G1 X125.262 Y97.080 E0.11672
G1 X129.810 Y114.664 E0.61476
G1 X125.115 Y116.310 E0.16840
M204 S1000
G1 X125.058 Y116.762 F10800.000
M204 S800
;TYPE:External perimeter
G1 F1478
G1 X119.819 Y114.924 E0.18793
G1 X124.447 Y97.029 E0.62568
G1 X124.447 Y93.225 E0.12875
G1 X125.669 Y93.225 E0.04137
G1 X125.669 Y97.029 E0.12875
G1 X130.297 Y114.924 E0.62568
G1 X125.115 Y116.742 E0.18590
M204 S1000
G1 X124.768 Y116.486 F10800.000
;WIPE_START
G1 F8640.000
G1 X119.819 Y114.924 E-1.29284
G1 X119.859 Y114.768 E-0.03716
;WIPE_END
G1 E-0.07000 F2100.000
G1 Z0.800 F10800.000
G1 X125.467 Y98.360
G1 Z0.600
G1 E1.40000 F2100.000
;TYPE:Solid infill
;WIDTH:0.455114
G1 F1478
G1 X124.968 Y97.861 E0.02421
G1 X124.848 Y98.324 E0.01640
G1 X125.415 Y98.892 E0.02751
G1 X125.619 Y99.678 E0.02784
G1 X124.728 Y98.787 E0.04317
G1 X124.608 Y99.250 E0.01640
G1 X125.822 Y100.464 E0.05883
G1 X126.025 Y101.250 E0.02784
G1 X124.488 Y99.714 E0.07449
G1 X124.369 Y100.177 E0.01640
G1 X126.229 Y102.037 E0.09015
G1 X126.432 Y102.823 E0.02784
G1 X124.249 Y100.640 E0.10582
G1 X124.129 Y101.103 E0.01640
G1 X126.635 Y103.609 E0.12148
G1 X126.839 Y104.395 E0.02784
G1 X124.009 Y101.566 E0.13714
G1 X123.890 Y102.029 E0.01640
G1 X127.042 Y105.182 E0.15280
G1 X127.245 Y105.968 E0.02784
G1 X123.770 Y102.492 E0.16846
G1 X123.650 Y102.956 E0.01640
G1 X127.449 Y106.754 E0.18413
G1 X127.652 Y107.541 E0.02784
G1 X123.530 Y103.419 E0.19979
G1 X123.410 Y103.882 E0.01640
G1 X127.855 Y108.327 E0.21545
G1 X128.059 Y109.113 E0.02784
G1 X123.291 Y104.345 E0.23111
G1 X123.171 Y104.808 E0.01640
G1 X128.262 Y109.899 E0.24678
G1 X128.465 Y110.686 E0.02784
G1 X123.051 Y105.271 E0.26244
G1 X122.931 Y105.734 E0.01640
G1 X128.669 Y111.472 E0.27810
G1 X128.872 Y112.258 E0.02784
