; generated by PrusaSlicer 2.3.0+win64 on 2021-07-17 at 05:45:41 UTC

; 

; external perimeters extrusion width = 0.45mm
; perimeters extrusion width = 0.45mm
; infill extrusion width = 0.45mm
; solid infill extrusion width = 0.45mm
; top infill extrusion width = 0.40mm
; first layer extrusion width = 0.42mm

M73 P0 R25
M73 Q0 S25
M201 X1000 Y1000 Z200 E5000 ; sets maximum accelerations, mm/sec^2
M203 X200 Y200 Z12 E120 ; sets maximum feedrates, mm/sec
M204 P1250 R1250 T1250 ; sets acceleration (P, T) and retract acceleration (R), mm/sec^2
M205 X8.00 Y8.00 Z0.40 E4.50 ; sets the jerk limits, mm/sec
M205 S0 T0 ; sets the minimum extruding and travel feed rate, mm/sec
M107
;TYPE:Custom
M862.3 P "MK3S" ; printer model check
M862.1 P0.4 ; nozzle diameter check
M115 U3.9.1 ; tell printer latest fw version
G90 ; use absolute coordinates
M83 ; extruder relative mode
M104 S240 ; set extruder temp
M140 S85 ; set bed temp
M190 S85 ; wait for bed temp
M109 S240 ; wait for extruder temp
G28 W ; home all without mesh bed level
G80 ; mesh bed leveling
G1 Y-3.0 F1000.0 ; go outside print area
G92 E0.0
G1 X60.0 E9.0 F1000.0 ; intro line
G1 X100.0 E12.5 F1000.0 ; intro line
G92 E0.0
M221 S95

; Don't change E values below. Excessive value can damage the printer.

M907 E538 ; set extruder motor current
G21 ; set units to millimeters
G90 ; use absolute coordinates
M83 ; use relative distances for extrusion
M900 K0.08 ; Filament gcode LA 1.5
M900 K45 ; Filament gcode LA 1.0
;LAYER_CHANGE
;Z:0.2
;HEIGHT:0.2
;BEFORE_LAYER_CHANGE
G92 E0.0
;0.2


G1 E-1.40000 F2100.000
G1 Z0.200 F10800.000
;AFTER_LAYER_CHANGE
;0.2
G1 Z0.400
G1 X118.983 Y91.094
G1 Z0.200
G1 E1.40000 F2100.000
M204 S1000
;TYPE:Skirt
;WIDTH:0.42
G1 F1200.000
G1 X119.457 Y90.500 E0.02383
G1 X120.080 Y90.057 E0.02396
G1 X120.796 Y89.802 E0.02383
G1 X121.329 Y89.746 E0.01681
G1 X128.653 Y89.746 E0.22964
G1 X129.647 Y89.933 E0.03170
G1 X130.506 Y90.466 E0.03170
G1 X131.115 Y91.273 E0.03170
G1 X131.392 Y92.245 E0.03170
G1 X131.403 Y117.508 E0.79210
G1 X131.313 Y118.201 E0.02192
G1 X131.011 Y118.917 E0.02434
G1 X130.522 Y119.520 E0.02434
G1 X129.884 Y119.962 E0.02434
G1 X129.148 Y120.209 E0.02434
G1 X121.334 Y120.254 E0.24498
G1 X120.649 Y120.163 E0.02167
G1 X119.868 Y119.821 E0.02676
G1 X119.228 Y119.255 E0.02676
G1 X118.793 Y118.521 E0.02676
G1 X118.603 Y117.689 E0.02676
G1 X118.597 Y92.492 E0.79005
G1 X118.687 Y91.799 E0.02192
G1 X118.959 Y91.149 E0.02208
;WIPE_START
G1 F8640.000
G1 X119.457 Y90.500 E-0.18889
G1 X120.080 Y90.057 E-0.17646
G1 X120.796 Y89.802 E-0.17552
G1 X121.329 Y89.746 E-0.12382
G1 X124.211 Y89.746 E-0.66530
;WIPE_END
G1 E-0.07000 F2100.000
G1 Z0.400 F10800.000
G1 X120.922 Y90.162
G1 Z0.200
G1 E1.40000 F2100.000
G1 F1200.000
G1 X128.653 Y90.123 E0.24242
G1 X129.516 Y90.287 E0.02755
G1 X130.261 Y90.753 E0.02755
G1 X130.786 Y91.458 E0.02755
G1 X131.018 Y92.305 E0.02755
G1 X131.026 Y117.508 E0.79021
G1 X130.946 Y118.114 E0.01917
G1 X130.680 Y118.735 E0.02119
G1 X130.248 Y119.259 E0.02130
G1 X129.685 Y119.640 E0.02130
G1 X129.037 Y119.845 E0.02130
G1 X121.335 Y119.877 E0.24149
G1 X120.737 Y119.796 E0.01894
G1 X120.061 Y119.497 E0.02319
G1 X119.509 Y119.003 E0.02319
G1 X119.136 Y118.364 E0.02319
G1 X118.978 Y117.642 E0.02319
G1 X118.974 Y92.492 E0.78855
M73 P1 R25
M73 Q1 S25
G1 X119.054 Y91.886 E0.01917
G1 X119.316 Y91.271 E0.02095
G1 X119.738 Y90.754 E0.02095
G1 X120.288 Y90.374 E0.02095
G1 X120.865 Y90.181 E0.01907
;WIPE_START
G1 F8640.000
G1 X126.624 Y90.138 E-1.33000
;WIPE_END
G1 E-0.07000 F2100.000
G1 Z0.400 F10800.000
G1 X124.459 Y104.895
G1 Z0.200
G1 E1.40000 F2100.000
;TYPE:External perimeter
G1 F1200.000
G1 X124.818 Y104.845 E0.01139
G1 X125.182 Y104.845 E0.01139
G1 X125.541 Y104.895 E0.01139
G1 X125.891 Y104.993 E0.01139
G1 X126.224 Y105.137 E0.01139
G1 X126.535 Y105.327 E0.01140
G1 X126.817 Y105.559 E0.01145
G1 X127.062 Y105.833 E0.01153
G1 X127.259 Y106.148 E0.01165
G1 X127.388 Y106.494 E0.01158
G1 X127.455 Y106.839 E0.01103
G1 X127.491 Y107.175 E0.01059
G1 X127.491 Y107.825 E0.02036
G1 X127.455 Y108.161 E0.01059
G1 X127.388 Y108.506 E0.01103
G1 X127.259 Y108.852 E0.01158
G1 X127.062 Y109.167 E0.01165
G1 X126.817 Y109.441 E0.01153
G1 X126.535 Y109.673 E0.01145
G1 X126.224 Y109.863 E0.01140
G1 X125.891 Y110.007 E0.01139
G1 X125.541 Y110.105 E0.01139
G1 X125.182 Y110.155 E0.01139
G1 X124.818 Y110.155 E0.01139
G1 X124.459 Y110.105 E0.01139
G1 X124.109 Y110.007 E0.01139
G1 X123.776 Y109.863 E0.01139
G1 X123.465 Y109.673 E0.01140
G1 X123.183 Y109.441 E0.01145
G1 X122.938 Y109.167 E0.01153
G1 X122.741 Y108.852 E0.01165
G1 X122.612 Y108.506 E0.01158
G1 X122.545 Y108.161 E0.01103
G1 X122.509 Y107.825 E0.01059
G1 X122.509 Y107.175 E0.02036
G1 X122.545 Y106.839 E0.01059
G1 X122.612 Y106.494 E0.01103
G1 X122.741 Y106.148 E0.01158
G1 X122.938 Y105.833 E0.01165
G1 X123.183 Y105.559 E0.01153
G1 X123.465 Y105.327 E0.01145
G1 X123.776 Y105.137 E0.01140
G1 X124.109 Y104.993 E0.01139
G1 X124.401 Y104.911 E0.00951
G1 X124.572 Y104.550 F10800.000
;WIPE_START
G1 F8640.000
G1 X124.818 Y104.845 E-0.09760
G1 X125.182 Y104.845 E-0.08386
G1 X125.541 Y104.895 E-0.08386
G1 X125.891 Y104.993 E-0.08386
G1 X126.224 Y105.137 E-0.08389
G1 X126.535 Y105.327 E-0.08398
G1 X126.817 Y105.559 E-0.08433
G1 X127.062 Y105.833 E-0.08488
G1 X127.259 Y106.148 E-0.08581
G1 X127.388 Y106.494 E-0.08530
G1 X127.455 Y106.839 E-0.08124
G1 X127.491 Y107.175 E-0.07801
G1 X127.491 Y107.825 E-0.14992
G1 X127.455 Y108.161 E-0.07801
G1 X127.388 Y108.506 E-0.08124
G1 X127.382 Y108.523 E-0.00423
;WIPE_END
G1 E-0.07000 F2100.000
G1 Z0.400 F10800.000
G1 X122.650 Y105.590
G1 Z0.200
G1 E1.40000 F2100.000
;TYPE:Perimeter
G1 F1200.000
G1 X122.657 Y93.287 E0.38576
G1 X127.343 Y93.287 E0.14692
G1 X127.350 Y105.590 E0.38576
G1 X127.079 Y105.286 E0.01279
G1 X126.754 Y105.019 E0.01319
G1 X126.398 Y104.802 E0.01305
G1 X126.018 Y104.637 E0.01302
G1 X125.618 Y104.525 E0.01301
G1 X125.207 Y104.468 E0.01300
G1 X124.793 Y104.468 E0.01300
G1 X124.382 Y104.525 E0.01300
G1 X123.982 Y104.637 E0.01301
G1 X123.602 Y104.802 E0.01302
G1 X123.246 Y105.019 E0.01305
G1 X122.921 Y105.286 E0.01320
G1 X122.690 Y105.545 E0.01090
;WIPE_START
G1 F8640.000
G1 X122.674 Y99.785 E-1.33000
;WIPE_END
G1 E-0.07000 F2100.000
G1 Z0.400 F10800.000
G1 X122.650 Y109.410
G1 Z0.200
G1 E1.40000 F2100.000
G1 F1200.000
G1 X122.921 Y109.714 E0.01279
G1 X123.246 Y109.981 E0.01320
G1 X123.602 Y110.198 E0.01305
G1 X123.982 Y110.363 E0.01302
G1 X124.382 Y110.475 E0.01301
G1 X124.793 Y110.532 E0.01300
G1 X125.207 Y110.532 E0.01300
G1 X125.618 Y110.475 E0.01300
G1 X126.018 Y110.363 E0.01301
G1 X126.398 Y110.198 E0.01302
G1 X126.754 Y109.981 E0.01305
G1 X127.079 Y109.714 E0.01320
G1 X127.350 Y109.410 E0.01279
G1 X127.343 Y116.713 E0.22898
G1 X122.657 Y116.713 E0.14693
G1 X122.652 Y109.470 E0.22711
;WIPE_START
G1 F8640.000
G1 X122.921 Y109.714 E-0.08389
G1 X123.246 Y109.981 E-0.09717
G1 X123.602 Y110.198 E-0.09611
G1 X123.982 Y110.363 E-0.09585
G1 X124.382 Y110.475 E-0.09578
G1 X124.793 Y110.532 E-0.09577
G1 X125.207 Y110.532 E-0.09577
G1 X125.618 Y110.475 E-0.09577
G1 X126.018 Y110.363 E-0.09578
G1 X126.398 Y110.198 E-0.09585
G1 X126.754 Y109.981 E-0.09611
G1 X127.079 Y109.714 E-0.09717
G1 X127.350 Y109.410 E-0.09416
G1 X127.350 Y109.820 E-0.09480
;WIPE_END
G1 E-0.07000 F2100.000
G1 Z0.400 F10800.000
G1 X122.280 Y117.090
G1 Z0.200
G1 E1.40000 F2100.000
;TYPE:External perimeter
G1 F1200.000
G1 X122.276 Y109.495 E0.23813
M73 P1 R24
G1 X122.253 Y108.984 E0.01606
G1 X122.142 Y107.984 E0.03154
G1 X122.122 Y107.500 E0.01519
G1 X122.142 Y107.016 E0.01519
G1 X122.253 Y106.016 E0.03154
G1 X122.276 Y105.505 E0.01606
G1 X122.280 Y92.910 E0.39490
G1 X127.720 Y92.910 E0.17056
G1 X127.724 Y105.505 E0.39491
G1 X127.747 Y106.016 E0.01604
G1 X127.858 Y107.016 E0.03154
G1 X127.878 Y107.500 E0.01519
G1 X127.858 Y107.984 E0.01519
G1 X127.747 Y108.984 E0.03154
G1 X127.724 Y109.495 E0.01606
G1 X127.720 Y117.090 E0.23813
G1 X122.340 Y117.090 E0.16869
G1 X122.362 Y116.699 F10800.000
;WIPE_START
G1 F8640.000
G1 X122.291 Y111.330 E-1.33000
;WIPE_END
G1 E-0.07000 F2100.000
G1 Z0.400 F10800.000
G1 X122.622 Y109.061
G1 Z0.200
G1 E1.40000 F2100.000
;TYPE:Gap fill
;WIDTH:0.111418
G1 F1200.000
G1 X122.484 Y108.860 E0.00139
G1 X122.423 Y108.602 E0.00151
;WIPE_START
G1 F8640.000
G1 X122.484 Y108.860 E-0.06108
G1 X122.622 Y109.061 E-0.05628
;WIPE_END
G1 E-1.28265 F2100.000
G1 Z0.400 F10800.000
G1 X122.423 Y106.398
G1 Z0.200
G1 E1.40000 F2100.000
;WIDTH:0.11142
G1 F1200.000
G1 X122.484 Y106.140 E0.00151
G1 X122.622 Y105.939 E0.00139
;WIPE_START
G1 F8640.000
G1 X122.484 Y106.140 E-0.05628
G1 X122.423 Y106.398 E-0.06108
;WIPE_END
G1 E-1.28265 F2100.000
G1 Z0.400 F10800.000
G1 X127.378 Y105.939
G1 Z0.200
G1 E1.40000 F2100.000
;WIDTH:0.113408
G1 F1200.000
G1 X127.462 Y106.052 E0.00082
;WIDTH:0.122575
G1 X127.516 Y106.140 E0.00069
G1 X127.577 Y106.398 E0.00175
;WIPE_START
G1 F8640.000
G1 X127.516 Y106.140 E-0.06109
G1 X127.462 Y106.052 E-0.02395
;WIPE_END
G1 E-1.31496 F2100.000
G1 Z0.400 F10800.000
G1 X127.577 Y108.602
G1 Z0.200
G1 E1.40000 F2100.000
;WIDTH:0.122566
G1 F1200.000
G1 X127.516 Y108.860 E0.00175
G1 X127.462 Y108.948 E0.00069
;WIDTH:0.113352
G1 X127.378 Y109.061 E0.00082
;WIPE_START
G1 F8640.000
G1 X127.462 Y108.948 E-0.03237
;WIPE_END
G1 E-1.36763 F2100.000
G1 Z0.400 F10800.000
G1 X126.818 Y110.075
G1 Z0.200
G1 E1.40000 F2100.000
;TYPE:Solid infill
;WIDTH:0.427695
G1 F1200.000
G1 X127.064 Y110.320 E0.01112
G1 X127.064 Y110.864 E0.01740
G1 X126.603 Y110.404 E0.02082
G1 X126.233 Y110.578 E0.01309
G1 X127.063 Y111.408 E0.03756
G1 X127.063 Y111.952 E0.01740
G1 X125.823 Y110.712 E0.05612
G1 X125.676 Y110.753 E0.00487
G1 X125.363 Y110.796 E0.01012
G1 X127.063 Y112.496 E0.07692
M73 Q1 S24
G1 X127.062 Y113.040 E0.01740
G1 X124.837 Y110.815 E0.10068
G1 X124.324 Y110.753 E0.01654
G1 X124.195 Y110.717 E0.00428
G1 X127.062 Y113.584 E0.12972
G1 X127.062 Y114.127 E0.01740
G1 X123.248 Y110.313 E0.17258
G1 X123.082 Y110.212 E0.00621
G1 X122.933 Y110.090 E0.00617
G1 X122.933 Y110.543 E0.01451
G1 X127.061 Y114.671 E0.18678
G1 X127.061 Y115.215 E0.01740
G1 X122.934 Y111.088 E0.18674
G1 X122.935 Y111.633 E0.01743
G1 X127.061 Y115.759 E0.18670
G1 X127.061 Y116.303 E0.01740
G1 X122.935 Y112.178 E0.18666
G1 X122.936 Y112.722 E0.01743
G1 X126.644 Y116.430 E0.16777
G1 X126.099 Y116.430 E0.01741
G1 X122.936 Y113.267 E0.14313
M73 Q2 S24
G1 X122.937 Y113.812 E0.01743
G1 X125.555 Y116.430 E0.11848
G1 X125.011 Y116.430 E0.01741
G1 X122.937 Y114.356 E0.09383
M73 P2 R24
G1 X122.938 Y114.901 E0.01743
G1 X124.467 Y116.430 E0.06919
G1 X123.923 Y116.430 E0.01741
G1 X122.938 Y115.446 E0.04454
G1 X122.939 Y115.990 E0.01743
G1 X123.548 Y116.600 E0.02757
;WIPE_START
G1 F8640.000
G1 X122.939 Y115.990 E-0.19900
G1 X122.938 Y115.446 E-0.12577
G1 X123.923 Y116.430 E-0.32146
G1 X124.467 Y116.430 E-0.12565
G1 X122.938 Y114.901 E-0.49933
G1 X122.938 Y114.646 E-0.05880
;WIPE_END
G1 E-0.07000 F2100.000
G1 Z0.400 F10800.000
G1 X127.230 Y94.184
G1 Z0.200
G1 E1.40000 F2100.000
;WIDTH:0.430246
G1 F1200.000
G1 X126.615 Y93.570 E0.02798
G1 X126.068 Y93.570 E0.01764
G1 X127.060 Y94.562 E0.04520
G1 X127.060 Y95.110 E0.01764
G1 X125.520 Y93.570 E0.07015
G1 X124.972 Y93.570 E0.01764
G1 X127.060 Y95.658 E0.09510
G1 X127.060 Y96.206 E0.01764
G1 X124.424 Y93.570 E0.12005
G1 X123.877 Y93.570 E0.01764
G1 X127.060 Y96.753 E0.14499
G1 X127.060 Y97.301 E0.01764
G1 X123.329 Y93.570 E0.16994
G1 X122.940 Y93.570 E0.01253
G1 X122.940 Y93.728 E0.00510
G1 X127.060 Y97.849 E0.18767
G1 X127.060 Y98.397 E0.01764
G1 X122.939 Y94.276 E0.18769
G1 X122.939 Y94.823 E0.01763
G1 X127.060 Y98.944 E0.18770
G1 X127.060 Y99.492 E0.01764
G1 X122.939 Y95.371 E0.18772
G1 X122.938 Y95.918 E0.01763
G1 X127.060 Y100.040 E0.18773
G1 X127.060 Y100.588 E0.01764
G1 X122.938 Y96.466 E0.18775
G1 X122.938 Y97.013 E0.01763
G1 X127.060 Y101.135 E0.18776
G1 X127.060 Y101.683 E0.01764
G1 X122.937 Y97.560 E0.18778
G1 X122.937 Y98.108 E0.01763
G1 X127.060 Y102.231 E0.18779
G1 X127.060 Y102.779 E0.01764
G1 X122.937 Y98.655 E0.18781
G1 X122.936 Y99.203 E0.01763
G1 X127.060 Y103.326 E0.18782
G1 X127.060 Y103.874 E0.01764
G1 X122.936 Y99.750 E0.18784
G1 X122.936 Y100.298 E0.01763
G1 X127.060 Y104.422 E0.18785
G1 X127.063 Y104.907 E0.01561
G1 X126.815 Y104.725 E0.00989
G1 X122.935 Y100.845 E0.17672
G1 X122.935 Y101.392 E0.01763
G1 X125.834 Y104.291 E0.13204
G1 X125.676 Y104.247 E0.00528
G1 X125.180 Y104.185 E0.01609
G1 X122.935 Y101.940 E0.10228
G1 X122.934 Y102.487 E0.01763
G1 X124.649 Y104.202 E0.07812
G1 X124.324 Y104.247 E0.01058
G1 X124.185 Y104.286 E0.00464
G1 X122.934 Y103.035 E0.05699
G1 X122.934 Y103.582 E0.01763
G1 X123.771 Y104.420 E0.03816
G1 X123.398 Y104.595 E0.01327
G1 X122.933 Y104.130 E0.02119
G1 X122.933 Y104.677 E0.01763
G1 X123.182 Y104.926 E0.01133
;LAYER_CHANGE
;Z:0.4
;HEIGHT:0.2
;BEFORE_LAYER_CHANGE
G92 E0.0
;0.4


;WIPE_START
G1 F8640.000
G1 X122.933 Y104.677 E-0.08120
G1 X122.933 Y104.130 E-0.12640
G1 X123.398 Y104.595 E-0.15189
G1 X123.771 Y104.420 E-0.09511
G1 X122.934 Y103.582 E-0.27357
G1 X122.934 Y103.035 E-0.12640
G1 X124.185 Y104.286 E-0.40861
G1 X124.324 Y104.247 E-0.03328
G1 X124.468 Y104.227 E-0.03353
;WIPE_END
G1 E-0.07000 F2100.000
G1 Z0.400 F10800.000
;AFTER_LAYER_CHANGE
;0.4
M104 S250 ; set temperature
M140 S90 ; set bed temperature
G1 Z0.600
G1 X131.115 Y91.273
G1 Z0.400
G1 E1.40000 F2100.000
;TYPE:Skirt
;WIDTH:0.42
G1 F1831
G1 X131.392 Y92.245 E0.03170
G1 X131.403 Y117.508 E0.79210
G1 X131.313 Y118.201 E0.02192
G1 X131.011 Y118.917 E0.02434
G1 X130.522 Y119.520 E0.02434
G1 X129.884 Y119.962 E0.02434
G1 X129.148 Y120.209 E0.02434
G1 X121.334 Y120.254 E0.24498
G1 X120.649 Y120.163 E0.02167
G1 X119.868 Y119.821 E0.02676
G1 X119.228 Y119.255 E0.02676
G1 X118.793 Y118.521 E0.02676
G1 X118.603 Y117.689 E0.02676
G1 X118.597 Y92.492 E0.79005
G1 X118.687 Y91.799 E0.02192
G1 X118.983 Y91.094 E0.02396
G1 X119.457 Y90.500 E0.02383
G1 X120.080 Y90.057 E0.02396
G1 X120.796 Y89.802 E0.02383
G1 X121.329 Y89.746 E0.01681
G1 X128.653 Y89.746 E0.22964
G1 X129.647 Y89.933 E0.03170
G1 X130.506 Y90.466 E0.03170
G1 X131.079 Y91.225 E0.02982
G1 X130.779 Y91.448 F10800.000
G1 F1831
G1 X131.018 Y92.305 E0.02788
G1 X131.026 Y117.508 E0.79021
G1 X130.946 Y118.114 E0.01917
G1 X130.680 Y118.735 E0.02119
G1 X130.248 Y119.259 E0.02130
G1 X129.685 Y119.640 E0.02130
G1 X129.037 Y119.845 E0.02130
G1 X121.335 Y119.877 E0.24149
G1 X120.737 Y119.796 E0.01894
G1 X120.061 Y119.497 E0.02319
G1 X119.509 Y119.003 E0.02319
G1 X119.136 Y118.364 E0.02319
G1 X118.978 Y117.642 E0.02319
G1 X118.974 Y92.492 E0.78855
G1 X119.054 Y91.886 E0.01917
G1 X119.316 Y91.271 E0.02095
G1 X119.738 Y90.754 E0.02095
G1 X120.288 Y90.374 E0.02095
G1 X120.922 Y90.162 E0.02095
G1 X128.653 Y90.123 E0.24242
G1 X129.516 Y90.287 E0.02755
G1 X130.261 Y90.753 E0.02755
G1 X130.743 Y91.400 E0.02531
;WIPE_START
G1 F8640.000
G1 X131.018 Y92.305 E-0.21833
G1 X131.020 Y97.119 E-1.11167
;WIPE_END
G1 E-0.07000 F2100.000
G1 Z0.600 F10800.000
G1 X125.829 Y105.167
G1 Z0.400
G1 E1.40000 F2100.000
M204 S800
;TYPE:External perimeter
;WIDTH:0.45
M73 Q3 S24
G1 F1500.000
G1 X126.139 Y105.302 E0.01144
G1 X126.411 Y105.468 E0.01078
G1 X126.689 Y105.690 E0.01205
G1 X126.920 Y105.938 E0.01147
G1 X127.115 Y106.214 E0.01144
G1 X127.262 Y106.497 E0.01078
G1 X127.384 Y106.831 E0.01205
G1 X127.452 Y107.163 E0.01147
G1 X127.476 Y107.500 E0.01144
G1 X127.452 Y107.837 E0.01144
G1 X127.384 Y108.168 E0.01144
G1 X127.271 Y108.486 E0.01144
G1 X127.115 Y108.786 E0.01144
G1 X126.920 Y109.062 E0.01144
G1 X126.690 Y109.309 E0.01144
G1 X126.428 Y109.522 E0.01144
G1 X126.139 Y109.698 E0.01144
G1 X125.829 Y109.833 E0.01144
G1 X125.504 Y109.924 E0.01144
G1 X125.169 Y109.970 E0.01144
G1 X124.831 Y109.970 E0.01144
M73 P3 R24
G1 X124.496 Y109.924 E0.01144
G1 X124.171 Y109.833 E0.01144
G1 X123.861 Y109.698 E0.01144
G1 X123.572 Y109.522 E0.01144
G1 X123.310 Y109.309 E0.01144
G1 X123.080 Y109.062 E0.01144
G1 X122.885 Y108.786 E0.01144
G1 X122.729 Y108.486 E0.01144
G1 X122.616 Y108.168 E0.01144
G1 X122.548 Y107.837 E0.01144
G1 X122.526 Y107.519 E0.01078
