; generated by PrusaSlicer 2.3.0+win64 on 2021-07-20 at 00:29:50 UTC

; 

; external perimeters extrusion width = 0.45mm
; perimeters extrusion width = 0.45mm
; infill extrusion width = 0.45mm
; solid infill extrusion width = 0.45mm
; top infill extrusion width = 0.40mm
; first layer extrusion width = 0.42mm

M73 P0 R30
M73 Q0 S30
M201 X1000 Y1000 Z200 E5000 ; sets maximum accelerations, mm/sec^2
M203 X200 Y200 Z12 E120 ; sets maximum feedrates, mm/sec
M204 P1250 R1250 T1250 ; sets acceleration (P, T) and retract acceleration (R), mm/sec^2
M205 X8.00 Y8.00 Z0.40 E4.50 ; sets the jerk limits, mm/sec
M205 S0 T0 ; sets the minimum extruding and travel feed rate, mm/sec
M107
;TYPE:Custom
M862.3 P "MK3S" ; printer model check
M862.1 P0.4 ; nozzle diameter check
M115 U3.9.1 ; tell printer latest fw version
G90 ; use absolute coordinates
M83 ; extruder relative mode
M104 S240 ; set extruder temp
M140 S85 ; set bed temp
M190 S85 ; wait for bed temp
M109 S240 ; wait for extruder temp
G28 W ; home all without mesh bed level
G80 ; mesh bed leveling
G1 Y-3.0 F1000.0 ; go outside print area
G92 E0.0
G1 X60.0 E9.0 F1000.0 ; intro line
G1 X100.0 E12.5 F1000.0 ; intro line
G92 E0.0
M221 S95

; Don't change E values below. Excessive value can damage the printer.
M907 E430 ; set extruder motor current
G21 ; set units to millimeters
G90 ; use absolute coordinates
M83 ; use relative distances for extrusion
M900 K0.08 ; Filament gcode LA 1.5
M900 K45 ; Filament gcode LA 1.0
;LAYER_CHANGE
;Z:0.2
;HEIGHT:0.2
;BEFORE_LAYER_CHANGE
G92 E0.0
;0.2


G1 E-1.40000 F2100.000
G1 Z0.200 F10800.000
;AFTER_LAYER_CHANGE
;0.2
G1 Z0.400
G1 X122.360 Y91.755
G1 Z0.200
G1 E1.40000 F2100.000
M204 S1000
;TYPE:Skirt
;WIDTH:0.42
G1 F1200.000
G1 X122.903 Y91.140 E0.02574
G1 X123.600 Y90.713 E0.02562
G1 X124.330 Y90.517 E0.02371
G1 X125.331 Y90.496 E0.03140
G1 X126.041 Y90.590 E0.02243
G1 X126.698 Y90.861 E0.02231
G1 X127.264 Y91.292 E0.02231
G1 X127.703 Y91.857 E0.02243
G1 X131.896 Y101.713 E0.33583
G1 X132.018 Y102.319 E0.01937
G1 X132.982 Y114.266 E0.37580
G1 X132.892 Y114.930 E0.02103
G1 X132.642 Y115.557 E0.02116
G1 X132.247 Y116.104 E0.02116
G1 X131.735 Y116.537 E0.02103
G1 X127.131 Y119.180 E0.16644
G1 X126.432 Y119.382 E0.02282
G1 X124.969 Y119.504 E0.04605
G1 X123.559 Y119.382 E0.04438
G1 X122.864 Y119.178 E0.02269
G1 X118.242 Y116.522 E0.16716
G1 X117.726 Y116.075 E0.02141
G1 X117.335 Y115.515 E0.02141
G1 X117.094 Y114.876 E0.02141
G1 X117.018 Y114.197 E0.02141
G1 X117.982 Y102.318 E0.37369
G1 X118.126 Y101.646 E0.02154
G1 X122.336 Y91.810 E0.33545
G1 X122.660 Y91.985 F10800.000
G1 F1200.000
G1 X123.138 Y91.435 E0.02284
G1 X123.760 Y91.055 E0.02284
G1 X124.399 Y90.889 E0.02071
G1 X125.331 Y90.873 E0.02922
G1 X125.952 Y90.957 E0.01965
G1 X126.527 Y91.198 E0.01953
G1 X127.021 Y91.582 E0.01965
G1 X127.396 Y92.080 E0.01953
G1 X131.544 Y101.852 E0.33286
G1 X131.643 Y102.355 E0.01609
G1 X132.605 Y114.263 E0.37456
G1 X132.524 Y114.846 E0.01846
G1 X132.305 Y115.388 E0.01835
G1 X131.959 Y115.861 E0.01835
G1 X131.506 Y116.236 E0.01846
G1 X126.986 Y118.832 E0.16342
G1 X126.369 Y119.010 E0.02012
G1 X124.970 Y119.127 E0.04402
G1 X123.627 Y119.011 E0.04227
G1 X123.011 Y118.831 E0.02012
G1 X118.477 Y116.225 E0.16398
G1 X118.021 Y115.840 E0.01870
G1 X117.676 Y115.353 E0.01870
G1 X117.463 Y114.796 E0.01870
G1 X117.395 Y114.204 E0.01870
G1 X118.357 Y102.353 E0.37278
G1 X118.475 Y101.792 E0.01799
G1 X122.637 Y92.040 E0.33245
;WIPE_START
G1 F8640.000
G1 X123.138 Y91.435 E-0.18144
G1 X123.760 Y91.055 E-0.16820
G1 X124.399 Y90.889 E-0.15254
G1 X125.331 Y90.873 E-0.21522
G1 X125.952 Y90.957 E-0.14470
G1 X126.527 Y91.198 E-0.14383
G1 X127.021 Y91.582 E-0.14470
G1 X127.396 Y92.080 E-0.14383
G1 X127.456 Y92.221 E-0.03556
;WIPE_END
G1 E-0.07000 F2100.000
G1 Z0.400 F10800.000
G1 X125.000 Y94.494
G1 Z0.200
G1 E1.40000 F2100.000
;TYPE:Perimeter
G1 F1200.000
G1 X128.194 Y102.025 E0.25647
G1 X126.379 Y102.494 E0.05876
G1 X129.316 Y113.849 E0.36775
G1 X125.778 Y115.892 E0.12808
G1 X125.000 Y115.960 E0.02450
G1 X124.222 Y115.892 E0.02450
G1 X120.684 Y113.849 E0.12808
G1 X123.621 Y102.494 E0.36775
G1 X121.806 Y102.025 E0.05876
G1 X124.977 Y94.549 E0.25459
;WIPE_START
G1 F8640.000
G1 X127.254 Y99.840 E-1.33000
;WIPE_END
G1 E-0.07000 F2100.000
G1 Z0.400 F10800.000
G1 X126.839 Y102.765
M73 Q1 S30
G1 Z0.200
G1 E1.40000 F2100.000
;TYPE:External perimeter
G1 F1200.000
G1 X129.753 Y114.032 E0.36492
M73 P1 R30
G1 X125.894 Y116.260 E0.13970
G1 X125.000 Y116.338 E0.02815
G1 X124.106 Y116.260 E0.02815
G1 X120.247 Y114.032 E0.13970
G1 X123.161 Y102.765 E0.36492
G1 X121.288 Y102.280 E0.06065
G1 X125.000 Y93.528 E0.29807
G1 X128.712 Y102.280 E0.29807
G1 X126.897 Y102.750 E0.05877
G1 X126.548 Y103.040 F10800.000
;WIPE_START
G1 F8640.000
G1 X128.310 Y108.333 E-1.33000
;WIPE_END
G1 E-0.07000 F2100.000
G1 Z0.400 F10800.000
G1 X124.773 Y95.320
G1 Z0.200
G1 E1.40000 F2100.000
;TYPE:Solid infill
;WIDTH:0.425657
G1 F1200.000
G1 X125.242 Y95.790 E0.02114
G1 X125.641 Y96.730 E0.03249
G1 X124.741 Y95.830 E0.04051
G1 X124.580 Y96.210 E0.01314
G1 X126.039 Y97.670 E0.06570
G1 X126.438 Y98.609 E0.03249
G1 X124.418 Y96.590 E0.09090
G1 X124.257 Y96.970 E0.01314
G1 X126.837 Y99.549 E0.11609
G1 X127.235 Y100.489 E0.03249
G1 X124.096 Y97.350 E0.14128
G1 X123.935 Y97.730 E0.01314
G1 X127.634 Y101.429 E0.16648
G1 X127.805 Y101.833 E0.01397
G1 X127.560 Y101.897 E0.00806
G1 X123.774 Y98.110 E0.17041
G1 X123.612 Y98.490 E0.01314
G1 X127.130 Y102.008 E0.15831
G1 X126.700 Y102.119 E0.01414
G1 X123.451 Y98.870 E0.14621
G1 X123.290 Y99.250 E0.01314
G1 X126.270 Y102.230 E0.13411
G1 X126.035 Y102.291 E0.00773
G1 X126.120 Y102.622 E0.01088
G1 X123.129 Y99.631 E0.13464
G1 X122.968 Y100.011 E0.01314
G1 X126.309 Y103.352 E0.15039
G1 X126.498 Y104.082 E0.02400
G1 X122.807 Y100.391 E0.16614
G1 X122.645 Y100.771 E0.01314
G1 X126.687 Y104.812 E0.18189
G1 X126.876 Y105.542 E0.02400
G1 X123.895 Y102.562 E0.13414
G1 X123.965 Y102.291 E0.00890
G1 X123.505 Y102.172 E0.01512
G1 X122.484 Y101.151 E0.04596
G1 X122.323 Y101.531 E0.01314
G1 X123.012 Y102.220 E0.03100
G1 X123.645 Y102.853 F10800.000
G1 F1200.000
G1 X127.064 Y106.272 E0.15391
G1 X127.253 Y107.002 E0.02400
G1 X123.673 Y103.422 E0.16115
G1 X123.562 Y103.852 E0.01414
G1 X127.442 Y107.733 E0.17465
G1 X127.631 Y108.463 E0.02400
G1 X123.450 Y104.282 E0.18815
G1 X123.339 Y104.712 E0.01414
G1 X127.820 Y109.193 E0.20166
G1 X128.008 Y109.923 E0.02400
G1 X123.228 Y105.142 E0.21516
G1 X123.117 Y105.572 E0.01414
G1 X128.197 Y110.653 E0.22866
G1 X128.386 Y111.383 E0.02400
G1 X123.005 Y106.002 E0.24217
G1 X122.894 Y106.432 E0.01414
G1 X128.575 Y112.113 E0.25567
G1 X128.764 Y112.843 E0.02400
G1 X122.783 Y106.862 E0.26918
G1 X122.672 Y107.292 E0.01414
G1 X128.953 Y113.573 E0.28268
G1 X128.988 Y113.712 E0.00456
G1 X128.710 Y113.872 E0.01021
G1 X122.561 Y107.722 E0.27679
G1 X122.449 Y108.153 E0.01414
G1 X128.367 Y114.070 E0.26635
G1 X128.024 Y114.269 E0.01261
G1 X122.338 Y108.583 E0.25591
G1 X122.227 Y109.013 E0.01414
G1 X127.681 Y114.467 E0.24547
G1 X127.338 Y114.665 E0.01261
G1 X122.116 Y109.443 E0.23503
G1 X122.004 Y109.873 E0.01414
G1 X126.995 Y114.863 E0.22460
G1 X126.652 Y115.061 E0.01261
G1 X121.893 Y110.303 E0.21416
G1 X121.782 Y110.733 E0.01414
G1 X126.308 Y115.259 E0.20372
G1 X125.965 Y115.457 E0.01261
G1 X121.671 Y111.163 E0.19328
G1 X121.560 Y111.593 E0.01414
G1 X125.591 Y115.624 E0.18144
G1 X125.093 Y115.668 E0.01590
G1 X121.448 Y112.023 E0.16404
G1 X121.337 Y112.453 E0.01414
G1 X124.518 Y115.634 E0.14316
G1 X124.309 Y115.616 E0.00668
G1 X123.480 Y115.137 E0.03047
G1 X121.226 Y112.883 E0.10143
G1 X121.115 Y113.313 E0.01414
G1 X122.663 Y114.861 E0.06966
;LAYER_CHANGE
;Z:0.4
;HEIGHT:0.2
;BEFORE_LAYER_CHANGE
G92 E0.0
;0.4


;WIPE_START
G1 F8640.000
G1 X121.115 Y113.313 E-0.50545
G1 X121.226 Y112.883 E-0.10257
G1 X123.437 Y115.094 E-0.72198
;WIPE_END
G1 E-0.07000 F2100.000
G1 Z0.400 F10800.000
;AFTER_LAYER_CHANGE
;0.4
M104 S250 ; set temperature
M140 S90 ; set bed temperature
G1 Z0.600
G1 X122.864 Y119.178
G1 Z0.400
G1 E1.40000 F2100.000
;TYPE:Skirt
;WIDTH:0.42
G1 F1584
G1 X118.242 Y116.522 E0.16716
G1 X117.726 Y116.075 E0.02141
G1 X117.335 Y115.515 E0.02141
G1 X117.094 Y114.876 E0.02141
G1 X117.018 Y114.197 E0.02141
G1 X117.982 Y102.318 E0.37369
G1 X118.126 Y101.646 E0.02154
G1 X122.360 Y91.755 E0.33734
M73 Q2 S30
G1 X122.903 Y91.140 E0.02574
G1 X123.600 Y90.713 E0.02562
G1 X124.330 Y90.517 E0.02371
G1 X125.331 Y90.496 E0.03140
G1 X126.041 Y90.590 E0.02243
G1 X126.698 Y90.861 E0.02231
G1 X127.264 Y91.292 E0.02231
M73 P2 R30
G1 X127.703 Y91.857 E0.02243
G1 X131.896 Y101.713 E0.33583
G1 X132.018 Y102.319 E0.01937
G1 X132.982 Y114.266 E0.37580
G1 X132.892 Y114.930 E0.02103
G1 X132.642 Y115.557 E0.02116
G1 X132.247 Y116.104 E0.02116
G1 X131.735 Y116.537 E0.02103
G1 X127.131 Y119.180 E0.16644
G1 X126.432 Y119.382 E0.02282
G1 X124.969 Y119.504 E0.04605
G1 X123.559 Y119.382 E0.04438
G1 X122.922 Y119.195 E0.02081
G1 X123.027 Y118.836 F10800.000
G1 F1584
G1 X118.477 Y116.225 E0.16450
G1 X118.021 Y115.840 E0.01870
G1 X117.676 Y115.353 E0.01870
G1 X117.463 Y114.796 E0.01870
G1 X117.395 Y114.204 E0.01870
G1 X118.357 Y102.353 E0.37278
G1 X118.475 Y101.792 E0.01799
G1 X122.660 Y91.985 E0.33433
G1 X123.138 Y91.435 E0.02284
G1 X123.760 Y91.055 E0.02284
G1 X124.399 Y90.889 E0.02071
G1 X125.331 Y90.873 E0.02922
G1 X125.952 Y90.957 E0.01965
G1 X126.527 Y91.198 E0.01953
G1 X127.021 Y91.582 E0.01965
G1 X127.396 Y92.080 E0.01953
G1 X131.544 Y101.852 E0.33286
G1 X131.643 Y102.355 E0.01609
G1 X132.605 Y114.263 E0.37456
G1 X132.524 Y114.846 E0.01846
G1 X132.305 Y115.388 E0.01835
G1 X131.959 Y115.861 E0.01835
G1 X131.506 Y116.236 E0.01846
G1 X126.986 Y118.832 E0.16342
G1 X126.369 Y119.010 E0.02012
G1 X124.970 Y119.127 E0.04402
G1 X123.627 Y119.011 E0.04227
G1 X123.085 Y118.853 E0.01771
;WIPE_START
G1 F8640.000
G1 X118.477 Y116.225 E-1.22487
G1 X118.129 Y115.931 E-0.10513
;WIPE_END
G1 E-0.07000 F2100.000
G1 Z0.600 F10800.000
G1 X126.568 Y102.605
G1 Z0.400
G1 E1.40000 F2100.000
M204 S800
;TYPE:Perimeter
;WIDTH:0.45
G1 F1584
G1 X129.496 Y113.925 E0.39575
G1 X125.826 Y116.043 E0.14343
G1 X125.000 Y116.116 E0.02807
G1 X124.174 Y116.043 E0.02807
G1 X120.504 Y113.925 E0.14343
G1 X123.432 Y102.605 E0.39575
G1 X121.593 Y102.130 E0.06427
G1 X125.000 Y94.097 E0.29533
G1 X128.407 Y102.130 E0.29533
G1 X126.626 Y102.590 E0.06224
M204 S1000
G1 X127.064 Y102.897 F10800.000
M204 S800
;TYPE:External perimeter
G1 F1500.000
G1 X129.967 Y114.122 E0.39245
G1 X125.951 Y116.441 E0.15696
G1 X125.000 Y116.524 E0.03233
G1 X124.049 Y116.441 E0.03233
G1 X120.033 Y114.122 E0.15696
G1 X122.936 Y102.897 E0.39245
G1 X121.034 Y102.406 E0.06648
G1 X124.822 Y93.475 E0.32835
G1 X125.178 Y93.475 E0.01207
G1 X128.966 Y102.406 E0.32835
G1 X127.122 Y102.882 E0.06445
M204 S1000
G1 X126.774 Y103.172 F10800.000
G1 X127.347 Y102.278
;TYPE:Solid infill
;WIDTH:0.452985
G1 F1584
G1 X127.902 Y101.723 E0.02677
G1 X127.729 Y101.315 E0.01508
G1 X126.565 Y102.480 E0.05616
;WIPE_START
G1 F8640.000
G1 X127.729 Y101.315 E-0.38031
G1 X127.902 Y101.723 E-0.10213
G1 X127.347 Y102.278 E-0.18127
;WIPE_END
G1 E-0.73628 F2100.000
G1 Z0.600 F10800.000
G1 X125.279 Y95.067
G1 Z0.400
G1 E1.40000 F2100.000
G1 F1584
G1 X124.656 Y95.690 E0.03002
G1 X124.229 Y96.697 E0.03729
G1 X125.312 Y95.614 E0.05220
G1 X125.484 Y96.021 E0.01508
G1 X123.802 Y97.704 E0.08112
G1 X123.375 Y98.711 E0.03729
G1 X125.657 Y96.429 E0.11004
G1 X125.830 Y96.836 E0.01508
G1 X122.948 Y99.718 E0.13896
G1 X122.521 Y100.725 E0.03729
G1 X126.003 Y97.243 E0.16788
G1 X126.175 Y97.650 E0.01508
G1 X122.094 Y101.731 E0.19680
G1 X122.013 Y101.923 E0.00709
G1 X122.386 Y102.019 E0.01314
G1 X126.348 Y98.058 E0.19104
G1 X126.521 Y98.465 E0.01508
G1 X122.847 Y102.139 E0.17715
G1 X123.308 Y102.258 E0.01623
M73 P2 R29
G1 X126.693 Y98.872 E0.16326
G1 X126.866 Y99.279 E0.01508
G1 X123.768 Y102.377 E0.14937
G1 X123.804 Y102.386 E0.00125
G1 X123.617 Y103.108 E0.02543
G1 X127.039 Y99.686 E0.16499
G1 X127.211 Y100.094 E0.01508
G1 X123.415 Y103.890 E0.18307
G1 X123.212 Y104.672 E0.02755
G1 X127.384 Y100.501 E0.20116
G1 X127.557 Y100.908 E0.01508
G1 X123.010 Y105.455 E0.21924
M73 Q2 S29
G1 X122.808 Y106.237 E0.02755
G1 X126.291 Y102.754 E0.16797
G1 X126.410 Y103.214 E0.01623
G1 X122.606 Y107.019 E0.18347
G1 X122.403 Y107.801 E0.02755
G1 X126.530 Y103.675 E0.19897
G1 X126.649 Y104.136 E0.01623
G1 X122.201 Y108.584 E0.21447
G1 X121.999 Y109.366 E0.02755
G1 X126.768 Y104.597 E0.22997
G1 X126.887 Y105.057 E0.01623
G1 X121.796 Y110.148 E0.24547
G1 X121.594 Y110.930 E0.02755
G1 X127.006 Y105.518 E0.26097
G1 X127.125 Y105.979 E0.01623
G1 X121.392 Y111.712 E0.27647
G1 X121.190 Y112.495 E0.02755
G1 X127.245 Y106.440 E0.29197
G1 X127.364 Y106.900 E0.01623
G1 X120.987 Y113.277 E0.30747
G1 X120.858 Y113.776 E0.01759
G1 X120.991 Y113.853 E0.00523
G1 X127.483 Y107.361 E0.31304
G1 X127.602 Y107.822 E0.01623
G1 X121.359 Y114.065 E0.30106
G1 X121.726 Y114.278 E0.01448
G1 X127.721 Y108.283 E0.28908
G1 X127.840 Y108.743 E0.01623
G1 X122.094 Y114.490 E0.27709
G1 X122.462 Y114.702 E0.01448
G1 X127.959 Y109.204 E0.26511
M73 Q3 S29
G1 X128.079 Y109.665 E0.01623
G1 X122.829 Y114.914 E0.25313
M73 P3 R29
G1 X123.197 Y115.127 E0.01448
G1 X128.198 Y110.126 E0.24115
G1 X128.317 Y110.586 E0.01623
G1 X123.565 Y115.339 E0.22916
G1 X123.932 Y115.551 E0.01448
G1 X128.436 Y111.047 E0.21718
G1 X128.555 Y111.508 E0.01623
G1 X124.314 Y115.749 E0.20451
G1 X124.847 Y115.796 E0.01825
G1 X128.674 Y111.969 E0.18454
G1 X128.794 Y112.429 E0.01623
G1 X125.454 Y115.769 E0.16105
G1 X125.732 Y115.745 E0.00952
G1 X126.503 Y115.300 E0.03037
G1 X128.913 Y112.890 E0.11618
G1 X129.032 Y113.351 E0.01623
G1 X127.375 Y115.008 E0.07990
;LAYER_CHANGE
;Z:0.6
;HEIGHT:0.2
;BEFORE_LAYER_CHANGE
G92 E0.0
;0.6


;WIPE_START
G1 F8640.000
G1 X129.032 Y113.351 E-0.54106
G1 X128.913 Y112.890 E-0.10989
G1 X126.833 Y114.970 E-0.67905
;WIPE_END
G1 E-0.07000 F2100.000
G1 Z0.600 F10800.000
;AFTER_LAYER_CHANGE
;0.6
G1 Z0.800
G1 X127.131 Y119.180
G1 Z0.600
G1 E1.40000 F2100.000
;TYPE:Skirt
;WIDTH:0.42
G1 F1601
G1 X126.432 Y119.382 E0.02282
G1 X124.969 Y119.504 E0.04605
G1 X123.559 Y119.382 E0.04438
G1 X122.864 Y119.178 E0.02269
G1 X118.242 Y116.522 E0.16716
G1 X117.726 Y116.075 E0.02141
G1 X117.335 Y115.515 E0.02141
G1 X117.094 Y114.876 E0.02141
G1 X117.018 Y114.197 E0.02141
G1 X117.982 Y102.318 E0.37369
G1 X118.126 Y101.646 E0.02154
G1 X122.360 Y91.755 E0.33734
G1 X122.903 Y91.140 E0.02574
G1 X123.600 Y90.713 E0.02562
G1 X124.330 Y90.517 E0.02371
G1 X125.331 Y90.496 E0.03140
G1 X126.041 Y90.590 E0.02243
G1 X126.698 Y90.861 E0.02231
G1 X127.264 Y91.292 E0.02231
G1 X127.703 Y91.857 E0.02243
G1 X131.896 Y101.713 E0.33583
G1 X132.018 Y102.319 E0.01937
G1 X132.982 Y114.266 E0.37580
G1 X132.892 Y114.930 E0.02103
G1 X132.642 Y115.557 E0.02116
G1 X132.247 Y116.104 E0.02116
G1 X131.735 Y116.537 E0.02103
G1 X127.183 Y119.151 E0.16456
G1 X126.997 Y118.826 F10800.000
G1 F1601
G1 X126.369 Y119.010 E0.02051
G1 X124.970 Y119.127 E0.04402
G1 X123.627 Y119.011 E0.04227
G1 X123.011 Y118.831 E0.02012
G1 X118.477 Y116.225 E0.16398
G1 X118.021 Y115.840 E0.01870
G1 X117.676 Y115.353 E0.01870
G1 X117.463 Y114.796 E0.01870
G1 X117.395 Y114.204 E0.01870
G1 X118.357 Y102.353 E0.37278
G1 X118.475 Y101.792 E0.01799
G1 X122.660 Y91.985 E0.33433
G1 X123.138 Y91.435 E0.02284
G1 X123.760 Y91.055 E0.02284
G1 X124.399 Y90.889 E0.02071
G1 X125.331 Y90.873 E0.02922
G1 X125.952 Y90.957 E0.01965
G1 X126.527 Y91.198 E0.01953
G1 X127.021 Y91.582 E0.01965
G1 X127.396 Y92.080 E0.01953
G1 X131.544 Y101.852 E0.33286
G1 X131.643 Y102.355 E0.01609
G1 X132.605 Y114.263 E0.37456
G1 X132.524 Y114.846 E0.01846
G1 X132.305 Y115.388 E0.01835
G1 X131.959 Y115.861 E0.01835
G1 X131.506 Y116.236 E0.01846
G1 X127.049 Y118.796 E0.16114
;WIPE_START
G1 F8640.000
G1 X126.369 Y119.010 E-0.16455
G1 X124.970 Y119.127 E-0.32421
G1 X123.627 Y119.011 E-0.31128
G1 X123.011 Y118.831 E-0.14818
G1 X121.578 Y118.007 E-0.38178
;WIPE_END
G1 E-0.07000 F2100.000
G1 Z0.800 F10800.000
G1 X126.568 Y102.605
G1 Z0.600
G1 E1.40000 F2100.000
M204 S800
;TYPE:Perimeter
