; generated by PrusaSlicer 2.3.0+win64 on 2021-07-19 at 21:12:28 UTC

; 

; external perimeters extrusion width = 0.60mm
; perimeters extrusion width = 0.50mm
; infill extrusion width = 0.50mm
; solid infill extrusion width = 0.50mm
; top infill extrusion width = 0.45mm
; support material extrusion width = 0.38mm
; first layer extrusion width = 0.42mm

M73 P0 R126
M73 Q0 S127
M201 X1000 Y1000 Z200 E5000 ; sets maximum accelerations, mm/sec^2
M203 X200 Y200 Z12 E120 ; sets maximum feedrates, mm/sec
M204 P1250 R1250 T1250 ; sets acceleration (P, T) and retract acceleration (R), mm/sec^2
M205 X8.00 Y8.00 Z0.40 E4.50 ; sets the jerk limits, mm/sec
M205 S0 T0 ; sets the minimum extruding and travel feed rate, mm/sec
M107
;TYPE:Custom
M862.3 P "MK3S" ; printer model check
M862.1 P0.4 ; nozzle diameter check
M115 U3.9.1 ; tell printer latest fw version
G90 ; use absolute coordinates
M83 ; extruder relative mode
M104 S240 ; set extruder temp
M140 S85 ; set bed temp
M190 S85 ; wait for bed temp
M109 S240 ; wait for extruder temp
G28 W ; home all without mesh bed level
G80 ; mesh bed leveling
G1 Y-3.0 F1000.0 ; go outside print area
G92 E0.0
G1 X60.0 E9.0 F1000.0 ; intro line
G1 X100.0 E12.5 F1000.0 ; intro line
G92 E0.0
M221 S95

; Don't change E values below. Excessive value can damage the printer.

M907 E538 ; set extruder motor current
G21 ; set units to millimeters
G90 ; use absolute coordinates
M83 ; use relative distances for extrusion
M900 K0.08 ; Filament gcode LA 1.5
M900 K45 ; Filament gcode LA 1.0
;LAYER_CHANGE
;Z:0.2
;HEIGHT:0.2
;BEFORE_LAYER_CHANGE
G92 E0.0
;0.2


G1 E-1.40000 F2100.000
G1 Z0.200 F10800.000
;AFTER_LAYER_CHANGE
;0.2
G1 Z0.400
G1 X105.871 Y73.839
G1 Z0.200
G1 E1.40000 F2100.000
M204 S1000
;TYPE:Skirt
;WIDTH:0.42
G1 F1200.000
G1 X106.231 Y73.326 E0.01965
G1 X106.712 Y72.925 E0.01965
G1 X107.282 Y72.663 E0.01965
G1 X107.900 Y72.560 E0.01965
G1 X143.365 Y72.558 E1.11200
G1 X143.964 Y72.635 E0.01894
G1 X144.525 Y72.860 E0.01894
G1 X145.010 Y73.219 E0.01894
G1 X145.388 Y73.686 E0.01882
G1 X148.615 Y80.601 E0.23924
G1 X148.812 Y81.372 E0.02496
G1 X148.820 Y134.105 E1.65340
G1 X148.751 Y134.663 E0.01763
G1 X148.552 Y135.189 E0.01763
G1 X144.612 Y141.929 E0.24479
G1 X143.951 Y142.558 E0.02860
G1 X143.102 Y142.893 E0.02860
G1 X107.977 Y143.102 E1.10135
G1 X107.415 Y143.033 E0.01775
G1 X106.885 Y142.834 E0.01775
G1 X106.156 Y142.249 E0.02931
G1 X105.711 Y141.431 E0.02919
G1 X104.691 Y135.780 E0.18005
G1 X104.691 Y79.699 E1.75836
G1 X105.650 Y74.466 E0.16682
G1 X105.851 Y73.896 E0.01895
;WIPE_START
G1 F8640.000
G1 X106.231 Y73.326 E-0.15808
G1 X106.712 Y72.925 E-0.14470
G1 X107.282 Y72.663 E-0.14470
G1 X107.900 Y72.560 E-0.14470
G1 X111.095 Y72.559 E-0.73783
;WIPE_END
G1 E-0.07000 F2100.000
G1 Z0.400 F10800.000
G1 X107.981 Y78.726
G1 Z0.200
G1 E1.40000 F2100.000
;TYPE:Support material
G1 F1200.000
G1 X107.981 Y74.935 E0.11886
G1 X108.735 Y74.935 E0.02365
G1 X108.735 Y78.557 E0.11354
G1 X109.489 Y78.557 E0.02365
G1 X109.489 Y74.935 E0.11354
G1 X110.243 Y74.935 E0.02365
G1 X110.243 Y78.557 E0.11354
G1 X110.997 Y78.557 E0.02365
G1 X110.997 Y74.935 E0.11354
G1 X111.751 Y74.935 E0.02365
G1 X111.751 Y78.557 E0.11354
G1 X112.506 Y78.557 E0.02365
G1 X112.506 Y74.935 E0.11354
G1 X113.260 Y74.935 E0.02365
G1 X113.260 Y78.557 E0.11354
G1 X114.014 Y78.557 E0.02365
G1 X114.014 Y74.935 E0.11354
G1 X114.768 Y74.935 E0.02365
G1 X114.768 Y78.557 E0.11354
G1 X115.522 Y78.557 E0.02365
G1 X115.522 Y74.935 E0.11354
G1 X116.276 Y74.935 E0.02365
G1 X116.276 Y78.557 E0.11354
G1 X117.031 Y78.557 E0.02365
G1 X117.031 Y74.935 E0.11354
G1 X117.785 Y74.935 E0.02365
G1 X117.785 Y78.557 E0.11354
G1 X118.060 Y78.557 E0.00864
G1 X118.539 Y79.035 E0.02122
G1 X118.539 Y74.935 E0.12855
G1 X119.293 Y74.935 E0.02365
G1 X119.293 Y85.557 E0.33302
G1 X120.047 Y85.557 E0.02365
G1 X120.047 Y74.935 E0.33302
G1 X120.801 Y74.935 E0.02365
G1 X120.801 Y78.831 E0.12214
G1 X121.076 Y78.557 E0.01216
G1 X121.555 Y78.557 E0.01504
G1 X121.555 Y74.935 E0.11354
G1 X122.310 Y74.935 E0.02365
G1 X122.310 Y78.557 E0.11354
G1 X123.064 Y78.557 E0.02365
G1 X123.064 Y74.935 E0.11354
G1 X123.818 Y74.935 E0.02365
G1 X123.818 Y78.557 E0.11354
G1 X124.572 Y78.557 E0.02365
G1 X124.572 Y74.935 E0.11354
G1 X125.326 Y74.935 E0.02365
G1 X125.326 Y78.557 E0.11354
G1 X126.080 Y78.557 E0.02365
G1 X126.080 Y74.935 E0.11354
G1 X126.835 Y74.935 E0.02365
G1 X126.835 Y78.557 E0.11354
G1 X127.589 Y78.557 E0.02365
G1 X127.589 Y74.935 E0.11354
G1 X128.343 Y74.935 E0.02365
G1 X128.343 Y78.557 E0.11354
G1 X129.097 Y78.557 E0.02365
G1 X129.097 Y74.935 E0.11354
G1 X129.851 Y74.935 E0.02365
G1 X129.851 Y78.557 E0.11354
G1 X130.605 Y78.557 E0.02365
G1 X130.605 Y74.935 E0.11354
G1 X131.360 Y74.935 E0.02365
G1 X131.360 Y78.557 E0.11354
G1 X132.114 Y78.557 E0.02365
G1 X132.114 Y74.935 E0.11354
G1 X132.868 Y74.935 E0.02365
G1 X132.868 Y78.557 E0.11354
G1 X133.622 Y78.557 E0.02365
G1 X133.622 Y74.935 E0.11354
G1 X134.376 Y74.935 E0.02365
G1 X134.376 Y78.557 E0.11354
G1 X135.130 Y78.557 E0.02365
G1 X135.130 Y74.935 E0.11354
G1 X135.884 Y74.935 E0.02365
G1 X135.884 Y78.557 E0.11354
G1 X136.639 Y78.557 E0.02365
G1 X136.639 Y74.935 E0.11354
G1 X137.393 Y74.935 E0.02365
G1 X137.393 Y78.557 E0.11354
G1 X138.147 Y78.557 E0.02365
G1 X138.147 Y74.935 E0.11354
G1 X138.901 Y74.935 E0.02365
G1 X138.901 Y78.557 E0.11354
G1 X139.655 Y78.557 E0.02365
G1 X139.655 Y74.935 E0.11354
G1 X140.409 Y74.935 E0.02365
G1 X140.409 Y78.557 E0.11354
G1 X141.060 Y78.557 E0.02041
G1 X141.164 Y78.660 E0.00458
G1 X141.164 Y74.935 E0.11678
G1 X141.918 Y74.935 E0.02365
G1 X141.918 Y94.136 E0.60203
G1 X142.672 Y94.136 E0.02365
G1 X142.672 Y74.935 E0.60203
G1 X143.365 Y74.935 E0.02174
G1 X143.365 Y81.567 E0.20792
G1 X143.426 Y81.567 E0.00191
G1 X143.426 Y94.136 E0.39411
G1 X144.180 Y94.136 E0.02365
G1 X144.180 Y81.567 E0.39411
G1 X144.934 Y81.567 E0.02365
G1 X144.934 Y94.136 E0.39411
G1 X145.689 Y94.136 E0.02365
G1 X145.689 Y81.567 E0.39411
G1 X146.443 Y81.567 E0.02365
G1 X146.443 Y94.306 E0.39943
;WIPE_START
G1 F8640.000
G1 X146.443 Y88.546 E-1.33000
;WIPE_END
G1 E-0.07000 F2100.000
G1 Z0.400 F10800.000
G1 X110.243 Y119.726
G1 Z0.200
G1 E1.40000 F2100.000
G1 F1200.000
G1 X110.243 Y95.934 E0.74600
G1 X110.997 Y95.934 E0.02365
G1 X110.997 Y119.557 E0.74068
G1 X111.751 Y119.557 E0.02365
G1 X111.751 Y95.934 E0.74068
G1 X112.506 Y95.934 E0.02365
G1 X112.506 Y119.557 E0.74068
M73 Q0 S126
G1 X113.260 Y119.557 E0.02365
G1 X113.260 Y95.934 E0.74068
G1 X114.014 Y95.934 E0.02365
G1 X114.014 Y119.557 E0.74068
G1 X114.768 Y119.557 E0.02365
G1 X114.768 Y95.934 E0.74068
G1 X115.522 Y95.934 E0.02365
G1 X115.522 Y119.557 E0.74068
G1 X116.276 Y119.557 E0.02365
G1 X116.276 Y95.934 E0.74068
M73 P0 R125
G1 X117.031 Y95.934 E0.02365
G1 X117.031 Y119.557 E0.74068
G1 X117.785 Y119.557 E0.02365
G1 X117.785 Y95.934 E0.74068
G1 X118.539 Y95.934 E0.02365
G1 X118.539 Y119.557 E0.74068
G1 X119.293 Y119.557 E0.02365
G1 X119.293 Y95.934 E0.74068
G1 X120.047 Y95.934 E0.02365
G1 X120.047 Y119.557 E0.74068
G1 X120.801 Y119.557 E0.02365
G1 X120.801 Y95.934 E0.74068
G1 X121.555 Y95.934 E0.02365
G1 X121.555 Y119.557 E0.74068
G1 X122.310 Y119.557 E0.02365
G1 X122.310 Y95.934 E0.74068
G1 X123.064 Y95.934 E0.02365
G1 X123.064 Y119.557 E0.74068
G1 X123.818 Y119.557 E0.02365
G1 X123.818 Y95.934 E0.74068
G1 X124.572 Y95.934 E0.02365
G1 X124.572 Y119.557 E0.74068
G1 X125.326 Y119.557 E0.02365
G1 X125.326 Y95.934 E0.74068
G1 X126.080 Y95.934 E0.02365
G1 X126.080 Y119.557 E0.74068
G1 X126.835 Y119.557 E0.02365
G1 X126.835 Y95.934 E0.74068
G1 X127.589 Y95.934 E0.02365
G1 X127.589 Y119.557 E0.74068
G1 X128.343 Y119.557 E0.02365
G1 X128.343 Y95.934 E0.74068
G1 X129.097 Y95.934 E0.02365
G1 X129.097 Y119.557 E0.74068
G1 X129.851 Y119.557 E0.02365
G1 X129.851 Y95.934 E0.74068
G1 X130.560 Y95.934 E0.02223
G1 X130.605 Y95.888 E0.00200
G1 X130.605 Y119.602 E0.74351
G1 X131.256 Y120.253 E0.02887
G1 X131.256 Y127.307 E0.22117
G1 X131.360 Y127.307 E0.00323
G1 X131.360 Y88.184 E1.22667
G1 X132.114 Y88.184 E0.02365
G1 X132.114 Y127.307 E1.22667
G1 X132.868 Y127.307 E0.02365
G1 X132.868 Y88.184 E1.22667
M73 P1 R125
M73 Q1 S126
G1 X133.622 Y88.184 E0.02365
G1 X133.622 Y127.307 E1.22667
G1 X134.376 Y127.307 E0.02365
G1 X134.376 Y88.184 E1.22667
G1 X135.130 Y88.184 E0.02365
G1 X135.130 Y127.307 E1.22667
G1 X135.884 Y127.307 E0.02365
G1 X135.884 Y88.184 E1.22667
G1 X136.639 Y88.184 E0.02365
G1 X136.639 Y127.476 E1.23199
;WIPE_START
G1 F8640.000
G1 X136.639 Y121.716 E-1.33000
;WIPE_END
G1 E-0.07000 F2100.000
G1 Z0.400 F10800.000
G1 X146.443 Y134.093
G1 Z0.200
G1 E1.40000 F2100.000
G1 F1200.000
G1 X146.443 Y121.354 E0.39943
G1 X145.689 Y121.354 E0.02365
G1 X145.689 Y133.924 E0.39411
G1 X144.934 Y133.924 E0.02365
G1 X144.934 Y121.354 E0.39411
G1 X144.180 Y121.354 E0.02365
G1 X144.180 Y133.924 E0.39411
G1 X143.426 Y133.924 E0.02365
G1 X143.426 Y121.354 E0.39411
G1 X142.672 Y121.354 E0.02365
G1 X142.672 Y140.555 E0.60203
G1 X141.918 Y140.555 E0.02365
G1 X141.918 Y121.354 E0.60203
G1 X141.756 Y121.354 E0.00506
G1 X141.756 Y136.237 E0.46666
G1 X141.164 Y136.830 E0.02629
G1 X141.164 Y140.555 E0.11678
G1 X140.409 Y140.555 E0.02365
G1 X140.409 Y136.934 E0.11354
G1 X139.655 Y136.934 E0.02365
G1 X139.655 Y140.555 E0.11354
G1 X138.901 Y140.555 E0.02365
G1 X138.901 Y136.934 E0.11354
G1 X138.147 Y136.934 E0.02365
G1 X138.147 Y140.555 E0.11354
G1 X137.393 Y140.555 E0.02365
G1 X137.393 Y136.934 E0.11354
G1 X136.639 Y136.934 E0.02365
G1 X136.639 Y140.555 E0.11354
G1 X135.884 Y140.555 E0.02365
G1 X135.884 Y136.934 E0.11354
G1 X135.130 Y136.934 E0.02365
G1 X135.130 Y140.555 E0.11354
G1 X134.376 Y140.555 E0.02365
G1 X134.376 Y136.934 E0.11354
G1 X133.622 Y136.934 E0.02365
G1 X133.622 Y140.555 E0.11354
G1 X132.868 Y140.555 E0.02365
G1 X132.868 Y136.934 E0.11354
G1 X132.114 Y136.934 E0.02365
G1 X132.114 Y140.555 E0.11354
G1 X131.360 Y140.555 E0.02365
G1 X131.360 Y136.934 E0.11354
G1 X130.605 Y136.934 E0.02365
G1 X130.605 Y140.555 E0.11354
G1 X129.851 Y140.555 E0.02365
G1 X129.851 Y136.934 E0.11354
G1 X129.097 Y136.934 E0.02365
G1 X129.097 Y140.555 E0.11354
G1 X128.343 Y140.555 E0.02365
G1 X128.343 Y136.934 E0.11354
G1 X127.589 Y136.934 E0.02365
G1 X127.589 Y140.555 E0.11354
G1 X126.835 Y140.555 E0.02365
G1 X126.835 Y136.934 E0.11354
G1 X126.080 Y136.934 E0.02365
G1 X126.080 Y140.555 E0.11354
G1 X125.326 Y140.555 E0.02365
G1 X125.326 Y136.934 E0.11354
G1 X124.572 Y136.934 E0.02365
G1 X124.572 Y140.555 E0.11354
G1 X123.818 Y140.555 E0.02365
G1 X123.818 Y136.934 E0.11354
G1 X123.064 Y136.934 E0.02365
G1 X123.064 Y140.555 E0.11354
G1 X122.310 Y140.555 E0.02365
G1 X122.310 Y136.934 E0.11354
G1 X121.555 Y136.934 E0.02365
G1 X121.555 Y140.555 E0.11354
G1 X120.801 Y140.555 E0.02365
G1 X120.801 Y136.659 E0.12214
G1 X120.379 Y136.237 E0.01871
G1 X120.379 Y129.934 E0.19765
M73 Q1 S125
G1 X120.047 Y129.934 E0.01042
G1 X120.047 Y140.555 E0.33302
G1 X119.293 Y140.555 E0.02365
G1 X119.293 Y129.934 E0.33302
G1 X118.756 Y129.934 E0.01682
G1 X118.756 Y136.237 E0.19765
G1 X118.539 Y136.455 E0.00965
G1 X118.539 Y140.555 E0.12855
G1 X117.785 Y140.555 E0.02365
G1 X117.785 Y136.934 E0.11354
G1 X117.031 Y136.934 E0.02365
G1 X117.031 Y140.555 E0.11354
G1 X116.276 Y140.555 E0.02365
G1 X116.276 Y136.934 E0.11354
G1 X115.522 Y136.934 E0.02365
G1 X115.522 Y140.555 E0.11354
G1 X114.768 Y140.555 E0.02365
G1 X114.768 Y136.934 E0.11354
G1 X114.014 Y136.934 E0.02365
G1 X114.014 Y140.555 E0.11354
G1 X113.260 Y140.555 E0.02365
G1 X113.260 Y136.934 E0.11354
G1 X112.506 Y136.934 E0.02365
G1 X112.506 Y140.555 E0.11354
G1 X111.751 Y140.555 E0.02365
G1 X111.751 Y136.934 E0.11354
G1 X110.997 Y136.934 E0.02365
G1 X110.997 Y140.555 E0.11354
G1 X110.243 Y140.555 E0.02365
G1 X110.243 Y136.934 E0.11354
G1 X109.489 Y136.934 E0.02365
G1 X109.489 Y140.555 E0.11354
G1 X108.735 Y140.555 E0.02365
G1 X108.735 Y136.934 E0.11354
G1 X107.981 Y136.934 E0.02365
G1 X107.981 Y140.724 E0.11886
;WIPE_START
G1 F8640.000
G1 X107.981 Y136.934 E-0.87533
G1 X108.735 Y136.934 E-0.17414
G1 X108.735 Y138.149 E-0.28053
;WIPE_END
G1 E-0.07000 F2100.000
G1 Z0.400 F10800.000
G1 X107.981 Y134.958
G1 Z0.200
G1 E1.40000 F2100.000
;TYPE:Perimeter
G1 F1200.000
G1 X107.855 Y134.958 E0.00394
G1 X107.855 Y121.532 E0.42096
M73 P1 R124
G1 X129.281 Y121.532 E0.67179
G1 X129.281 Y129.282 E0.24300
G1 X139.355 Y129.282 E0.31587
G1 X139.355 Y86.208 E1.35056
G1 X129.281 Y86.208 E0.31587
G1 X129.281 Y93.958 E0.24300
G1 X107.855 Y93.958 E0.67179
G1 X107.855 Y80.532 E0.42096
G1 X116.781 Y80.532 E0.27986
G1 X116.781 Y87.532 E0.21948
G1 X122.355 Y87.532 E0.17477
G1 X122.355 Y80.532 E0.21948
G1 X139.781 Y80.532 E0.54638
G1 X139.781 Y134.958 E1.70648
G1 X122.355 Y134.958 E0.54638
G1 X122.355 Y127.958 E0.21948
G1 X116.781 Y127.958 E0.17477
G1 X116.781 Y134.958 E0.21948
G1 X108.041 Y134.958 E0.27404
;WIPE_START
G1 F8640.000
G1 X107.855 Y134.958 E-0.04285
G1 X107.855 Y129.384 E-1.28715
;WIPE_END
G1 E-0.07000 F2100.000
G1 Z0.400 F10800.000
G1 X108.408 Y121.155
G1 Z0.200
G1 E1.40000 F2100.000
;TYPE:External perimeter
G1 F1200.000
G1 X108.408 Y94.335 E0.84092
G1 X129.658 Y94.335 E0.66628
G1 X129.658 Y86.585 E0.24300
G1 X138.978 Y86.585 E0.29222
G1 X138.978 Y128.905 E1.32691
G1 X129.658 Y128.905 E0.29222
G1 X129.658 Y121.155 E0.24300
G1 X108.468 Y121.155 E0.66440
G1 X108.011 Y121.109 F10800.000
;WIPE_START
G1 F8640.000
G1 X108.455 Y115.395 E-1.33000
;WIPE_END
G1 E-0.07000 F2100.000
G1 Z0.400 F10800.000
G1 X117.158 Y87.155
G1 Z0.200
G1 E1.40000 F2100.000
G1 F1200.000
G1 X121.978 Y87.155 E0.15113
G1 X121.978 Y80.155 E0.21948
G1 X140.158 Y80.155 E0.57002
G1 X140.158 Y135.335 E1.73013
G1 X121.978 Y135.335 E0.57002
G1 X121.978 Y128.335 E0.21948
G1 X117.158 Y128.335 E0.15113
G1 X117.158 Y135.335 E0.21948
G1 X107.478 Y135.335 E0.30351
G1 X107.478 Y80.155 E1.73013
G1 X117.158 Y80.155 E0.30351
G1 X117.158 Y87.095 E0.21760
G1 X117.282 Y87.535 F10800.000
;WIPE_START
G1 F8640.000
G1 X121.978 Y87.155 E-1.11304
G1 X121.978 Y86.215 E-0.21696
;WIPE_END
G1 E-0.07000 F2100.000
G1 Z0.400 F10800.000
G1 X107.943 Y94.147
G1 Z0.200
G1 E1.40000 F2100.000
;TYPE:Gap fill
;WIDTH:0.595842
G1 F1200.000
G1 X107.943 Y121.344 E1.25040
;WIPE_START
G1 F8640.000
G1 X107.943 Y115.584 E-1.33000
;WIPE_END
G1 E-0.07000 F2100.000
G1 Z0.400 F10800.000
G1 X139.668 Y81.409
G1 Z0.200
G1 E1.40000 F2100.000
;TYPE:Solid infill
;WIDTH:0.420517
G1 F1200.000
G1 X139.074 Y80.815 E0.02636
G1 X138.540 Y80.815 E0.01677
G1 X139.498 Y81.773 E0.04254
G1 X139.498 Y82.307 E0.01677
G1 X138.006 Y80.815 E0.06625
G1 X137.472 Y80.815 E0.01677
G1 X139.498 Y82.841 E0.08996
G1 X139.498 Y83.375 E0.01677
G1 X136.938 Y80.815 E0.11367
G1 X136.404 Y80.815 E0.01677
G1 X139.498 Y83.909 E0.13738
G1 X139.498 Y84.443 E0.01677
G1 X135.870 Y80.815 E0.16109
G1 X135.336 Y80.815 E0.01677
G1 X139.498 Y84.977 E0.18480
G1 X139.498 Y85.511 E0.01677
G1 X134.802 Y80.815 E0.20852
G1 X134.268 Y80.815 E0.01677
G1 X139.378 Y85.925 E0.22691
G1 X138.844 Y85.925 E0.01677
G1 X133.734 Y80.815 E0.22691
G1 X133.200 Y80.815 E0.01677
G1 X138.310 Y85.925 E0.22691
G1 X137.776 Y85.925 E0.01677
G1 X132.666 Y80.815 E0.22691
G1 X132.132 Y80.815 E0.01677
G1 X137.242 Y85.925 E0.22691
G1 X136.708 Y85.925 E0.01677
G1 X131.598 Y80.815 E0.22691
G1 X131.064 Y80.815 E0.01677
G1 X136.174 Y85.925 E0.22691
G1 X135.640 Y85.925 E0.01677
G1 X130.530 Y80.815 E0.22691
G1 X129.996 Y80.815 E0.01677
G1 X135.106 Y85.925 E0.22691
G1 X134.572 Y85.925 E0.01677
G1 X129.462 Y80.815 E0.22691
G1 X128.928 Y80.815 E0.01677
G1 X134.038 Y85.925 E0.22691
G1 X133.504 Y85.925 E0.01677
G1 X128.394 Y80.815 E0.22691
G1 X127.860 Y80.815 E0.01677
G1 X132.970 Y85.925 E0.22691
G1 X132.436 Y85.925 E0.01677
G1 X127.326 Y80.815 E0.22691
G1 X126.792 Y80.815 E0.01677
G1 X131.902 Y85.925 E0.22691
G1 X131.368 Y85.925 E0.01677
G1 X126.258 Y80.815 E0.22691
G1 X125.724 Y80.815 E0.01677
G1 X130.834 Y85.925 E0.22691
G1 X130.300 Y85.925 E0.01677
G1 X125.190 Y80.815 E0.22691
M73 P2 R124
G1 X124.656 Y80.815 E0.01677
G1 X129.766 Y85.925 E0.22691
M73 Q2 S125
G1 X129.232 Y85.925 E0.01677
G1 X124.122 Y80.815 E0.22691
G1 X123.588 Y80.815 E0.01677
