; generated by PrusaSlicer 2.3.0+win64 on 2021-07-18 at 04:29:34 UTC

; 

; external perimeters extrusion width = 0.45mm
; perimeters extrusion width = 0.45mm
; infill extrusion width = 0.45mm
; solid infill extrusion width = 0.45mm
; top infill extrusion width = 0.40mm
; first layer extrusion width = 0.42mm

M73 P0 R33
M73 Q0 S33
M201 X1000 Y1000 Z200 E5000 ; sets maximum accelerations, mm/sec^2
M203 X200 Y200 Z12 E120 ; sets maximum feedrates, mm/sec
M204 P1250 R1250 T1250 ; sets acceleration (P, T) and retract acceleration (R), mm/sec^2
M205 X8.00 Y8.00 Z0.40 E4.50 ; sets the jerk limits, mm/sec
M205 S0 T0 ; sets the minimum extruding and travel feed rate, mm/sec
M107
;TYPE:Custom
M862.3 P "MK3S" ; printer model check
M862.1 P0.4 ; nozzle diameter check
M115 U3.9.1 ; tell printer latest fw version
G90 ; use absolute coordinates
M83 ; extruder relative mode
M104 S240 ; set extruder temp
M140 S85 ; set bed temp
M190 S85 ; wait for bed temp
M109 S240 ; wait for extruder temp
G28 W ; home all without mesh bed level
G80 ; mesh bed leveling
G1 Y-3.0 F1000.0 ; go outside print area
G92 E0.0
G1 X60.0 E9.0 F1000.0 ; intro line
G1 X100.0 E12.5 F1000.0 ; intro line
G92 E0.0
M221 S95

; Don't change E values below. Excessive value can damage the printer.

M907 E538 ; set extruder motor current
G21 ; set units to millimeters
G90 ; use absolute coordinates
M83 ; use relative distances for extrusion
M900 K0.08 ; Filament gcode LA 1.5
M900 K45 ; Filament gcode LA 1.0
;LAYER_CHANGE
;Z:0.2
;HEIGHT:0.2
;BEFORE_LAYER_CHANGE
G92 E0.0
;0.2


G1 E-1.40000 F2100.000
G1 Z0.200 F10800.000
;AFTER_LAYER_CHANGE
;0.2
G1 Z0.400
G1 X126.737 Y90.899
G1 Z0.200
G1 E1.40000 F2100.000
M204 S1000
;TYPE:Skirt
;WIDTH:0.42
G1 F1200.000
G1 X127.536 Y91.334 E0.02854
G1 X128.150 Y92.007 E0.02854
G1 X128.510 Y92.843 E0.02854
G1 X131.861 Y115.148 E0.70723
G1 X131.752 Y115.831 E0.02167
G1 X131.478 Y116.461 E0.02154
G1 X131.055 Y117.007 E0.02167
G1 X130.509 Y117.430 E0.02167
G1 X125.853 Y119.118 E0.15526
G1 X124.912 Y119.252 E0.02980
G1 X124.116 Y119.107 E0.02536
G1 X119.944 Y117.645 E0.13862
G1 X119.419 Y117.386 E0.01835
G1 X118.869 Y116.928 E0.02243
G1 X118.458 Y116.348 E0.02231
G1 X118.208 Y115.677 E0.02243
G1 X118.139 Y114.969 E0.02231
G1 X121.540 Y92.665 E0.70742
G1 X121.772 Y92.137 E0.01809
G1 X122.111 Y91.665 E0.01822
G1 X122.542 Y91.275 E0.01822
G1 X123.041 Y90.986 E0.01809
G1 X123.931 Y90.757 E0.02879
G1 X125.840 Y90.747 E0.05987
G1 X126.678 Y90.889 E0.02665
G1 X126.616 Y91.256 F10800.000
G1 F1200.000
G1 X127.315 Y91.640 E0.02500
G1 X127.842 Y92.226 E0.02473
G1 X128.150 Y92.956 E0.02484
G1 X131.484 Y115.139 E0.70333
G1 X131.387 Y115.735 E0.01894
G1 X131.143 Y116.288 E0.01894
G1 X130.768 Y116.761 E0.01894
G1 X130.285 Y117.124 E0.01894
G1 X125.737 Y118.759 E0.15153
G1 X124.923 Y118.875 E0.02579
G1 X124.236 Y118.750 E0.02190
G1 X119.657 Y117.090 E0.15270
G1 X119.169 Y116.697 E0.01965
G1 X118.801 Y116.190 E0.01965
G1 X118.578 Y115.604 E0.01965
G1 X118.516 Y114.981 E0.01965
G1 X121.892 Y92.803 E0.70337
G1 X122.096 Y92.328 E0.01621
G1 X122.396 Y91.912 E0.01609
G1 X122.782 Y91.567 E0.01621
G1 X123.233 Y91.314 E0.01621
G1 X123.992 Y91.130 E0.02449
G1 X125.840 Y91.124 E0.05795
G1 X126.556 Y91.246 E0.02279
;WIPE_START
G1 F8640.000
G1 X127.315 Y91.640 E-0.19729
G1 X127.842 Y92.226 E-0.18209
G1 X128.150 Y92.956 E-0.18296
G1 X128.644 Y96.244 E-0.76766
;WIPE_END
G1 E-0.07000 F2100.000
G1 Z0.400 F10800.000
G1 X125.095 Y96.831
G1 Z0.200
G1 E1.40000 F2100.000
;TYPE:Perimeter
G1 F1200.000
G1 X128.217 Y114.537 E0.56374
G1 X125.000 Y115.665 E0.10688
G1 X121.783 Y114.537 E0.10688
G1 X124.905 Y96.831 E0.56374
G1 X125.035 Y96.831 E0.00407
;WIPE_START
G1 F8640.000
G1 X126.054 Y102.500 E-1.33000
;WIPE_END
G1 E-0.07000 F2100.000
G1 Z0.400 F10800.000
G1 X125.426 Y93.911
G1 Z0.200
G1 E1.40000 F2100.000
;TYPE:External perimeter
G1 F1200.000
G1 X125.426 Y96.537 E0.08233
G1 X128.644 Y114.787 E0.58106
G1 X125.000 Y116.065 E0.12106
G1 X121.356 Y114.787 E0.12106
G1 X124.574 Y96.537 E0.58105
M73 Q1 S33
G1 X124.574 Y93.911 E0.08233
G1 X125.366 Y93.911 E0.02483
M73 P1 R33
G1 X125.384 Y94.309 F10800.000
G1 X125.000 Y94.100
;TYPE:Gap fill
;WIDTH:0.517864
G1 F1200.000
G1 X125.000 Y96.642 E0.10041
G1 X125.000 Y97.498 F10800.000
;WIDTH:0.140121
G1 F1200.000
G1 X125.000 Y97.663 E0.00133
;WIDTH:0.186921
G1 X125.000 Y97.827 E0.00197
;WIDTH:0.233722
G1 X125.000 Y97.991 E0.00261
;WIDTH:0.280522
G1 X125.000 Y98.156 E0.00325
;WIDTH:0.327322
G1 X125.000 Y98.320 E0.00389
;WIDTH:0.374122
G1 X125.000 Y98.485 E0.00453
;WIDTH:0.420922
G1 X125.000 Y98.649 E0.00517
;WIDTH:0.467723
G1 X125.000 Y98.814 E0.00581
G1 X124.638 Y98.997 F10800.000
;TYPE:Solid infill
;WIDTH:0.427633
G1 F1200.000
G1 X125.308 Y99.667 E0.03030
G1 X125.424 Y100.327 E0.02146
G1 X124.703 Y99.606 E0.03263
G1 X124.621 Y100.068 E0.01502
G1 X125.541 Y100.988 E0.04159
G1 X125.657 Y101.648 E0.02146
G1 X124.540 Y100.531 E0.05054
G1 X124.458 Y100.993 E0.01502
G1 X125.774 Y102.309 E0.05950
G1 X125.890 Y102.969 E0.02146
G1 X124.377 Y101.456 E0.06846
G1 X124.295 Y101.918 E0.01502
G1 X126.007 Y103.630 E0.07742
G1 X126.123 Y104.290 E0.02146
G1 X124.214 Y102.381 E0.08638
G1 X124.132 Y102.843 E0.01502
G1 X126.239 Y104.951 E0.09533
G1 X126.356 Y105.611 E0.02146
G1 X124.051 Y103.306 E0.10429
G1 X123.969 Y103.768 E0.01502
G1 X126.472 Y106.272 E0.11325
G1 X126.589 Y106.932 E0.02146
G1 X123.887 Y104.231 E0.12221
G1 X123.806 Y104.694 E0.01502
G1 X126.705 Y107.593 E0.13116
G1 X126.822 Y108.253 E0.02146
G1 X123.724 Y105.156 E0.14012
G1 X123.643 Y105.619 E0.01502
G1 X126.938 Y108.914 E0.14908
G1 X127.055 Y109.574 E0.02146
G1 X123.561 Y106.081 E0.15804
G1 X123.480 Y106.544 E0.01502
G1 X127.171 Y110.235 E0.16699
G1 X127.288 Y110.895 E0.02146
G1 X123.398 Y107.006 E0.17595
G1 X123.317 Y107.469 E0.01502
G1 X127.404 Y111.556 E0.18491
G1 X127.520 Y112.216 E0.02146
G1 X123.235 Y107.931 E0.19387
G1 X123.154 Y108.394 E0.01502
G1 X127.637 Y112.877 E0.20282
G1 X127.753 Y113.538 E0.02146
G1 X123.072 Y108.856 E0.21178
G1 X122.990 Y109.319 E0.01502
G1 X127.870 Y114.198 E0.22074
G1 X127.897 Y114.350 E0.00493
G1 X127.586 Y114.459 E0.01052
G1 X122.909 Y109.781 E0.21161
G1 X122.827 Y110.244 E0.01502
G1 X127.184 Y114.600 E0.19707
G1 X126.781 Y114.741 E0.01366
G1 X122.746 Y110.706 E0.18253
G1 X122.664 Y111.169 E0.01502
G1 X126.378 Y114.882 E0.16800
G1 X125.975 Y115.024 E0.01366
G1 X122.583 Y111.631 E0.15346
G1 X122.501 Y112.094 E0.01502
G1 X125.572 Y115.165 E0.13893
G1 X125.169 Y115.306 E0.01366
G1 X122.420 Y112.556 E0.12439
G1 X122.338 Y113.019 E0.01502
G1 X124.514 Y115.195 E0.09845
G1 X123.677 Y114.901 E0.02840
G1 X122.257 Y113.481 E0.06424
G1 X122.175 Y113.944 E0.01502
G1 X123.116 Y114.885 E0.04256
;LAYER_CHANGE
;Z:0.35
;HEIGHT:0.15
;BEFORE_LAYER_CHANGE
G92 E0.0
;0.35


;WIPE_START
G1 F8640.000
G1 X122.175 Y113.944 E-0.30718
G1 X122.257 Y113.481 E-0.10844
G1 X123.677 Y114.901 E-0.46370
G1 X124.514 Y115.195 E-0.20497
G1 X123.762 Y114.443 E-0.24570
;WIPE_END
G1 E-0.07000 F2100.000
G1 Z0.400 F10800.000
;AFTER_LAYER_CHANGE
;0.35
M104 S250 ; set temperature
M140 S90 ; set bed temperature
G1 X124.912 Y119.252
G1 Z0.350
G1 E1.40000 F2100.000
;TYPE:Skirt
;WIDTH:0.42
G1 F1206
G1 X124.116 Y119.107 E0.01956
G1 X119.944 Y117.645 E0.10692
G1 X119.419 Y117.386 E0.01415
G1 X118.869 Y116.928 E0.01730
G1 X118.458 Y116.348 E0.01721
G1 X118.208 Y115.677 E0.01730
G1 X118.139 Y114.969 E0.01721
G1 X121.540 Y92.665 E0.54566
G1 X121.772 Y92.137 E0.01396
G1 X122.111 Y91.665 E0.01405
G1 X122.542 Y91.275 E0.01405
G1 X123.041 Y90.986 E0.01396
G1 X123.931 Y90.757 E0.02221
G1 X125.840 Y90.747 E0.04618
G1 X126.737 Y90.899 E0.02201
G1 X127.536 Y91.334 E0.02201
G1 X128.150 Y92.007 E0.02201
G1 X128.510 Y92.843 E0.02201
G1 X131.861 Y115.148 E0.54552
G1 X131.752 Y115.831 E0.01671
G1 X131.478 Y116.461 E0.01662
G1 X131.055 Y117.007 E0.01671
G1 X130.509 Y117.430 E0.01671
G1 X125.853 Y119.118 E0.11976
G1 X124.971 Y119.243 E0.02154
G1 X124.923 Y118.875 F10800.000
G1 F1206
G1 X124.236 Y118.750 E0.01689
G1 X119.657 Y117.090 E0.11778
G1 X119.169 Y116.697 E0.01516
G1 X118.801 Y116.190 E0.01516
G1 X118.578 Y115.604 E0.01516
G1 X118.516 Y114.981 E0.01516
G1 X121.892 Y92.803 E0.54254
G1 X122.096 Y92.328 E0.01250
G1 X122.396 Y91.912 E0.01241
G1 X122.782 Y91.567 E0.01250
G1 X123.233 Y91.314 E0.01250
G1 X123.992 Y91.130 E0.01889
G1 X125.840 Y91.124 E0.04470
G1 X126.621 Y91.257 E0.01916
G1 X127.315 Y91.640 E0.01916
G1 X127.842 Y92.226 E0.01907
G1 X128.150 Y92.956 E0.01916
G1 X131.484 Y115.139 E0.54251
G1 X131.387 Y115.735 E0.01461
G1 X131.143 Y116.288 E0.01461
G1 X130.768 Y116.761 E0.01461
G1 X130.285 Y117.124 E0.01461
G1 X125.737 Y118.759 E0.11688
G1 X124.982 Y118.866 E0.01844
;WIPE_START
G1 F8640.000
G1 X124.236 Y118.750 E-0.17444
G1 X119.657 Y117.090 E-1.12452
G1 X119.553 Y117.006 E-0.03104
;WIPE_END
G1 E-0.07000 F2100.000
G1 Z0.550 F10800.000
G1 X125.000 Y115.818
G1 Z0.350
G1 E1.40000 F2100.000
M204 S800
;TYPE:Perimeter
;WIDTH:0.45
G1 F1206
G1 X121.620 Y114.633 E0.09333
G1 X124.807 Y96.557 E0.47826
G1 X124.807 Y94.144 E0.06287
G1 X125.193 Y94.144 E0.01007
G1 X125.193 Y96.557 E0.06289
G1 X128.380 Y114.633 E0.47824
G1 X125.057 Y115.798 E0.09176
M204 S1000
G1 X125.000 Y116.261 F10800.000
M204 S800
;TYPE:External perimeter
G1 F1206
G1 X121.147 Y114.910 E0.10639
G1 X124.389 Y96.520 E0.48655
M73 P1 R32
M73 Q2 S33
G1 X124.389 Y93.726 E0.07280
G1 X125.611 Y93.726 E0.03184
M73 P2 R32
G1 X125.611 Y96.521 E0.07282
G1 X128.853 Y114.910 E0.48653
G1 X125.057 Y116.241 E0.10483
M204 S1000
G1 X124.710 Y115.985 F10800.000
;WIPE_START
G1 F8640.000
G1 X121.147 Y114.910 E-0.95367
G1 X121.430 Y113.305 E-0.37633
;WIPE_END
G1 E-0.07000 F2100.000
G1 Z0.550 F10800.000
G1 X126.905 Y115.017
G1 Z0.350
G1 E1.40000 F2100.000
;TYPE:Solid infill
;WIDTH:0.45798
G1 F1206
G1 X127.946 Y113.976 E0.03909
G1 X127.856 Y113.464 E0.01380
G1 X126.285 Y115.035 E0.05900
G1 X125.358 Y115.360 E0.02609
G1 X127.766 Y112.952 E0.09043
G1 X127.675 Y112.440 E0.01380
G1 X124.726 Y115.390 E0.11075
G1 X124.280 Y115.233 E0.01255
G1 X127.585 Y111.929 E0.12411
G1 X127.495 Y111.417 E0.01380
G1 X123.834 Y115.077 E0.13746
G1 X123.388 Y114.921 E0.01255
G1 X127.405 Y110.905 E0.15082
M73 Q2 S32
G1 X127.314 Y110.393 E0.01380
G1 X122.943 Y114.765 E0.16417
G1 X122.497 Y114.608 E0.01255
G1 X127.224 Y109.881 E0.17752
G1 X127.134 Y109.369 E0.01380
G1 X122.051 Y114.452 E0.19088
G1 X121.975 Y114.425 E0.00215
G1 X122.081 Y113.819 E0.01634
G1 X127.044 Y108.857 E0.18634
G1 X126.953 Y108.345 E0.01380
G1 X122.210 Y113.088 E0.17811
G1 X122.339 Y112.357 E0.01971
G1 X126.863 Y107.833 E0.16988
G1 X126.773 Y107.321 E0.01380
G1 X122.468 Y111.626 E0.16165
G1 X122.597 Y110.895 E0.01971
G1 X126.683 Y106.810 E0.15342
G1 X126.592 Y106.298 E0.01380
G1 X122.726 Y110.164 E0.14519
G1 X122.855 Y109.433 E0.01971
G1 X126.502 Y105.786 E0.13696
G1 X126.412 Y105.274 E0.01380
G1 X122.984 Y108.702 E0.12873
G1 X123.113 Y107.971 E0.01971
G1 X126.322 Y104.762 E0.12051
G1 X126.231 Y104.250 E0.01380
G1 X123.241 Y107.240 E0.11228
G1 X123.370 Y106.509 E0.01971
G1 X126.141 Y103.738 E0.10405
G1 X126.051 Y103.226 E0.01380
G1 X123.499 Y105.778 E0.09582
G1 X123.628 Y105.047 E0.01971
G1 X125.961 Y102.714 E0.08759
G1 X125.870 Y102.202 E0.01380
G1 X123.757 Y104.316 E0.07936
G1 X123.886 Y103.585 E0.01971
G1 X125.780 Y101.691 E0.07113
G1 X125.690 Y101.179 E0.01380
G1 X124.015 Y102.854 E0.06290
G1 X124.144 Y102.123 E0.01971
G1 X125.600 Y100.667 E0.05467
G1 X125.509 Y100.155 E0.01380
G1 X124.273 Y101.392 E0.04644
G1 X124.401 Y100.661 E0.01971
G1 X125.419 Y99.643 E0.03821
G1 X125.329 Y99.131 E0.01380
G1 X124.530 Y99.929 E0.02998
G1 X124.659 Y99.198 E0.01971
G1 X125.401 Y98.457 E0.02785
G1 X125.000 Y98.255 F10800.000
;TYPE:Gap fill
;WIDTH:0.502882
G1 F1206
G1 X125.000 Y98.093 E0.00477
;WIDTH:0.456583
G1
G1 X125.000 Y97.930 E0.00430
;WIDTH:0.410284
G1
G1 X125.000 Y97.768 E0.00383
;WIDTH:0.363985
G1
G1 X125.000 Y97.605 E0.00336
;WIDTH:0.317686
G1
G1 X125.000 Y97.443 E0.00289
;WIDTH:0.271387
G1
G1 X125.000 Y97.280 E0.00242
;WIDTH:0.225088
G1
G1 X125.000 Y97.118 E0.00195
;WIDTH:0.178788
G1
G1 X125.000 Y96.955 E0.00149
;WIDTH:0.132489
G1
G1 X125.000 Y96.793 E0.00102
;LAYER_CHANGE
;Z:0.5
;HEIGHT:0.15
;BEFORE_LAYER_CHANGE
G92 E0.0
;0.5


;WIPE_START
G1 F8640.000
G1 X125.000 Y96.955 E-0.03752
;WIPE_END
G1 E-1.36248 F2100.000
G1 Z0.550 F10800.000
;AFTER_LAYER_CHANGE
;0.5
G1 X121.540 Y92.665
G1 Z0.500
G1 E1.40000 F2100.000
;TYPE:Skirt
;WIDTH:0.42
G1 F1214
G1 X121.772 Y92.137 E0.01396
G1 X122.111 Y91.665 E0.01405
G1 X122.542 Y91.275 E0.01405
G1 X123.041 Y90.986 E0.01396
G1 X123.931 Y90.757 E0.02221
G1 X125.840 Y90.747 E0.04618
G1 X126.737 Y90.899 E0.02201
G1 X127.536 Y91.334 E0.02201
G1 X128.150 Y92.007 E0.02201
G1 X128.510 Y92.843 E0.02201
G1 X131.861 Y115.148 E0.54552
G1 X131.752 Y115.831 E0.01671
G1 X131.478 Y116.461 E0.01662
G1 X131.055 Y117.007 E0.01671
G1 X130.509 Y117.430 E0.01671
G1 X125.853 Y119.118 E0.11976
G1 X124.912 Y119.252 E0.02299
G1 X124.116 Y119.107 E0.01956
G1 X119.944 Y117.645 E0.10692
G1 X119.419 Y117.386 E0.01415
G1 X118.869 Y116.928 E0.01730
G1 X118.458 Y116.348 E0.01721
G1 X118.208 Y115.677 E0.01730
G1 X118.139 Y114.969 E0.01721
G1 X121.531 Y92.724 E0.54421
G1 X121.892 Y92.803 F10800.000
G1 F1214
G1 X122.096 Y92.328 E0.01250
G1 X122.396 Y91.912 E0.01241
G1 X122.782 Y91.567 E0.01250
G1 X123.233 Y91.314 E0.01250
G1 X123.992 Y91.130 E0.01889
G1 X125.840 Y91.124 E0.04470
G1 X126.621 Y91.257 E0.01916
G1 X127.315 Y91.640 E0.01916
G1 X127.842 Y92.226 E0.01907
G1 X128.150 Y92.956 E0.01916
G1 X131.484 Y115.139 E0.54251
G1 X131.387 Y115.735 E0.01461
G1 X131.143 Y116.288 E0.01461
G1 X130.768 Y116.761 E0.01461
G1 X130.285 Y117.124 E0.01461
G1 X125.737 Y118.759 E0.11688
G1 X124.923 Y118.875 E0.01989
G1 X124.236 Y118.750 E0.01689
G1 X119.657 Y117.090 E0.11778
G1 X119.169 Y116.697 E0.01516
G1 X118.801 Y116.190 E0.01516
G1 X118.578 Y115.604 E0.01516
G1 X118.516 Y114.981 E0.01516
G1 X121.883 Y92.862 E0.54109
;WIPE_START
G1 F8640.000
G1 X122.096 Y92.328 E-0.13283
G1 X122.396 Y91.912 E-0.11850
G1 X122.782 Y91.567 E-0.11938
G1 X123.233 Y91.314 E-0.11938
G1 X123.992 Y91.130 E-0.18036
G1 X125.840 Y91.124 E-0.42674
G1 X126.621 Y91.257 E-0.18296
G1 X126.810 Y91.362 E-0.04986
;WIPE_END
G1 E-0.07000 F2100.000
G1 Z0.700 F10800.000
G1 X124.807 Y94.144
G1 Z0.500
G1 E1.40000 F2100.000
M204 S800
;TYPE:Perimeter
;WIDTH:0.45
G1 F1214
G1 X125.193 Y94.144 E0.01007
G1 X125.193 Y96.557 E0.06287
G1 X128.380 Y114.633 E0.47826
G1 X125.000 Y115.818 E0.09333
G1 X121.620 Y114.633 E0.09333
G1 X124.807 Y96.557 E0.47824
M73 Q3 S32
G1 X124.807 Y94.204 E0.06133
M204 S1000
G1 X124.389 Y93.726 F10800.000
M204 S800
;TYPE:External perimeter
G1 F1214
G1 X125.611 Y93.726 E0.03184
M73 P3 R32
G1 X125.611 Y96.520 E0.07280
G1 X128.853 Y114.910 E0.48655
G1 X125.000 Y116.261 E0.10639
G1 X121.147 Y114.910 E0.10639
G1 X124.389 Y96.521 E0.48653
G1 X124.389 Y93.786 E0.07126
M204 S1000
G1 X124.725 Y93.943 F10800.000
;WIPE_START
G1 F8640.000
G1 X125.611 Y93.726 E-0.28250
G1 X125.611 Y96.520 E-0.64517
G1 X125.914 Y98.236 E-0.40232
;WIPE_END
G1 E-0.07000 F2100.000
G1 Z0.700 F10800.000
G1 X125.000 Y96.793
G1 Z0.500
G1 E1.40000 F2100.000
;TYPE:Gap fill
;WIDTH:0.132489
G1 F1214
G1 X125.000 Y96.955 E0.00102
;WIDTH:0.178788
G1
G1 X125.000 Y97.118 E0.00149
;WIDTH:0.225087
G1
G1 X125.000 Y97.280 E0.00195
;WIDTH:0.271385
G1
G1 X125.000 Y97.443 E0.00242
;WIDTH:0.317684
G1
G1 X125.000 Y97.605 E0.00289
;WIDTH:0.363983
G1
G1 X125.000 Y97.768 E0.00336
;WIDTH:0.410282
G1
G1 X125.000 Y97.930 E0.00383
;WIDTH:0.456581
G1
G1 X125.000 Y98.093 E0.00430
;WIDTH:0.502879
G1
G1 X125.000 Y98.255 E0.00477
;WIPE_START
G1 F8640.000
G1 X125.000 Y98.093 E-0.03752
;WIPE_END
G1 E-1.36248 F2100.000
G1 Z0.700 F10800.000
G1 X125.573 Y99.431
G1 Z0.500
G1 E1.40000 F2100.000
;TYPE:Solid infill
;WIDTH:0.457975
G1 F1214
G1 X124.761 Y98.619 E0.03046
G1 X124.671 Y99.131 E0.01380
G1 X125.470 Y99.930 E0.02999
G1 X125.599 Y100.661 E0.01971
G1 X124.581 Y99.643 E0.03822
G1 X124.491 Y100.155 E0.01380
G1 X125.727 Y101.392 E0.04644
G1 X125.856 Y102.123 E0.01971
G1 X124.400 Y100.667 E0.05467
G1 X124.310 Y101.179 E0.01380
