; generated by PrusaSlicer 2.3.0+win64 on 2021-07-20 at 01:56:20 UTC

; 

; external perimeters extrusion width = 0.45mm
; perimeters extrusion width = 0.45mm
; infill extrusion width = 0.45mm
; solid infill extrusion width = 0.45mm
; top infill extrusion width = 0.40mm
; first layer extrusion width = 0.42mm

M73 P0 R32
M73 Q0 S33
M201 X1000 Y1000 Z200 E5000 ; sets maximum accelerations, mm/sec^2
M203 X200 Y200 Z12 E120 ; sets maximum feedrates, mm/sec
M204 P1250 R1250 T1250 ; sets acceleration (P, T) and retract acceleration (R), mm/sec^2
M205 X8.00 Y8.00 Z0.40 E4.50 ; sets the jerk limits, mm/sec
M205 S0 T0 ; sets the minimum extruding and travel feed rate, mm/sec
M107
;TYPE:Custom
M862.3 P "MK3S" ; printer model check
M862.1 P0.4 ; nozzle diameter check
M115 U3.9.1 ; tell printer latest fw version
G90 ; use absolute coordinates
M83 ; extruder relative mode
M104 S240 ; set extruder temp
M140 S85 ; set bed temp
M190 S85 ; wait for bed temp
M109 S240 ; wait for extruder temp
G28 W ; home all without mesh bed level
G80 ; mesh bed leveling
G1 Y-3.0 F1000.0 ; go outside print area
G92 E0.0
G1 X60.0 E9.0 F1000.0 ; intro line
M73 Q0 S32
G1 X100.0 E12.5 F1000.0 ; intro line
G92 E0.0
M221 S95

; Don't change E values below. Excessive value can damage the printer.
M907 E430 ; set extruder motor current
G21 ; set units to millimeters
G90 ; use absolute coordinates
M83 ; use relative distances for extrusion
M900 K0.08 ; Filament gcode LA 1.5
M900 K45 ; Filament gcode LA 1.0
;LAYER_CHANGE
;Z:0.2
;HEIGHT:0.2
;BEFORE_LAYER_CHANGE
G92 E0.0
;0.2


G1 E-1.40000 F2100.000
G1 Z0.200 F10800.000
;AFTER_LAYER_CHANGE
;0.2
G1 Z0.400
G1 X143.912 Y94.020
G1 Z0.200
G1 E1.40000 F2100.000
M204 S1000
;TYPE:Skirt
;WIDTH:0.42
G1 F1200.000
G1 X144.411 Y93.192 E0.03031
G1 X152.220 Y85.259 E0.34903
G1 X152.738 Y84.873 E0.02026
G1 X153.332 Y84.617 E0.02026
G1 X153.899 Y84.512 E0.01809
G1 X154.773 Y84.504 E0.02742
G1 X155.315 Y84.558 E0.01707
G1 X155.835 Y84.718 E0.01707
G1 X156.314 Y84.978 E0.01707
G1 X156.731 Y85.325 E0.01703
G1 X164.481 Y93.201 E0.34644
G1 X164.986 Y94.058 E0.03119
G1 X165.153 Y95.039 E0.03119
G1 X162.364 Y108.812 E0.44060
G1 X162.051 Y109.623 E0.02727
G1 X161.669 Y110.134 E0.02001
G1 X161.179 Y110.543 E0.02001
G1 X156.716 Y113.121 E0.16160
G1 X155.928 Y113.381 E0.02600
G1 X154.409 Y113.512 E0.04783
G1 X152.948 Y113.382 E0.04598
G1 X152.162 Y113.117 E0.02600
G1 X147.701 Y110.541 E0.16152
G1 X147.209 Y110.128 E0.02014
G1 X146.826 Y109.612 E0.02014
G1 X146.520 Y108.812 E0.02689
G1 X143.785 Y95.549 E0.42460
G1 X143.731 Y94.970 E0.01822
G1 X143.901 Y94.079 E0.02843
G1 X144.268 Y94.150 F10800.000
G1 F1200.000
G1 X144.707 Y93.426 E0.02656
G1 X152.481 Y85.531 E0.34740
G1 X152.939 Y85.192 E0.01787
G1 X153.465 Y84.971 E0.01787
G1 X153.952 Y84.886 E0.01550
G1 X154.773 Y84.881 E0.02576
G1 X155.689 Y85.066 E0.02931
G1 X156.463 Y85.590 E0.02929
G1 X164.184 Y93.434 E0.34510
G1 X164.628 Y94.179 E0.02720
G1 X164.776 Y95.033 E0.02720
G1 X161.996 Y108.731 E0.43824
G1 X161.734 Y109.419 E0.02308
G1 X161.397 Y109.873 E0.01775
G1 X160.964 Y110.233 E0.01763
G1 X156.543 Y112.786 E0.16007
G1 X155.854 Y113.011 E0.02272
G1 X154.414 Y113.135 E0.04533
G1 X153.028 Y113.013 E0.04363
G1 X152.340 Y112.785 E0.02272
G1 X147.919 Y110.233 E0.16005
G1 X147.484 Y109.870 E0.01775
G1 X147.148 Y109.414 E0.01775
G1 X146.888 Y108.730 E0.02296
G1 X144.155 Y95.477 E0.42427
G1 X144.108 Y94.974 E0.01585
G1 X144.256 Y94.209 E0.02441
;WIPE_START
G1 F8640.000
G1 X144.707 Y93.426 E-0.20868
G1 X148.114 Y89.966 E-1.12132
;WIPE_END
G1 E-0.07000 F2100.000
G1 Z0.400 F10800.000
G1 X147.858 Y94.732
G1 Z0.200
G1 E1.40000 F2100.000
;TYPE:Perimeter
G1 F1200.000
G1 X154.442 Y88.047 E0.29418
G1 X161.026 Y94.732 E0.29418
G1 X158.463 Y95.819 E0.08728
G1 X155.821 Y96.502 E0.08556
G1 X158.758 Y107.857 E0.36775
G1 X155.220 Y109.900 E0.12808
G1 X154.442 Y109.968 E0.02450
G1 X153.664 Y109.900 E0.02450
G1 X150.126 Y107.857 E0.12808
G1 X153.063 Y96.502 E0.36775
G1 X150.421 Y95.819 E0.08556
G1 X147.913 Y94.755 E0.08540
;WIPE_START
G1 F8640.000
G1 X151.931 Y90.628 E-1.33000
;WIPE_END
G1 E-0.07000 F2100.000
G1 Z0.400 F10800.000
G1 X156.281 Y96.773
G1 Z0.200
G1 E1.40000 F2100.000
;TYPE:External perimeter
G1 F1200.000
G1 X159.195 Y108.040 E0.36492
M73 P1 R32
M73 Q1 S32
G1 X155.336 Y110.268 E0.13970
G1 X154.442 Y110.346 E0.02815
G1 X153.548 Y110.268 E0.02815
G1 X149.689 Y108.040 E0.13970
G1 X152.603 Y96.773 E0.36492
G1 X150.299 Y96.177 E0.07461
G1 X147.200 Y94.862 E0.10555
G1 X154.286 Y87.668 E0.31662
G1 X154.598 Y87.668 E0.00976
G1 X161.684 Y94.862 E0.31662
G1 X158.585 Y96.177 E0.10555
G1 X156.339 Y96.757 E0.07273
G1 X155.897 Y96.884 F10800.000
;WIPE_START
G1 F8640.000
G1 X157.752 Y102.341 E-1.33000
;WIPE_END
G1 E-0.07000 F2100.000
G1 Z0.400 F10800.000
G1 X154.321 Y88.331
G1 Z0.200
G1 E1.40000 F2100.000
;TYPE:Solid infill
;WIDTH:0.42599
G1 F1200.000
G1 X160.533 Y94.634 E0.28186
G1 X160.216 Y94.768 E0.01096
G1 X154.172 Y88.724 E0.27225
G1 X153.903 Y88.997 E0.01220
G1 X159.835 Y94.929 E0.26722
G1 X159.455 Y95.091 E0.01316
G1 X153.634 Y89.270 E0.26220
G1 X153.366 Y89.543 E0.01220
G1 X159.075 Y95.252 E0.25717
G1 X158.694 Y95.413 E0.01316
G1 X153.097 Y89.816 E0.25214
G1 X152.828 Y90.089 E0.01220
G1 X158.306 Y95.567 E0.24677
G1 X157.876 Y95.678 E0.01416
G1 X152.559 Y90.362 E0.23949
G1 X152.290 Y90.635 E0.01220
G1 X157.445 Y95.790 E0.23221
G1 X157.015 Y95.901 E0.01416
G1 X152.021 Y90.908 E0.22493
G1 X151.753 Y91.181 E0.01220
G1 X156.584 Y96.012 E0.21765
G1 X156.154 Y96.124 E0.01416
G1 X151.484 Y91.454 E0.21037
G1 X151.215 Y91.726 E0.01220
G1 X155.724 Y96.235 E0.20309
G1 X155.477 Y96.299 E0.00812
G1 X155.557 Y96.611 E0.01025
G1 X150.946 Y91.999 E0.20771
G1 X150.677 Y92.272 E0.01220
G1 X155.746 Y97.341 E0.22834
G1 X155.935 Y98.072 E0.02404
G1 X150.409 Y92.545 E0.24896
G1 X150.140 Y92.818 E0.01220
G1 X156.124 Y98.803 E0.26958
G1 X156.313 Y99.533 E0.02404
G1 X149.871 Y93.091 E0.29020
G1 X149.602 Y93.364 E0.01220
G1 X152.233 Y95.995 E0.11853
G1 X151.503 Y95.806 E0.02404
G1 X149.333 Y93.637 E0.09772
G1 X149.064 Y93.910 E0.01220
G1 X150.772 Y95.617 E0.07692
G1 X150.512 Y95.550 E0.00856
G1 X149.906 Y95.293 E0.02096
G1 X148.796 Y94.183 E0.05002
G1 X148.527 Y94.456 E0.01220
G1 X149.285 Y95.214 E0.03417
;WIPE_START
G1 F8640.000
G1 X148.527 Y94.456 E-0.24771
G1 X148.796 Y94.183 E-0.08845
G1 X149.906 Y95.293 E-0.36259
G1 X150.512 Y95.550 E-0.15197
G1 X150.772 Y95.617 E-0.06202
G1 X149.494 Y94.340 E-0.41726
;WIPE_END
G1 E-0.07000 F2100.000
G1 Z0.400 F10800.000
G1 X153.089 Y96.851
G1 Z0.200
G1 E1.40000 F2100.000
G1 F1200.000
G1 X156.502 Y100.264 E0.15375
G1 X156.691 Y100.995 E0.02404
G1 X153.117 Y97.421 E0.16100
G1 X153.006 Y97.851 E0.01416
G1 X156.880 Y101.726 E0.17453
G1 X157.069 Y102.456 E0.02404
G1 X152.894 Y98.282 E0.18805
G1 X152.783 Y98.712 E0.01416
G1 X157.258 Y103.187 E0.20158
G1 X157.447 Y103.918 E0.02404
G1 X152.672 Y99.142 E0.21511
G1 X152.561 Y99.573 E0.01416
G1 X157.636 Y104.648 E0.22864
G1 X157.825 Y105.379 E0.02404
G1 X152.449 Y100.003 E0.24216
G1 X152.338 Y100.434 E0.01416
G1 X158.014 Y106.110 E0.25569
G1 X158.203 Y106.841 E0.02404
G1 X152.227 Y100.864 E0.26922
G1 X152.115 Y101.295 E0.01416
G1 X158.392 Y107.571 E0.28274
G1 X158.430 Y107.720 E0.00489
G1 X158.157 Y107.878 E0.01007
G1 X152.004 Y101.725 E0.27716
G1 X151.893 Y102.155 E0.01416
G1 X157.813 Y108.076 E0.26670
G1 X157.470 Y108.274 E0.01263
G1 X151.781 Y102.586 E0.25625
G1 X151.670 Y103.016 E0.01416
G1 X157.126 Y108.473 E0.24579
G1 X156.783 Y108.671 E0.01263
G1 X151.559 Y103.447 E0.23533
G1 X151.447 Y103.877 E0.01416
G1 X156.439 Y108.869 E0.22488
G1 X156.096 Y109.068 E0.01263
G1 X151.336 Y104.308 E0.21442
M73 Q2 S32
G1 X151.225 Y104.738 E0.01416
G1 X155.753 Y109.266 E0.20396
M73 P2 R32
G1 X155.409 Y109.464 E0.01263
G1 X151.113 Y105.168 E0.19351
G1 X151.002 Y105.599 E0.01416
G1 X155.035 Y109.632 E0.18168
G1 X154.537 Y109.676 E0.01593
G1 X150.891 Y106.029 E0.16425
G1 X150.779 Y106.460 E0.01416
G1 X153.962 Y109.642 E0.14335
G1 X153.751 Y109.623 E0.00674
G1 X152.924 Y109.146 E0.03040
G1 X150.668 Y106.890 E0.10163
G1 X150.557 Y107.321 E0.01416
G1 X152.106 Y108.870 E0.06979
;LAYER_CHANGE
;Z:0.4
;HEIGHT:0.2
;BEFORE_LAYER_CHANGE
G92 E0.0
;0.4


;WIPE_START
G1 F8640.000
G1 X150.557 Y107.321 E-0.50592
G1 X150.668 Y106.890 E-0.10266
G1 X152.877 Y109.099 E-0.72142
;WIPE_END
G1 E-0.07000 F2100.000
G1 Z0.400 F10800.000
;AFTER_LAYER_CHANGE
;0.4
M104 S250 ; set temperature
M140 S90 ; set bed temperature
G1 Z0.600
G1 X165.153 Y95.039
G1 Z0.400
G1 E1.40000 F2100.000
;TYPE:Skirt
;WIDTH:0.42
G1 F1995
G1 X162.364 Y108.812 E0.44060
G1 X162.051 Y109.623 E0.02727
G1 X161.669 Y110.134 E0.02001
G1 X161.179 Y110.543 E0.02001
G1 X156.716 Y113.121 E0.16160
G1 X155.928 Y113.381 E0.02600
G1 X154.409 Y113.512 E0.04783
G1 X152.948 Y113.382 E0.04598
G1 X152.162 Y113.117 E0.02600
G1 X147.701 Y110.541 E0.16152
G1 X147.209 Y110.128 E0.02014
G1 X146.826 Y109.612 E0.02014
G1 X146.520 Y108.812 E0.02689
G1 X143.785 Y95.549 E0.42460
G1 X143.731 Y94.970 E0.01822
G1 X143.912 Y94.020 E0.03031
G1 X144.411 Y93.192 E0.03031
G1 X152.220 Y85.259 E0.34903
G1 X152.738 Y84.873 E0.02026
G1 X153.332 Y84.617 E0.02026
G1 X153.899 Y84.512 E0.01809
G1 X154.773 Y84.504 E0.02742
G1 X155.315 Y84.558 E0.01707
G1 X155.835 Y84.718 E0.01707
G1 X156.314 Y84.978 E0.01707
G1 X156.731 Y85.325 E0.01703
G1 X164.481 Y93.201 E0.34644
G1 X164.986 Y94.058 E0.03119
G1 X165.143 Y94.980 E0.02931
G1 X164.776 Y95.033 F10800.000
G1 F1995
G1 X161.996 Y108.731 E0.43824
G1 X161.734 Y109.419 E0.02308
G1 X161.397 Y109.873 E0.01775
G1 X160.964 Y110.233 E0.01763
G1 X156.543 Y112.786 E0.16007
G1 X155.854 Y113.011 E0.02272
G1 X154.414 Y113.135 E0.04533
G1 X153.028 Y113.013 E0.04363
G1 X152.340 Y112.785 E0.02272
G1 X147.919 Y110.233 E0.16005
G1 X147.484 Y109.870 E0.01775
G1 X147.148 Y109.414 E0.01775
G1 X146.888 Y108.730 E0.02296
G1 X144.155 Y95.477 E0.42427
G1 X144.108 Y94.974 E0.01585
G1 X144.269 Y94.144 E0.02649
G1 X144.707 Y93.426 E0.02637
G1 X152.481 Y85.531 E0.34740
G1 X152.939 Y85.192 E0.01787
G1 X153.465 Y84.971 E0.01787
G1 X153.952 Y84.886 E0.01550
G1 X154.773 Y84.881 E0.02576
G1 X155.689 Y85.066 E0.02931
G1 X156.463 Y85.590 E0.02929
G1 X164.184 Y93.434 E0.34510
G1 X164.628 Y94.179 E0.02720
G1 X164.766 Y94.974 E0.02531
;WIPE_START
G1 F8640.000
G1 X163.629 Y100.621 E-1.33000
;WIPE_END
G1 E-0.07000 F2100.000
G1 Z0.600 F10800.000
G1 X161.296 Y94.785
G1 Z0.400
G1 E1.40000 F2100.000
M204 S800
;TYPE:Perimeter
;WIDTH:0.45
G1 F1995
G1 X158.513 Y95.966 E0.10234
G1 X156.010 Y96.613 E0.08751
G1 X158.938 Y107.932 E0.39575
G1 X155.268 Y110.051 E0.14343
G1 X154.442 Y110.123 E0.02807
G1 X153.616 Y110.051 E0.02807
G1 X149.946 Y107.932 E0.14343
G1 X152.874 Y96.613 E0.39575
G1 X150.371 Y95.966 E0.08751
G1 X147.588 Y94.785 E0.10234
G1 X154.379 Y87.890 E0.32761
G1 X154.505 Y87.890 E0.00424
G1 X161.254 Y94.743 E0.32558
M204 S1000
;WIPE_START
G1 F8640.000
G1 X158.513 Y95.966 E-0.69312
G1 X156.010 Y96.613 E-0.59693
G1 X156.054 Y96.781 E-0.03995
;WIPE_END
G1 E-0.07000 F2100.000
G1 Z0.600 F10800.000
G1 X156.506 Y96.905
G1 Z0.400
G1 E1.40000 F2100.000
M204 S800
;TYPE:External perimeter
G1 F1500.000
G1 X159.409 Y108.130 E0.39245
G1 X155.393 Y110.449 E0.15696
G1 X154.442 Y110.532 E0.03233
G1 X153.491 Y110.449 E0.03233
G1 X149.475 Y108.130 E0.15696
G1 X152.378 Y96.905 E0.39245
G1 X150.240 Y96.352 E0.07475
G1 X146.877 Y94.926 E0.12363
G1 X154.209 Y87.483 E0.35365
G1 X154.675 Y87.483 E0.01578
G1 X162.007 Y94.926 E0.35365
G1 X158.644 Y96.352 E0.12363
G1 X156.564 Y96.890 E0.07272
M204 S1000
G1 X156.122 Y97.017 F10800.000
;WIPE_START
G1 F8640.000
G1 X157.978 Y102.474 E-1.33000
;WIPE_END
G1 E-0.07000 F2100.000
G1 Z0.600 F10800.000
G1 X152.384 Y98.993
G1 Z0.400
G1 E1.40000 F2100.000
;TYPE:Solid infill
;WIDTH:0.451853
G1 F1995
G1 X158.746 Y92.631 E0.30591
G1 X158.459 Y92.340 E0.01391
G1 X152.841 Y97.958 E0.27014
G1 X153.043 Y97.177 E0.02740
G1 X158.172 Y92.048 E0.24664
G1 X157.885 Y91.757 E0.01391
G1 X153.245 Y96.397 E0.22314
G1 X152.788 Y96.276 E0.01607
G1 X157.598 Y91.466 E0.23129
G1 X157.311 Y91.174 E0.01391
G1 X152.329 Y96.157 E0.23959
G1 X151.869 Y96.038 E0.01614
G1 X157.024 Y90.883 E0.24789
G1 X156.737 Y90.592 E0.01391
G1 X151.410 Y95.919 E0.25618
G1 X150.950 Y95.800 E0.01614
G1 X156.450 Y90.300 E0.26448
G1 X156.163 Y90.009 E0.01391
G1 X150.491 Y95.682 E0.27277
G1 X150.082 Y95.512 E0.01504
G1 X155.876 Y89.718 E0.27862
G1 X155.589 Y89.426 E0.01391
G1 X149.676 Y95.340 E0.28435
G1 X149.270 Y95.167 E0.01500
G1 X155.302 Y89.135 E0.29008
G1 X155.015 Y88.844 E0.01391
G1 X148.864 Y94.995 E0.29581
G1 X148.458 Y94.823 E0.01500
G1 X154.858 Y88.423 E0.30777
;WIPE_START
G1 F8640.000
G1 X150.785 Y92.496 E-1.33000
;WIPE_END
G1 E-0.07000 F2100.000
G1 Z0.600 F10800.000
G1 X160.884 Y94.541
G1 Z0.400
G1 E1.40000 F2100.000
G1 F1995
G1 X160.733 Y94.693 E0.00730
G1 X159.728 Y95.119 E0.03709
G1 X160.468 Y94.379 E0.03556
G1 X160.181 Y94.088 E0.01391
G1 X158.724 Y95.545 E0.07005
G1 X158.415 Y95.676 E0.01143
G1 X157.875 Y95.815 E0.01895
G1 X159.894 Y93.797 E0.09708
G1 X159.607 Y93.505 E0.01391
G1 X157.095 Y96.017 E0.12079
G1 X156.315 Y96.219 E0.02740
G1 X159.320 Y93.214 E0.14451
G1 X159.033 Y92.923 E0.01391
G1 X152.438 Y99.518 E0.31714
G1 X152.236 Y100.298 E0.02740
G1 X155.741 Y96.793 E0.16855
M73 Q3 S32
G1 X155.860 Y97.252 E0.01614
G1 X152.034 Y101.078 E0.18397
G1 X151.833 Y101.858 E0.02740
G1 X155.979 Y97.712 E0.19938
M73 P3 R32
G1 X156.098 Y98.171 E0.01614
G1 X151.631 Y102.638 E0.21480
G1 X151.429 Y103.418 E0.02740
G1 X156.217 Y98.631 E0.23021
G1 X156.335 Y99.090 E0.01614
G1 X151.228 Y104.198 E0.24563
G1 X151.026 Y104.978 E0.02740
G1 X156.454 Y99.550 E0.26104
M73 P3 R31
G1 X156.573 Y100.009 E0.01614
G1 X150.824 Y105.758 E0.27646
G1 X150.622 Y106.538 E0.02740
G1 X156.692 Y100.469 E0.29187
G1 X156.811 Y100.928 E0.01614
G1 X150.421 Y107.318 E0.30729
G1 X150.300 Y107.784 E0.01637
G1 X150.448 Y107.869 E0.00580
G1 X156.930 Y101.387 E0.31170
G1 X157.048 Y101.847 E0.01614
G1 X150.814 Y108.081 E0.29978
G1 X151.181 Y108.293 E0.01440
G1 X157.167 Y102.306 E0.28787
G1 X157.286 Y102.766 E0.01614
G1 X151.548 Y108.504 E0.27595
M73 Q3 S31
G1 X151.914 Y108.716 E0.01440
G1 X157.405 Y103.225 E0.26403
G1 X157.524 Y103.685 E0.01614
G1 X152.281 Y108.928 E0.25212
G1 X152.648 Y109.139 E0.01440
G1 X157.643 Y104.144 E0.24020
G1 X157.761 Y104.604 E0.01614
G1 X153.014 Y109.351 E0.22828
G1 X153.381 Y109.563 E0.01440
G1 X157.880 Y105.063 E0.21637
G1 X157.999 Y105.523 E0.01614
G1 X153.764 Y109.758 E0.20364
G1 X154.296 Y109.804 E0.01815
G1 X158.118 Y105.982 E0.18378
G1 X158.237 Y106.442 E0.01614
G1 X154.902 Y109.777 E0.16037
G1 X155.174 Y109.753 E0.00929
G1 X155.955 Y109.302 E0.03066
G1 X158.356 Y106.901 E0.11545
G1 X158.474 Y107.361 E0.01614
G1 X156.823 Y109.013 E0.07943
;LAYER_CHANGE
;Z:0.6
;HEIGHT:0.2
;BEFORE_LAYER_CHANGE
G92 E0.0
;0.6


;WIPE_START
G1 F8640.000
G1 X158.474 Y107.361 E-0.53937
G1 X158.356 Y106.901 E-0.10959
G1 X156.270 Y108.987 E-0.68104
;WIPE_END
G1 E-0.07000 F2100.000
G1 Z0.600 F10800.000
;AFTER_LAYER_CHANGE
;0.6
G1 Z0.800
G1 X165.153 Y95.039
G1 Z0.600
G1 E1.40000 F2100.000
;TYPE:Skirt
;WIDTH:0.42
G1 F1996
G1 X162.364 Y108.812 E0.44060
G1 X162.051 Y109.623 E0.02727
G1 X161.669 Y110.134 E0.02001
G1 X161.179 Y110.543 E0.02001
G1 X156.716 Y113.121 E0.16160
G1 X155.928 Y113.381 E0.02600
G1 X154.409 Y113.512 E0.04783
G1 X152.948 Y113.382 E0.04598
G1 X152.162 Y113.117 E0.02600
G1 X147.701 Y110.541 E0.16152
G1 X147.209 Y110.128 E0.02014
G1 X146.826 Y109.612 E0.02014
G1 X146.520 Y108.812 E0.02689
G1 X143.785 Y95.549 E0.42460
G1 X143.731 Y94.970 E0.01822
G1 X143.912 Y94.020 E0.03031
G1 X144.411 Y93.192 E0.03031
G1 X152.220 Y85.259 E0.34903
G1 X152.738 Y84.873 E0.02026
G1 X153.332 Y84.617 E0.02026
G1 X153.899 Y84.512 E0.01809
G1 X154.773 Y84.504 E0.02742
G1 X155.315 Y84.558 E0.01707
G1 X155.835 Y84.718 E0.01707
G1 X156.314 Y84.978 E0.01707
G1 X156.731 Y85.325 E0.01703
G1 X164.481 Y93.201 E0.34644
G1 X164.986 Y94.058 E0.03119
G1 X165.143 Y94.980 E0.02931
G1 X164.776 Y95.033 F10800.000
G1 F1996
G1 X161.996 Y108.731 E0.43824
G1 X161.734 Y109.419 E0.02308
G1 X161.397 Y109.873 E0.01775
