; generated by PrusaSlicer 2.3.0+win64 on 2021-08-21 at 02:17:54 UTC

; 

; external perimeters extrusion width = 0.45mm
; perimeters extrusion width = 0.45mm
; infill extrusion width = 0.45mm
; solid infill extrusion width = 0.45mm
; top infill extrusion width = 0.40mm
; support material extrusion width = 0.35mm
; first layer extrusion width = 0.42mm

M73 P0 R92
M73 Q0 S93
M201 X1000 Y1000 Z200 E5000 ; sets maximum accelerations, mm/sec^2
M203 X200 Y200 Z12 E120 ; sets maximum feedrates, mm/sec
M204 P1250 R1250 T1250 ; sets acceleration (P, T) and retract acceleration (R), mm/sec^2
M205 X8.00 Y8.00 Z0.40 E4.50 ; sets the jerk limits, mm/sec
M205 S0 T0 ; sets the minimum extruding and travel feed rate, mm/sec
M107
;TYPE:Custom
M862.3 P "MK3S" ; printer model check
M862.1 P0.4 ; nozzle diameter check
M115 U3.9.1 ; tell printer latest fw version
G90 ; use absolute coordinates
M83 ; extruder relative mode
M104 S215 ; set extruder temp
M140 S60 ; set bed temp
M190 S60 ; wait for bed temp
M109 S215 ; wait for extruder temp
G28 W ; home all without mesh bed level
G80 ; mesh bed leveling
G1 Y-3.0 F1000.0 ; go outside print area
G92 E0.0
G1 X60.0 E9.0 F1000.0 ; intro line
G1 X100.0 E12.5 F1000.0 ; intro line
G92 E0.0
M221 S95

; Don't change E values below. Excessive value can damage the printer.

M907 E538 ; set extruder motor current
G21 ; set units to millimeters
G90 ; use absolute coordinates
M83 ; use relative distances for extrusion
M900 K0.05 ; Filament gcode LA 1.5
M900 K30 ; Filament gcode LA 1.0
;LAYER_CHANGE
;Z:0.2
;HEIGHT:0.2
;BEFORE_LAYER_CHANGE
G92 E0.0
;0.2


G1 E-0.80000 F2100.000
G1 Z0.600 F10800.000
;AFTER_LAYER_CHANGE
;0.2
G1 X198.217 Y164.648
G1 Z0.200
G1 E0.80000 F2100.000
M204 S1000
;TYPE:Skirt
;WIDTH:0.42
G1 F1200.000
G1 X197.696 Y165.423 E0.02931
G1 X196.950 Y165.923 E0.02813
G1 X196.073 Y166.111 E0.02813
G1 X177.140 Y165.942 E0.59364
G1 X176.653 Y165.885 E0.01538
G1 X70.781 Y137.636 E3.43567
G1 X70.206 Y137.396 E0.01953
G1 X69.711 Y137.013 E0.01965
G1 X69.206 Y136.253 E0.02860
G1 X69.024 Y135.355 E0.02872
G1 X69.024 Y76.902 E1.83276
G1 X69.113 Y76.270 E0.02000
G1 X69.366 Y75.685 E0.02000
G1 X69.731 Y75.222 E0.01846
G1 X70.198 Y74.863 E0.01846
G1 X70.739 Y74.630 E0.01846
G1 X71.320 Y74.538 E0.01846
G1 X107.605 Y74.366 E1.13770
G1 X151.674 Y83.130 E1.40879
G1 X196.991 Y103.135 E1.55318
M73 Q0 S92
G1 X197.713 Y103.635 E0.02755
G1 X198.215 Y104.388 E0.02837
G1 X198.399 Y105.278 E0.02849
G1 X198.399 Y163.735 E1.83287
G1 X198.229 Y164.589 E0.02731
;WIPE_START
G1 F8640.000
G1 X197.696 Y165.423 E-0.22867
G1 X196.950 Y165.923 E-0.20719
G1 X196.073 Y166.111 E-0.20719
G1 X195.567 Y166.107 E-0.11694
;WIPE_END
G1 E-0.04000 F2100.000
G1 Z0.800 F10800.000
G1 X196.022 Y163.735
G1 Z0.200
M73 P0 R91
G1 E0.80000 F2100.000
;TYPE:Support material
G1 F1200.000
G1 X196.022 Y105.306 E1.83198
G1 X195.268 Y105.306 E0.02365
G1 X195.268 Y163.565 E1.82666
G1 X194.514 Y163.565 E0.02365
G1 X194.514 Y105.306 E1.82666
G1 X193.760 Y105.306 E0.02365
G1 X193.760 Y106.717 E0.04424
G1 X193.006 Y106.717 E0.02365
G1 X193.006 Y105.306 E0.04424
G1 X192.252 Y105.306 E0.02365
G1 X192.252 Y106.717 E0.04424
G1 X191.497 Y106.717 E0.02365
G1 X191.497 Y105.306 E0.04424
G1 X190.743 Y105.306 E0.02365
G1 X190.743 Y106.717 E0.04424
G1 X189.989 Y106.717 E0.02365
G1 X189.989 Y105.306 E0.04424
G1 X189.235 Y105.306 E0.02365
G1 X189.235 Y106.717 E0.04424
G1 X188.481 Y106.717 E0.02365
G1 X188.481 Y105.306 E0.04424
G1 X187.727 Y105.306 E0.02365
G1 X187.727 Y106.717 E0.04424
G1 X186.972 Y106.717 E0.02365
G1 X186.972 Y105.306 E0.04424
G1 X186.218 Y105.306 E0.02365
G1 X186.218 Y106.717 E0.04424
G1 X185.464 Y106.717 E0.02365
G1 X185.464 Y105.306 E0.04424
G1 X184.710 Y105.306 E0.02365
G1 X184.710 Y106.717 E0.04424
G1 X183.956 Y106.717 E0.02365
G1 X183.956 Y105.306 E0.04424
G1 X183.202 Y105.306 E0.02365
G1 X183.202 Y106.717 E0.04424
G1 X182.448 Y106.717 E0.02365
G1 X182.448 Y105.306 E0.04424
G1 X181.693 Y105.306 E0.02365
G1 X181.693 Y106.717 E0.04424
G1 X180.939 Y106.717 E0.02365
G1 X180.939 Y105.306 E0.04424
G1 X180.185 Y105.306 E0.02365
G1 X180.185 Y106.717 E0.04424
G1 X179.431 Y106.717 E0.02365
G1 X179.431 Y105.306 E0.04424
G1 X178.677 Y105.306 E0.02365
G1 X178.677 Y106.717 E0.04424
G1 X177.923 Y106.717 E0.02365
G1 X177.923 Y105.306 E0.04424
G1 X177.168 Y105.306 E0.02365
G1 X177.168 Y106.717 E0.04424
G1 X176.414 Y106.717 E0.02365
G1 X176.414 Y105.306 E0.04424
G1 X175.660 Y105.306 E0.02365
G1 X175.660 Y106.717 E0.04424
G1 X174.906 Y106.717 E0.02365
G1 X174.906 Y105.306 E0.04424
G1 X174.152 Y105.306 E0.02365
G1 X174.152 Y106.717 E0.04424
G1 X173.398 Y106.717 E0.02365
G1 X173.398 Y105.306 E0.04424
G1 X172.643 Y105.306 E0.02365
G1 X172.643 Y106.717 E0.04424
G1 X171.889 Y106.717 E0.02365
G1 X171.889 Y105.306 E0.04424
G1 X171.135 Y105.306 E0.02365
G1 X171.135 Y106.717 E0.04424
G1 X170.381 Y106.717 E0.02365
G1 X170.381 Y105.306 E0.04424
G1 X169.627 Y105.306 E0.02365
G1 X169.627 Y106.717 E0.04424
G1 X168.873 Y106.717 E0.02365
G1 X168.873 Y105.306 E0.04424
G1 X168.119 Y105.306 E0.02365
G1 X168.119 Y106.717 E0.04424
G1 X167.364 Y106.717 E0.02365
G1 X167.364 Y105.306 E0.04424
G1 X166.610 Y105.306 E0.02365
G1 X166.610 Y106.717 E0.04424
G1 X165.856 Y106.717 E0.02365
G1 X165.856 Y105.306 E0.04424
G1 X165.102 Y105.306 E0.02365
G1 X165.102 Y106.717 E0.04424
G1 X164.348 Y106.717 E0.02365
G1 X164.348 Y105.306 E0.04424
G1 X163.594 Y105.306 E0.02365
G1 X163.594 Y106.717 E0.04424
G1 X162.839 Y106.717 E0.02365
G1 X162.839 Y105.306 E0.04424
G1 X162.085 Y105.306 E0.02365
G1 X162.085 Y106.717 E0.04424
G1 X161.331 Y106.717 E0.02365
G1 X161.331 Y105.306 E0.04424
G1 X160.577 Y105.306 E0.02365
G1 X160.577 Y111.559 E0.19604
G1 X160.509 Y111.705 E0.00506
G1 X160.220 Y112.117 E0.01578
G1 X159.823 Y112.502 E0.01735
G1 X159.823 Y105.137 E0.23094
;WIPE_START
G1 F8640.000
G1 X159.823 Y108.428 E-0.76000
;WIPE_END
G1 E-0.04000 F2100.000
G1 Z0.800 F10800.000
G1 X162.839 Y108.136
G1 Z0.200
G1 E0.80000 F2100.000
G1 F1200.000
G1 X162.839 Y115.607 E0.23424
G1 X163.594 Y115.607 E0.02365
G1 X163.594 Y108.306 E0.22892
G1 X164.348 Y108.306 E0.02365
G1 X164.348 Y115.607 E0.22892
G1 X165.102 Y115.607 E0.02365
G1 X165.102 Y108.306 E0.22892
G1 X165.856 Y108.306 E0.02365
G1 X165.856 Y115.607 E0.22892
G1 X166.610 Y115.607 E0.02365
G1 X166.610 Y108.306 E0.22892
G1 X167.364 Y108.306 E0.02365
G1 X167.364 Y115.607 E0.22892
G1 X168.119 Y115.607 E0.02365
G1 X168.119 Y108.306 E0.22892
G1 X168.873 Y108.306 E0.02365
G1 X168.873 Y115.607 E0.22892
G1 X169.627 Y115.607 E0.02365
G1 X169.627 Y108.306 E0.22892
G1 X170.381 Y108.306 E0.02365
G1 X170.381 Y115.607 E0.22892
G1 X171.135 Y115.607 E0.02365
G1 X171.135 Y108.306 E0.22892
G1 X171.889 Y108.306 E0.02365
G1 X171.889 Y115.607 E0.22892
G1 X172.643 Y115.607 E0.02365
G1 X172.643 Y108.306 E0.22892
G1 X173.398 Y108.306 E0.02365
G1 X173.398 Y115.607 E0.22892
G1 X174.152 Y115.607 E0.02365
G1 X174.152 Y108.306 E0.22892
G1 X174.906 Y108.306 E0.02365
G1 X174.906 Y115.607 E0.22892
G1 X175.660 Y115.607 E0.02365
G1 X175.660 Y108.306 E0.22892
G1 X175.883 Y108.306 E0.00699
G1 X175.883 Y110.137 E0.05741
G1 X176.125 Y110.379 E0.01074
G1 X176.414 Y110.379 E0.00906
G1 X176.414 Y115.793 E0.16975
;WIPE_START
G1 F8640.000
G1 X176.414 Y112.502 E-0.76000
;WIPE_END
G1 E-0.04000 F2100.000
G1 Z0.800 F10800.000
G1 X153.789 Y139.877
G1 Z0.200
G1 E0.80000 F2100.000
G1 F1200.000
G1 X153.789 Y136.738 E0.09843
G1 X154.544 Y136.738 E0.02365
G1 X154.544 Y139.708 E0.09311
G1 X155.298 Y139.708 E0.02365
G1 X155.298 Y136.738 E0.09311
G1 X156.052 Y136.738 E0.02365
G1 X156.052 Y142.015 E0.16544
G1 X156.806 Y142.015 E0.02365
G1 X156.806 Y136.738 E0.16544
G1 X157.560 Y136.738 E0.02365
G1 X157.560 Y142.184 E0.17076
;WIPE_START
G1 F8640.000
G1 X157.560 Y138.893 E-0.76000
;WIPE_END
G1 E-0.04000 F2100.000
G1 Z0.800 F10800.000
G1 X162.085 Y133.760
G1 Z0.200
G1 E0.80000 F2100.000
G1 F1200.000
G1 X162.085 Y126.289 E0.23424
G1 X162.839 Y126.289 E0.02365
G1 X162.839 Y133.590 E0.22891
G1 X163.594 Y133.590 E0.02365
G1 X163.594 Y126.289 E0.22891
G1 X164.348 Y126.289 E0.02365
G1 X164.348 Y133.590 E0.22891
M73 P1 R91
M73 Q1 S92
G1 X165.102 Y133.590 E0.02365
G1 X165.102 Y126.289 E0.22891
G1 X165.856 Y126.289 E0.02365
G1 X165.856 Y133.590 E0.22891
G1 X166.610 Y133.590 E0.02365
G1 X166.610 Y126.289 E0.22891
G1 X167.364 Y126.289 E0.02365
G1 X167.364 Y133.590 E0.22891
G1 X168.118 Y133.590 E0.02365
G1 X168.119 Y126.289 E0.22891
G1 X168.873 Y126.289 E0.02365
G1 X168.873 Y133.590 E0.22891
G1 X169.627 Y133.590 E0.02365
G1 X169.627 Y126.289 E0.22891
G1 X170.381 Y126.289 E0.02365
G1 X170.381 Y133.590 E0.22891
G1 X171.135 Y133.590 E0.02365
G1 X171.135 Y126.289 E0.22891
G1 X171.889 Y126.289 E0.02365
G1 X171.889 Y133.590 E0.22891
G1 X172.643 Y133.590 E0.02365
G1 X172.643 Y126.289 E0.22891
G1 X173.398 Y126.289 E0.02365
G1 X173.398 Y133.590 E0.22891
G1 X174.152 Y133.590 E0.02365
G1 X174.152 Y126.289 E0.22891
G1 X174.906 Y126.289 E0.02365
G1 X174.906 Y133.590 E0.22891
G1 X175.660 Y133.590 E0.02365
G1 X175.660 Y126.289 E0.22891
G1 X176.414 Y126.289 E0.02365
G1 X176.414 Y133.777 E0.23476
;WIPE_START
G1 F8640.000
G1 X176.414 Y130.485 E-0.76000
;WIPE_END
G1 E-0.04000 F2100.000
G1 Z0.800 F10800.000
G1 X176.414 Y124.785
G1 Z0.200
G1 E0.80000 F2100.000
G1 F1200.000
G1 X176.414 Y117.298 E0.23476
G1 X175.660 Y117.298 E0.02365
G1 X175.660 Y124.599 E0.22892
G1 X174.906 Y124.599 E0.02365
G1 X174.906 Y117.298 E0.22892
G1 X174.152 Y117.298 E0.02365
G1 X174.152 Y124.599 E0.22892
G1 X173.398 Y124.599 E0.02365
G1 X173.398 Y117.298 E0.22892
G1 X172.643 Y117.298 E0.02365
G1 X172.643 Y124.599 E0.22892
G1 X171.889 Y124.599 E0.02365
G1 X171.889 Y117.298 E0.22892
G1 X171.135 Y117.298 E0.02365
G1 X171.135 Y124.599 E0.22891
G1 X170.381 Y124.599 E0.02365
G1 X170.381 Y117.298 E0.22891
G1 X169.627 Y117.298 E0.02365
G1 X169.627 Y124.599 E0.22891
G1 X168.873 Y124.599 E0.02365
G1 X168.873 Y117.298 E0.22892
G1 X168.119 Y117.298 E0.02365
G1 X168.119 Y124.599 E0.22892
G1 X167.364 Y124.599 E0.02365
G1 X167.364 Y117.298 E0.22892
G1 X166.610 Y117.298 E0.02365
G1 X166.610 Y124.599 E0.22892
G1 X165.856 Y124.599 E0.02365
G1 X165.856 Y117.298 E0.22892
G1 X165.102 Y117.298 E0.02365
G1 X165.102 Y124.599 E0.22892
G1 X164.348 Y124.599 E0.02365
G1 X164.348 Y117.298 E0.22892
G1 X163.594 Y117.298 E0.02365
G1 X163.594 Y124.599 E0.22892
G1 X162.839 Y124.599 E0.02365
G1 X162.839 Y117.298 E0.22892
G1 X162.085 Y117.298 E0.02365
G1 X162.085 Y124.768 E0.23424
;WIPE_START
G1 F8640.000
G1 X162.085 Y121.477 E-0.76000
;WIPE_END
G1 E-0.04000 F2100.000
G1 Z0.800 F10800.000
G1 X157.560 Y113.320
G1 Z0.200
G1 E0.80000 F2100.000
G1 F1200.000
G1 X157.560 Y113.139 E0.00566
G1 X153.789 Y113.139 E0.11823
G1 X153.789 Y113.320 E0.00566
;WIPE_START
G1 F8640.000
G1 X153.789 Y113.139 E-0.04168
G1 X156.900 Y113.139 E-0.71832
;WIPE_END
G1 E-0.04000 F2100.000
G1 Z0.800 F10800.000
G1 X153.789 Y115.969
G1 Z0.200
G1 E0.80000 F2100.000
G1 F1200.000
G1 X153.789 Y134.749 E0.58883
G1 X154.544 Y134.749 E0.02365
G1 X154.544 Y116.139 E0.58351
G1 X155.298 Y116.139 E0.02365
G1 X155.298 Y134.749 E0.58351
G1 X156.052 Y134.749 E0.02365
G1 X156.052 Y116.139 E0.58351
G1 X156.806 Y116.139 E0.02365
G1 X156.806 Y134.749 E0.58351
G1 X157.560 Y134.749 E0.02365
G1 X157.560 Y117.081 E0.55397
G1 X157.777 Y117.298 E0.00961
G1 X158.314 Y117.298 E0.01685
G1 X158.314 Y155.857 E1.20900
G1 X159.069 Y155.857 E0.02365
G1 X159.069 Y117.298 E1.20900
M73 Q1 S91
G1 X159.823 Y117.298 E0.02365
G1 X159.823 Y156.027 E1.21432
;WIPE_START
G1 F8640.000
G1 X159.823 Y152.735 E-0.76000
;WIPE_END
G1 E-0.04000 F2100.000
G1 Z0.800 F10800.000
G1 X162.839 Y151.743
G1 Z0.200
G1 E0.80000 F2100.000
G1 F1200.000
G1 X162.839 Y144.273 E0.23424
G1 X163.594 Y144.273 E0.02365
G1 X163.594 Y151.573 E0.22892
G1 X164.348 Y151.573 E0.02365
G1 X164.348 Y144.273 E0.22892
G1 X165.102 Y144.273 E0.02365
G1 X165.102 Y151.573 E0.22892
G1 X165.856 Y151.573 E0.02365
G1 X165.856 Y144.273 E0.22892
G1 X166.610 Y144.273 E0.02365
G1 X166.610 Y151.573 E0.22892
G1 X167.364 Y151.573 E0.02365
G1 X167.364 Y144.273 E0.22892
G1 X168.118 Y144.273 E0.02365
G1 X168.118 Y151.573 E0.22892
M73 P1 R90
G1 X168.873 Y151.573 E0.02365
G1 X168.873 Y144.273 E0.22892
G1 X169.627 Y144.273 E0.02365
G1 X169.627 Y151.573 E0.22892
G1 X170.381 Y151.573 E0.02365
G1 X170.381 Y144.273 E0.22892
G1 X171.135 Y144.273 E0.02365
G1 X171.135 Y151.573 E0.22892
G1 X171.889 Y151.573 E0.02365
G1 X171.889 Y144.273 E0.22892
G1 X172.643 Y144.273 E0.02365
G1 X172.643 Y151.573 E0.22892
G1 X173.398 Y151.573 E0.02365
G1 X173.398 Y144.273 E0.22892
G1 X174.152 Y144.273 E0.02365
G1 X174.152 Y151.573 E0.22892
G1 X174.906 Y151.573 E0.02365
G1 X174.906 Y144.273 E0.22892
G1 X175.660 Y144.273 E0.02365
G1 X175.660 Y151.743 E0.23424
;WIPE_START
G1 F8640.000
G1 X175.660 Y148.452 E-0.76000
;WIPE_END
G1 E-0.04000 F2100.000
G1 Z0.800 F10800.000
G1 X180.185 Y160.735
G1 Z0.200
G1 E0.80000 F2100.000
G1 F1200.000
G1 X180.185 Y153.264 E0.23424
G1 X180.939 Y153.264 E0.02365
G1 X180.939 Y160.565 E0.22891
G1 X181.693 Y160.565 E0.02365
G1 X181.693 Y153.264 E0.22891
G1 X182.448 Y153.264 E0.02365
G1 X182.448 Y160.565 E0.22891
G1 X183.202 Y160.565 E0.02365
G1 X183.202 Y153.264 E0.22891
G1 X183.956 Y153.264 E0.02365
G1 X183.956 Y160.565 E0.22891
G1 X184.710 Y160.565 E0.02365
G1 X184.710 Y153.264 E0.22891
G1 X185.464 Y153.264 E0.02365
G1 X185.464 Y160.565 E0.22891
G1 X186.218 Y160.565 E0.02365
G1 X186.218 Y153.264 E0.22891
G1 X186.972 Y153.264 E0.02365
G1 X186.972 Y160.565 E0.22891
G1 X187.727 Y160.565 E0.02365
G1 X187.727 Y153.264 E0.22891
G1 X188.481 Y153.264 E0.02365
G1 X188.481 Y160.565 E0.22891
G1 X189.235 Y160.565 E0.02365
G1 X189.235 Y153.264 E0.22891
G1 X189.989 Y153.264 E0.02365
G1 X189.989 Y160.565 E0.22891
G1 X190.743 Y160.565 E0.02365
G1 X190.743 Y153.264 E0.22891
G1 X191.497 Y153.264 E0.02365
G1 X191.497 Y160.565 E0.22891
G1 X192.252 Y160.565 E0.02365
G1 X192.252 Y153.264 E0.22891
G1 X193.006 Y153.264 E0.02365
G1 X193.006 Y160.735 E0.23424
;WIPE_START
G1 F8640.000
G1 X193.006 Y157.443 E-0.76000
;WIPE_END
G1 E-0.04000 F2100.000
G1 Z0.800 F10800.000
G1 X193.760 Y163.735
G1 Z0.200
G1 E0.80000 F2100.000
G1 F1200.000
G1 X193.760 Y162.154 E0.04955
G1 X193.006 Y162.154 E0.02365
G1 X193.006 Y163.565 E0.04423
G1 X192.252 Y163.565 E0.02365
G1 X192.252 Y162.154 E0.04423
G1 X191.497 Y162.154 E0.02365
G1 X191.497 Y163.565 E0.04423
G1 X190.743 Y163.565 E0.02365
G1 X190.743 Y162.154 E0.04423
G1 X189.989 Y162.154 E0.02365
G1 X189.989 Y163.565 E0.04423
G1 X189.235 Y163.565 E0.02365
G1 X189.235 Y162.154 E0.04423
G1 X188.481 Y162.154 E0.02365
G1 X188.481 Y163.565 E0.04423
G1 X187.727 Y163.565 E0.02365
G1 X187.727 Y162.154 E0.04423
G1 X186.972 Y162.154 E0.02365
G1 X186.972 Y163.565 E0.04423
G1 X186.218 Y163.565 E0.02365
G1 X186.218 Y162.154 E0.04423
G1 X185.464 Y162.154 E0.02365
G1 X185.464 Y163.565 E0.04423
G1 X184.710 Y163.565 E0.02365
G1 X184.710 Y162.154 E0.04423
G1 X183.956 Y162.154 E0.02365
G1 X183.956 Y163.565 E0.04423
G1 X183.202 Y163.565 E0.02365
G1 X183.202 Y162.154 E0.04423
G1 X182.448 Y162.154 E0.02365
G1 X182.448 Y163.565 E0.04423
G1 X181.693 Y163.565 E0.02365
G1 X181.693 Y162.154 E0.04423
G1 X180.939 Y162.154 E0.02365
G1 X180.939 Y163.565 E0.04423
G1 X180.185 Y163.565 E0.02365
G1 X180.185 Y162.154 E0.04423
G1 X179.431 Y162.154 E0.02365
G1 X179.431 Y163.565 E0.04423
G1 X178.677 Y163.565 E0.02365
G1 X178.677 Y162.154 E0.04423
G1 X178.284 Y162.154 E0.01230
G1 X178.042 Y161.912 E0.01074
G1 X178.042 Y156.069 E0.18320
G1 X177.997 Y155.550 E0.01635
G1 X177.923 Y155.273 E0.00898
G1 X177.923 Y163.565 E0.25999
G1 X177.168 Y163.565 E0.02365
G1 X177.168 Y153.999 E0.29994
G1 X177.009 Y153.840 E0.00706
G1 X176.597 Y153.551 E0.01578
G1 X176.414 Y153.466 E0.00633
G1 X176.414 Y155.857 E0.07498
G1 X175.660 Y155.857 E0.02365
G1 X175.655 Y153.208 E0.08306
G1 X175.136 Y153.163 E0.01635
G1 X174.906 Y153.163 E0.00720
G1 X174.906 Y155.857 E0.08449
G1 X174.152 Y155.857 E0.02365
G1 X174.152 Y153.163 E0.08449
G1 X173.398 Y153.163 E0.02365
G1 X173.398 Y155.857 E0.08449
G1 X172.643 Y155.857 E0.02365
G1 X172.643 Y153.163 E0.08449
G1 X171.889 Y153.163 E0.02365
