; generated by PrusaSlicer 2.3.0+win64 on 2021-07-26 at 06:34:34 UTC

; 

; external perimeters extrusion width = 0.45mm
; perimeters extrusion width = 0.45mm
; infill extrusion width = 0.45mm
; solid infill extrusion width = 0.45mm
; top infill extrusion width = 0.40mm
; support material extrusion width = 0.35mm
; first layer extrusion width = 0.42mm

M73 P0 R111
M73 Q0 S112
M201 X1000 Y1000 Z200 E5000 ; sets maximum accelerations, mm/sec^2
M203 X200 Y200 Z12 E120 ; sets maximum feedrates, mm/sec
M204 P1250 R1250 T1250 ; sets acceleration (P, T) and retract acceleration (R), mm/sec^2
M205 X8.00 Y8.00 Z0.40 E4.50 ; sets the jerk limits, mm/sec
M205 S0 T0 ; sets the minimum extruding and travel feed rate, mm/sec
M107
;TYPE:Custom
M862.3 P "MK3S" ; printer model check
M862.1 P0.4 ; nozzle diameter check
M115 U3.9.1 ; tell printer latest fw version
G90 ; use absolute coordinates
M83 ; extruder relative mode
M104 S240 ; set extruder temp
M140 S85 ; set bed temp
M190 S85 ; wait for bed temp
M109 S240 ; wait for extruder temp
G28 W ; home all without mesh bed level
G80 ; mesh bed leveling
G1 Y-3.0 F1000.0 ; go outside print area
G92 E0.0
G1 X60.0 E9.0 F1000.0 ; intro line
G1 X100.0 E12.5 F1000.0 ; intro line
G92 E0.0
M221 S95

; Don't change E values below. Excessive value can damage the printer.

M907 E538 ; set extruder motor current
G21 ; set units to millimeters
G90 ; use absolute coordinates
M83 ; use relative distances for extrusion
M900 K0.08 ; Filament gcode LA 1.5
M900 K45 ; Filament gcode LA 1.0
;LAYER_CHANGE
;Z:0.2
;HEIGHT:0.2
;BEFORE_LAYER_CHANGE
G92 E0.0
;0.2


G1 E-1.40000 F2100.000
G1 Z0.200 F10800.000
;AFTER_LAYER_CHANGE
;0.2
G1 Z0.400
G1 X34.809 Y72.637
G1 Z0.200
G1 E1.40000 F2100.000
M204 S1000
;TYPE:Skirt
;WIDTH:0.42
G1 F1200.000
G1 X79.286 Y64.105 E1.41997
G1 X152.461 Y64.068 E2.29436
G1 X195.653 Y72.405 E1.37926
G1 X196.585 Y72.635 E0.03007
G1 X197.433 Y72.978 E0.02870
G1 X198.497 Y73.605 E0.03871
G1 X199.436 Y74.429 E0.03918
G1 X200.030 Y75.135 E0.02894
G1 X200.515 Y75.912 E0.02871
G1 X201.006 Y77.049 E0.03882
G1 X201.278 Y78.249 E0.03858
G1 X201.344 Y79.170 E0.02895
G1 X201.343 Y97.484 E0.57424
G1 X201.223 Y98.188 E0.02237
G1 X200.899 Y98.823 E0.02237
G1 X200.458 Y99.290 E0.02012
G1 X199.909 Y99.621 E0.02012
G1 X135.324 Y127.091 E2.20057
G1 X134.627 Y127.201 E0.02213
G1 X110.656 Y127.231 E0.75157
G1 X95.860 Y127.061 E0.46398
G1 X95.099 Y126.920 E0.02426
G1 X31.372 Y99.642 E2.17347
G1 X30.919 Y99.378 E0.01645
G1 X30.535 Y99.020 E0.01645
G1 X30.240 Y98.591 E0.01633
G1 X30.045 Y98.104 E0.01645
G1 X29.959 Y97.480 E0.01977
G1 X29.959 Y79.208 E0.57291
G1 X30.054 Y78.068 E0.03586
G1 X30.298 Y77.075 E0.03205
G1 X30.701 Y76.099 E0.03312
G1 X31.251 Y75.196 E0.03314
G1 X31.858 Y74.468 E0.02972
G1 X32.939 Y73.546 E0.04454
G1 X33.754 Y73.060 E0.02978
G1 X34.753 Y72.660 E0.03374
;WIPE_START
G1 F8640.000
G1 X40.410 Y71.573 E-1.33000
;WIPE_END
G1 E-0.07000 F2100.000
G1 Z0.400 F10800.000
G1 X70.927 Y77.138
G1 Z0.200
G1 E1.40000 F2100.000
;TYPE:Support material
G1 F1200.000
G1 X70.309 Y77.756 E0.02739
G1 X70.843 Y78.289 E0.02365
G1 X71.824 Y77.308 E0.04351
G1 X72.890 Y77.308 E0.03344
G1 X71.376 Y78.823 E0.06715
G1 X71.819 Y79.266 E0.01967
G1 X70.188 Y80.898 E0.07234
G1 X70.278 Y80.987 E0.00397
G1 X73.957 Y77.308 E0.16314
G1 X75.023 Y77.308 E0.03344
G1 X70.811 Y81.520 E0.18678
G1 X71.344 Y82.054 E0.02365
G1 X76.090 Y77.308 E0.21043
G1 X76.470 Y77.308 E0.01192
G1 X76.470 Y77.995 E0.02152
G1 X70.246 Y84.218 E0.27598
G1 X70.779 Y84.752 E0.02365
G1 X77.064 Y78.467 E0.27867
G1 X78.131 Y78.467 E0.03344
G1 X71.313 Y85.285 E0.30232
G1 X71.819 Y85.792 E0.02247
G1 X70.188 Y87.423 E0.07234
G1 X70.215 Y87.450 E0.00118
G1 X79.197 Y78.467 E0.39830
M73 Q0 S111
G1 X80.264 Y78.467 E0.03344
G1 X70.748 Y87.983 E0.42195
G1 X71.281 Y88.516 E0.02365
G1 X81.330 Y78.467 E0.44560
G1 X82.397 Y78.467 E0.03344
G1 X70.188 Y90.686 E0.54158
G1 X70.716 Y91.214 E0.02342
G1 X83.463 Y78.467 E0.56522
G1 X84.530 Y78.467 E0.03344
G1 X71.250 Y91.747 E0.58887
G1 X71.783 Y92.281 E0.02365
G1 X85.596 Y78.467 E0.61252
G1 X86.663 Y78.467 E0.03344
G1 X70.565 Y94.565 E0.71382
;WIPE_START
G1 F8640.000
G1 X74.638 Y90.492 E-1.33000
;WIPE_END
G1 E-0.07000 F2100.000
G1 Z0.400 F10800.000
G1 X69.092 Y96.038
G1 Z0.200
G1 E1.40000 F2100.000
G1 F1200.000
G1 X70.223 Y94.907 E0.05013
G1 X69.156 Y94.907 E0.03344
G1 X68.520 Y95.543 E0.02819
G1 X67.987 Y95.010 E0.02365
G1 X68.259 Y94.738 E0.01207
;WIPE_START
G1 F8640.000
G1 X67.987 Y95.010 E-0.08889
G1 X68.520 Y95.543 E-0.17414
G1 X69.156 Y94.907 E-0.20762
G1 X70.223 Y94.907 E-0.24627
G1 X69.092 Y96.038 E-0.36917
;WIPE_END
G1 E-0.31392 F2100.000
G1 Z0.400 F10800.000
G1 X69.292 Y99.038
G1 Z0.200
G1 E1.40000 F2100.000
G1 F1200.000
G1 X70.422 Y97.907 E0.05013
G1 X71.489 Y97.907 E0.03344
G1 X70.528 Y98.868 E0.04261
G1 X71.595 Y98.868 E0.03344
G1 X72.555 Y97.907 E0.04261
G1 X73.622 Y97.907 E0.03344
G1 X72.253 Y99.276 E0.06070
G1 X72.786 Y99.809 E0.02365
G1 X74.688 Y97.907 E0.08434
G1 X75.755 Y97.907 E0.03344
G1 X73.320 Y100.343 E0.10799
G1 X73.853 Y100.876 E0.02365
G1 X76.822 Y97.907 E0.13163
G1 X77.151 Y97.907 E0.01032
G1 X77.408 Y97.650 E0.01139
G1 X77.408 Y97.321 E0.01032
G1 X87.270 Y87.459 E0.43733
G1 X86.204 Y87.459 E0.03344
G1 X77.408 Y96.255 E0.39004
G1 X77.408 Y96.125 E0.00407
G1 X77.151 Y95.868 E0.01139
G1 X76.728 Y95.868 E0.01327
G1 X85.137 Y87.459 E0.37290
G1 X84.071 Y87.459 E0.03344
G1 X75.661 Y95.868 E0.37290
G1 X74.594 Y95.868 E0.03344
G1 X83.004 Y87.459 E0.37290
G1 X81.938 Y87.459 E0.03344
G1 X73.528 Y95.868 E0.37290
M73 P0 R110
G1 X72.461 Y95.868 E0.03344
G1 X80.871 Y87.459 E0.37290
G1 X80.851 Y87.459 E0.00062
G1 X80.594 Y87.202 E0.01139
G1 X80.594 Y86.669 E0.01671
G1 X71.395 Y95.868 E0.40793
G1 X70.328 Y95.868 E0.03344
G1 X87.730 Y78.467 E0.77160
G1 X88.796 Y78.467 E0.03344
G1 X81.545 Y85.718 E0.32152
G1 X82.612 Y85.718 E0.03344
G1 X89.863 Y78.467 E0.32152
G1 X90.929 Y78.467 E0.03344
G1 X83.678 Y85.718 E0.32152
G1 X84.745 Y85.718 E0.03344
G1 X91.996 Y78.467 E0.32152
G1 X93.062 Y78.467 E0.03344
G1 X85.811 Y85.718 E0.32152
G1 X86.878 Y85.718 E0.03344
G1 X94.129 Y78.467 E0.32152
G1 X95.195 Y78.467 E0.03344
G1 X87.944 Y85.718 E0.32152
G1 X89.011 Y85.718 E0.03344
G1 X105.254 Y69.475 E0.72022
G1 X106.320 Y69.475 E0.03344
G1 X99.069 Y76.726 E0.32152
G1 X100.136 Y76.726 E0.03344
G1 X107.387 Y69.475 E0.32152
G1 X108.453 Y69.475 E0.03344
G1 X101.202 Y76.726 E0.32152
G1 X102.269 Y76.726 E0.03344
G1 X109.520 Y69.475 E0.32152
G1 X110.586 Y69.475 E0.03344
G1 X103.335 Y76.726 E0.32152
G1 X104.402 Y76.726 E0.03344
G1 X111.653 Y69.475 E0.32152
G1 X111.963 Y69.475 E0.00974
G1 X111.963 Y70.231 E0.02370
G1 X105.468 Y76.726 E0.28800
G1 X106.535 Y76.726 E0.03344
G1 X111.963 Y71.298 E0.24071
G1 X111.963 Y72.364 E0.03344
G1 X107.601 Y76.726 E0.19342
G1 X108.668 Y76.726 E0.03344
G1 X111.963 Y73.431 E0.14612
G1 X111.963 Y74.497 E0.03344
G1 X109.735 Y76.726 E0.09883
G1 X110.801 Y76.726 E0.03344
G1 X111.963 Y75.564 E0.05154
G1 X111.963 Y76.630 E0.03344
G1 X111.698 Y76.896 E0.01177
G1 X98.447 Y70.949 F10800.000
G1 F1200.000
G1 X99.921 Y69.475 E0.06536
G1 X98.854 Y69.475 E0.03344
G1 X98.447 Y69.883 E0.01807
;WIPE_START
G1 F8640.000
G1 X98.854 Y69.475 E-0.13305
G1 X99.921 Y69.475 E-0.24627
G1 X98.447 Y70.949 E-0.48133
;WIPE_END
G1 E-0.53935 F2100.000
G1 Z0.400 F10800.000
G1 X110.779 Y94.879
G1 Z0.200
G1 E1.40000 F2100.000
G1 F1200.000
G1 X111.963 Y93.695 E0.05250
G1 X111.963 Y92.629 E0.03344
G1 X109.883 Y94.709 E0.09227
G1 X108.816 Y94.709 E0.03344
G1 X111.963 Y91.562 E0.13956
G1 X111.963 Y90.496 E0.03344
G1 X107.750 Y94.709 E0.18685
G1 X106.683 Y94.709 E0.03344
G1 X111.963 Y89.429 E0.23414
G1 X111.963 Y88.362 E0.03344
G1 X105.616 Y94.709 E0.28144
G1 X104.550 Y94.709 E0.03344
G1 X111.801 Y87.459 E0.32152
G1 X110.734 Y87.459 E0.03344
G1 X103.483 Y94.709 E0.32152
G1 X102.417 Y94.709 E0.03344
G1 X109.668 Y87.459 E0.32152
G1 X108.601 Y87.459 E0.03344
G1 X101.350 Y94.709 E0.32152
G1 X100.284 Y94.709 E0.03344
G1 X107.535 Y87.459 E0.32152
G1 X106.468 Y87.459 E0.03344
G1 X99.047 Y94.879 E0.32904
;WIPE_START
G1 F8640.000
G1 X103.120 Y90.806 E-1.33000
;WIPE_END
G1 E-0.07000 F2100.000
G1 Z0.400 F10800.000
G1 X97.909 Y96.017
G1 Z0.200
G1 E1.40000 F2100.000
G1 F1200.000
G1 X90.226 Y103.701 E0.34070
G1 X91.292 Y103.701 E0.03344
G1 X98.543 Y96.450 E0.32152
G1 X99.610 Y96.450 E0.03344
G1 X92.359 Y103.701 E0.32152
M73 P1 R110
M73 Q1 S111
G1 X93.425 Y103.701 E0.03344
G1 X100.676 Y96.450 E0.32152
G1 X101.743 Y96.450 E0.03344
G1 X94.492 Y103.701 E0.32152
G1 X95.439 Y103.701 E0.02969
G1 X95.498 Y103.761 E0.00265
G1 X102.809 Y96.450 E0.32417
G1 X103.876 Y96.450 E0.03344
G1 X95.526 Y104.800 E0.37025
;WIPE_START
G1 F8640.000
G1 X99.599 Y100.727 E-1.33000
;WIPE_END
G1 E-0.07000 F2100.000
G1 Z0.400 F10800.000
G1 X99.655 Y103.871
G1 Z0.200
G1 E1.40000 F2100.000
G1 F1200.000
G1 X107.075 Y96.450 E0.32904
G1 X108.142 Y96.450 E0.03344
G1 X100.891 Y103.701 E0.32152
G1 X101.957 Y103.701 E0.03344
G1 X109.208 Y96.450 E0.32152
G1 X110.275 Y96.450 E0.03344
G1 X103.024 Y103.701 E0.32152
G1 X104.091 Y103.701 E0.03344
G1 X111.341 Y96.450 E0.32152
G1 X111.963 Y96.450 E0.01950
G1 X111.963 Y96.895 E0.01394
G1 X105.157 Y103.701 E0.30180
G1 X106.224 Y103.701 E0.03344
G1 X111.963 Y97.961 E0.25451
G1 X111.963 Y99.028 E0.03344
G1 X107.290 Y103.701 E0.20722
G1 X108.357 Y103.701 E0.03344
G1 X111.963 Y100.094 E0.15993
G1 X111.963 Y101.161 E0.03344
G1 X109.423 Y103.701 E0.11263
G1 X110.490 Y103.701 E0.03344
G1 X111.963 Y102.227 E0.06534
G1 X111.963 Y103.294 E0.03344
G1 X111.387 Y103.871 E0.02557
;WIPE_START
G1 F8640.000
G1 X111.963 Y103.294 E-0.18833
G1 X111.963 Y102.227 E-0.24627
G1 X110.490 Y103.701 E-0.48120
G1 X109.423 Y103.701 E-0.24627
G1 X109.938 Y103.187 E-0.16794
;WIPE_END
G1 E-0.07000 F2100.000
G1 Z0.400 F10800.000
G1 X110.927 Y112.862
G1 Z0.200
G1 E1.40000 F2100.000
G1 F1200.000
G1 X111.963 Y111.826 E0.04594
G1 X111.963 Y110.760 E0.03344
G1 X110.031 Y112.693 E0.08571
G1 X108.964 Y112.693 E0.03344
G1 X111.963 Y109.693 E0.13300
G1 X111.963 Y108.627 E0.03344
G1 X107.897 Y112.693 E0.18029
G1 X106.831 Y112.693 E0.03344
G1 X111.963 Y107.560 E0.22758
G1 X111.963 Y106.494 E0.03344
G1 X105.764 Y112.693 E0.27487
G1 X104.698 Y112.693 E0.03344
G1 X111.949 Y105.442 E0.32152
G1 X110.882 Y105.442 E0.03344
G1 X103.631 Y112.693 E0.32152
G1 X102.565 Y112.693 E0.03344
G1 X109.816 Y105.442 E0.32152
G1 X108.749 Y105.442 E0.03344
G1 X101.498 Y112.693 E0.32152
G1 X100.432 Y112.693 E0.03344
G1 X107.683 Y105.442 E0.32152
G1 X106.616 Y105.442 E0.03344
G1 X99.365 Y112.693 E0.32152
G1 X98.299 Y112.693 E0.03344
G1 X105.550 Y105.442 E0.32152
G1 X104.483 Y105.442 E0.03344
G1 X97.232 Y112.693 E0.32152
G1 X96.166 Y112.693 E0.03344
G1 X103.416 Y105.442 E0.32152
G1 X102.350 Y105.442 E0.03344
G1 X95.099 Y112.693 E0.32152
G1 X94.032 Y112.693 E0.03344
G1 X101.283 Y105.442 E0.32152
G1 X100.217 Y105.442 E0.03344
G1 X92.966 Y112.693 E0.32152
G1 X91.899 Y112.693 E0.03344
G1 X99.150 Y105.442 E0.32152
G1 X98.084 Y105.442 E0.03344
G1 X90.833 Y112.693 E0.32152
G1 X89.766 Y112.693 E0.03344
G1 X97.739 Y104.720 E0.35354
G1 X97.739 Y103.958 E0.02388
G1 X97.996 Y103.701 E0.01139
G1 X98.758 Y103.701 E0.02388
G1 X106.009 Y96.450 E0.32152
G1 X104.942 Y96.450 E0.03344
G1 X88.700 Y112.693 E0.72022
G1 X87.633 Y112.693 E0.03344
G1 X94.884 Y105.442 E0.32152
G1 X93.818 Y105.442 E0.03344
G1 X86.567 Y112.693 E0.32152
G1 X85.500 Y112.693 E0.03344
G1 X92.751 Y105.442 E0.32152
G1 X91.684 Y105.442 E0.03344
G1 X84.434 Y112.693 E0.32152
G1 X83.367 Y112.693 E0.03344
G1 X90.618 Y105.442 E0.32152
G1 X89.551 Y105.442 E0.03344
G1 X82.300 Y112.693 E0.32152
M73 Q1 S110
G1 X81.471 Y112.693 E0.02599
G1 X81.471 Y112.455 E0.00745
G1 X88.485 Y105.442 E0.31099
G1 X87.418 Y105.442 E0.03344
G1 X81.471 Y111.389 E0.26369
G1 X81.471 Y110.322 E0.03344
G1 X86.352 Y105.442 E0.21640
G1 X85.285 Y105.442 E0.03344
G1 X81.471 Y109.255 E0.16911
G1 X81.471 Y108.189 E0.03344
G1 X84.219 Y105.442 E0.12182
G1 X83.152 Y105.442 E0.03344
G1 X81.471 Y107.122 E0.07452
G1 X81.471 Y106.056 E0.03344
G1 X82.255 Y105.272 E0.03476
;WIPE_START
G1 F8640.000
G1 X81.471 Y106.056 E-0.25595
G1 X81.471 Y107.122 E-0.24627
G1 X83.152 Y105.442 E-0.54882
G1 X84.219 Y105.442 E-0.24627
G1 X84.119 Y105.542 E-0.03269
;WIPE_END
G1 E-0.07000 F2100.000
G1 Z0.400 F10800.000
G1 X80.002 Y102.193
G1 Z0.200
G1 E1.40000 F2100.000
G1 F1200.000
G1 X77.586 Y104.609 E0.10714
G1 X78.119 Y105.142 E0.02365
G1 X79.832 Y103.429 E0.07597
G1 X79.832 Y104.495 E0.03344
G1 X78.472 Y105.856 E0.06034
G1 X78.472 Y106.923 E0.03344
G1 X79.832 Y105.562 E0.06034
G1 X79.832 Y106.628 E0.03344
G1 X78.472 Y107.989 E0.06034
G1 X78.472 Y109.056 E0.03344
G1 X79.832 Y107.695 E0.06034
G1 X79.832 Y108.761 E0.03344
G1 X78.472 Y110.122 E0.06034
G1 X78.472 Y111.189 E0.03344
G1 X79.832 Y109.828 E0.06034
G1 X79.832 Y110.895 E0.03344
G1 X78.472 Y112.255 E0.06034
G1 X78.472 Y113.322 E0.03344
G1 X79.832 Y111.961 E0.06034
G1 X79.832 Y113.028 E0.03344
G1 X78.472 Y114.388 E0.06034
G1 X78.472 Y115.455 E0.03344
G1 X79.842 Y114.085 E0.06077
G1 X80.089 Y114.332 E0.01096
G1 X80.661 Y114.332 E0.01794
G1 X79.301 Y115.693 E0.06034
G1 X80.367 Y115.693 E0.03344
G1 X81.728 Y114.332 E0.06034
G1 X82.794 Y114.332 E0.03344
G1 X81.434 Y115.693 E0.06034
G1 X82.500 Y115.693 E0.03344
G1 X83.861 Y114.332 E0.06034
G1 X84.928 Y114.332 E0.03344
G1 X83.567 Y115.693 E0.06034
G1 X84.633 Y115.693 E0.03344
G1 X85.994 Y114.332 E0.06034
G1 X87.061 Y114.332 E0.03344
G1 X85.700 Y115.693 E0.06034
G1 X86.766 Y115.693 E0.03344
G1 X88.127 Y114.332 E0.06034
G1 X89.194 Y114.332 E0.03344
G1 X87.833 Y115.693 E0.06034
G1 X88.899 Y115.693 E0.03344
G1 X90.260 Y114.332 E0.06034
G1 X91.327 Y114.332 E0.03344
G1 X89.966 Y115.693 E0.06034
G1 X91.033 Y115.693 E0.03344
G1 X92.393 Y114.332 E0.06034
G1 X93.460 Y114.332 E0.03344
G1 X92.099 Y115.693 E0.06034
G1 X93.166 Y115.693 E0.03344
G1 X94.492 Y114.366 E0.05880
G1 X94.611 Y114.377 E0.00375
G1 X95.093 Y114.506 E0.01564
G1 X95.315 Y114.610 E0.00769
G1 X94.232 Y115.693 E0.04802
G1 X95.299 Y115.693 E0.03344
G1 X95.971 Y115.020 E0.02981
G1 X96.306 Y115.356 E0.01487
G1 X96.469 Y115.589 E0.00891
G1 X95.617 Y116.441 E0.03781
G1 X95.617 Y117.508 E0.03344
G1 X96.825 Y116.299 E0.05360
G1 X96.932 Y116.698 E0.01296
G1 X96.977 Y117.214 E0.01622
G1 X95.617 Y118.574 E0.06034
G1 X95.617 Y119.641 E0.03344
G1 X96.977 Y118.280 E0.06034
G1 X96.977 Y119.347 E0.03344
G1 X95.617 Y120.707 E0.06034
G1 X95.617 Y121.774 E0.03344
G1 X96.977 Y120.413 E0.06034
G1 X96.977 Y121.480 E0.03344
G1 X95.617 Y122.840 E0.06034
G1 X95.617 Y123.907 E0.03344
G1 X96.977 Y122.546 E0.06034
G1 X96.977 Y123.066 E0.01631
G1 X97.234 Y123.323 E0.01139
G1 X97.267 Y123.323 E0.00102
G1 X95.906 Y124.684 E0.06034
G1 X96.973 Y124.684 E0.03344
G1 X98.333 Y123.323 E0.06034
G1 X99.400 Y123.323 E0.03344
G1 X98.039 Y124.684 E0.06034
G1 X99.106 Y124.684 E0.03344
G1 X100.466 Y123.323 E0.06034
G1 X101.533 Y123.323 E0.03344
G1 X100.172 Y124.684 E0.06034
G1 X101.239 Y124.684 E0.03344
G1 X102.600 Y123.323 E0.06034
G1 X103.666 Y123.323 E0.03344
G1 X102.305 Y124.684 E0.06034
G1 X103.372 Y124.684 E0.03344
G1 X104.733 Y123.323 E0.06034
G1 X105.799 Y123.323 E0.03344
G1 X104.438 Y124.684 E0.06034
G1 X105.505 Y124.684 E0.03344
G1 X106.866 Y123.323 E0.06034
G1 X107.932 Y123.323 E0.03344
G1 X106.571 Y124.684 E0.06034
G1 X107.638 Y124.684 E0.03344
G1 X108.999 Y123.323 E0.06034
G1 X110.065 Y123.323 E0.03344
G1 X108.705 Y124.684 E0.06034
G1 X109.771 Y124.684 E0.03344
G1 X111.132 Y123.323 E0.06034
G1 X112.198 Y123.323 E0.03344
G1 X110.668 Y124.854 E0.06786
;WIPE_START
G1 F8640.000
G1 X112.198 Y123.323 E-0.49977
G1 X111.132 Y123.323 E-0.24627
G1 X109.771 Y124.684 E-0.44436
G1 X109.166 Y124.684 E-0.13960
;WIPE_END
G1 E-0.07000 F2100.000
G1 Z0.400 F10800.000
G1 X111.535 Y121.854
G1 Z0.200
G1 E1.40000 F2100.000
G1 F1200.000
G1 X111.963 Y121.425 E0.01901
G1 X111.963 Y120.359 E0.03344
G1 X110.638 Y121.684 E0.05878
G1 X109.571 Y121.684 E0.03344
G1 X111.963 Y119.292 E0.10607
G1 X111.963 Y118.226 E0.03344
G1 X108.505 Y121.684 E0.15336
G1 X107.438 Y121.684 E0.03344
G1 X111.963 Y117.159 E0.20065
G1 X111.963 Y116.093 E0.03344
