; generated by PrusaSlicer 2.3.0+win64 on 2021-07-23 at 05:30:42 UTC

; 

; external perimeters extrusion width = 0.60mm
; perimeters extrusion width = 0.50mm
; infill extrusion width = 0.50mm
; solid infill extrusion width = 0.50mm
; top infill extrusion width = 0.45mm
; first layer extrusion width = 0.42mm

M73 P0 R50
M73 Q0 S50
M201 X1000 Y1000 Z200 E5000 ; sets maximum accelerations, mm/sec^2
M203 X200 Y200 Z12 E120 ; sets maximum feedrates, mm/sec
M204 P1250 R1250 T1250 ; sets acceleration (P, T) and retract acceleration (R), mm/sec^2
M205 X8.00 Y8.00 Z0.40 E4.50 ; sets the jerk limits, mm/sec
M205 S0 T0 ; sets the minimum extruding and travel feed rate, mm/sec
M107
;TYPE:Custom
M862.3 P "MK3S" ; printer model check
M862.1 P0.4 ; nozzle diameter check
M115 U3.9.1 ; tell printer latest fw version
G90 ; use absolute coordinates
M83 ; extruder relative mode
M104 S240 ; set extruder temp
M140 S85 ; set bed temp
M190 S85 ; wait for bed temp
M109 S240 ; wait for extruder temp
G28 W ; home all without mesh bed level
G80 ; mesh bed leveling
G1 Y-3.0 F1000.0 ; go outside print area
G92 E0.0
G1 X60.0 E9.0 F1000.0 ; intro line
G1 X100.0 E12.5 F1000.0 ; intro line
G92 E0.0
M221 S95

; Don't change E values below. Excessive value can damage the printer.

M907 E538 ; set extruder motor current
G21 ; set units to millimeters
G90 ; use absolute coordinates
M83 ; use relative distances for extrusion
M900 K0.08 ; Filament gcode LA 1.5
M900 K45 ; Filament gcode LA 1.0
;LAYER_CHANGE
;Z:0.2
;HEIGHT:0.2
;BEFORE_LAYER_CHANGE
G92 E0.0
;0.2


G1 E-1.40000 F2100.000
G1 Z0.200 F10800.000
;AFTER_LAYER_CHANGE
;0.2
G1 Z0.400
G1 X46.564 Y83.629
G1 Z0.200
G1 E1.40000 F2100.000
M204 S1000
;TYPE:Skirt
;WIDTH:0.42
G1 F1200.000
G1 X47.093 Y83.273 E0.02000
G1 X112.116 Y57.192 E2.19663
G1 X112.692 Y57.114 E0.01823
G1 X130.731 Y56.940 E0.56563
G1 X146.502 Y56.940 E0.49449
G1 X147.362 Y57.102 E0.02747
G1 X212.446 Y82.520 E2.19076
G1 X213.016 Y82.840 E0.02048
G1 X213.394 Y83.198 E0.01633
G1 X213.682 Y83.627 E0.01621
G1 X213.873 Y84.112 E0.01633
G1 X213.953 Y84.623 E0.01621
G1 X213.955 Y103.032 E0.57721
G1 X213.869 Y104.077 E0.03288
G1 X213.614 Y105.134 E0.03407
G1 X213.200 Y106.126 E0.03371
G1 X212.612 Y107.076 E0.03503
G1 X211.908 Y107.889 E0.03372
G1 X210.969 Y108.659 E0.03810
G1 X210.200 Y109.121 E0.02811
G1 X209.364 Y109.476 E0.02847
G1 X208.225 Y109.774 E0.03691
G1 X163.833 Y116.296 E1.40682
M73 P0 R49
G1 X128.479 Y116.477 E1.10853
G1 X95.566 Y116.477 E1.03194
G1 X48.996 Y108.434 E1.48181
G1 X47.956 Y108.041 E0.03484
G1 X47.217 Y107.522 E0.02834
G1 X46.815 Y107.128 E0.01763
G1 X46.251 Y106.317 E0.03096
G1 X45.901 Y105.422 E0.03015
G1 X45.766 Y104.424 E0.03158
G1 X45.767 Y85.319 E0.59902
G1 X45.876 Y84.690 E0.02000
G1 X46.148 Y84.113 E0.02000
G1 X46.525 Y83.675 E0.01812
;WIPE_START
G1 F8640.000
G1 X47.093 Y83.273 E-0.16071
G1 X51.793 Y81.388 E-1.16929
;WIPE_END
G1 E-0.07000 F2100.000
G1 Z0.400 F10800.000
G1 X93.282 Y85.913
G1 Z0.200
G1 E1.40000 F2100.000
;TYPE:Perimeter
G1 F1200.000
G1 X93.506 Y85.915 E0.00704
G1 X93.918 Y85.796 E0.01344
G1 X94.297 Y85.651 E0.01272
G1 X94.880 Y85.258 E0.02204
G1 X95.420 Y84.720 E0.02391
G1 X95.570 Y84.486 E0.00872
G1 X95.554 Y84.923 E0.01372
G1 X95.562 Y85.440 E0.01622
G1 X95.614 Y85.977 E0.01689
G1 X95.792 Y86.795 E0.02628
G1 X95.614 Y87.614 E0.02628
G1 X95.562 Y88.155 E0.01702
G1 X95.562 Y94.430 E0.19676
G1 X95.614 Y94.968 E0.01695
G1 X95.792 Y95.787 E0.02627
G1 X95.614 Y96.606 E0.02627
G1 X95.562 Y97.144 E0.01695
G1 X95.562 Y103.419 E0.19677
G1 X95.614 Y103.960 E0.01702
G1 X95.792 Y104.779 E0.02628
G1 X95.614 Y105.597 E0.02628
G1 X95.562 Y106.133 E0.01689
G1 X95.570 Y107.088 E0.02993
G1 X95.418 Y106.851 E0.00884
G1 X94.903 Y106.332 E0.02290
G1 X94.285 Y105.915 E0.02337
G1 X93.546 Y105.663 E0.02448
G1 X93.281 Y105.662 E0.00831
G1 X93.427 Y105.116 E0.01771
G1 X93.491 Y104.545 E0.01804
G1 X93.502 Y103.515 E0.03228
G1 X93.502 Y87.558 E0.50034
M73 P1 R49
M73 Q1 S50
G1 X93.491 Y87.027 E0.01665
G1 X93.427 Y86.458 E0.01795
G1 X93.297 Y85.971 E0.01579
;WIPE_START
G1 F8640.000
G1 X93.506 Y85.915 E-0.04995
G1 X93.918 Y85.796 E-0.09900
G1 X94.297 Y85.651 E-0.09369
G1 X94.880 Y85.258 E-0.16233
G1 X95.420 Y84.720 E-0.17604
G1 X95.570 Y84.486 E-0.06421
G1 X95.554 Y84.923 E-0.10107
G1 X95.562 Y85.440 E-0.11943
G1 X95.614 Y85.977 E-0.12436
G1 X95.792 Y86.795 E-0.19351
G1 X95.657 Y87.415 E-0.14641
;WIPE_END
G1 E-0.07000 F2100.000
G1 Z0.400 F10800.000
G1 X96.137 Y86.984
G1 Z0.200
G1 E1.40000 F2100.000
;TYPE:External perimeter
G1 F1200.000
G1 X110.766 Y86.984 E0.45868
G1 X110.916 Y87.673 E0.02210
G1 X110.965 Y88.173 E0.01576
G1 X110.974 Y93.444 E0.16525
G1 X110.965 Y94.410 E0.03031
G1 X110.916 Y94.910 E0.01574
G1 X110.766 Y95.598 E0.02210
G1 X96.137 Y95.598 E0.45868
G1 X95.987 Y94.910 E0.02210
G1 X95.939 Y94.410 E0.01574
G1 X95.930 Y93.444 E0.03031
G1 X95.939 Y88.173 E0.16525
G1 X95.987 Y87.673 E0.01576
G1 X96.124 Y87.043 E0.02022
G1 X96.159 Y86.585 F10800.000
;WIPE_START
G1 F8640.000
G1 X101.884 Y87.019 E-1.33000
;WIPE_END
G1 E-0.07000 F2100.000
G1 Z0.400 F10800.000
G1 X96.137 Y95.976
G1 Z0.200
G1 E1.40000 F2100.000
G1 F1200.000
G1 X110.766 Y95.976 E0.45868
G1 X110.916 Y96.664 E0.02210
G1 X110.965 Y97.164 E0.01574
G1 X110.974 Y98.130 E0.03031
G1 X110.965 Y103.401 E0.16525
G1 X110.916 Y103.901 E0.01576
G1 X110.766 Y104.590 E0.02210
G1 X96.137 Y104.590 E0.45868
G1 X95.987 Y103.901 E0.02210
G1 X95.939 Y103.401 E0.01576
G1 X95.930 Y98.130 E0.16525
G1 X95.939 Y97.164 E0.03031
G1 X95.987 Y96.664 E0.01574
G1 X96.125 Y96.034 E0.02022
G1 X96.159 Y95.576 F10800.000
;WIPE_START
G1 F8640.000
G1 X101.884 Y96.011 E-1.33000
;WIPE_END
G1 E-0.07000 F2100.000
G1 Z0.400 F10800.000
G1 X96.137 Y104.967
G1 Z0.200
G1 E1.40000 F2100.000
G1 F1200.000
G1 X110.766 Y104.967 E0.45868
G1 X110.916 Y105.656 E0.02210
G1 X110.965 Y106.156 E0.01576
G1 X110.973 Y111.906 E0.18028
G1 X110.963 Y112.397 E0.01538
G1 X110.904 Y112.901 E0.01592
G1 X110.723 Y113.548 E0.02108
G1 X96.130 Y113.548 E0.45756
G1 X96.130 Y109.044 E0.14125
G1 X96.093 Y108.579 E0.01460
G1 X95.966 Y107.619 E0.03038
G1 X95.931 Y106.647 E0.03049
G1 X95.939 Y106.155 E0.01543
G1 X95.987 Y105.656 E0.01571
G1 X96.124 Y105.026 E0.02022
G1 X96.159 Y104.568 F10800.000
;WIPE_START
G1 F8640.000
G1 X101.884 Y105.003 E-1.33000
;WIPE_END
G1 E-0.07000 F2100.000
G1 Z0.400 F10800.000
G1 X113.282 Y104.967
G1 Z0.200
G1 E1.40000 F2100.000
G1 F1200.000
G1 X126.240 Y104.967 E0.40627
G1 X127.919 Y105.005 E0.05266
G1 X127.919 Y113.548 E0.26787
G1 X113.325 Y113.548 E0.45756
G1 X113.144 Y112.901 E0.02108
G1 X113.086 Y112.397 E0.01592
G1 X113.075 Y111.906 E0.01538
G1 X113.084 Y106.156 E0.18028
G1 X113.132 Y105.656 E0.01576
G1 X113.270 Y105.026 E0.02022
G1 X113.304 Y104.568 F10800.000
G1 X113.282 Y104.590
G1 F1200.000
G1 X113.132 Y103.901 E0.02210
G1 X113.084 Y103.401 E0.01576
G1 X113.075 Y98.130 E0.16525
G1 X113.084 Y97.164 E0.03031
G1 X113.132 Y96.664 E0.01574
G1 X113.282 Y95.976 E0.02210
G1 X126.240 Y95.976 E0.40627
G1 X127.919 Y96.013 E0.05266
G1 X127.919 Y104.552 E0.26772
G1 X126.240 Y104.590 E0.05266
G1 X113.342 Y104.590 E0.40439
G1 X112.886 Y104.647 F10800.000
;WIPE_START
G1 F8640.000
G1 X113.132 Y103.901 E-0.16628
G1 X113.084 Y103.401 E-0.11608
G1 X113.076 Y98.864 E-1.04765
;WIPE_END
G1 E-0.07000 F2100.000
G1 Z0.400 F10800.000
G1 X113.342 Y95.598
G1 Z0.200
G1 E1.40000 F2100.000
G1 F1200.000
G1 X113.282 Y95.598 E0.00188
G1 X113.132 Y94.910 E0.02210
G1 X113.084 Y94.410 E0.01574
M73 Q1 S49
G1 X113.075 Y93.444 E0.03031
G1 X113.084 Y88.173 E0.16525
G1 X113.132 Y87.673 E0.01576
G1 X113.282 Y86.984 E0.02210
G1 X126.240 Y86.984 E0.40627
G1 X127.919 Y87.022 E0.05266
G1 X127.919 Y95.561 E0.26772
G1 X126.240 Y95.598 E0.05266
G1 X113.402 Y95.598 E0.40251
G1 X113.312 Y95.650 F10800.000
;WIPE_START
G1 F8640.000
G1 X113.282 Y95.598 E-0.02769
G1 X113.132 Y94.910 E-0.16277
G1 X113.084 Y94.410 E-0.11589
G1 X113.075 Y93.444 E-0.22319
G1 X113.081 Y89.977 E-0.80046
;WIPE_END
G1 E-0.07000 F2100.000
G1 Z0.400 F10800.000
G1 X113.402 Y86.607
G1 Z0.200
G1 E1.40000 F2100.000
G1 F1200.000
G1 X113.282 Y86.607 E0.00376
G1 X113.132 Y85.918 E0.02210
G1 X113.084 Y85.418 E0.01576
G1 X113.084 Y79.181 E0.19556
G1 X113.132 Y78.681 E0.01574
G1 X113.282 Y77.992 E0.02210
G1 X126.240 Y77.992 E0.40627
G1 X127.919 Y78.030 E0.05266
G1 X127.919 Y86.569 E0.26772
G1 X126.240 Y86.607 E0.05266
G1 X113.462 Y86.607 E0.40063
G1 X113.342 Y86.711 F10800.000
;WIPE_START
G1 F8640.000
G1 X113.282 Y86.607 E-0.04153
G1 X113.132 Y85.918 E-0.16278
G1 X113.084 Y85.418 E-0.11608
G1 X113.084 Y81.045 E-1.00961
;WIPE_END
G1 E-0.07000 F2100.000
G1 Z0.400 F10800.000
G1 X113.462 Y77.615
G1 Z0.200
G1 E1.40000 F2100.000
G1 F1200.000
G1 X113.282 Y77.615 E0.00564
G1 X113.132 Y76.926 E0.02210
G1 X113.084 Y76.426 E0.01576
G1 X113.084 Y70.189 E0.19556
G1 X113.132 Y69.690 E0.01574
G1 X113.282 Y69.001 E0.02210
G1 X126.240 Y69.001 E0.40627
G1 X127.919 Y69.039 E0.05266
G1 X127.919 Y77.577 E0.26772
G1 X126.240 Y77.615 E0.05266
G1 X113.522 Y77.615 E0.39875
G1 X113.372 Y77.771 F10800.000
;WIPE_START
G1 F8640.000
G1 X113.282 Y77.615 E-0.05536
G1 X113.132 Y76.926 E-0.16277
G1 X113.084 Y76.426 E-0.11608
G1 X113.084 Y72.113 E-0.99579
;WIPE_END
G1 E-0.07000 F2100.000
G1 Z0.400 F10800.000
G1 X112.726 Y67.543
G1 Z0.200
G1 E1.40000 F2100.000
;TYPE:Perimeter
G1 F1200.000
G1 X112.759 Y67.986 E0.01393
G1 X112.937 Y68.814 E0.02656
G1 X112.759 Y69.631 E0.02621
G1 X112.707 Y70.169 E0.01695
G1 X112.698 Y71.154 E0.03089
G1 X112.707 Y76.445 E0.16588
G1 X112.759 Y76.985 E0.01702
G1 X112.937 Y77.804 E0.02627
G1 X112.759 Y78.623 E0.02627
G1 X112.707 Y79.161 E0.01695
G1 X112.698 Y80.146 E0.03089
G1 X112.707 Y85.436 E0.16588
G1 X112.759 Y85.977 E0.01702
G1 X112.937 Y86.795 E0.02628
G1 X112.759 Y87.614 E0.02628
G1 X112.707 Y88.155 E0.01702
G1 X112.698 Y93.445 E0.16588
G1 X112.707 Y94.430 E0.03089
G1 X112.759 Y94.968 E0.01695
G1 X112.937 Y95.787 E0.02627
G1 X112.759 Y96.606 E0.02627
G1 X112.707 Y97.144 E0.01695
G1 X112.698 Y98.129 E0.03089
G1 X112.707 Y103.419 E0.16588
G1 X112.759 Y103.960 E0.01702
G1 X112.937 Y104.779 E0.02628
G1 X112.759 Y105.597 E0.02628
G1 X112.707 Y106.138 E0.01702
G1 X112.698 Y111.910 E0.18098
G1 X112.709 Y112.422 E0.01607
G1 X112.773 Y112.974 E0.01741
G1 X112.901 Y113.429 E0.01483
G1 X112.602 Y113.369 E0.00956
G1 X112.024 Y113.328 E0.01815
G1 X111.447 Y113.369 E0.01815
G1 X111.148 Y113.429 E0.00956
G1 X111.275 Y112.974 E0.01483
G1 X111.339 Y112.422 E0.01741
G1 X111.350 Y111.910 E0.01607
G1 X111.342 Y106.138 E0.18098
G1 X111.289 Y105.597 E0.01702
G1 X111.111 Y104.779 E0.02628
G1 X111.289 Y103.960 E0.02628
G1 X111.342 Y103.419 E0.01702
G1 X111.351 Y98.129 E0.16588
G1 X111.342 Y97.144 E0.03089
G1 X111.289 Y96.606 E0.01695
G1 X111.111 Y95.787 E0.02627
G1 X111.289 Y94.968 E0.02627
G1 X111.342 Y94.430 E0.01695
G1 X111.351 Y93.445 E0.03089
G1 X111.342 Y88.155 E0.16588
G1 X111.289 Y87.614 E0.01702
G1 X111.111 Y86.795 E0.02628
G1 X111.289 Y85.977 E0.02628
G1 X111.342 Y85.436 E0.01702
G1 X111.342 Y79.161 E0.19676
G1 X111.289 Y78.623 E0.01695
G1 X111.111 Y77.804 E0.02627
G1 X111.289 Y76.985 E0.02627
G1 X111.342 Y76.444 E0.01703
G1 X111.344 Y70.178 E0.19648
G1 X111.303 Y69.652 E0.01652
G1 X111.165 Y68.801 E0.02706
G1 X111.405 Y68.730 E0.00785
G1 X112.041 Y68.321 E0.02372
G1 X112.562 Y67.800 E0.02311
G1 X112.694 Y67.593 E0.00767
;WIPE_START
G1 F8640.000
G1 X112.759 Y67.986 E-0.09187
G1 X112.937 Y68.814 E-0.19563
G1 X112.759 Y69.631 E-0.19299
G1 X112.707 Y70.169 E-0.12483
G1 X112.698 Y71.154 E-0.22747
G1 X112.701 Y73.308 E-0.49721
;WIPE_END
G1 E-0.07000 F2100.000
G1 Z0.400 F10800.000
G1 X110.807 Y68.947
G1 Z0.200
G1 E1.40000 F2100.000
;TYPE:External perimeter
G1 F1200.000
G1 X110.928 Y69.697 E0.02382
G1 X110.967 Y70.192 E0.01557
G1 X110.965 Y76.426 E0.19545
G1 X110.916 Y76.926 E0.01577
G1 X110.766 Y77.615 E0.02210
G1 X97.809 Y77.615 E0.40627
G1 X96.130 Y77.577 E0.05266
G1 X96.130 Y69.034 E0.26787
G1 X110.062 Y69.025 E0.43685
M73 P2 R49
M73 Q2 S49
G1 X110.747 Y68.953 E0.02158
G1 X111.204 Y68.904 F10800.000
;WIPE_START
G1 F8640.000
G1 X110.928 Y69.697 E-0.17677
G1 X110.967 Y70.192 E-0.11464
G1 X110.965 Y74.690 E-1.03859
;WIPE_END
G1 E-0.07000 F2100.000
G1 Z0.400 F10800.000
G1 X113.275 Y60.042
G1 Z0.200
G1 E1.40000 F2100.000
G1 F1200.000
G1 X127.919 Y60.042 E0.45915
G1 X127.919 Y68.586 E0.26787
G1 X126.240 Y68.624 E0.05266
G1 X113.282 Y68.624 E0.40629
G1 X113.133 Y67.932 E0.02217
G1 X113.096 Y67.426 E0.01592
G1 X113.125 Y66.926 E0.01569
G1 X113.251 Y65.971 E0.03022
G1 X113.275 Y65.506 E0.01458
G1 X113.275 Y60.102 E0.16944
G1 X113.275 Y59.642 F10800.000
;WIPE_START
G1 F8640.000
G1 X119.035 Y60.079 E-1.33000
;WIPE_END
G1 E-0.07000 F2100.000
G1 Z0.400 F10800.000
G1 X110.766 Y77.992
G1 Z0.200
G1 E1.40000 F2100.000
G1 F1200.000
G1 X110.916 Y78.681 E0.02210
G1 X110.965 Y79.181 E0.01574
G1 X110.974 Y80.147 E0.03031
G1 X110.965 Y85.418 E0.16525
G1 X110.916 Y85.918 E0.01576
G1 X110.766 Y86.607 E0.02210
G1 X96.137 Y86.607 E0.45868
G1 X95.987 Y85.918 E0.02210
G1 X95.939 Y85.419 E0.01571
G1 X95.931 Y84.927 E0.01543
G1 X95.966 Y83.955 E0.03049
G1 X96.093 Y82.995 E0.03038
G1 X96.130 Y82.530 E0.01460
G1 X96.130 Y78.032 E0.14104
G1 X97.317 Y77.994 E0.03725
G1 X110.706 Y77.992 E0.41980
G1 X111.162 Y77.935 F10800.000
;WIPE_START
G1 F8640.000
G1 X110.916 Y78.681 E-0.16627
G1 X110.965 Y79.181 E-0.11589
G1 X110.974 Y80.147 E-0.22319
G1 X110.968 Y83.719 E-0.82464
;WIPE_END
G1 E-0.07000 F2100.000
G1 Z0.400 F10800.000
G1 X92.876 Y85.858
G1 Z0.200
G1 E1.40000 F2100.000
G1 F1200.000
G1 X93.056 Y86.528 E0.02173
G1 X93.114 Y87.051 E0.01652
G1 X93.125 Y87.561 E0.01600
G1 X93.125 Y103.513 E0.50016
G1 X93.114 Y104.522 E0.03162
G1 X93.056 Y105.046 E0.01655
G1 X92.876 Y105.716 E0.02173
G1 X72.117 Y105.716 E0.65090
G1 X71.938 Y105.046 E0.02173
G1 X71.879 Y104.523 E0.01652
G1 X71.869 Y104.013 E0.01600
G1 X71.868 Y88.061 E0.50016
G1 X71.879 Y87.052 E0.03162
G1 X71.938 Y86.528 E0.01655
G1 X72.117 Y85.858 E0.02173
G1 X92.816 Y85.858 E0.64902
G1 X93.270 Y85.785 F10800.000
;WIPE_START
G1 F8640.000
G1 X93.056 Y86.528 E-0.16415
G1 X93.114 Y87.051 E-0.12166
G1 X93.125 Y87.561 E-0.11780
G1 X93.125 Y91.574 E-0.92640
;WIPE_END
G1 E-0.07000 F2100.000
G1 Z0.400 F10800.000
G1 X71.671 Y86.066
G1 Z0.200
G1 E1.40000 F2100.000
;TYPE:Perimeter
G1 F1200.000
G1 X71.566 Y86.458 E0.01271
G1 X71.502 Y87.029 E0.01804
G1 X71.491 Y88.059 E0.03228
G1 X71.492 Y104.016 E0.50034
G1 X71.503 Y104.547 E0.01665
G1 X71.566 Y105.116 E0.01795
G1 X71.674 Y105.519 E0.01307
G1 X71.463 Y105.468 E0.00680
G1 X70.900 Y105.400 E0.01777
G1 X70.345 Y105.390 E0.01743
G1 X69.786 Y105.432 E0.01757
G1 X69.346 Y105.517 E0.01404
G1 X69.454 Y105.116 E0.01301
G1 X69.517 Y104.545 E0.01804
G1 X69.529 Y103.515 E0.03228
G1 X69.528 Y87.558 E0.50034
G1 X69.517 Y87.027 E0.01665
G1 X69.454 Y86.458 E0.01795
G1 X69.348 Y86.064 E0.01278
G1 X69.897 Y86.155 E0.01746
G1 X70.451 Y86.184 E0.01739
G1 X71.002 Y86.166 E0.01727
G1 X71.612 Y86.079 E0.01933
;WIPE_START
G1 F8640.000
G1 X71.566 Y86.458 E-0.08812
G1 X71.502 Y87.029 E-0.13284
G1 X71.491 Y88.059 E-0.23771
G1 X71.491 Y91.832 E-0.87134
;WIPE_END
G1 E-0.07000 F2100.000
G1 Z0.400 F10800.000
G1 X68.903 Y105.716
G1 Z0.200
G1 E1.40000 F2100.000
;TYPE:External perimeter
G1 F1200.000
G1 X69.082 Y105.046 E0.02173
G1 X69.141 Y104.522 E0.01655
G1 X69.152 Y103.513 E0.03162
G1 X69.151 Y87.561 E0.50016
G1 X69.141 Y87.051 E0.01600
G1 X69.082 Y86.528 E0.01652
G1 X68.903 Y85.858 E0.02173
G1 X48.594 Y85.858 E0.63675
G1 X48.594 Y105.197 E0.60636
G1 X48.408 Y104.779 E0.01437
G1 X48.352 Y104.354 E0.01344
G1 X48.352 Y85.910 E0.57828
G1 X48.366 Y85.630 E0.00881
G1 X48.643 Y85.616 E0.00871
G1 X68.952 Y85.616 E0.63677
M73 P2 R48
G1 X69.938 Y85.779 E0.03134
G1 X70.455 Y85.807 E0.01622
G1 X70.970 Y85.789 E0.01617
G1 X71.485 Y85.721 E0.01627
G1 X71.967 Y85.616 E0.01547
G1 X92.286 Y85.616 E0.63708
G1 X93.142 Y85.535 E0.02696
G1 X93.454 Y85.537 E0.00979
G1 X93.798 Y85.438 E0.01123
G1 X94.122 Y85.315 E0.01086
G1 X94.639 Y84.965 E0.01957
G1 X95.125 Y84.483 E0.02147
G1 X95.480 Y83.924 E0.02076
G1 X95.663 Y83.301 E0.02036
G1 X95.744 Y82.697 E0.01910
