; generated by PrusaSlicer 2.3.0+win64 on 2021-07-26 at 05:22:41 UTC

; 

; external perimeters extrusion width = 0.45mm
; perimeters extrusion width = 0.45mm
; infill extrusion width = 0.45mm
; solid infill extrusion width = 0.45mm
; top infill extrusion width = 0.40mm
; support material extrusion width = 0.35mm
; first layer extrusion width = 0.42mm

M73 P0 R56
M73 Q0 S57
M201 X1000 Y1000 Z200 E5000 ; sets maximum accelerations, mm/sec^2
M203 X200 Y200 Z12 E120 ; sets maximum feedrates, mm/sec
M204 P1250 R1250 T1250 ; sets acceleration (P, T) and retract acceleration (R), mm/sec^2
M205 X8.00 Y8.00 Z0.40 E4.50 ; sets the jerk limits, mm/sec
M205 S0 T0 ; sets the minimum extruding and travel feed rate, mm/sec
M107
;TYPE:Custom
M862.3 P "MK3S" ; printer model check
M862.1 P0.4 ; nozzle diameter check
M115 U3.9.1 ; tell printer latest fw version
G90 ; use absolute coordinates
M83 ; extruder relative mode
M104 S240 ; set extruder temp
M140 S85 ; set bed temp
M190 S85 ; wait for bed temp
M109 S240 ; wait for extruder temp
G28 W ; home all without mesh bed level
G80 ; mesh bed leveling
G1 Y-3.0 F1000.0 ; go outside print area
G92 E0.0
G1 X60.0 E9.0 F1000.0 ; intro line
G1 X100.0 E12.5 F1000.0 ; intro line
G92 E0.0
M221 S95

; Don't change E values below. Excessive value can damage the printer.

M907 E538 ; set extruder motor current
G21 ; set units to millimeters
G90 ; use absolute coordinates
M83 ; use relative distances for extrusion
M900 K0.08 ; Filament gcode LA 1.5
M900 K45 ; Filament gcode LA 1.0
;LAYER_CHANGE
;Z:0.2
;HEIGHT:0.2
;BEFORE_LAYER_CHANGE
G92 E0.0
;0.2


G1 E-1.40000 F2100.000
G1 Z0.200 F10800.000
;AFTER_LAYER_CHANGE
;0.2
G1 Z0.400
G1 X82.891 Y73.665
G1 Z0.200
G1 E1.40000 F2100.000
M204 S1000
;TYPE:Skirt
;WIDTH:0.42
G1 F1200.000
G1 X83.571 Y73.523 E0.02178
G1 X118.908 Y73.519 E1.10798
G1 X162.101 Y81.856 E1.37926
M73 Q0 S56
G1 X163.032 Y82.085 E0.03007
G1 X163.881 Y82.428 E0.02870
G1 X164.938 Y83.051 E0.03847
G1 X165.884 Y83.879 E0.03942
G1 X166.478 Y84.585 E0.02894
G1 X166.960 Y85.359 E0.02859
G1 X167.452 Y86.495 E0.03882
G1 X167.724 Y87.684 E0.03823
G1 X167.791 Y88.620 E0.02942
G1 X167.791 Y106.919 E0.57376
G1 X167.703 Y107.532 E0.01941
G1 X167.461 Y108.098 E0.01929
G1 X166.987 Y108.671 E0.02331
G1 X166.360 Y109.070 E0.02331
G1 X101.801 Y136.532 E2.19974
G1 X101.215 Y136.646 E0.01870
G1 X99.985 Y136.651 E0.03858
G1 X83.050 Y136.481 E0.53098
G1 X82.446 Y136.390 E0.01917
G1 X81.887 Y136.150 E0.01906
G1 X81.381 Y135.749 E0.02024
G1 X81.002 Y135.227 E0.02024
G1 X80.525 Y134.081 E0.03894
G1 X80.410 Y133.399 E0.02166
G1 X80.240 Y76.984 E1.76888
G1 X80.324 Y76.363 E0.01965
G1 X80.570 Y75.782 E0.01977
G1 X80.901 Y75.346 E0.01716
G1 X82.282 Y73.998 E0.06052
G1 X82.839 Y73.694 E0.01990
;WIPE_START
G1 F8640.000
G1 X83.571 Y73.523 E-0.17368
G1 X88.579 Y73.522 E-1.15632
;WIPE_END
G1 E-0.07000 F2100.000
G1 Z0.400 F10800.000
G1 X82.617 Y76.991
G1 Z0.200
G1 E1.40000 F2100.000
;TYPE:Support material
G1 F1200.000
G1 X83.713 Y75.896 E0.04859
G1 X84.779 Y75.896 E0.03344
G1 X82.617 Y78.058 E0.09588
;WIPE_START
G1 F8640.000
G1 X84.779 Y75.896 E-0.70610
G1 X83.713 Y75.896 E-0.24627
G1 X82.617 Y76.991 E-0.35783
;WIPE_END
G1 E-0.08980 F2100.000
G1 Z0.400 F10800.000
G1 X85.617 Y79.324
G1 Z0.200
G1 E1.40000 F2100.000
G1 F1200.000
G1 X86.045 Y78.896 E0.01901
G1 X87.112 Y78.896 E0.03344
G1 X85.786 Y80.221 E0.05878
G1 X85.786 Y81.288 E0.03344
G1 X88.178 Y78.896 E0.10607
G1 X89.245 Y78.896 E0.03344
G1 X85.786 Y82.354 E0.15336
G1 X85.786 Y83.421 E0.03344
G1 X90.312 Y78.896 E0.20065
G1 X91.378 Y78.896 E0.03344
G1 X85.786 Y84.487 E0.24795
G1 X85.786 Y85.554 E0.03344
G1 X92.445 Y78.896 E0.29524
G1 X93.511 Y78.896 E0.03344
G1 X86.260 Y86.146 E0.32152
G1 X87.327 Y86.146 E0.03344
G1 X94.578 Y78.896 E0.32152
G1 X95.644 Y78.896 E0.03344
G1 X88.393 Y86.146 E0.32152
G1 X89.460 Y86.146 E0.03344
G1 X96.711 Y78.896 E0.32152
G1 X97.777 Y78.896 E0.03344
G1 X90.526 Y86.146 E0.32152
G1 X91.593 Y86.146 E0.03344
G1 X98.844 Y78.896 E0.32152
G1 X99.133 Y78.896 E0.00907
G1 X99.133 Y79.673 E0.02437
G1 X92.660 Y86.146 E0.28706
G1 X93.726 Y86.146 E0.03344
G1 X99.147 Y80.726 E0.24037
G1 X99.390 Y80.969 E0.01079
G1 X99.970 Y80.969 E0.01819
G1 X94.793 Y86.146 E0.22958
G1 X95.859 Y86.146 E0.03344
G1 X101.037 Y80.969 E0.22958
G1 X102.103 Y80.969 E0.03344
G1 X96.756 Y86.316 E0.23711
;WIPE_START
G1 F8640.000
G1 X100.829 Y82.243 E-1.33000
;WIPE_END
G1 E-0.07000 F2100.000
G1 Z0.400 F10800.000
G1 X103.280 Y78.726
G1 Z0.200
G1 E1.40000 F2100.000
G1 F1200.000
G1 X102.931 Y79.074 E0.01545
G1 X102.931 Y80.141 E0.03344
G1 X104.177 Y78.896 E0.05522
G1 X105.243 Y78.896 E0.03344
G1 X97.992 Y86.146 E0.32152
G1 X99.059 Y86.146 E0.03344
G1 X106.310 Y78.896 E0.32152
G1 X107.376 Y78.896 E0.03344
G1 X99.939 Y86.332 E0.32976
G1 X100.010 Y86.403 E0.00315
G1 X100.010 Y87.328 E0.02899
G1 X108.443 Y78.896 E0.37391
G1 X109.509 Y78.896 E0.03344
G1 X93.267 Y95.138 E0.72022
G1 X94.333 Y95.138 E0.03344
M73 Q1 S56
G1 X102.054 Y87.417 E0.34236
M73 P1 R56
G1 X102.054 Y87.630 E0.00668
G1 X102.311 Y87.887 E0.01139
G1 X102.651 Y87.887 E0.01065
G1 X95.400 Y95.138 E0.32152
G1 X96.466 Y95.138 E0.03344
G1 X103.717 Y87.887 E0.32152
G1 X104.784 Y87.887 E0.03344
G1 X97.533 Y95.138 E0.32152
G1 X98.600 Y95.138 E0.03344
G1 X105.850 Y87.887 E0.32152
G1 X106.917 Y87.887 E0.03344
G1 X99.666 Y95.138 E0.32152
G1 X99.753 Y95.138 E0.00274
G1 X100.010 Y95.395 E0.01139
G1 X100.010 Y95.860 E0.01459
G1 X107.984 Y87.887 E0.35354
G1 X109.050 Y87.887 E0.03344
G1 X92.808 Y104.130 E0.72022
G1 X93.874 Y104.130 E0.03344
G1 X102.054 Y95.949 E0.36272
G1 X102.054 Y95.395 E0.01739
G1 X102.311 Y95.138 E0.01139
G1 X102.866 Y95.138 E0.01739
G1 X110.117 Y87.887 E0.32152
G1 X111.183 Y87.887 E0.03344
G1 X103.932 Y95.138 E0.32152
G1 X104.999 Y95.138 E0.03344
G1 X112.250 Y87.887 E0.32152
G1 X113.316 Y87.887 E0.03344
G1 X106.065 Y95.138 E0.32152
G1 X107.132 Y95.138 E0.03344
G1 X114.383 Y87.887 E0.32152
G1 X115.449 Y87.887 E0.03344
G1 X108.198 Y95.138 E0.32152
G1 X109.265 Y95.138 E0.03344
G1 X116.516 Y87.887 E0.32152
G1 X117.582 Y87.887 E0.03344
G1 X110.331 Y95.138 E0.32152
G1 X111.398 Y95.138 E0.03344
G1 X118.649 Y87.887 E0.32152
G1 X119.715 Y87.887 E0.03344
G1 X112.465 Y95.138 E0.32152
G1 X113.531 Y95.138 E0.03344
G1 X120.782 Y87.887 E0.32152
G1 X121.023 Y87.887 E0.00755
G1 X121.280 Y87.630 E0.01139
G1 X121.280 Y87.389 E0.00755
G1 X121.941 Y86.728 E0.02931
G1 X123.007 Y86.728 E0.03344
G1 X114.598 Y95.138 E0.37290
G1 X115.664 Y95.138 E0.03344
G1 X124.074 Y86.728 E0.37290
G1 X125.140 Y86.728 E0.03344
G1 X116.731 Y95.138 E0.37290
G1 X116.899 Y95.138 E0.00526
G1 X117.155 Y95.395 E0.01139
G1 X117.155 Y95.780 E0.01207
G1 X126.207 Y86.728 E0.40136
G1 X127.235 Y86.728 E0.03223
G1 X127.254 Y86.748 E0.00086
G1 X109.872 Y104.130 E0.77075
M73 P1 R55
G1 X110.939 Y104.130 E0.03344
G1 X126.156 Y88.912 E0.67476
G1 X126.689 Y89.446 E0.02365
G1 X112.005 Y104.130 E0.65112
G1 X113.072 Y104.130 E0.03344
G1 X127.223 Y89.979 E0.62747
G1 X127.562 Y90.318 E0.01503
G1 X125.930 Y91.949 E0.07234
G1 X126.125 Y92.143 E0.00861
G1 X114.138 Y104.130 E0.53149
G1 X115.205 Y104.130 E0.03344
G1 X126.658 Y92.677 E0.50784
G1 X127.191 Y93.210 E0.02365
G1 X116.271 Y104.130 E0.48420
G1 X116.899 Y104.130 E0.01966
G1 X117.118 Y104.349 E0.00974
G1 X126.093 Y95.375 E0.39796
G1 X126.626 Y95.908 E0.02365
G1 X109.413 Y113.121 E0.76327
G1 X108.346 Y113.121 E0.03344
G1 X115.597 Y105.870 E0.32152
G1 X114.531 Y105.870 E0.03344
G1 X107.280 Y113.121 E0.32152
G1 X106.213 Y113.121 E0.03344
G1 X113.464 Y105.870 E0.32152
G1 X112.398 Y105.870 E0.03344
G1 X105.147 Y113.121 E0.32152
G1 X104.080 Y113.121 E0.03344
G1 X111.331 Y105.870 E0.32152
G1 X110.265 Y105.870 E0.03344
G1 X103.014 Y113.121 E0.32152
G1 X102.311 Y113.121 E0.02203
G1 X102.054 Y113.378 E0.01139
G1 X102.054 Y114.081 E0.02203
G1 X94.022 Y122.113 E0.35616
G1 X95.089 Y122.113 E0.03344
G1 X102.340 Y114.862 E0.32152
G1 X103.406 Y114.862 E0.03344
G1 X96.155 Y122.113 E0.32152
G1 X97.222 Y122.113 E0.03344
G1 X104.473 Y114.862 E0.32152
G1 X105.539 Y114.862 E0.03344
G1 X98.288 Y122.113 E0.32152
G1 X99.355 Y122.113 E0.03344
G1 X106.606 Y114.862 E0.32152
G1 X107.672 Y114.862 E0.03344
G1 X100.421 Y122.113 E0.32152
G1 X101.488 Y122.113 E0.03344
G1 X108.739 Y114.862 E0.32152
G1 X109.805 Y114.862 E0.03344
G1 X102.554 Y122.113 E0.32152
G1 X103.621 Y122.113 E0.03344
G1 X110.872 Y114.862 E0.32152
G1 X111.938 Y114.862 E0.03344
G1 X104.688 Y122.113 E0.32152
M73 P2 R55
M73 Q2 S56
G1 X105.754 Y122.113 E0.03344
G1 X113.005 Y114.862 E0.32152
G1 X114.072 Y114.862 E0.03344
G1 X106.821 Y122.113 E0.32152
G1 X107.887 Y122.113 E0.03344
G1 X115.138 Y114.862 E0.32152
G1 X116.205 Y114.862 E0.03344
G1 X108.954 Y122.113 E0.32152
M73 Q2 S55
G1 X110.020 Y122.113 E0.03344
G1 X116.278 Y115.855 E0.27749
G1 X116.278 Y116.921 E0.03344
G1 X111.087 Y122.113 E0.23020
G1 X112.153 Y122.113 E0.03344
G1 X116.278 Y117.988 E0.18291
G1 X116.278 Y119.054 E0.03344
G1 X113.220 Y122.113 E0.13562
G1 X114.286 Y122.113 E0.03344
G1 X116.278 Y120.121 E0.08833
G1 X116.278 Y121.187 E0.03344
G1 X115.183 Y122.283 E0.04856
;WIPE_START
G1 F8640.000
G1 X116.278 Y121.187 E-0.35759
G1 X116.278 Y120.121 E-0.24627
G1 X114.286 Y122.113 E-0.65045
G1 X113.959 Y122.113 E-0.07569
;WIPE_END
G1 E-0.07000 F2100.000
G1 Z0.400 F10800.000
G1 X115.383 Y125.282
G1 Z0.200
G1 E1.40000 F2100.000
G1 F1200.000
G1 X116.913 Y123.752 E0.06786
G1 X115.847 Y123.752 E0.03344
G1 X114.486 Y125.113 E0.06034
G1 X113.420 Y125.113 E0.03344
G1 X114.780 Y123.752 E0.06034
G1 X113.714 Y123.752 E0.03344
G1 X112.353 Y125.113 E0.06034
G1 X111.286 Y125.113 E0.03344
G1 X112.647 Y123.752 E0.06034
G1 X111.581 Y123.752 E0.03344
G1 X110.220 Y125.113 E0.06034
G1 X109.153 Y125.113 E0.03344
G1 X110.514 Y123.752 E0.06034
G1 X109.448 Y123.752 E0.03344
G1 X108.087 Y125.113 E0.06034
G1 X107.020 Y125.113 E0.03344
G1 X108.381 Y123.752 E0.06034
G1 X107.315 Y123.752 E0.03344
G1 X105.954 Y125.113 E0.06034
G1 X104.887 Y125.113 E0.03344
G1 X106.248 Y123.752 E0.06034
G1 X105.181 Y123.752 E0.03344
G1 X103.821 Y125.113 E0.06034
G1 X102.754 Y125.113 E0.03344
G1 X104.115 Y123.752 E0.06034
G1 X103.655 Y123.752 E0.01442
G1 X103.139 Y123.797 E0.01624
G1 X102.954 Y123.847 E0.00601
G1 X100.867 Y125.933 E0.09252
G1 X100.817 Y126.118 E0.00601
G1 X100.772 Y126.635 E0.01624
G1 X100.772 Y127.095 E0.01442
G1 X102.133 Y125.734 E0.06034
G1 X102.133 Y126.800 E0.03344
G1 X100.772 Y128.161 E0.06034
G1 X100.772 Y129.228 E0.03344
G1 X102.133 Y127.867 E0.06034
G1 X102.133 Y128.933 E0.03344
G1 X100.772 Y130.294 E0.06034
G1 X100.772 Y131.361 E0.03344
G1 X102.133 Y130.000 E0.06034
G1 X102.133 Y131.066 E0.03344
G1 X99.095 Y134.104 E0.13471
G1 X98.029 Y134.104 E0.03344
G1 X99.390 Y132.744 E0.06034
G1 X98.323 Y132.744 E0.03344
G1 X96.962 Y134.104 E0.06034
G1 X95.896 Y134.104 E0.03344
G1 X97.256 Y132.744 E0.06034
G1 X96.190 Y132.744 E0.03344
G1 X94.829 Y134.104 E0.06034
G1 X93.763 Y134.104 E0.03344
G1 X95.123 Y132.744 E0.06034
G1 X94.057 Y132.744 E0.03344
G1 X92.696 Y134.104 E0.06034
G1 X91.629 Y134.104 E0.03344
G1 X92.990 Y132.744 E0.06034
G1 X91.924 Y132.744 E0.03344
G1 X90.563 Y134.104 E0.06034
G1 X89.496 Y134.104 E0.03344
G1 X90.857 Y132.744 E0.06034
G1 X89.791 Y132.744 E0.03344
G1 X88.430 Y134.104 E0.06034
G1 X87.363 Y134.104 E0.03344
G1 X88.724 Y132.744 E0.06034
G1 X87.658 Y132.744 E0.03344
G1 X86.297 Y134.104 E0.06034
G1 X85.230 Y134.104 E0.03344
G1 X86.591 Y132.744 E0.06034
G1 X85.524 Y132.744 E0.03344
G1 X84.164 Y134.104 E0.06034
G1 X83.097 Y134.104 E0.03344
G1 X84.458 Y132.744 E0.06034
G1 X84.404 Y132.744 E0.00169
G1 X84.147 Y132.487 E0.01139
G1 X84.147 Y131.988 E0.01564
G1 X82.786 Y133.348 E0.06034
G1 X82.786 Y132.282 E0.03344
G1 X84.147 Y130.921 E0.06034
G1 X84.147 Y129.855 E0.03344
G1 X82.786 Y131.215 E0.06034
G1 X82.786 Y130.149 E0.03344
G1 X84.147 Y128.788 E0.06034
G1 X84.147 Y127.721 E0.03344
G1 X82.786 Y129.082 E0.06034
G1 X82.786 Y128.016 E0.03344
G1 X84.147 Y126.655 E0.06034
G1 X84.147 Y125.588 E0.03344
G1 X82.786 Y126.949 E0.06034
G1 X82.786 Y125.883 E0.03344
G1 X84.147 Y124.522 E0.06034
G1 X84.147 Y123.455 E0.03344
G1 X82.786 Y124.816 E0.06034
G1 X82.786 Y123.750 E0.03344
G1 X84.147 Y122.389 E0.06034
G1 X84.147 Y121.322 E0.03344
G1 X82.786 Y122.683 E0.06034
G1 X82.786 Y121.617 E0.03344
G1 X84.147 Y120.256 E0.06034
G1 X84.147 Y119.189 E0.03344
G1 X82.786 Y120.550 E0.06034
G1 X82.786 Y119.483 E0.03344
G1 X84.147 Y118.123 E0.06034
G1 X84.147 Y117.056 E0.03344
G1 X82.786 Y118.417 E0.06034
G1 X82.786 Y117.350 E0.03344
G1 X84.147 Y115.990 E0.06034
G1 X84.147 Y114.923 E0.03344
G1 X82.786 Y116.284 E0.06034
G1 X82.786 Y115.217 E0.03344
G1 X84.147 Y113.856 E0.06034
G1 X84.147 Y112.790 E0.03344
G1 X82.786 Y114.151 E0.06034
G1 X82.786 Y113.084 E0.03344
G1 X84.147 Y111.723 E0.06034
G1 X84.147 Y110.657 E0.03344
G1 X82.786 Y112.018 E0.06034
G1 X82.786 Y110.951 E0.03344
G1 X84.147 Y109.590 E0.06034
G1 X84.147 Y108.524 E0.03344
G1 X82.786 Y109.885 E0.06034
G1 X82.786 Y108.818 E0.03344
G1 X84.147 Y107.457 E0.06034
G1 X84.147 Y106.391 E0.03344
G1 X82.786 Y107.751 E0.06034
G1 X82.786 Y106.685 E0.03344
G1 X84.147 Y105.324 E0.06034
G1 X84.147 Y104.258 E0.03344
G1 X82.786 Y105.618 E0.06034
G1 X82.786 Y104.552 E0.03344
G1 X84.147 Y103.191 E0.06034
G1 X84.147 Y102.124 E0.03344
G1 X82.786 Y103.485 E0.06034
G1 X82.786 Y102.419 E0.03344
G1 X84.147 Y101.058 E0.06034
G1 X84.147 Y99.991 E0.03344
G1 X82.786 Y101.352 E0.06034
G1 X82.786 Y100.286 E0.03344
G1 X84.147 Y98.925 E0.06034
G1 X84.147 Y97.858 E0.03344
G1 X82.786 Y99.219 E0.06034
G1 X82.786 Y98.153 E0.03344
G1 X84.147 Y96.792 E0.06034
G1 X84.147 Y95.725 E0.03344
G1 X82.786 Y97.086 E0.06034
G1 X82.786 Y96.020 E0.03344
G1 X84.147 Y94.659 E0.06034
G1 X84.147 Y93.592 E0.03344
G1 X82.786 Y94.953 E0.06034
G1 X82.786 Y93.886 E0.03344
G1 X84.147 Y92.526 E0.06034
G1 X84.147 Y91.459 E0.03344
G1 X82.786 Y92.820 E0.06034
G1 X82.786 Y91.753 E0.03344
G1 X84.147 Y90.393 E0.06034
G1 X84.147 Y89.326 E0.03344
G1 X82.786 Y90.687 E0.06034
G1 X82.786 Y89.620 E0.03344
G1 X84.147 Y88.259 E0.06034
G1 X84.147 Y87.193 E0.03344
G1 X82.786 Y88.554 E0.06034
G1 X82.786 Y87.487 E0.03344
G1 X84.147 Y86.126 E0.06034
G1 X84.147 Y85.060 E0.03344
G1 X82.786 Y86.421 E0.06034
G1 X82.786 Y85.354 E0.03344
G1 X84.147 Y83.993 E0.06034
G1 X84.147 Y82.927 E0.03344
G1 X82.786 Y84.288 E0.06034
G1 X82.786 Y83.221 E0.03344
G1 X84.147 Y81.860 E0.06034
G1 X84.147 Y80.794 E0.03344
G1 X82.786 Y82.154 E0.06034
G1 X82.786 Y81.088 E0.03344
G1 X84.147 Y79.727 E0.06034
G1 X84.147 Y78.661 E0.03344
G1 X82.786 Y80.021 E0.06034
G1 X82.786 Y78.955 E0.03344
G1 X85.846 Y75.896 E0.13565
G1 X86.912 Y75.896 E0.03344
G1 X85.551 Y77.256 E0.06034
G1 X86.618 Y77.256 E0.03344
G1 X87.979 Y75.896 E0.06034
G1 X89.045 Y75.896 E0.03344
G1 X87.684 Y77.256 E0.06034
G1 X88.751 Y77.256 E0.03344
G1 X90.112 Y75.896 E0.06034
G1 X91.178 Y75.896 E0.03344
G1 X89.818 Y77.256 E0.06034
G1 X90.884 Y77.256 E0.03344
G1 X92.245 Y75.896 E0.06034
G1 X93.311 Y75.896 E0.03344
G1 X91.951 Y77.256 E0.06034
G1 X93.017 Y77.256 E0.03344
G1 X94.378 Y75.896 E0.06034
G1 X95.445 Y75.896 E0.03344
G1 X94.084 Y77.256 E0.06034
G1 X95.150 Y77.256 E0.03344
G1 X96.511 Y75.896 E0.06034
G1 X97.578 Y75.896 E0.03344
G1 X96.217 Y77.256 E0.06034
G1 X97.283 Y77.256 E0.03344
G1 X98.644 Y75.896 E0.06034
G1 X99.711 Y75.896 E0.03344
G1 X98.350 Y77.256 E0.06034
G1 X99.416 Y77.256 E0.03344
G1 X100.777 Y75.896 E0.06034
G1 X101.844 Y75.896 E0.03344
G1 X100.483 Y77.256 E0.06034
G1 X101.550 Y77.256 E0.03344
G1 X102.910 Y75.896 E0.06034
G1 X103.977 Y75.896 E0.03344
G1 X102.616 Y77.256 E0.06034
G1 X103.683 Y77.256 E0.03344
G1 X105.043 Y75.896 E0.06034
G1 X106.110 Y75.896 E0.03344
G1 X104.749 Y77.256 E0.06034
G1 X105.816 Y77.256 E0.03344
G1 X107.177 Y75.896 E0.06034
G1 X108.243 Y75.896 E0.03344
G1 X106.882 Y77.256 E0.06034
G1 X107.949 Y77.256 E0.03344
G1 X109.310 Y75.896 E0.06034
G1 X110.376 Y75.896 E0.03344
G1 X109.015 Y77.256 E0.06034
G1 X110.082 Y77.256 E0.03344
G1 X111.443 Y75.896 E0.06034
G1 X112.509 Y75.896 E0.03344
G1 X111.148 Y77.256 E0.06034
G1 X112.215 Y77.256 E0.03344
G1 X113.576 Y75.896 E0.06034
G1 X114.642 Y75.896 E0.03344
