; generated by PrusaSlicer 2.3.0+win64 on 2021-07-24 at 02:21:41 UTC

; 

; external perimeters extrusion width = 0.45mm
; perimeters extrusion width = 0.45mm
; infill extrusion width = 0.45mm
; solid infill extrusion width = 0.45mm
; top infill extrusion width = 0.40mm
; first layer extrusion width = 0.42mm

M73 P0 R22
M73 Q0 S22
M201 X1000 Y1000 Z200 E5000 ; sets maximum accelerations, mm/sec^2
M203 X200 Y200 Z12 E120 ; sets maximum feedrates, mm/sec
M204 P1250 R1250 T1250 ; sets acceleration (P, T) and retract acceleration (R), mm/sec^2
M205 X8.00 Y8.00 Z0.40 E4.50 ; sets the jerk limits, mm/sec
M205 S0 T0 ; sets the minimum extruding and travel feed rate, mm/sec
M107
;TYPE:Custom
M862.3 P "MK3S" ; printer model check
M862.1 P0.4 ; nozzle diameter check
M115 U3.9.1 ; tell printer latest fw version
G90 ; use absolute coordinates
M83 ; extruder relative mode
M104 S240 ; set extruder temp
M140 S85 ; set bed temp
M190 S85 ; wait for bed temp
M109 S240 ; wait for extruder temp
G28 W ; home all without mesh bed level
G80 ; mesh bed leveling
G1 Y-3.0 F1000.0 ; go outside print area
G92 E0.0
G1 X60.0 E9.0 F1000.0 ; intro line
G1 X100.0 E12.5 F1000.0 ; intro line
G92 E0.0
M221 S95

; Don't change E values below. Excessive value can damage the printer.
M907 E430 ; set extruder motor current
G21 ; set units to millimeters
G90 ; use absolute coordinates
M83 ; use relative distances for extrusion
M900 K0.08 ; Filament gcode LA 1.5
M900 K45 ; Filament gcode LA 1.0
;LAYER_CHANGE
;Z:0.2
;HEIGHT:0.2
;BEFORE_LAYER_CHANGE
G92 E0.0
;0.2


G1 E-1.40000 F2100.000
G1 Z0.200 F10800.000
;AFTER_LAYER_CHANGE
;0.2
G1 Z0.400
G1 X94.685 Y96.075
G1 Z0.200
G1 E1.40000 F2100.000
M204 S1000
;TYPE:Skirt
;WIDTH:0.42
G1 F1200.000
G1 X95.252 Y95.543 E0.02437
G1 X96.009 Y95.158 E0.02662
G1 X96.734 Y95.019 E0.02316
G1 X116.731 Y93.924 E0.62792
G1 X136.463 Y93.511 E0.61881
G1 X152.893 Y93.511 E0.51517
G1 X153.466 Y93.570 E0.01806
G1 X153.984 Y93.729 E0.01699
G1 X154.858 Y94.292 E0.03259
G1 X155.208 Y94.685 E0.01651
G1 X155.506 Y95.192 E0.01842
G1 X155.691 Y95.733 E0.01794
G1 X155.765 Y96.297 E0.01782
G1 X155.754 Y113.035 E0.52483
G1 X155.548 Y113.887 E0.02746
G1 X155.137 Y114.585 E0.02541
G1 X154.546 Y115.140 E0.02541
G1 X153.761 Y115.528 E0.02746
G1 X152.954 Y115.664 E0.02564
G1 X133.234 Y116.077 E0.61844
G1 X116.709 Y116.075 E0.51816
M73 P1 R22
M73 Q1 S22
G1 X96.527 Y115.220 E0.63333
G1 X95.769 Y115.009 E0.02468
G1 X95.075 Y114.580 E0.02557
G1 X94.565 Y114.024 E0.02366
G1 X94.191 Y113.283 E0.02603
G1 X94.047 Y112.397 E0.02816
G1 X94.062 Y97.590 E0.46426
G1 X94.261 Y96.789 E0.02587
G1 X94.654 Y96.126 E0.02416
;WIPE_START
G1 F8640.000
G1 X95.252 Y95.543 E-0.19280
G1 X96.009 Y95.158 E-0.19604
G1 X96.734 Y95.019 E-0.17056
G1 X100.067 Y94.836 E-0.77060
;WIPE_END
G1 E-0.07000 F2100.000
G1 Z0.400 F10800.000
G1 X97.363 Y98.331
G1 Z0.200
G1 E1.40000 F2100.000
;TYPE:External perimeter
G1 F1200.000
G1 X110.961 Y98.331 E0.42635
G1 X110.961 Y111.928 E0.42635
G1 X97.363 Y111.928 E0.42635
G1 X97.363 Y98.391 E0.42447
G1 X97.260 Y97.944 F10800.000
G1 X97.050 Y98.016
G1 F1200.000
G1 X97.470 Y97.964 E0.01328
G1 X97.954 Y97.953 E0.01517
G1 X110.856 Y97.964 E0.40454
G1 X111.276 Y98.017 E0.01324
G1 X111.328 Y98.435 E0.01321
G1 X111.338 Y111.338 E0.40455
G1 X111.328 Y111.821 E0.01517
G1 X111.275 Y112.243 E0.01331
G1 X110.854 Y112.295 E0.01328
G1 X110.371 Y112.305 E0.01518
G1 X97.954 Y112.305 E0.38931
G1 X97.471 Y112.295 E0.01517
G1 X97.049 Y112.242 E0.01331
G1 X96.997 Y111.821 E0.01328
G1 X96.986 Y111.338 E0.01518
G1 X96.986 Y98.921 E0.38931
G1 X96.997 Y98.438 E0.01517
G1 X97.042 Y98.076 E0.01143
G1 X97.408 Y98.195 F10800.000
;WIPE_START
G1 F8640.000
G1 X97.470 Y97.964 E-0.10211
G1 X97.954 Y97.953 E-0.11173
G1 X102.788 Y97.958 E-1.11615
;WIPE_END
G1 E-0.07000 F2100.000
G1 Z0.400 F10800.000
G1 X122.787 Y102.287
G1 Z0.200
G1 E1.40000 F2100.000
;TYPE:Perimeter
G1 F1200.000
G1 X127.213 Y102.287 E0.13877
G1 X127.213 Y107.713 E0.17012
G1 X122.787 Y107.713 E0.13877
G1 X122.787 Y102.347 E0.16824
;WIPE_START
G1 F8640.000
G1 X127.213 Y102.287 E-1.02203
G1 X127.213 Y103.621 E-0.30797
;WIPE_END
G1 E-0.07000 F2100.000
G1 Z0.400 F10800.000
G1 X124.282 Y111.487
G1 Z0.200
G1 E1.40000 F2100.000
G1 F1200.000
G1 X125.718 Y111.487 E0.04501
G1 X125.724 Y112.235 E0.02345
G1 X125.788 Y112.809 E0.01810
G1 X125.857 Y113.068 E0.00840
G1 X125.301 Y112.969 E0.01770
G1 X124.699 Y112.969 E0.01888
G1 X124.143 Y113.068 E0.01770
G1 X124.212 Y112.809 E0.00840
G1 X124.276 Y112.235 E0.01810
G1 X124.282 Y111.547 E0.02157
;WIPE_START
G1 F8640.000
G1 X125.718 Y111.487 E-0.33188
G1 X125.724 Y112.235 E-0.17269
G1 X125.788 Y112.809 E-0.13333
G1 X125.857 Y113.068 E-0.06183
G1 X125.301 Y112.969 E-0.13035
G1 X124.699 Y112.969 E-0.13900
G1 X124.143 Y113.068 E-0.13035
G1 X124.212 Y112.809 E-0.06183
G1 X124.276 Y112.235 E-0.13333
G1 X124.277 Y112.082 E-0.03540
;WIPE_END
G1 E-0.07000 F2100.000
G1 Z0.400 F10800.000
G1 X131.487 Y105.718
G1 Z0.200
G1 E1.40000 F2100.000
G1 F1200.000
G1 X131.487 Y104.282 E0.04501
G1 X132.235 Y104.276 E0.02345
G1 X132.809 Y104.212 E0.01810
G1 X133.068 Y104.143 E0.00840
G1 X132.969 Y104.699 E0.01770
G1 X132.969 Y105.301 E0.01888
G1 X133.068 Y105.857 E0.01770
G1 X132.809 Y105.788 E0.00840
G1 X132.235 Y105.724 E0.01810
G1 X131.547 Y105.718 E0.02157
;WIPE_START
G1 F8640.000
G1 X131.487 Y104.282 E-0.33188
G1 X132.235 Y104.276 E-0.17269
G1 X132.809 Y104.212 E-0.13333
G1 X133.068 Y104.143 E-0.06183
G1 X132.969 Y104.699 E-0.13035
G1 X132.969 Y105.301 E-0.13900
G1 X133.068 Y105.857 E-0.13035
G1 X132.809 Y105.788 E-0.06183
G1 X132.235 Y105.724 E-0.13333
G1 X132.082 Y105.723 E-0.03540
;WIPE_END
G1 E-0.07000 F2100.000
G1 Z0.400 F10800.000
G1 X125.718 Y98.513
G1 Z0.200
G1 E1.40000 F2100.000
G1 F1200.000
G1 X124.282 Y98.513 E0.04501
G1 X124.276 Y97.765 E0.02345
G1 X124.212 Y97.191 E0.01810
G1 X124.143 Y96.932 E0.00840
G1 X124.699 Y97.031 E0.01770
G1 X125.301 Y97.031 E0.01888
G1 X125.857 Y96.932 E0.01770
G1 X125.788 Y97.191 E0.00840
G1 X125.724 Y97.765 E0.01810
G1 X125.718 Y98.453 E0.02157
;WIPE_START
G1 F8640.000
G1 X124.282 Y98.513 E-0.33188
G1 X124.276 Y97.765 E-0.17269
G1 X124.212 Y97.191 E-0.13333
G1 X124.143 Y96.932 E-0.06183
G1 X124.699 Y97.031 E-0.13035
G1 X125.301 Y97.031 E-0.13900
G1 X125.857 Y96.932 E-0.13035
G1 X125.788 Y97.191 E-0.06183
G1 X125.724 Y97.765 E-0.13333
G1 X125.723 Y97.918 E-0.03540
;WIPE_END
G1 E-0.07000 F2100.000
G1 Z0.400 F10800.000
G1 X118.513 Y104.282
M73 Q2 S22
G1 Z0.200
G1 E1.40000 F2100.000
G1 F1200.000
G1 X118.513 Y105.718 E0.04501
M73 P2 R22
G1 X117.765 Y105.724 E0.02345
G1 X117.191 Y105.788 E0.01810
G1 X116.932 Y105.857 E0.00840
G1 X117.031 Y105.301 E0.01770
G1 X117.031 Y104.699 E0.01888
G1 X116.932 Y104.143 E0.01770
G1 X117.191 Y104.212 E0.00840
G1 X117.765 Y104.276 E0.01810
G1 X118.453 Y104.282 E0.02157
;WIPE_START
G1 F8640.000
G1 X118.513 Y105.718 E-0.33188
G1 X117.765 Y105.724 E-0.17269
G1 X117.191 Y105.788 E-0.13333
G1 X116.932 Y105.857 E-0.06183
G1 X117.031 Y105.301 E-0.13035
G1 X117.031 Y104.699 E-0.13900
G1 X116.932 Y104.143 E-0.13035
G1 X117.191 Y104.212 E-0.06183
G1 X117.765 Y104.276 E-0.13333
G1 X117.918 Y104.277 E-0.03540
;WIPE_END
G1 E-0.07000 F2100.000
G1 Z0.400 F10800.000
G1 X126.339 Y96.590
G1 Z0.200
G1 E1.40000 F2100.000
;TYPE:External perimeter
G1 F1200.000
G1 X126.159 Y97.261 E0.02178
G1 X126.101 Y97.787 E0.01661
G1 X126.092 Y98.890 E0.03457
M73 P2 R21
G1 X125.340 Y98.890 E0.02357
G1 X125.340 Y101.910 E0.09469
G1 X127.590 Y101.910 E0.07055
G1 X127.590 Y104.660 E0.08622
G1 X131.110 Y104.660 E0.11037
G1 X131.110 Y103.908 E0.02357
G1 X132.213 Y103.899 E0.03457
G1 X132.739 Y103.841 E0.01661
G1 X133.410 Y103.661 E0.02178
G1 X133.410 Y96.604 E0.22126
G1 X133.460 Y96.675 E0.00271
G1 X133.490 Y96.812 E0.00440
G1 X133.490 Y103.746 E0.21742
G1 X133.438 Y104.225 E0.01509
G1 X133.346 Y104.733 E0.01619
G1 X133.346 Y105.267 E0.01676
G1 X133.438 Y105.775 E0.01619
G1 X133.490 Y106.254 E0.01509
G1 X133.490 Y113.187 E0.21739
G1 X133.481 Y113.257 E0.00220
G1 X133.417 Y113.388 E0.00459
G1 X133.410 Y106.339 E0.22103
G1 X132.739 Y106.159 E0.02178
G1 X132.213 Y106.101 E0.01661
G1 X131.110 Y106.092 E0.03457
G1 X131.110 Y105.340 E0.02357
G1 X127.590 Y105.340 E0.11037
G1 X127.590 Y108.090 E0.08622
G1 X125.340 Y108.090 E0.07055
G1 X125.340 Y111.110 E0.09469
G1 X126.092 Y111.110 E0.02357
G1 X126.101 Y112.213 E0.03457
G1 X126.159 Y112.739 E0.01661
G1 X126.339 Y113.410 E0.02178
G1 X133.396 Y113.410 E0.22126
G1 X133.380 Y113.426 E0.00070
G1 X133.264 Y113.481 E0.00403
G1 X133.188 Y113.490 E0.00240
G1 X126.254 Y113.490 E0.21742
G1 X125.775 Y113.438 E0.01509
G1 X125.267 Y113.346 E0.01619
G1 X124.733 Y113.346 E0.01676
G1 X124.225 Y113.438 E0.01619
G1 X123.746 Y113.490 E0.01509
G1 X116.813 Y113.490 E0.21739
G1 X116.743 Y113.481 E0.00220
G1 X116.612 Y113.417 E0.00459
G1 X123.661 Y113.410 E0.22103
G1 X123.841 Y112.739 E0.02178
G1 X123.899 Y112.213 E0.01661
G1 X123.908 Y111.110 E0.03457
G1 X124.660 Y111.110 E0.02357
G1 X124.660 Y108.090 E0.09469
G1 X122.410 Y108.090 E0.07055
G1 X122.410 Y105.340 E0.08622
G1 X118.890 Y105.340 E0.11037
G1 X118.890 Y106.092 E0.02357
G1 X117.787 Y106.101 E0.03457
G1 X117.261 Y106.159 E0.01661
G1 X116.590 Y106.339 E0.02178
G1 X116.590 Y113.396 E0.22126
G1 X116.574 Y113.380 E0.00070
G1 X116.519 Y113.264 E0.00403
G1 X116.510 Y113.188 E0.00240
G1 X116.510 Y106.254 E0.21742
G1 X116.562 Y105.775 E0.01509
G1 X116.654 Y105.267 E0.01619
G1 X116.654 Y104.733 E0.01676
G1 X116.562 Y104.225 E0.01619
G1 X116.510 Y103.746 E0.01509
G1 X116.510 Y96.812 E0.21742
G1 X116.540 Y96.675 E0.00440
G1 X116.590 Y96.604 E0.00271
G1 X116.590 Y103.661 E0.22126
G1 X117.261 Y103.841 E0.02178
G1 X117.787 Y103.899 E0.01661
G1 X118.890 Y103.908 E0.03457
G1 X118.890 Y104.660 E0.02357
G1 X122.410 Y104.660 E0.11037
G1 X122.410 Y101.910 E0.08622
G1 X124.660 Y101.910 E0.07055
G1 X124.660 Y98.890 E0.09469
G1 X123.908 Y98.890 E0.02357
G1 X123.899 Y97.787 E0.03457
G1 X123.841 Y97.261 E0.01661
G1 X123.661 Y96.590 E0.02178
G1 X116.604 Y96.590 E0.22126
G1 X116.675 Y96.540 E0.00271
G1 X116.812 Y96.510 E0.00440
G1 X123.746 Y96.510 E0.21742
G1 X124.225 Y96.562 E0.01509
G1 X124.733 Y96.654 E0.01619
G1 X125.267 Y96.654 E0.01676
G1 X125.775 Y96.562 E0.01619
G1 X126.254 Y96.510 E0.01509
G1 X133.188 Y96.510 E0.21742
G1 X133.325 Y96.540 E0.00440
G1 X133.396 Y96.590 E0.00271
G1 X126.399 Y96.590 E0.21938
M73 Q2 S21
G1 X125.945 Y96.522 F10800.000
;WIPE_START
G1 F8640.000
G1 X126.159 Y97.261 E-0.16451
G1 X126.101 Y97.787 E-0.12230
G1 X126.092 Y98.890 E-0.25458
G1 X125.340 Y98.890 E-0.17358
G1 X125.340 Y101.554 E-0.61503
;WIPE_END
G1 E-0.07000 F2100.000
G1 Z0.400 F10800.000
G1 X125.611 Y97.766
G1 Z0.200
G1 E1.40000 F2100.000
;TYPE:Solid infill
;WIDTH:0.424281
G1 F1200.000
G1 X125.158 Y97.314 E0.02030
G1 X124.607 Y97.302 E0.01748
G1 X125.438 Y98.133 E0.03728
G1 X125.437 Y98.230 E0.00308
G1 X124.996 Y98.230 E0.01399
G1 X124.372 Y97.606 E0.02798
;WIPE_START
G1 F8640.000
G1 X124.996 Y98.230 E-0.20374
G1 X125.437 Y98.230 E-0.10189
G1 X125.438 Y98.133 E-0.02246
G1 X124.607 Y97.302 E-0.27143
G1 X125.158 Y97.314 E-0.12731
G1 X125.611 Y97.766 E-0.14784
;WIPE_END
G1 E-0.52534 F2100.000
G1 Z0.400 F10800.000
G1 X125.000 Y98.701
G1 Z0.200
G1 E1.40000 F2100.000
;TYPE:Gap fill
;WIDTH:0.345842
G1 F1200.000
G1 X125.000 Y102.099 E0.08557
;WIPE_START
G1 F8640.000
G1 X125.000 Y98.701 E-0.78439
;WIPE_END
G1 E-0.61561 F2100.000
G1 Z0.400 F10800.000
G1 X126.301 Y102.400
G1 Z0.200
G1 E1.40000 F2100.000
;TYPE:Solid infill
;WIDTH:0.437014
G1 F1200.000
G1 X126.930 Y103.029 E0.02913
G1 X126.930 Y103.586 E0.01826
G1 X125.914 Y102.570 E0.04710
G1 X125.356 Y102.570 E0.01826
M73 Q3 S21
G1 X126.930 Y104.144 E0.07293
G1 X126.930 Y104.701 E0.01826
G1 X124.799 Y102.570 E0.09876
M73 P3 R21
G1 X124.242 Y102.570 E0.01826
G1 X126.930 Y105.258 E0.12458
G1 X126.930 Y105.816 E0.01826
G1 X123.684 Y102.570 E0.15041
G1 X123.127 Y102.570 E0.01826
G1 X126.930 Y106.373 E0.17624
G1 X126.930 Y106.930 E0.01826
G1 X123.070 Y103.070 E0.17889
G1 X123.070 Y103.627 E0.01826
G1 X126.873 Y107.430 E0.17623
G1 X126.315 Y107.430 E0.01826
G1 X123.070 Y104.185 E0.15041
G1 X123.070 Y104.742 E0.01826
G1 X125.758 Y107.430 E0.12458
G1 X125.201 Y107.430 E0.01826
G1 X123.070 Y105.299 E0.09875
G1 X123.070 Y105.857 E0.01826
G1 X124.643 Y107.430 E0.07292
G1 X124.086 Y107.430 E0.01826
G1 X123.070 Y106.414 E0.04709
G1 X123.070 Y106.971 E0.01826
G1 X123.698 Y107.600 E0.02913
;WIPE_START
G1 F8640.000
G1 X123.070 Y106.971 E-0.20525
G1 X123.070 Y106.414 E-0.12869
G1 X124.086 Y107.430 E-0.33184
G1 X124.643 Y107.430 E-0.12869
G1 X123.070 Y105.857 E-0.51383
G1 X123.070 Y105.763 E-0.02170
;WIPE_END
G1 E-0.07000 F2100.000
G1 Z0.400 F10800.000
G1 X125.000 Y107.901
G1 Z0.200
G1 E1.40000 F2100.000
;TYPE:Gap fill
;WIDTH:0.345842
G1 F1200.000
G1 X125.000 Y111.299 E0.08557
;WIPE_START
G1 F8640.000
G1 X125.000 Y107.901 E-0.78439
;WIPE_END
G1 E-0.61561 F2100.000
G1 Z0.400 F10800.000
G1 X125.628 Y112.394
G1 Z0.200
G1 E1.40000 F2100.000
;TYPE:Solid infill
;WIDTH:0.424281
G1 F1200.000
G1 X125.004 Y111.770 E0.02799
G1 X124.563 Y111.770 E0.01399
G1 X124.562 Y111.867 E0.00309
G1 X125.393 Y112.698 E0.03727
G1 X124.842 Y112.686 E0.01748
G1 X124.389 Y112.234 E0.02030
;WIPE_START
G1 F8640.000
G1 X124.842 Y112.686 E-0.14779
G1 X125.393 Y112.698 E-0.12730
G1 X124.562 Y111.867 E-0.27138
G1 X124.563 Y111.770 E-0.02249
G1 X125.004 Y111.770 E-0.10186
G1 X125.628 Y112.394 E-0.20379
;WIPE_END
G1 E-0.52540 F2100.000
G1 Z0.400 F10800.000
G1 X122.599 Y105.000
G1 Z0.200
G1 E1.40000 F2100.000
;TYPE:Gap fill
;WIDTH:0.345842
G1 F1200.000
G1 X118.701 Y105.000 E0.09816
;WIPE_START
G1 F8640.000
G1 X122.599 Y105.000 E-0.89984
;WIPE_END
G1 E-0.50016 F2100.000
G1 Z0.400 F10800.000
G1 X117.606 Y104.372
G1 Z0.200
G1 E1.40000 F2100.000
;TYPE:Solid infill
;WIDTH:0.424281
G1 F1200.000
G1 X118.230 Y104.996 E0.02799
G1 X118.230 Y105.437 E0.01399
G1 X118.133 Y105.438 E0.00309
G1 X117.302 Y104.607 E0.03727
G1 X117.314 Y105.158 E0.01748
G1 X117.766 Y105.611 E0.02030
;WIPE_START
G1 F8640.000
G1 X117.314 Y105.158 E-0.14779
G1 X117.302 Y104.607 E-0.12730
G1 X118.133 Y105.438 E-0.27138
G1 X118.230 Y105.437 E-0.02249
G1 X118.230 Y104.996 E-0.10186
G1 X117.606 Y104.372 E-0.20379
;WIPE_END
G1 E-0.52539 F2100.000
G1 Z0.400 F10800.000
G1 X127.401 Y105.000
G1 Z0.200
G1 E1.40000 F2100.000
;TYPE:Gap fill
;WIDTH:0.345842
G1 F1200.000
G1 X131.299 Y105.000 E0.09816
;WIPE_START
G1 F8640.000
G1 X127.401 Y105.000 E-0.89984
;WIPE_END
G1 E-0.50016 F2100.000
G1 Z0.400 F10800.000
G1 X132.235 Y104.389
G1 Z0.200
G1 E1.40000 F2100.000
;TYPE:Solid infill
;WIDTH:0.424503
G1 F1200.000
G1 X132.686 Y104.841 E0.02027
G1 X132.698 Y105.392 E0.01750
G1 X131.868 Y104.562 E0.03725
G1 X131.770 Y104.563 E0.00311
G1 X131.770 Y105.003 E0.01399
G1 X132.394 Y105.628 E0.02802
;WIPE_START
G1 F8640.000
G1 X131.770 Y105.003 E-0.20391
G1 X131.770 Y104.563 E-0.10178
G1 X131.868 Y104.562 E-0.02264
G1 X132.698 Y105.392 E-0.27112
G1 X132.686 Y104.841 E-0.12734
G1 X132.235 Y104.389 E-0.14748
;WIPE_END
G1 E-0.52573 F2100.000
G1 Z0.400 F10800.000
G1 X152.137 Y97.141
G1 Z0.200
G1 E1.40000 F2100.000
;TYPE:External perimeter
;WIDTH:0.42
G1 F1200.000
G1 X152.182 Y97.808 E0.02096
G1 X152.292 Y98.306 E0.01598
G1 X152.340 Y98.827 E0.01641
G1 X152.349 Y109.339 E0.32961
G1 X152.340 Y110.349 E0.03166
G1 X152.292 Y110.871 E0.01643
G1 X152.182 Y111.368 E0.01598
G1 X152.137 Y112.035 E0.02096
G1 X151.470 Y112.081 E0.02096
G1 X150.972 Y112.191 E0.01598
G1 X150.451 Y112.239 E0.01641
G1 X139.939 Y112.248 E0.32961
G1 X138.929 Y112.239 E0.03166
G1 X138.407 Y112.191 E0.01643
G1 X137.909 Y112.081 E0.01598
G1 X137.242 Y112.035 E0.02096
G1 X137.197 Y111.368 E0.02096
G1 X137.087 Y110.871 E0.01598
G1 X137.039 Y110.350 E0.01641
G1 X137.029 Y99.837 E0.32961
G1 X137.039 Y98.828 E0.03166
G1 X137.087 Y98.306 E0.01643
G1 X137.197 Y97.808 E0.01598
G1 X137.242 Y97.141 E0.02096
G1 X137.909 Y97.096 E0.02096
G1 X138.407 Y96.985 E0.01598
G1 X138.929 Y96.937 E0.01643
G1 X139.939 Y96.928 E0.03166
G1 X150.451 Y96.937 E0.32961
G1 X150.972 Y96.985 E0.01641
G1 X151.470 Y97.096 E0.01598
G1 X152.077 Y97.137 E0.01908
