; generated by PrusaSlicer 2.3.0+win64 on 2021-07-24 at 04:05:15 UTC

; 

; external perimeters extrusion width = 0.45mm
; perimeters extrusion width = 0.45mm
; infill extrusion width = 0.45mm
; solid infill extrusion width = 0.45mm
; top infill extrusion width = 0.40mm
; first layer extrusion width = 0.42mm

M73 P0 R83
M73 Q0 S84
M201 X1000 Y1000 Z200 E5000 ; sets maximum accelerations, mm/sec^2
M203 X200 Y200 Z12 E120 ; sets maximum feedrates, mm/sec
M204 P1250 R1250 T1250 ; sets acceleration (P, T) and retract acceleration (R), mm/sec^2
M205 X8.00 Y8.00 Z0.40 E4.50 ; sets the jerk limits, mm/sec
M205 S0 T0 ; sets the minimum extruding and travel feed rate, mm/sec
M107
;TYPE:Custom
M862.3 P "MK3S" ; printer model check
M862.1 P0.4 ; nozzle diameter check
M115 U3.9.1 ; tell printer latest fw version
G90 ; use absolute coordinates
M83 ; extruder relative mode
M104 S240 ; set extruder temp
M140 S85 ; set bed temp
M190 S85 ; wait for bed temp
M109 S240 ; wait for extruder temp
G28 W ; home all without mesh bed level
G80 ; mesh bed leveling
G1 Y-3.0 F1000.0 ; go outside print area
G92 E0.0
G1 X60.0 E9.0 F1000.0 ; intro line
G1 X100.0 E12.5 F1000.0 ; intro line
G92 E0.0
M221 S95

; Don't change E values below. Excessive value can damage the printer.
M907 E430 ; set extruder motor current
G21 ; set units to millimeters
G90 ; use absolute coordinates
M83 ; use relative distances for extrusion
M900 K0.08 ; Filament gcode LA 1.5
M900 K45 ; Filament gcode LA 1.0
;LAYER_CHANGE
;Z:0.2
;HEIGHT:0.2
;BEFORE_LAYER_CHANGE
G92 E0.0
;0.2


G1 E-1.40000 F2100.000
G1 Z0.200 F10800.000
;AFTER_LAYER_CHANGE
;0.2
G1 Z0.400
G1 X79.591 Y71.446
G1 Z0.200
G1 E1.40000 F2100.000
M204 S1000
;TYPE:Skirt
;WIDTH:0.42
G1 F1200.000
G1 X79.997 Y71.082 E0.01711
G1 X80.517 Y70.777 E0.01889
G1 X81.075 Y70.592 E0.01842
G1 X81.663 Y70.524 E0.01856
G1 X144.904 Y70.523 E1.98288
G1 X145.477 Y70.581 E0.01806
G1 X145.998 Y70.742 E0.01711
G1 X146.871 Y71.307 E0.03259
G1 X147.223 Y71.703 E0.01663
G1 X147.519 Y72.210 E0.01842
G1 X147.704 Y72.756 E0.01806
G1 X147.776 Y73.325 E0.01797
G1 X147.777 Y136.627 E1.98479
G1 X147.716 Y137.188 E0.01770
G1 X147.558 Y137.698 E0.01675
G1 X147.009 Y138.554 E0.03188
G1 X146.597 Y138.923 E0.01734
G1 X146.072 Y139.227 E0.01901
G1 X145.511 Y139.412 E0.01854
G1 X144.907 Y139.477 E0.01904
G1 X81.673 Y139.477 E1.98264
G1 X81.112 Y139.416 E0.01770
G1 X80.602 Y139.258 E0.01675
G1 X79.746 Y138.709 E0.03188
G1 X79.377 Y138.297 E0.01734
G1 X79.073 Y137.772 E0.01901
G1 X78.888 Y137.211 E0.01854
G1 X78.823 Y136.607 E0.01904
G1 X78.823 Y73.373 E1.98264
G1 X78.884 Y72.812 E0.01770
G1 X79.042 Y72.302 E0.01675
G1 X79.558 Y71.496 E0.03000
;WIPE_START
G1 F8640.000
G1 X79.997 Y71.082 E-0.13937
G1 X80.517 Y70.777 E-0.13913
G1 X81.075 Y70.592 E-0.13564
G1 X81.663 Y70.524 E-0.13671
G1 X85.037 Y70.523 E-0.77915
;WIPE_END
G1 E-0.07000 F2100.000
G1 Z0.400 F10800.000
G1 X134.487 Y125.687
G1 Z0.200
G1 E1.40000 F2100.000
;TYPE:Perimeter
G1 F1200.000
G1 X138.913 Y125.687 E0.13877
G1 X138.913 Y131.113 E0.17012
G1 X134.487 Y131.113 E0.13877
M73 Q0 S83
G1 X134.487 Y125.747 E0.16824
;WIPE_START
G1 F8640.000
G1 X138.913 Y125.687 E-1.02203
G1 X138.913 Y127.021 E-0.30797
;WIPE_END
G1 E-0.07000 F2100.000
G1 Z0.400 F10800.000
G1 X135.982 Y134.887
G1 Z0.200
G1 E1.40000 F2100.000
G1 F1200.000
G1 X137.418 Y134.887 E0.04501
G1 X137.424 Y135.635 E0.02345
G1 X137.488 Y136.209 E0.01810
G1 X137.557 Y136.468 E0.00840
G1 X137.001 Y136.369 E0.01770
G1 X136.399 Y136.369 E0.01888
G1 X135.843 Y136.468 E0.01770
G1 X135.912 Y136.209 E0.00840
G1 X135.976 Y135.635 E0.01810
G1 X135.982 Y134.947 E0.02157
;WIPE_START
G1 F8640.000
G1 X137.418 Y134.887 E-0.33188
G1 X137.424 Y135.635 E-0.17269
G1 X137.488 Y136.209 E-0.13333
G1 X137.557 Y136.468 E-0.06183
G1 X137.001 Y136.369 E-0.13035
G1 X136.399 Y136.369 E-0.13900
G1 X135.843 Y136.468 E-0.13035
G1 X135.912 Y136.209 E-0.06183
G1 X135.976 Y135.635 E-0.13333
G1 X135.977 Y135.482 E-0.03540
;WIPE_END
G1 E-0.07000 F2100.000
G1 Z0.400 F10800.000
G1 X143.187 Y129.118
G1 Z0.200
G1 E1.40000 F2100.000
G1 F1200.000
G1 X143.187 Y127.682 E0.04501
G1 X143.935 Y127.676 E0.02345
G1 X144.509 Y127.612 E0.01810
G1 X144.768 Y127.543 E0.00840
G1 X144.669 Y128.099 E0.01770
G1 X144.669 Y128.701 E0.01888
G1 X144.768 Y129.257 E0.01770
G1 X144.509 Y129.188 E0.00840
G1 X143.935 Y129.124 E0.01810
G1 X143.247 Y129.118 E0.02157
;WIPE_START
G1 F8640.000
G1 X143.187 Y127.682 E-0.33188
G1 X143.935 Y127.676 E-0.17269
G1 X144.509 Y127.612 E-0.13333
G1 X144.768 Y127.543 E-0.06183
G1 X144.669 Y128.099 E-0.13035
G1 X144.669 Y128.701 E-0.13900
G1 X144.768 Y129.257 E-0.13035
G1 X144.509 Y129.188 E-0.06183
G1 X143.935 Y129.124 E-0.13333
G1 X143.782 Y129.123 E-0.03540
;WIPE_END
G1 E-0.07000 F2100.000
G1 Z0.400 F10800.000
G1 X137.418 Y121.913
G1 Z0.200
G1 E1.40000 F2100.000
G1 F1200.000
G1 X135.982 Y121.913 E0.04501
G1 X135.976 Y121.165 E0.02345
G1 X135.912 Y120.591 E0.01810
G1 X135.843 Y120.332 E0.00840
G1 X136.399 Y120.431 E0.01770
G1 X137.001 Y120.431 E0.01888
G1 X137.557 Y120.332 E0.01770
G1 X137.488 Y120.591 E0.00840
G1 X137.424 Y121.165 E0.01810
G1 X137.418 Y121.853 E0.02157
;WIPE_START
G1 F8640.000
G1 X135.982 Y121.913 E-0.33188
G1 X135.976 Y121.165 E-0.17269
G1 X135.912 Y120.591 E-0.13333
G1 X135.843 Y120.332 E-0.06183
G1 X136.399 Y120.431 E-0.13035
G1 X137.001 Y120.431 E-0.13900
G1 X137.557 Y120.332 E-0.13035
G1 X137.488 Y120.591 E-0.06183
G1 X137.424 Y121.165 E-0.13333
G1 X137.423 Y121.318 E-0.03540
;WIPE_END
G1 E-0.07000 F2100.000
G1 Z0.400 F10800.000
G1 X130.213 Y127.682
G1 Z0.200
G1 E1.40000 F2100.000
G1 F1200.000
G1 X130.213 Y129.118 E0.04501
G1 X129.465 Y129.124 E0.02345
G1 X128.891 Y129.188 E0.01810
G1 X128.632 Y129.257 E0.00840
G1 X128.731 Y128.701 E0.01770
G1 X128.731 Y128.099 E0.01888
G1 X128.632 Y127.543 E0.01770
G1 X128.891 Y127.612 E0.00840
G1 X129.465 Y127.676 E0.01810
G1 X130.153 Y127.682 E0.02157
;WIPE_START
G1 F8640.000
G1 X130.213 Y129.118 E-0.33188
G1 X129.465 Y129.124 E-0.17269
G1 X128.891 Y129.188 E-0.13333
G1 X128.632 Y129.257 E-0.06183
G1 X128.731 Y128.701 E-0.13035
G1 X128.731 Y128.099 E-0.13900
G1 X128.632 Y127.543 E-0.13035
G1 X128.891 Y127.612 E-0.06183
G1 X129.465 Y127.676 E-0.13333
G1 X129.618 Y127.677 E-0.03540
;WIPE_END
G1 E-0.07000 F2100.000
G1 Z0.400 F10800.000
G1 X138.039 Y119.990
G1 Z0.200
G1 E1.40000 F2100.000
;TYPE:External perimeter
G1 F1200.000
G1 X137.859 Y120.661 E0.02178
G1 X137.801 Y121.187 E0.01661
G1 X137.792 Y122.290 E0.03457
G1 X137.040 Y122.290 E0.02357
G1 X137.040 Y125.310 E0.09469
G1 X139.290 Y125.310 E0.07055
G1 X139.290 Y128.060 E0.08622
G1 X142.810 Y128.060 E0.11037
G1 X142.810 Y127.308 E0.02357
G1 X143.913 Y127.299 E0.03457
G1 X144.439 Y127.241 E0.01661
G1 X145.110 Y127.061 E0.02178
G1 X145.110 Y120.004 E0.22126
G1 X145.160 Y120.075 E0.00271
G1 X145.190 Y120.212 E0.00440
G1 X145.190 Y127.146 E0.21742
G1 X145.138 Y127.625 E0.01509
G1 X145.046 Y128.133 E0.01619
G1 X145.046 Y128.667 E0.01676
G1 X145.138 Y129.175 E0.01619
G1 X145.190 Y129.654 E0.01509
G1 X145.190 Y136.587 E0.21739
G1 X145.181 Y136.656 E0.00220
G1 X145.117 Y136.788 E0.00459
G1 X145.110 Y129.739 E0.22103
G1 X144.439 Y129.559 E0.02178
G1 X143.913 Y129.501 E0.01661
G1 X142.810 Y129.492 E0.03457
G1 X142.810 Y128.740 E0.02357
G1 X139.290 Y128.740 E0.11037
G1 X139.290 Y131.490 E0.08622
G1 X137.040 Y131.490 E0.07055
G1 X137.040 Y134.510 E0.09469
G1 X137.792 Y134.510 E0.02357
G1 X137.801 Y135.613 E0.03457
G1 X137.859 Y136.139 E0.01661
G1 X138.039 Y136.810 E0.02178
G1 X145.096 Y136.810 E0.22126
G1 X145.080 Y136.826 E0.00070
G1 X144.964 Y136.881 E0.00403
G1 X144.888 Y136.890 E0.00240
G1 X137.954 Y136.890 E0.21742
G1 X137.475 Y136.838 E0.01509
G1 X136.967 Y136.746 E0.01619
G1 X136.433 Y136.746 E0.01676
G1 X135.925 Y136.838 E0.01619
G1 X135.446 Y136.890 E0.01509
G1 X128.513 Y136.890 E0.21739
G1 X128.444 Y136.881 E0.00220
G1 X128.312 Y136.817 E0.00459
G1 X135.361 Y136.810 E0.22103
G1 X135.541 Y136.139 E0.02178
G1 X135.599 Y135.613 E0.01661
G1 X135.608 Y134.510 E0.03457
G1 X136.360 Y134.510 E0.02357
G1 X136.360 Y131.490 E0.09469
G1 X134.110 Y131.490 E0.07055
G1 X134.110 Y128.740 E0.08622
G1 X130.590 Y128.740 E0.11037
G1 X130.590 Y129.492 E0.02357
G1 X129.488 Y129.501 E0.03457
G1 X128.961 Y129.559 E0.01661
G1 X128.290 Y129.739 E0.02178
G1 X128.290 Y136.796 E0.22126
G1 X128.274 Y136.780 E0.00070
G1 X128.219 Y136.664 E0.00403
G1 X128.210 Y136.588 E0.00240
G1 X128.210 Y129.654 E0.21742
G1 X128.262 Y129.175 E0.01509
G1 X128.354 Y128.667 E0.01619
G1 X128.354 Y128.133 E0.01676
G1 X128.262 Y127.625 E0.01619
G1 X128.210 Y127.146 E0.01509
G1 X128.210 Y120.212 E0.21742
G1 X128.240 Y120.075 E0.00440
G1 X128.290 Y120.004 E0.00271
G1 X128.290 Y127.061 E0.22126
G1 X128.961 Y127.241 E0.02178
G1 X129.488 Y127.299 E0.01661
G1 X130.590 Y127.308 E0.03457
G1 X130.590 Y128.060 E0.02357
G1 X134.110 Y128.060 E0.11037
G1 X134.110 Y125.310 E0.08622
G1 X136.360 Y125.310 E0.07055
G1 X136.360 Y122.290 E0.09469
G1 X135.608 Y122.290 E0.02357
G1 X135.599 Y121.187 E0.03457
G1 X135.541 Y120.661 E0.01661
G1 X135.361 Y119.990 E0.02178
G1 X128.304 Y119.990 E0.22126
G1 X128.375 Y119.940 E0.00271
G1 X128.512 Y119.910 E0.00440
G1 X135.446 Y119.910 E0.21742
G1 X135.925 Y119.962 E0.01509
G1 X136.433 Y120.054 E0.01619
G1 X136.967 Y120.054 E0.01676
G1 X137.475 Y119.962 E0.01619
G1 X137.954 Y119.910 E0.01509
G1 X144.888 Y119.910 E0.21742
G1 X145.025 Y119.940 E0.00440
G1 X145.096 Y119.990 E0.00271
G1 X138.099 Y119.990 E0.21938
G1 X137.645 Y119.922 F10800.000
;WIPE_START
G1 F8640.000
G1 X137.859 Y120.661 E-0.16451
G1 X137.801 Y121.187 E-0.12230
G1 X137.792 Y122.290 E-0.25458
G1 X137.040 Y122.290 E-0.17358
G1 X137.040 Y124.954 E-0.61503
;WIPE_END
G1 E-0.07000 F2100.000
G1 Z0.400 F10800.000
G1 X137.311 Y121.166
G1 Z0.200
G1 E1.40000 F2100.000
;TYPE:Solid infill
;WIDTH:0.424281
G1 F1200.000
G1 X136.858 Y120.714 E0.02030
G1 X136.307 Y120.702 E0.01748
G1 X137.138 Y121.533 E0.03728
G1 X137.137 Y121.630 E0.00308
G1 X136.696 Y121.630 E0.01399
G1 X136.072 Y121.006 E0.02798
;WIPE_START
G1 F8640.000
G1 X136.696 Y121.630 E-0.20374
G1 X137.137 Y121.630 E-0.10189
G1 X137.138 Y121.533 E-0.02246
G1 X136.307 Y120.702 E-0.27143
G1 X136.858 Y120.714 E-0.12731
G1 X137.311 Y121.166 E-0.14784
;WIPE_END
G1 E-0.52534 F2100.000
G1 Z0.400 F10800.000
G1 X136.700 Y122.101
G1 Z0.200
G1 E1.40000 F2100.000
;TYPE:Gap fill
;WIDTH:0.345842
G1 F1200.000
G1 X136.700 Y125.499 E0.08557
;WIPE_START
G1 F8640.000
G1 X136.700 Y122.101 E-0.78439
;WIPE_END
G1 E-0.61561 F2100.000
G1 Z0.400 F10800.000
G1 X138.001 Y125.800
G1 Z0.200
G1 E1.40000 F2100.000
;TYPE:Solid infill
;WIDTH:0.437014
G1 F1200.000
G1 X138.630 Y126.429 E0.02913
G1 X138.630 Y126.986 E0.01826
G1 X137.614 Y125.970 E0.04710
G1 X137.056 Y125.970 E0.01826
G1 X138.630 Y127.544 E0.07293
G1 X138.630 Y128.101 E0.01826
G1 X136.499 Y125.970 E0.09876
G1 X135.942 Y125.970 E0.01826
G1 X138.630 Y128.658 E0.12458
G1 X138.630 Y129.216 E0.01826
G1 X135.384 Y125.970 E0.15041
G1 X134.827 Y125.970 E0.01826
G1 X138.630 Y129.773 E0.17624
G1 X138.630 Y130.330 E0.01826
G1 X134.770 Y126.470 E0.17889
G1 X134.770 Y127.027 E0.01826
G1 X138.573 Y130.830 E0.17623
G1 X138.015 Y130.830 E0.01826
G1 X134.770 Y127.585 E0.15041
G1 X134.770 Y128.142 E0.01826
G1 X137.458 Y130.830 E0.12458
G1 X136.901 Y130.830 E0.01826
G1 X134.770 Y128.699 E0.09875
G1 X134.770 Y129.257 E0.01826
G1 X136.343 Y130.830 E0.07292
G1 X135.786 Y130.830 E0.01826
G1 X134.770 Y129.814 E0.04709
G1 X134.770 Y130.371 E0.01826
G1 X135.398 Y131.000 E0.02913
;WIPE_START
G1 F8640.000
G1 X134.770 Y130.371 E-0.20525
G1 X134.770 Y129.814 E-0.12869
G1 X135.786 Y130.830 E-0.33184
G1 X136.343 Y130.830 E-0.12869
G1 X134.770 Y129.257 E-0.51383
G1 X134.770 Y129.163 E-0.02170
;WIPE_END
G1 E-0.07000 F2100.000
G1 Z0.400 F10800.000
G1 X136.700 Y131.301
G1 Z0.200
G1 E1.40000 F2100.000
;TYPE:Gap fill
;WIDTH:0.345842
G1 F1200.000
G1 X136.700 Y134.699 E0.08557
;WIPE_START
G1 F8640.000
G1 X136.700 Y131.301 E-0.78439
;WIPE_END
G1 E-0.61561 F2100.000
G1 Z0.400 F10800.000
G1 X137.328 Y135.794
G1 Z0.200
G1 E1.40000 F2100.000
;TYPE:Solid infill
;WIDTH:0.424281
G1 F1200.000
G1 X136.704 Y135.170 E0.02799
G1 X136.263 Y135.170 E0.01399
G1 X136.262 Y135.267 E0.00309
G1 X137.093 Y136.098 E0.03727
G1 X136.542 Y136.086 E0.01748
G1 X136.089 Y135.634 E0.02030
;WIPE_START
G1 F8640.000
G1 X136.542 Y136.086 E-0.14779
G1 X137.093 Y136.098 E-0.12730
G1 X136.262 Y135.267 E-0.27138
G1 X136.263 Y135.170 E-0.02249
G1 X136.704 Y135.170 E-0.10186
G1 X137.328 Y135.794 E-0.20379
;WIPE_END
G1 E-0.52540 F2100.000
G1 Z0.400 F10800.000
G1 X134.299 Y128.400
G1 Z0.200
G1 E1.40000 F2100.000
;TYPE:Gap fill
;WIDTH:0.345842
G1 F1200.000
G1 X130.401 Y128.400 E0.09816
;WIPE_START
G1 F8640.000
G1 X134.299 Y128.400 E-0.89984
;WIPE_END
G1 E-0.50016 F2100.000
G1 Z0.400 F10800.000
G1 X129.306 Y127.772
G1 Z0.200
G1 E1.40000 F2100.000
;TYPE:Solid infill
;WIDTH:0.424281
G1 F1200.000
G1 X129.930 Y128.396 E0.02799
G1 X129.930 Y128.837 E0.01399
G1 X129.833 Y128.838 E0.00309
G1 X129.002 Y128.007 E0.03727
G1 X129.014 Y128.558 E0.01748
G1 X129.466 Y129.011 E0.02030
;WIPE_START
G1 F8640.000
G1 X129.014 Y128.558 E-0.14779
G1 X129.002 Y128.007 E-0.12730
G1 X129.833 Y128.838 E-0.27138
G1 X129.930 Y128.837 E-0.02249
G1 X129.930 Y128.396 E-0.10186
G1 X129.306 Y127.772 E-0.20379
;WIPE_END
G1 E-0.52539 F2100.000
G1 Z0.400 F10800.000
G1 X139.101 Y128.400
G1 Z0.200
G1 E1.40000 F2100.000
;TYPE:Gap fill
;WIDTH:0.345842
G1 F1200.000
G1 X142.999 Y128.400 E0.09816
;WIPE_START
G1 F8640.000
G1 X139.101 Y128.400 E-0.89984
;WIPE_END
G1 E-0.50016 F2100.000
G1 Z0.400 F10800.000
G1 X143.935 Y127.789
G1 Z0.200
G1 E1.40000 F2100.000
;TYPE:Solid infill
;WIDTH:0.424503
G1 F1200.000
G1 X144.386 Y128.241 E0.02027
G1 X144.398 Y128.792 E0.01750
G1 X143.568 Y127.962 E0.03725
G1 X143.470 Y127.963 E0.00311
G1 X143.470 Y128.403 E0.01399
G1 X144.094 Y129.028 E0.02802
;WIPE_START
G1 F8640.000
G1 X143.470 Y128.403 E-0.20391
G1 X143.470 Y127.963 E-0.10178
G1 X143.568 Y127.962 E-0.02264
G1 X144.398 Y128.792 E-0.27112
G1 X144.386 Y128.241 E-0.12734
G1 X143.935 Y127.789 E-0.14748
;WIPE_END
G1 E-0.52573 F2100.000
G1 Z0.400 F10800.000
G1 X138.913 Y107.713
G1 Z0.200
G1 E1.40000 F2100.000
;TYPE:Perimeter
;WIDTH:0.42
G1 F1200.000
G1 X134.487 Y107.713 E0.13877
G1 X134.487 Y102.287 E0.17012
G1 X138.913 Y102.287 E0.13877
G1 X138.913 Y107.653 E0.16824
;WIPE_START
G1 F8640.000
G1 X134.487 Y107.713 E-1.02203
G1 X134.487 Y106.379 E-0.30797
;WIPE_END
G1 E-0.07000 F2100.000
G1 Z0.400 F10800.000
G1 X137.418 Y111.487
G1 Z0.200
G1 E1.40000 F2100.000
G1 F1200.000
G1 X137.424 Y112.235 E0.02345
G1 X137.488 Y112.809 E0.01810
G1 X137.557 Y113.068 E0.00840
G1 X137.001 Y112.969 E0.01770
G1 X136.399 Y112.969 E0.01888
G1 X135.843 Y113.068 E0.01770
G1 X135.912 Y112.809 E0.00840
G1 X135.976 Y112.235 E0.01810
G1 X135.982 Y111.487 E0.02345
G1 X137.358 Y111.487 E0.04313
;WIPE_START
G1 F8640.000
G1 X137.424 Y112.235 E-0.17336
G1 X137.488 Y112.809 E-0.13333
G1 X137.557 Y113.068 E-0.06183
G1 X137.001 Y112.969 E-0.13035
G1 X136.399 Y112.969 E-0.13900
G1 X135.843 Y113.068 E-0.13035
G1 X135.912 Y112.809 E-0.06183
G1 X135.976 Y112.235 E-0.13333
G1 X135.982 Y111.487 E-0.17269
G1 X136.822 Y111.487 E-0.19392
;WIPE_END
G1 E-0.07000 F2100.000
G1 Z0.400 F10800.000
G1 X143.187 Y105.718
G1 Z0.200
G1 E1.40000 F2100.000
G1 F1200.000
G1 X143.187 Y104.282 E0.04501
G1 X143.935 Y104.276 E0.02345
G1 X144.509 Y104.212 E0.01810
G1 X144.768 Y104.143 E0.00840
G1 X144.669 Y104.699 E0.01770
G1 X144.669 Y105.301 E0.01888
G1 X144.768 Y105.857 E0.01770
G1 X144.509 Y105.788 E0.00840
G1 X143.935 Y105.724 E0.01810
G1 X143.247 Y105.718 E0.02157
;WIPE_START
G1 F8640.000
G1 X143.187 Y104.282 E-0.33188
G1 X143.935 Y104.276 E-0.17269
G1 X144.509 Y104.212 E-0.13333
G1 X144.768 Y104.143 E-0.06183
G1 X144.669 Y104.699 E-0.13035
G1 X144.669 Y105.301 E-0.13900
G1 X144.768 Y105.857 E-0.13035
G1 X144.509 Y105.788 E-0.06183
G1 X143.935 Y105.724 E-0.13333
G1 X143.782 Y105.723 E-0.03540
;WIPE_END
G1 E-0.07000 F2100.000
G1 Z0.400 F10800.000
G1 X137.418 Y98.513
M73 Q1 S83
G1 Z0.200
G1 E1.40000 F2100.000
G1 F1200.000
