; generated by PrusaSlicer 2.3.0+win64 on 2021-07-23 at 03:59:17 UTC

; 

; external perimeters extrusion width = 0.45mm
; perimeters extrusion width = 0.45mm
; infill extrusion width = 0.45mm
; solid infill extrusion width = 0.45mm
; top infill extrusion width = 0.40mm
; first layer extrusion width = 0.42mm

M73 P0 R76
M73 Q0 S77
M201 X1000 Y1000 Z200 E5000 ; sets maximum accelerations, mm/sec^2
M203 X200 Y200 Z12 E120 ; sets maximum feedrates, mm/sec
M204 P1250 R1250 T1250 ; sets acceleration (P, T) and retract acceleration (R), mm/sec^2
M205 X8.00 Y8.00 Z0.40 E4.50 ; sets the jerk limits, mm/sec
M205 S0 T0 ; sets the minimum extruding and travel feed rate, mm/sec
M107
;TYPE:Custom
M862.3 P "MK3S" ; printer model check
M862.1 P0.4 ; nozzle diameter check
M115 U3.9.1 ; tell printer latest fw version
G90 ; use absolute coordinates
M83 ; extruder relative mode
M104 S240 ; set extruder temp
M140 S85 ; set bed temp
M190 S85 ; wait for bed temp
M109 S240 ; wait for extruder temp
G28 W ; home all without mesh bed level
G80 ; mesh bed leveling
G1 Y-3.0 F1000.0 ; go outside print area
G92 E0.0
G1 X60.0 E9.0 F1000.0 ; intro line
G1 X100.0 E12.5 F1000.0 ; intro line
G92 E0.0
M221 S95

; Don't change E values below. Excessive value can damage the printer.
M907 E430 ; set extruder motor current
G21 ; set units to millimeters
G90 ; use absolute coordinates
M83 ; use relative distances for extrusion
M900 K0.08 ; Filament gcode LA 1.5
M900 K45 ; Filament gcode LA 1.0
;LAYER_CHANGE
;Z:0.2
;HEIGHT:0.2
;BEFORE_LAYER_CHANGE
G92 E0.0
;0.2


G1 E-1.40000 F2100.000
G1 Z0.200 F10800.000
;AFTER_LAYER_CHANGE
;0.2
G1 Z0.400
G1 X79.591 Y71.446
G1 Z0.200
G1 E1.40000 F2100.000
M204 S1000
;TYPE:Skirt
;WIDTH:0.42
G1 F1200.000
G1 X79.997 Y71.082 E0.01711
G1 X80.517 Y70.777 E0.01889
G1 X81.075 Y70.592 E0.01842
G1 X81.663 Y70.523 E0.01857
G1 X144.904 Y70.523 E1.98287
G1 X145.477 Y70.581 E0.01806
G1 X145.998 Y70.742 E0.01711
G1 X146.871 Y71.307 E0.03259
G1 X147.223 Y71.703 E0.01663
G1 X147.519 Y72.210 E0.01842
G1 X147.704 Y72.756 E0.01806
G1 X147.776 Y73.325 E0.01797
G1 X147.777 Y136.627 E1.98479
M73 Q0 S76
G1 X147.716 Y137.188 E0.01770
G1 X147.558 Y137.698 E0.01675
G1 X147.009 Y138.554 E0.03188
G1 X146.597 Y138.923 E0.01734
G1 X146.072 Y139.227 E0.01901
G1 X145.511 Y139.412 E0.01854
G1 X144.907 Y139.477 E0.01904
G1 X81.673 Y139.477 E1.98264
G1 X81.112 Y139.416 E0.01770
G1 X80.602 Y139.258 E0.01675
G1 X79.746 Y138.709 E0.03188
G1 X79.377 Y138.297 E0.01734
G1 X79.073 Y137.772 E0.01901
G1 X78.888 Y137.211 E0.01854
G1 X78.823 Y136.607 E0.01904
G1 X78.823 Y73.373 E1.98264
G1 X78.884 Y72.812 E0.01770
G1 X79.042 Y72.302 E0.01675
G1 X79.558 Y71.496 E0.03000
;WIPE_START
G1 F8640.000
G1 X79.997 Y71.082 E-0.13937
G1 X80.517 Y70.777 E-0.13913
G1 X81.075 Y70.592 E-0.13564
G1 X81.663 Y70.523 E-0.13675
G1 X85.037 Y70.523 E-0.77912
;WIPE_END
G1 E-0.07000 F2100.000
G1 Z0.400 F10800.000
G1 X135.982 Y134.887
G1 Z0.200
G1 E1.40000 F2100.000
;TYPE:Perimeter
G1 F1200.000
G1 X137.418 Y134.887 E0.04501
G1 X137.424 Y135.635 E0.02345
G1 X137.488 Y136.209 E0.01810
G1 X137.557 Y136.470 E0.00846
G1 X137.001 Y136.369 E0.01773
G1 X136.399 Y136.369 E0.01888
G1 X135.843 Y136.470 E0.01773
G1 X135.912 Y136.209 E0.00846
G1 X135.976 Y135.635 E0.01810
G1 X135.982 Y134.947 E0.02157
G1 X135.608 Y134.510 F10800.000
;TYPE:External perimeter
G1 F1200.000
G1 X137.792 Y134.510 E0.06846
G1 X137.801 Y135.613 E0.03457
G1 X137.859 Y136.139 E0.01661
G1 X138.063 Y136.902 E0.02476
G1 X137.475 Y136.838 E0.01854
G1 X136.967 Y136.746 E0.01619
G1 X136.433 Y136.746 E0.01676
G1 X135.925 Y136.838 E0.01619
G1 X135.337 Y136.902 E0.01854
G1 X135.541 Y136.139 E0.02476
G1 X135.599 Y135.613 E0.01661
G1 X135.608 Y134.570 E0.03269
G1 X135.952 Y134.715 F10800.000
;WIPE_START
G1 F8640.000
G1 X137.792 Y134.510 E-0.50448
G1 X137.801 Y135.613 E-0.25458
G1 X137.859 Y136.139 E-0.12230
G1 X138.063 Y136.902 E-0.18236
G1 X137.475 Y136.838 E-0.13653
G1 X136.967 Y136.746 E-0.11924
G1 X136.922 Y136.746 E-0.01051
;WIPE_END
G1 E-0.07000 F2100.000
G1 Z0.400 F10800.000
G1 X138.267 Y136.850
G1 Z0.200
G1 E1.40000 F2100.000
;WIDTH:0.54292
G1 F1200.000
G1 X144.886 Y136.850 E0.27519
G1 X144.955 Y136.843 E0.00290
G1 X145.055 Y136.795 E0.00461
G1 X145.125 Y136.708 E0.00461
G1 X145.150 Y136.586 E0.00519
G1 X145.150 Y120.214 E0.68067
G1 X145.125 Y120.092 E0.00519
G1 X145.008 Y119.975 E0.00684
G1 X144.886 Y119.950 E0.00519
G1 X138.267 Y119.950 E0.27519
G1 X137.557 Y120.330 F10800.000
;TYPE:Perimeter
;WIDTH:0.42
G1 F1200.000
G1 X137.488 Y120.591 E0.00846
G1 X137.424 Y121.165 E0.01810
G1 X137.418 Y121.913 E0.02345
G1 X135.982 Y121.913 E0.04501
G1 X135.976 Y121.165 E0.02345
G1 X135.912 Y120.591 E0.01810
G1 X135.843 Y120.330 E0.00846
G1 X136.399 Y120.431 E0.01773
G1 X137.001 Y120.431 E0.01888
G1 X137.498 Y120.341 E0.01585
G1 X138.063 Y119.898 F10800.000
;TYPE:External perimeter
G1 F1200.000
G1 X137.859 Y120.661 E0.02476
G1 X137.801 Y121.187 E0.01661
G1 X137.792 Y122.290 E0.03457
G1 X135.608 Y122.290 E0.06846
G1 X135.599 Y121.187 E0.03457
G1 X135.541 Y120.661 E0.01661
G1 X135.337 Y119.898 E0.02476
G1 X135.925 Y119.962 E0.01854
G1 X136.433 Y120.054 E0.01619
G1 X136.967 Y120.054 E0.01676
G1 X137.475 Y119.962 E0.01619
G1 X138.004 Y119.905 E0.01666
G1 X137.821 Y120.216 F10800.000
;WIPE_START
G1 F8640.000
G1 X137.859 Y120.661 E-0.17782
G1 X137.801 Y121.187 E-0.12230
G1 X137.792 Y122.290 E-0.25458
G1 X135.608 Y122.290 E-0.50417
G1 X135.599 Y121.187 E-0.25458
G1 X135.591 Y121.116 E-0.01654
;WIPE_END
G1 E-0.07000 F2100.000
G1 Z0.400 F10800.000
G1 X135.133 Y119.950
G1 Z0.200
G1 E1.40000 F2100.000
;WIDTH:0.54292
G1 F1200.000
G1 X128.514 Y119.950 E0.27519
G1 X128.445 Y119.957 E0.00290
G1 X128.345 Y120.005 E0.00461
G1 X128.275 Y120.092 E0.00461
G1 X128.250 Y120.214 E0.00519
G1 X128.250 Y136.586 E0.68067
G1 X128.275 Y136.708 E0.00519
G1 X128.392 Y136.825 E0.00684
G1 X128.514 Y136.850 E0.00519
G1 X135.133 Y136.850 E0.27519
;WIPE_START
G1 F8640.000
G1 X129.373 Y136.850 E-1.33000
;WIPE_END
G1 E-0.07000 F2100.000
G1 Z0.400 F10800.000
G1 X137.328 Y135.794
G1 Z0.200
G1 E1.40000 F2100.000
;TYPE:Solid infill
;WIDTH:0.424504
G1 F1200.000
G1 X136.703 Y135.170 E0.02803
G1 X136.263 Y135.170 E0.01398
G1 X136.262 Y135.268 E0.00312
G1 X137.092 Y136.098 E0.03726
G1 X136.541 Y136.086 E0.01750
G1 X136.089 Y135.635 E0.02026
;WIPE_START
G1 F8640.000
G1 X136.541 Y136.086 E-0.14744
G1 X137.092 Y136.098 E-0.12738
G1 X136.262 Y135.268 E-0.27112
G1 X136.263 Y135.170 E-0.02267
G1 X136.703 Y135.170 E-0.10175
G1 X137.328 Y135.794 E-0.20396
;WIPE_END
G1 E-0.52568 F2100.000
G1 Z0.400 F10800.000
G1 X137.311 Y121.165
G1 Z0.200
G1 E1.40000 F2100.000
;WIDTH:0.424503
G1 F1200.000
G1 X136.859 Y120.714 E0.02027
G1 X136.308 Y120.702 E0.01750
G1 X137.138 Y121.532 E0.03726
G1 X137.137 Y121.630 E0.00311
G1 X136.697 Y121.630 E0.01399
G1 X136.072 Y121.006 E0.02802
;WIPE_START
G1 F8640.000
G1 X136.697 Y121.630 E-0.20391
G1 X137.137 Y121.630 E-0.10178
G1 X137.138 Y121.532 E-0.02264
G1 X136.308 Y120.702 E-0.27118
G1 X136.859 Y120.714 E-0.12738
G1 X137.311 Y121.165 E-0.14748
;WIPE_END
G1 E-0.52563 F2100.000
G1 Z0.400 F10800.000
G1 X135.843 Y113.070
G1 Z0.200
G1 E1.40000 F2100.000
;TYPE:Perimeter
;WIDTH:0.42
G1 F1200.000
G1 X135.912 Y112.809 E0.00846
G1 X135.976 Y112.235 E0.01810
G1 X135.982 Y111.487 E0.02345
G1 X137.418 Y111.487 E0.04501
G1 X137.424 Y112.235 E0.02345
G1 X137.488 Y112.809 E0.01810
G1 X137.557 Y113.070 E0.00846
G1 X137.001 Y112.969 E0.01773
G1 X136.399 Y112.969 E0.01888
G1 X135.902 Y113.059 E0.01585
G1 X135.337 Y113.502 F10800.000
;TYPE:External perimeter
G1 F1200.000
G1 X135.541 Y112.739 E0.02476
G1 X135.599 Y112.213 E0.01661
G1 X135.608 Y111.110 E0.03457
G1 X137.792 Y111.110 E0.06846
G1 X137.801 Y112.213 E0.03457
G1 X137.859 Y112.739 E0.01661
G1 X138.063 Y113.502 E0.02476
G1 X137.475 Y113.438 E0.01854
G1 X136.967 Y113.346 E0.01619
G1 X136.433 Y113.346 E0.01676
G1 X135.925 Y113.438 E0.01619
G1 X135.396 Y113.495 E0.01666
G1 X135.579 Y113.184 F10800.000
;WIPE_START
G1 F8640.000
G1 X135.541 Y112.739 E-0.17782
G1 X135.599 Y112.213 E-0.12230
G1 X135.608 Y111.110 E-0.25458
G1 X137.792 Y111.110 E-0.50417
G1 X137.801 Y112.213 E-0.25458
G1 X137.809 Y112.284 E-0.01654
;WIPE_END
G1 E-0.07000 F2100.000
G1 Z0.400 F10800.000
G1 X138.267 Y113.450
G1 Z0.200
G1 E1.40000 F2100.000
;WIDTH:0.54292
G1 F1200.000
G1 X144.886 Y113.450 E0.27519
G1 X144.955 Y113.443 E0.00290
G1 X145.055 Y113.395 E0.00461
G1 X145.125 Y113.308 E0.00461
G1 X145.150 Y113.186 E0.00519
G1 X145.150 Y96.814 E0.68067
G1 X145.125 Y96.692 E0.00519
G1 X145.008 Y96.575 E0.00684
G1 X144.886 Y96.550 E0.00519
G1 X138.267 Y96.550 E0.27519
G1 X137.557 Y96.930 F10800.000
;TYPE:Perimeter
;WIDTH:0.42
G1 F1200.000
G1 X137.488 Y97.191 E0.00846
G1 X137.424 Y97.765 E0.01810
G1 X137.418 Y98.513 E0.02345
G1 X135.982 Y98.513 E0.04501
G1 X135.976 Y97.765 E0.02345
G1 X135.912 Y97.191 E0.01810
G1 X135.843 Y96.930 E0.00846
G1 X136.399 Y97.031 E0.01773
G1 X137.001 Y97.031 E0.01888
G1 X137.498 Y96.941 E0.01585
G1 X138.063 Y96.498 F10800.000
;TYPE:External perimeter
G1 F1200.000
G1 X137.859 Y97.261 E0.02476
G1 X137.801 Y97.787 E0.01661
G1 X137.792 Y98.890 E0.03457
G1 X135.608 Y98.890 E0.06846
G1 X135.599 Y97.787 E0.03457
G1 X135.541 Y97.261 E0.01661
G1 X135.337 Y96.498 E0.02476
G1 X135.925 Y96.562 E0.01854
G1 X136.433 Y96.654 E0.01619
G1 X136.967 Y96.654 E0.01676
G1 X137.475 Y96.562 E0.01619
G1 X138.004 Y96.505 E0.01666
G1 X137.821 Y96.816 F10800.000
;WIPE_START
G1 F8640.000
G1 X137.859 Y97.261 E-0.17782
G1 X137.801 Y97.787 E-0.12230
G1 X137.792 Y98.890 E-0.25458
G1 X135.608 Y98.890 E-0.50417
G1 X135.599 Y97.787 E-0.25458
G1 X135.591 Y97.716 E-0.01654
;WIPE_END
G1 E-0.07000 F2100.000
G1 Z0.400 F10800.000
G1 X135.133 Y96.550
G1 Z0.200
G1 E1.40000 F2100.000
;WIDTH:0.54292
G1 F1200.000
G1 X128.514 Y96.550 E0.27519
G1 X128.445 Y96.557 E0.00290
G1 X128.345 Y96.605 E0.00461
G1 X128.275 Y96.692 E0.00461
G1 X128.250 Y96.814 E0.00519
G1 X128.250 Y113.186 E0.68067
G1 X128.275 Y113.308 E0.00519
G1 X128.392 Y113.425 E0.00684
G1 X128.514 Y113.450 E0.00519
G1 X135.133 Y113.450 E0.27519
;WIPE_START
G1 F8640.000
G1 X129.373 Y113.450 E-1.33000
;WIPE_END
G1 E-0.07000 F2100.000
G1 Z0.400 F10800.000
G1 X137.328 Y112.394
G1 Z0.200
G1 E1.40000 F2100.000
;TYPE:Solid infill
;WIDTH:0.424504
G1 F1200.000
G1 X136.703 Y111.770 E0.02803
G1 X136.263 Y111.770 E0.01398
G1 X136.262 Y111.868 E0.00312
G1 X137.092 Y112.698 E0.03726
G1 X136.541 Y112.686 E0.01750
G1 X136.089 Y112.235 E0.02026
;WIPE_START
G1 F8640.000
G1 X136.541 Y112.686 E-0.14744
G1 X137.092 Y112.698 E-0.12738
G1 X136.262 Y111.868 E-0.27112
G1 X136.263 Y111.770 E-0.02267
G1 X136.703 Y111.770 E-0.10175
G1 X137.328 Y112.394 E-0.20396
;WIPE_END
G1 E-0.52568 F2100.000
G1 Z0.400 F10800.000
G1 X137.311 Y97.765
G1 Z0.200
G1 E1.40000 F2100.000
;WIDTH:0.424503
G1 F1200.000
G1 X136.859 Y97.314 E0.02027
G1 X136.308 Y97.302 E0.01750
G1 X137.138 Y98.132 E0.03726
G1 X137.137 Y98.230 E0.00311
G1 X136.697 Y98.230 E0.01399
G1 X136.072 Y97.606 E0.02802
;WIPE_START
G1 F8640.000
G1 X136.697 Y98.230 E-0.20391
G1 X137.137 Y98.230 E-0.10178
G1 X137.138 Y98.132 E-0.02264
G1 X136.308 Y97.302 E-0.27118
G1 X136.859 Y97.314 E-0.12738
G1 X137.311 Y97.765 E-0.14748
;WIPE_END
G1 E-0.52563 F2100.000
G1 Z0.400 F10800.000
G1 X114.018 Y111.487
G1 Z0.200
G1 E1.40000 F2100.000
;TYPE:Perimeter
;WIDTH:0.42
G1 F1200.000
G1 X114.024 Y112.235 E0.02345
G1 X114.088 Y112.809 E0.01810
G1 X114.157 Y113.070 E0.00846
G1 X113.601 Y112.969 E0.01773
G1 X112.999 Y112.969 E0.01888
G1 X112.443 Y113.070 E0.01773
G1 X112.512 Y112.809 E0.00846
G1 X112.576 Y112.235 E0.01810
G1 X112.582 Y111.487 E0.02345
G1 X113.958 Y111.487 E0.04313
G1 X114.392 Y111.110 F10800.000
;TYPE:External perimeter
G1 F1200.000
G1 X114.401 Y112.213 E0.03457
G1 X114.459 Y112.739 E0.01661
G1 X114.663 Y113.502 E0.02476
G1 X114.075 Y113.438 E0.01854
G1 X113.567 Y113.346 E0.01619
G1 X113.033 Y113.346 E0.01676
G1 X112.525 Y113.438 E0.01619
G1 X111.937 Y113.502 E0.01854
G1 X112.141 Y112.739 E0.02476
G1 X112.199 Y112.213 E0.01661
G1 X112.208 Y111.110 E0.03457
G1 X114.332 Y111.110 E0.06658
G1 X114.250 Y111.484 F10800.000
;WIPE_START
G1 F8640.000
G1 X114.401 Y112.213 E-0.25507
G1 X114.459 Y112.739 E-0.12230
G1 X114.663 Y113.502 E-0.18236
G1 X114.075 Y113.438 E-0.13653
G1 X113.567 Y113.346 E-0.11924
G1 X113.033 Y113.346 E-0.12343
G1 X112.525 Y113.438 E-0.11924
G1 X111.937 Y113.502 E-0.13653
G1 X112.088 Y112.936 E-0.13530
;WIPE_END
G1 E-0.07000 F2100.000
G1 Z0.400 F10800.000
G1 X114.867 Y113.450
G1 Z0.200
G1 E1.40000 F2100.000
;WIDTH:0.54292
G1 F1200.000
G1 X121.486 Y113.450 E0.27519
G1 X121.555 Y113.443 E0.00290
G1 X121.655 Y113.395 E0.00461
G1 X121.725 Y113.308 E0.00461
G1 X121.750 Y113.186 E0.00519
G1 X121.750 Y96.814 E0.68067
G1 X121.725 Y96.692 E0.00519
G1 X121.608 Y96.575 E0.00684
G1 X121.486 Y96.550 E0.00519
G1 X114.867 Y96.550 E0.27519
G1 X114.157 Y96.930 F10800.000
;TYPE:Perimeter
;WIDTH:0.42
G1 F1200.000
G1 X114.088 Y97.191 E0.00846
G1 X114.024 Y97.765 E0.01810
G1 X114.018 Y98.513 E0.02345
G1 X112.582 Y98.513 E0.04501
G1 X112.576 Y97.765 E0.02345
G1 X112.512 Y97.191 E0.01810
G1 X112.443 Y96.930 E0.00846
G1 X112.999 Y97.031 E0.01773
G1 X113.601 Y97.031 E0.01888
G1 X114.098 Y96.941 E0.01585
G1 X114.663 Y96.498 F10800.000
;TYPE:External perimeter
G1 F1200.000
G1 X114.459 Y97.261 E0.02476
G1 X114.401 Y97.787 E0.01661
G1 X114.392 Y98.890 E0.03457
G1 X112.208 Y98.890 E0.06846
G1 X112.199 Y97.787 E0.03457
G1 X112.141 Y97.261 E0.01661
G1 X111.937 Y96.498 E0.02476
G1 X112.525 Y96.562 E0.01854
G1 X113.033 Y96.654 E0.01619
G1 X113.567 Y96.654 E0.01676
G1 X114.075 Y96.562 E0.01619
G1 X114.604 Y96.505 E0.01666
G1 X114.421 Y96.816 F10800.000
;WIPE_START
G1 F8640.000
G1 X114.459 Y97.261 E-0.17782
G1 X114.401 Y97.787 E-0.12230
G1 X114.392 Y98.890 E-0.25458
G1 X112.208 Y98.890 E-0.50417
G1 X112.199 Y97.787 E-0.25458
G1 X112.191 Y97.716 E-0.01654
;WIPE_END
G1 E-0.07000 F2100.000
G1 Z0.400 F10800.000
G1 X111.733 Y96.550
G1 Z0.200
G1 E1.40000 F2100.000
;WIDTH:0.54292
G1 F1200.000
G1 X105.114 Y96.550 E0.27519
G1 X105.045 Y96.557 E0.00290
G1 X104.945 Y96.605 E0.00461
G1 X104.875 Y96.692 E0.00461
G1 X104.850 Y96.814 E0.00519
G1 X104.850 Y113.186 E0.68067
G1 X104.875 Y113.308 E0.00519
G1 X104.992 Y113.425 E0.00684
G1 X105.114 Y113.450 E0.00519
G1 X111.733 Y113.450 E0.27519
;WIPE_START
G1 F8640.000
G1 X105.973 Y113.450 E-1.33000
;WIPE_END
M73 P0 R75
G1 E-0.07000 F2100.000
G1 Z0.400 F10800.000
G1 X113.928 Y112.394
G1 Z0.200
G1 E1.40000 F2100.000
;TYPE:Solid infill
;WIDTH:0.424504
G1 F1200.000
G1 X113.303 Y111.770 E0.02803
G1 X112.863 Y111.770 E0.01398
G1 X112.862 Y111.868 E0.00312
G1 X113.692 Y112.698 E0.03726
G1 X113.141 Y112.686 E0.01750
G1 X112.689 Y112.235 E0.02026
;WIPE_START
G1 F8640.000
G1 X113.141 Y112.686 E-0.14744
G1 X113.692 Y112.698 E-0.12738
G1 X112.862 Y111.868 E-0.27112
G1 X112.863 Y111.770 E-0.02267
G1 X113.303 Y111.770 E-0.10175
G1 X113.928 Y112.394 E-0.20396
;WIPE_END
G1 E-0.52568 F2100.000
G1 Z0.400 F10800.000
G1 X113.911 Y97.765
G1 Z0.200
G1 E1.40000 F2100.000
;WIDTH:0.424503
G1 F1200.000
G1 X113.459 Y97.314 E0.02027
G1 X112.908 Y97.302 E0.01750
G1 X113.738 Y98.132 E0.03726
G1 X113.737 Y98.230 E0.00311
G1 X113.297 Y98.230 E0.01399
G1 X112.672 Y97.606 E0.02802
;WIPE_START
G1 F8640.000
G1 X113.297 Y98.230 E-0.20391
G1 X113.737 Y98.230 E-0.10178
G1 X113.738 Y98.132 E-0.02264
G1 X112.908 Y97.302 E-0.27118
G1 X113.459 Y97.314 E-0.12738
G1 X113.911 Y97.765 E-0.14748
;WIPE_END
G1 E-0.52563 F2100.000
G1 Z0.400 F10800.000
G1 X112.672 Y134.887
M73 Q1 S76
G1 Z0.200
G1 E1.40000 F2100.000
;TYPE:Perimeter
;WIDTH:0.42
G1 F1200.000
G1 X114.018 Y134.887 E0.04219
M73 P1 R75
G1 X114.024 Y135.635 E0.02345
G1 X114.088 Y136.209 E0.01810
G1 X114.157 Y136.470 E0.00846
G1 X113.601 Y136.369 E0.01773
G1 X112.999 Y136.369 E0.01888
G1 X112.443 Y136.470 E0.01773
G1 X112.512 Y136.209 E0.00846
G1 X112.576 Y135.635 E0.01810
G1 X112.582 Y134.887 E0.02345
G1 X112.612 Y134.887 E0.00094
G1 X112.208 Y134.510 F10800.000
;TYPE:External perimeter
G1 F1200.000
G1 X114.392 Y134.510 E0.06846
G1 X114.401 Y135.613 E0.03457
