; generated by PrusaSlicer 2.3.0+win64 on 2021-07-23 at 00:31:40 UTC

; 

; external perimeters extrusion width = 0.25mm
; perimeters extrusion width = 0.25mm
; infill extrusion width = 0.25mm
; solid infill extrusion width = 0.25mm
; top infill extrusion width = 0.25mm
; first layer extrusion width = 0.30mm

M73 P0 R31
M73 Q0 S31
M201 X1000 Y1000 Z200 E5000 ; sets maximum accelerations, mm/sec^2
M203 X200 Y200 Z12 E120 ; sets maximum feedrates, mm/sec
M204 P1250 R1250 T1250 ; sets acceleration (P, T) and retract acceleration (R), mm/sec^2
M205 X8.00 Y8.00 Z0.40 E4.50 ; sets the jerk limits, mm/sec
M205 S0 T0 ; sets the minimum extruding and travel feed rate, mm/sec
M107
;TYPE:Custom
M862.3 P "MK3S" ; printer model check
M862.1 P0.25 ; nozzle diameter check
M115 U3.9.1 ; tell printer latest fw version
G90 ; use absolute coordinates
M83 ; extruder relative mode
M104 S240 ; set extruder temp
M140 S85 ; set bed temp
M190 S85 ; wait for bed temp
M109 S240 ; wait for extruder temp
G28 W ; home all without mesh bed level
G80 ; mesh bed leveling
G1 Y-3.0 F1000.0 ; go outside print area
G92 E0.0
G1 X60.0 E8.0 F700.0 ; intro line
G1 X100.0 E12.5 F700.0 ; intro line
G92 E0.0
M221 S95

; Don't change E value below. Excessive value can damage the printer.
M907 E430 ; set extruder motor current
G21 ; set units to millimeters
G90 ; use absolute coordinates
M83 ; use relative distances for extrusion
M900 K0.08 ; Filament gcode LA 1.5
M900 K45 ; Filament gcode LA 1.0
;LAYER_CHANGE
;Z:0.2
;HEIGHT:0.2
;BEFORE_LAYER_CHANGE
G92 E0.0
;0.2


G1 E-1.40000 F2100.000
G1 Z0.200 F10800.000
;AFTER_LAYER_CHANGE
;0.2
G1 Z0.400
G1 X87.959 Y92.209
G1 Z0.200
G1 E1.40000 F2100.000
M204 S500
;TYPE:Skirt
;WIDTH:0.3
G1 F1200.000
G1 X88.449 Y91.386 E0.02048
G1 X88.892 Y90.957 E0.01318
G1 X89.423 Y90.621 E0.01343
G1 X90.016 Y90.402 E0.01351
G1 X90.611 Y90.313 E0.01287
G1 X107.163 Y90.309 E0.35381
G1 X133.687 Y93.827 E0.57195
G1 X134.479 Y94.071 E0.01773
G1 X135.169 Y94.519 E0.01758
G1 X135.595 Y94.970 E0.01326
G1 X135.929 Y95.520 E0.01376
G1 X136.138 Y96.125 E0.01368
G1 X136.214 Y96.761 E0.01368
G1 X136.212 Y113.298 E0.35350
G1 X135.992 Y114.332 E0.02260
G1 X135.481 Y115.169 E0.02098
G1 X135.042 Y115.586 E0.01293
G1 X134.515 Y115.912 E0.01326
G1 X133.928 Y116.125 E0.01335
G1 X133.337 Y116.210 E0.01276
G1 X116.632 Y116.209 E0.35710
G1 X90.272 Y112.696 E0.56845
G1 X89.479 Y112.452 E0.01773
G1 X88.789 Y112.004 E0.01758
G1 X88.364 Y111.553 E0.01326
G1 X88.030 Y111.002 E0.01376
G1 X87.822 Y110.401 E0.01360
G1 X87.745 Y109.769 E0.01362
G1 X87.746 Y93.225 E0.35364
G1 X87.952 Y92.246 E0.02138
M204 S1000
G1 X88.199 Y92.301 F10800.000
M204 S500
G1 F1200.000
G1 X88.652 Y91.544 E0.01885
G1 X89.059 Y91.152 E0.01209
G1 X89.545 Y90.847 E0.01225
G1 X90.090 Y90.648 E0.01241
G1 X90.636 Y90.569 E0.01179
G1 X107.162 Y90.566 E0.35326
G1 X133.643 Y94.080 E0.57102
M73 P1 R31
M73 Q1 S31
G1 X134.365 Y94.301 E0.01615
G1 X134.992 Y94.706 E0.01595
G1 X135.385 Y95.118 E0.01217
G1 X135.695 Y95.626 E0.01272
G1 X135.887 Y96.182 E0.01257
G1 X135.957 Y96.766 E0.01257
G1 X135.956 Y113.282 E0.35305
G1 X135.755 Y114.232 E0.02076
G1 X135.294 Y114.993 E0.01901
G1 X134.890 Y115.378 E0.01193
G1 X134.404 Y115.680 E0.01225
G1 X133.861 Y115.877 E0.01233
G1 X133.316 Y115.954 E0.01178
G1 X116.644 Y115.952 E0.35638
G1 X90.316 Y112.443 E0.56778
G1 X89.593 Y112.222 E0.01615
G1 X88.966 Y111.817 E0.01595
G1 X88.574 Y111.405 E0.01217
G1 X88.264 Y110.896 E0.01272
G1 X88.072 Y110.341 E0.01257
M73 P1 R30
G1 X88.002 Y109.760 E0.01251
G1 X88.003 Y93.241 E0.35311
G1 X88.192 Y92.338 E0.01973
M204 S1000
;WIPE_START
G1 F8640.000
G1 X88.652 Y91.544 E-0.21183
G1 X89.059 Y91.152 E-0.13062
G1 X89.545 Y90.847 E-0.13234
G1 X90.090 Y90.648 E-0.13403
G1 X90.636 Y90.569 E-0.12740
G1 X93.208 Y90.569 E-0.59378
;WIPE_END
G1 E-0.07000 F2100.000
G1 Z0.400 F10800.000
G1 X116.707 Y97.746
G1 Z0.200
G1 E1.40000 F2100.000
M204 S500
;TYPE:Perimeter
G1 F1200.000
G1 X117.343 Y97.929 E0.01414
G1 X117.343 Y112.071 E0.30230
G1 X116.707 Y112.254 E0.01414
G1 X116.707 Y97.783 E0.30933
M204 S1000
G1 X117.600 Y97.600 F10800.000
M204 S500
;TYPE:External perimeter
G1 F1200.000
G1 X132.400 Y97.600 E0.31637
G1 X132.400 Y112.400 E0.31637
M73 Q1 S30
G1 X117.600 Y112.400 E0.31637
G1 X117.600 Y97.637 E0.31557
M204 S1000
G1 X117.535 Y97.359 F10800.000
G1 X117.100 Y97.100
M204 S500
G1 F1200.000
G1 X117.592 Y97.100 E0.01051
G1 X117.670 Y97.373 E0.00608
G1 X117.399 Y97.600 E0.00756
G1 X117.434 Y97.600 E0.00076
G1 X117.386 Y97.674 E0.00188
G1 X117.100 Y97.592 E0.00637
G1 X117.100 Y97.137 E0.00971
M204 S1000
G1 X117.062 Y96.853 F10800.000
G1 X117.746 Y96.707
M204 S500
;TYPE:Perimeter
G1 F1200.000
G1 X132.254 Y96.708 E0.31013
G1 X132.071 Y97.343 E0.01413
G1 X117.929 Y97.343 E0.30230
G1 X117.756 Y96.743 E0.01334
M204 S1000
;WIPE_START
G1 F8640.000
G1 X123.516 Y96.729 E-1.33000
;WIPE_END
G1 E-0.07000 F2100.000
G1 Z0.400 F10800.000
G1 X132.326 Y97.388
G1 Z0.200
G1 E1.40000 F2100.000
M204 S500
;TYPE:External perimeter
G1 F1200.000
G1 X132.408 Y97.100 E0.00640
G1 X132.900 Y97.100 E0.01051
G1 X132.900 Y97.592 E0.01051
G1 X132.627 Y97.670 E0.00608
G1 X132.400 Y97.400 E0.00755
G1 X132.400 Y97.435 E0.00075
G1 X132.357 Y97.408 E0.00108
M204 S1000
G1 X132.083 Y97.329 F10800.000
G1 X132.657 Y97.929
M204 S500
;TYPE:Perimeter
G1 F1200.000
G1 X133.293 Y97.746 E0.01414
G1 X133.293 Y112.254 E0.31013
G1 X132.657 Y112.071 E0.01414
G1 X132.657 Y97.967 E0.30150
M204 S1000
;WIPE_START
G1 F8640.000
G1 X133.293 Y97.746 E-0.15541
G1 X133.293 Y102.833 E-1.17459
;WIPE_END
G1 E-0.07000 F2100.000
G1 Z0.400 F10800.000
G1 X132.612 Y112.326
G1 Z0.200
G1 E1.40000 F2100.000
M204 S500
;TYPE:External perimeter
G1 F1200.000
G1 X132.900 Y112.408 E0.00640
G1 X132.900 Y112.900 E0.01051
G1 X132.408 Y112.900 E0.01051
G1 X132.330 Y112.627 E0.00608
G1 X132.600 Y112.400 E0.00755
G1 X132.565 Y112.400 E0.00075
G1 X132.592 Y112.357 E0.00108
M204 S1000
G1 X132.671 Y112.083 F10800.000
G1 X132.071 Y112.657
M204 S500
;TYPE:Perimeter
G1 F1200.000
G1 X132.254 Y113.293 E0.01414
G1 X117.746 Y113.293 E0.31013
G1 X117.929 Y112.657 E0.01414
G1 X132.033 Y112.657 E0.30150
M204 S1000
;WIPE_START
G1 F8640.000
G1 X132.254 Y113.293 E-0.15541
G1 X127.167 Y113.293 E-1.17459
;WIPE_END
G1 E-0.07000 F2100.000
G1 Z0.400 F10800.000
G1 X117.674 Y112.614
G1 Z0.200
G1 E1.40000 F2100.000
M204 S500
;TYPE:External perimeter
G1 F1200.000
G1 X117.592 Y112.900 E0.00637
G1 X117.100 Y112.900 E0.01051
G1 X117.100 Y112.408 E0.01051
G1 X117.373 Y112.330 E0.00608
G1 X117.600 Y112.601 E0.00756
G1 X117.600 Y112.566 E0.00076
G1 X117.643 Y112.593 E0.00108
M204 S1000
G1 X117.917 Y112.674 F10800.000
;WIPE_START
G1 F8640.000
G1 X117.592 Y112.900 E-0.07179
G1 X117.100 Y112.900 E-0.11350
G1 X117.100 Y112.408 E-0.11350
G1 X117.373 Y112.330 E-0.06568
G1 X117.600 Y112.601 E-0.08167
G1 X117.600 Y112.566 E-0.00819
G1 X117.643 Y112.593 E-0.01170
;WIPE_END
G1 E-0.93397 F2100.000
G1 Z0.400 F10800.000
G1 X116.527 Y113.418
G1 Z0.200
G1 E1.40000 F2100.000
M204 S500
G1 F1200.000
G1 X116.460 Y113.278 E0.00332
G1 X116.450 Y113.192 E0.00185
G1 X116.450 Y96.809 E0.35019
M73 Q2 S30
G1 X116.461 Y96.725 E0.00182
G1 X116.533 Y96.577 E0.00353
G1 X116.582 Y96.527 E0.00149
G1 X116.722 Y96.460 E0.00332
G1 X116.808 Y96.450 E0.00185
G1 X133.190 Y96.451 E0.35018
M73 P2 R30
G1 X133.358 Y96.490 E0.00369
G1 X133.473 Y96.582 E0.00314
G1 X133.540 Y96.722 E0.00332
G1 X133.550 Y96.808 E0.00185
G1 X133.550 Y113.191 E0.35019
G1 X133.539 Y113.275 E0.00182
G1 X133.467 Y113.423 E0.00353
G1 X133.418 Y113.473 E0.00149
G1 X133.278 Y113.540 E0.00332
G1 X133.192 Y113.550 E0.00185
G1 X116.809 Y113.550 E0.35019
G1 X116.725 Y113.539 E0.00182
G1 X116.554 Y113.444 E0.00419
M204 S1000
G1 X116.583 Y113.273 F10800.000
;WIPE_START
G1 F8640.000
G1 X116.460 Y113.278 E-0.04413
G1 X116.450 Y113.192 E-0.02001
G1 X116.450 Y107.709 E-1.26586
;WIPE_END
G1 E-0.07000 F2100.000
G1 Z0.400 F10800.000
G1 X116.775 Y112.368
G1 Z0.200
G1 E1.40000 F2100.000
M204 S500
;TYPE:Gap fill
;WIDTH:0.435842
G1 F1200.000
G1 X116.775 Y113.029 E0.02157
G1 X116.807 Y113.184 E0.00518
G1 X116.971 Y113.225 E0.00555
G1 X117.632 Y113.225 E0.02157
M204 S1000
G1 X117.971 Y112.975 F10800.000
M204 S500
;WIDTH:0.421684
G1 F1200.000
G1 X132.029 Y112.975 E0.44273
M204 S1000
G1 X132.368 Y113.225 F10800.000
M204 S500
;WIDTH:0.435842
G1 F1200.000
G1 X133.029 Y113.225 E0.02157
G1 X133.184 Y113.193 E0.00518
G1 X133.225 Y113.029 E0.00555
G1 X133.225 Y112.368 E0.02157
M204 S1000
G1 X132.975 Y112.029 F10800.000
M204 S500
;WIDTH:0.421684
G1 F1200.000
G1 X132.975 Y97.971 E0.44273
M204 S1000
;WIPE_START
G1 F8640.000
G1 X132.975 Y103.731 E-1.33000
;WIPE_END
G1 E-0.07000 F2100.000
G1 Z0.400 F10800.000
G1 X132.029 Y97.025
G1 Z0.200
G1 E1.40000 F2100.000
M204 S500
;WIDTH:0.421611
G1 F1200.000
G1 X117.971 Y97.025 E0.44264
M204 S1000
G1 X117.632 Y96.775 F10800.000
M204 S500
;WIDTH:0.435832
G1 F1200.000
G1 X116.971 Y96.775 E0.02157
G1 X116.816 Y96.807 E0.00518
G1 X116.775 Y96.971 E0.00555
G1 X116.775 Y97.632 E0.02157
M204 S1000
G1 X117.025 Y97.971 F10800.000
M204 S500
;WIDTH:0.421682
G1 F1200.000
G1 X117.025 Y112.029 E0.44273
M204 S1000
;WIPE_START
G1 F8640.000
G1 X117.025 Y106.269 E-1.33000
;WIPE_END
G1 E-0.07000 F2100.000
G1 Z0.400 F10800.000
G1 X99.795 Y95.159
G1 Z0.200
G1 E1.40000 F2100.000
M204 S500
;TYPE:Perimeter
;WIDTH:0.3
G1 F1200.000
G1 X98.123 Y95.159 E0.03573
G1 X98.123 Y93.487 E0.03573
G1 X99.795 Y93.487 E0.03573
G1 X99.795 Y95.121 E0.03493
M204 S1000
G1 X100.052 Y95.416 F10800.000
M204 S500
G1 F1200.000
G1 X97.866 Y95.416 E0.04673
G1 X97.866 Y93.230 E0.04672
G1 X100.052 Y93.230 E0.04673
G1 X100.052 Y95.378 E0.04592
M204 S1000
;WIPE_START
G1 F8640.000
G1 X97.866 Y95.416 E-0.50479
G1 X97.866 Y93.230 E-0.50469
G1 X99.254 Y93.230 E-0.32052
;WIPE_END
G1 E-0.07000 F2100.000
G1 Z0.400 F10800.000
G1 X90.609 Y93.173
G1 Z0.200
G1 E1.40000 F2100.000
M204 S500
;TYPE:External perimeter
G1 F1200.000
G1 X97.609 Y93.173 E0.14963
G1 X97.609 Y95.673 E0.05344
G1 X100.309 Y95.673 E0.05772
G1 X100.309 Y93.173 E0.05344
G1 X107.309 Y93.173 E0.14963
G1 X107.309 Y109.873 E0.35698
G1 X100.309 Y109.873 E0.14963
G1 X100.309 Y107.373 E0.05344
G1 X97.609 Y107.373 E0.05772
G1 X97.609 Y109.873 E0.05344
G1 X90.609 Y109.873 E0.14963
G1 X90.609 Y93.210 E0.35618
M204 S1000
G1 X90.576 Y92.925 F10800.000
;WIPE_START
G1 F8640.000
G1 X96.369 Y93.180 E-1.33000
;WIPE_END
G1 E-0.07000 F2100.000
G1 Z0.400 F10800.000
G1 X98.123 Y107.887
G1 Z0.200
G1 E1.40000 F2100.000
M204 S500
;TYPE:Perimeter
G1 F1200.000
G1 X99.795 Y107.887 E0.03573
G1 X99.795 Y109.559 E0.03573
G1 X98.123 Y109.559 E0.03573
G1 X98.123 Y107.925 E0.03493
M204 S1000
G1 X97.866 Y107.630 F10800.000
M204 S500
G1 F1200.000
G1 X100.052 Y107.630 E0.04673
G1 X100.052 Y109.816 E0.04673
G1 X97.866 Y109.816 E0.04673
G1 X97.866 Y107.667 E0.04592
M204 S1000
;WIPE_START
G1 F8640.000
G1 X100.052 Y107.630 E-0.50479
G1 X100.052 Y109.816 E-0.50472
G1 X98.664 Y109.816 E-0.32049
;WIPE_END
G1 E-0.07000 F2100.000
G1 Z0.400 F10800.000
G1 X90.607 Y110.037
G1 Z0.200
G1 E1.40000 F2100.000
M204 S500
;TYPE:External perimeter
G1 F1200.000
G1 X90.523 Y109.984 E0.00213
G1 X90.533 Y109.948 E0.00081
G1 X90.497 Y109.959 E0.00081
G1 X90.444 Y109.874 E0.00213
G1 X90.409 Y109.714 E0.00350
G1 X90.409 Y93.331 E0.35021
G1 X90.444 Y93.171 E0.00350
G1 X90.497 Y93.087 E0.00213
G1 X90.533 Y93.098 E0.00081
G1 X90.523 Y93.061 E0.00081
G1 X90.607 Y93.008 E0.00213
G1 X90.767 Y92.973 E0.00350
G1 X107.144 Y92.973 E0.35009
G1 X107.317 Y93.013 E0.00379
G1 X107.394 Y93.061 E0.00195
G1 X107.384 Y93.098 E0.00081
G1 X107.420 Y93.087 E0.00081
G1 X107.473 Y93.171 E0.00213
G1 X107.509 Y93.331 E0.00350
G1 X107.509 Y109.714 E0.35021
G1 X107.473 Y109.874 E0.00350
G1 X107.420 Y109.959 E0.00213
G1 X107.384 Y109.948 E0.00081
G1 X107.394 Y109.984 E0.00081
G1 X107.310 Y110.037 E0.00213
G1 X107.150 Y110.073 E0.00350
G1 X90.767 Y110.073 E0.35021
M73 Q3 S30
G1 X90.643 Y110.050 E0.00271
M204 S1000
G1 X90.592 Y109.939 F10800.000
;WIPE_START
G1 F8640.000
G1 X90.523 Y109.984 E-0.03148
G1 X90.533 Y109.948 E-0.00872
G1 X90.497 Y109.959 E-0.00872
G1 X90.444 Y109.874 E-0.02298
G1 X90.409 Y109.714 E-0.03781
G1 X90.409 Y104.430 E-1.22029
;WIPE_END
G1 E-0.07000 F2100.000
G1 Z0.400 F10800.000
G1 X99.164 Y107.964
M73 P3 R30
G1 Z0.200
G1 E1.40000 F2100.000
M204 S500
;TYPE:Solid infill
;WIDTH:0.315718
G1 F1200.000
G1 X99.602 Y108.402 E0.01403
G1 X99.602 Y108.787 E0.00875
G1 X98.894 Y108.080 E0.02270
G1 X98.508 Y108.080 E0.00875
G1 X99.602 Y109.173 E0.03507
G1 X99.602 Y109.366 E0.00437
G1 X99.409 Y109.366 E0.00438
G1 X98.316 Y108.273 E0.03507
G1 X98.316 Y108.659 E0.00875
G1 X99.023 Y109.366 E0.02269
G1 X98.637 Y109.366 E0.00875
G1 X98.200 Y108.929 E0.01403
M204 S1000
;WIPE_START
G1 F8640.000
G1 X98.637 Y109.366 E-0.14278
G1 X99.023 Y109.366 E-0.08908
G1 X98.316 Y108.659 E-0.23098
G1 X98.316 Y108.273 E-0.08908
G1 X99.409 Y109.366 E-0.35696
G1 X99.602 Y109.366 E-0.04456
G1 X99.602 Y109.173 E-0.04453
G1 X98.585 Y108.156 E-0.33203
;WIPE_END
G1 E-0.07000 F2100.000
G1 Z0.400 F10800.000
G1 X99.164 Y93.564
G1 Z0.200
G1 E1.40000 F2100.000
M204 S500
;WIDTH:0.315703
G1 F1200.000
G1 X99.602 Y94.002 E0.01403
G1 X99.602 Y94.387 E0.00875
G1 X98.894 Y93.680 E0.02269
G1 X98.509 Y93.680 E0.00875
G1 X99.602 Y94.773 E0.03507
G1 X99.602 Y94.966 E0.00437
G1 X99.409 Y94.966 E0.00438
G1 X98.316 Y93.873 E0.03506
G1 X98.316 Y94.259 E0.00875
G1 X99.023 Y94.966 E0.02269
G1 X98.637 Y94.966 E0.00875
G1 X98.200 Y94.529 E0.01402
M204 S1000
;LAYER_CHANGE
;Z:0.35
;HEIGHT:0.15
;BEFORE_LAYER_CHANGE
G92 E0.0
;0.35


;WIPE_START
G1 F8640.000
G1 X98.637 Y94.966 E-0.14277
G1 X99.023 Y94.966 E-0.08908
G1 X98.316 Y94.259 E-0.23096
G1 X98.316 Y93.873 E-0.08908
G1 X99.409 Y94.966 E-0.35694
G1 X99.602 Y94.966 E-0.04457
G1 X99.602 Y94.773 E-0.04450
G1 X98.585 Y93.756 E-0.33211
;WIPE_END
G1 E-0.07000 F2100.000
G1 Z0.400 F10800.000
;AFTER_LAYER_CHANGE
;0.35
M104 S250 ; set temperature
M140 S90 ; set bed temperature
G1 X87.959 Y92.209
G1 Z0.350
G1 E1.40000 F2100.000
;TYPE:Skirt
;WIDTH:0.3
G1 F2400.000
G1 X88.449 Y91.386 E0.01600
G1 X88.892 Y90.957 E0.01030
G1 X89.423 Y90.621 E0.01049
G1 X90.016 Y90.402 E0.01056
G1 X90.611 Y90.313 E0.01005
G1 X107.163 Y90.309 E0.27643
G1 X133.687 Y93.827 E0.44687
G1 X134.479 Y94.071 E0.01386
G1 X135.169 Y94.519 E0.01374
G1 X135.595 Y94.970 E0.01036
G1 X135.929 Y95.520 E0.01075
G1 X136.138 Y96.125 E0.01069
G1 X136.214 Y96.761 E0.01069
G1 X136.212 Y113.298 E0.27619
G1 X135.992 Y114.332 E0.01765
G1 X135.481 Y115.169 E0.01639
G1 X135.042 Y115.586 E0.01010
G1 X134.515 Y115.912 E0.01036
G1 X133.928 Y116.125 E0.01043
G1 X133.337 Y116.210 E0.00997
G1 X116.632 Y116.209 E0.27900
G1 X90.272 Y112.696 E0.44413
G1 X89.479 Y112.452 E0.01386
G1 X88.789 Y112.004 E0.01374
G1 X88.364 Y111.553 E0.01036
G1 X88.030 Y111.002 E0.01075
G1 X87.822 Y110.401 E0.01062
G1 X87.745 Y109.769 E0.01064
G1 X87.746 Y93.225 E0.27630
G1 X87.952 Y92.246 E0.01671
G1 X88.199 Y92.301 F10800.000
G1 F2400.000
G1 X88.652 Y91.544 E0.01473
G1 X89.059 Y91.152 E0.00945
G1 X89.545 Y90.847 E0.00957
G1 X90.090 Y90.648 E0.00969
G1 X90.636 Y90.569 E0.00922
G1 X107.162 Y90.566 E0.27601
G1 X133.643 Y94.080 E0.44614
G1 X134.365 Y94.301 E0.01262
G1 X134.992 Y94.706 E0.01246
G1 X135.385 Y95.118 E0.00951
G1 X135.695 Y95.626 E0.00994
G1 X135.887 Y96.182 E0.00982
G1 X135.957 Y96.766 E0.00982
G1 X135.956 Y113.282 E0.27584
G1 X135.755 Y114.232 E0.01622
G1 X135.294 Y114.993 E0.01485
G1 X134.890 Y115.378 E0.00932
G1 X134.404 Y115.680 E0.00957
G1 X133.861 Y115.877 E0.00963
G1 X133.316 Y115.954 E0.00920
G1 X116.644 Y115.952 E0.27844
G1 X90.316 Y112.443 E0.44361
G1 X89.593 Y112.222 E0.01262
G1 X88.966 Y111.817 E0.01246
G1 X88.574 Y111.405 E0.00951
G1 X88.264 Y110.896 E0.00994
G1 X88.072 Y110.341 E0.00982
G1 X88.002 Y109.760 E0.00977
G1 X88.003 Y93.241 E0.27588
G1 X88.192 Y92.338 E0.01541
;WIPE_START
G1 F8640.000
G1 X88.652 Y91.544 E-0.21183
G1 X89.059 Y91.152 E-0.13062
G1 X89.545 Y90.847 E-0.13234
G1 X90.090 Y90.648 E-0.13403
G1 X90.636 Y90.569 E-0.12740
G1 X93.208 Y90.569 E-0.59378
;WIPE_END
G1 E-0.07000 F2100.000
G1 Z0.550 F10800.000
G1 X116.861 Y97.950
G1 Z0.350
