; generated by PrusaSlicer 2.3.0+win64 on 2021-07-24 at 04:05:36 UTC

; 

; external perimeters extrusion width = 0.45mm
; perimeters extrusion width = 0.45mm
; infill extrusion width = 0.45mm
; solid infill extrusion width = 0.45mm
; top infill extrusion width = 0.40mm
; first layer extrusion width = 0.42mm

M73 P0 R55
M73 Q0 S55
M201 X1000 Y1000 Z200 E5000 ; sets maximum accelerations, mm/sec^2
M203 X200 Y200 Z12 E120 ; sets maximum feedrates, mm/sec
M204 P1250 R1250 T1250 ; sets acceleration (P, T) and retract acceleration (R), mm/sec^2
M205 X8.00 Y8.00 Z0.40 E4.50 ; sets the jerk limits, mm/sec
M205 S0 T0 ; sets the minimum extruding and travel feed rate, mm/sec
M107
;TYPE:Custom
M862.3 P "MK3S" ; printer model check
M862.1 P0.4 ; nozzle diameter check
M115 U3.9.1 ; tell printer latest fw version
G90 ; use absolute coordinates
M83 ; extruder relative mode
M104 S240 ; set extruder temp
M140 S85 ; set bed temp
M190 S85 ; wait for bed temp
M109 S240 ; wait for extruder temp
G28 W ; home all without mesh bed level
G80 ; mesh bed leveling
G1 Y-3.0 F1000.0 ; go outside print area
G92 E0.0
G1 X60.0 E9.0 F1000.0 ; intro line
G1 X100.0 E12.5 F1000.0 ; intro line
G92 E0.0
M221 S95

; Don't change E values below. Excessive value can damage the printer.
M907 E430 ; set extruder motor current
G21 ; set units to millimeters
G90 ; use absolute coordinates
M83 ; use relative distances for extrusion
M900 K0.08 ; Filament gcode LA 1.5
M900 K45 ; Filament gcode LA 1.0
;LAYER_CHANGE
;Z:0.2
;HEIGHT:0.2
;BEFORE_LAYER_CHANGE
G92 E0.0
;0.2


G1 E-1.40000 F2100.000
G1 Z0.200 F10800.000
;AFTER_LAYER_CHANGE
;0.2
G1 Z0.400
G1 X92.258 Y72.390
G1 Z0.200
G1 E1.40000 F2100.000
M204 S1000
;TYPE:Skirt
;WIDTH:0.42
G1 F1200.000
G1 X92.658 Y72.036 E0.01678
G1 X93.162 Y71.742 E0.01829
G1 X93.761 Y71.545 E0.01977
G1 X94.318 Y71.484 E0.01755
G1 X155.652 Y71.484 E1.92309
G1 X156.193 Y71.535 E0.01704
G1 X156.716 Y71.688 E0.01709
G1 X157.176 Y71.923 E0.01620
G1 X157.618 Y72.266 E0.01753
G1 X157.960 Y72.652 E0.01618
G1 X158.248 Y73.138 E0.01769
G1 X158.429 Y73.648 E0.01697
G1 X158.514 Y74.237 E0.01865
G1 X158.516 Y135.679 E1.92647
G1 X158.463 Y136.204 E0.01656
G1 X158.310 Y136.719 E0.01685
G1 X157.742 Y137.610 E0.03311
G1 X157.335 Y137.969 E0.01701
G1 X156.824 Y138.265 E0.01853
G1 X156.220 Y138.459 E0.01988
G1 X155.652 Y138.516 E0.01791
G1 X94.321 Y138.516 E1.92298
G1 X93.796 Y138.463 E0.01656
G1 X93.281 Y138.310 E0.01685
G1 X92.390 Y137.742 E0.03311
G1 X92.031 Y137.335 E0.01701
G1 X91.735 Y136.824 E0.01853
G1 X91.541 Y136.220 E0.01988
G1 X91.484 Y135.652 E0.01791
G1 X91.484 Y74.321 E1.92298
G1 X91.537 Y73.796 E0.01656
G1 X91.690 Y73.281 E0.01685
G1 X92.226 Y72.441 E0.03123
;WIPE_START
G1 F8640.000
G1 X92.658 Y72.036 E-0.13692
G1 X93.162 Y71.742 E-0.13467
G1 X93.761 Y71.545 E-0.14556
G1 X94.318 Y71.484 E-0.12927
G1 X97.711 Y71.484 E-0.78358
;WIPE_END
G1 E-0.07000 F2100.000
G1 Z0.400 F10800.000
G1 X141.601 Y121.601
G1 Z0.200
G1 E1.40000 F2100.000
;TYPE:External perimeter
G1 F1200.000
G1 X155.199 Y121.601 E0.42635
G1 X155.199 Y135.199 E0.42635
G1 X141.601 Y135.199 E0.42635
M73 P0 R54
G1 X141.601 Y121.661 E0.42447
G1 X141.498 Y121.215 F10800.000
G1 X141.288 Y121.287
G1 F1200.000
G1 X141.708 Y121.235 E0.01328
G1 X142.192 Y121.224 E0.01517
G1 X155.094 Y121.235 E0.40454
G1 X155.513 Y121.288 E0.01324
G1 X155.565 Y121.706 E0.01321
G1 X155.576 Y134.608 E0.40455
G1 X155.565 Y135.092 E0.01517
G1 X155.512 Y135.513 E0.01331
G1 X155.092 Y135.565 E0.01328
G1 X154.608 Y135.576 E0.01518
G1 X142.192 Y135.576 E0.38931
G1 X141.708 Y135.565 E0.01517
G1 X141.287 Y135.512 E0.01331
G1 X141.235 Y135.092 E0.01328
G1 X141.224 Y134.608 E0.01518
G1 X141.224 Y122.192 E0.38931
G1 X141.235 Y121.708 E0.01517
G1 X141.280 Y121.346 E0.01143
G1 X141.645 Y121.466 F10800.000
;WIPE_START
G1 F8640.000
G1 X141.708 Y121.235 E-0.10211
G1 X142.192 Y121.224 E-0.11173
G1 X147.026 Y121.228 E-1.11615
;WIPE_END
G1 E-0.07000 F2100.000
G1 Z0.400 F10800.000
G1 X141.601 Y111.799
G1 Z0.200
G1 E1.40000 F2100.000
G1 F1200.000
G1 X141.601 Y98.201 E0.42635
G1 X155.199 Y98.201 E0.42635
G1 X155.199 Y111.799 E0.42635
G1 X141.661 Y111.799 E0.42447
G1 X141.215 Y111.902 F10800.000
G1 X141.287 Y112.112
G1 F1200.000
G1 X141.235 Y111.692 E0.01328
G1 X141.224 Y111.208 E0.01518
G1 X141.224 Y98.792 E0.38931
G1 X141.235 Y98.308 E0.01517
G1 X141.288 Y97.887 E0.01331
G1 X141.708 Y97.835 E0.01328
G1 X142.192 Y97.824 E0.01517
G1 X155.094 Y97.835 E0.40454
G1 X155.513 Y97.888 E0.01324
G1 X155.565 Y98.306 E0.01321
G1 X155.576 Y111.208 E0.40455
G1 X155.565 Y111.692 E0.01517
G1 X155.512 Y112.113 E0.01331
G1 X155.092 Y112.165 E0.01328
G1 X154.608 Y112.176 E0.01518
G1 X142.192 Y112.176 E0.38931
M73 Q1 S55
G1 X141.708 Y112.165 E0.01517
G1 X141.346 Y112.120 E0.01143
M73 P1 R54
G1 X141.466 Y111.755 F10800.000
;WIPE_START
G1 F8640.000
G1 X141.235 Y111.692 E-0.10211
G1 X141.224 Y111.208 E-0.11175
G1 X141.224 Y106.374 E-1.11613
;WIPE_END
G1 E-0.07000 F2100.000
G1 Z0.400 F10800.000
G1 X131.799 Y111.799
G1 Z0.200
G1 E1.40000 F2100.000
G1 F1200.000
G1 X118.201 Y111.799 E0.42635
G1 X118.201 Y98.201 E0.42635
G1 X131.799 Y98.201 E0.42635
G1 X131.799 Y111.739 E0.42447
G1 X131.902 Y112.185 F10800.000
G1 X132.112 Y112.113
G1 F1200.000
G1 X131.692 Y112.165 E0.01328
G1 X131.208 Y112.176 E0.01518
G1 X118.792 Y112.176 E0.38931
G1 X118.308 Y112.165 E0.01517
G1 X117.887 Y112.112 E0.01331
G1 X117.835 Y111.692 E0.01328
G1 X117.824 Y111.208 E0.01518
G1 X117.824 Y98.792 E0.38931
G1 X117.835 Y98.308 E0.01517
G1 X117.888 Y97.887 E0.01331
G1 X118.308 Y97.835 E0.01328
G1 X118.792 Y97.824 E0.01517
G1 X131.694 Y97.835 E0.40454
G1 X132.113 Y97.888 E0.01324
G1 X132.165 Y98.306 E0.01321
G1 X132.176 Y111.208 E0.40455
G1 X132.165 Y111.692 E0.01517
G1 X132.120 Y112.054 E0.01143
G1 X131.755 Y111.934 F10800.000
;WIPE_START
G1 F8640.000
G1 X131.692 Y112.165 E-0.10211
G1 X131.208 Y112.176 E-0.11175
G1 X126.374 Y112.176 E-1.11613
;WIPE_END
G1 E-0.07000 F2100.000
G1 Z0.400 F10800.000
G1 X131.799 Y121.601
G1 Z0.200
G1 E1.40000 F2100.000
G1 F1200.000
G1 X131.799 Y135.199 E0.42635
G1 X118.201 Y135.199 E0.42635
G1 X118.201 Y121.601 E0.42635
G1 X131.739 Y121.601 E0.42447
G1 X132.185 Y121.498 F10800.000
G1 X132.113 Y121.288
G1 F1200.000
G1 X132.165 Y121.706 E0.01321
G1 X132.176 Y134.608 E0.40455
G1 X132.165 Y135.092 E0.01517
G1 X132.112 Y135.513 E0.01331
G1 X131.692 Y135.565 E0.01328
G1 X131.208 Y135.576 E0.01518
G1 X118.792 Y135.576 E0.38931
G1 X118.308 Y135.565 E0.01517
G1 X117.887 Y135.512 E0.01331
G1 X117.835 Y135.092 E0.01328
G1 X117.824 Y134.608 E0.01518
G1 X117.824 Y122.192 E0.38931
G1 X117.835 Y121.708 E0.01517
G1 X117.888 Y121.287 E0.01331
G1 X118.308 Y121.235 E0.01328
G1 X118.792 Y121.224 E0.01517
G1 X131.694 Y121.235 E0.40454
G1 X132.054 Y121.280 E0.01136
G1 X131.942 Y121.649 F10800.000
;WIPE_START
G1 F8640.000
G1 X132.165 Y121.706 E-0.10160
G1 X132.170 Y127.026 E-1.22840
;WIPE_END
G1 E-0.07000 F2100.000
G1 Z0.400 F10800.000
G1 X108.399 Y121.601
G1 Z0.200
G1 E1.40000 F2100.000
G1 F1200.000
G1 X108.399 Y135.199 E0.42635
G1 X94.801 Y135.199 E0.42635
G1 X94.801 Y121.601 E0.42635
G1 X108.339 Y121.601 E0.42447
G1 X108.785 Y121.498 F10800.000
G1 X108.713 Y121.288
G1 F1200.000
G1 X108.765 Y121.706 E0.01321
G1 X108.776 Y134.608 E0.40455
G1 X108.765 Y135.092 E0.01517
G1 X108.712 Y135.513 E0.01331
G1 X108.292 Y135.565 E0.01328
G1 X107.808 Y135.576 E0.01518
G1 X95.392 Y135.576 E0.38931
G1 X94.908 Y135.565 E0.01517
G1 X94.487 Y135.512 E0.01331
G1 X94.435 Y135.092 E0.01328
G1 X94.424 Y134.608 E0.01518
G1 X94.424 Y122.192 E0.38931
G1 X94.435 Y121.708 E0.01517
G1 X94.488 Y121.287 E0.01331
G1 X94.908 Y121.235 E0.01328
G1 X95.392 Y121.224 E0.01517
G1 X108.294 Y121.235 E0.40454
G1 X108.654 Y121.280 E0.01136
G1 X108.542 Y121.649 F10800.000
;WIPE_START
G1 F8640.000
G1 X108.765 Y121.706 E-0.10160
G1 X108.770 Y127.026 E-1.22840
;WIPE_END
G1 E-0.07000 F2100.000
G1 Z0.400 F10800.000
G1 X108.399 Y111.799
G1 Z0.200
G1 E1.40000 F2100.000
G1 F1200.000
G1 X94.801 Y111.799 E0.42635
G1 X94.801 Y98.201 E0.42635
M73 Q1 S54
G1 X108.399 Y98.201 E0.42635
G1 X108.399 Y111.739 E0.42447
G1 X108.502 Y112.185 F10800.000
G1 X108.712 Y112.113
G1 F1200.000
G1 X108.292 Y112.165 E0.01328
G1 X107.808 Y112.176 E0.01518
G1 X95.392 Y112.176 E0.38931
G1 X94.908 Y112.165 E0.01517
G1 X94.487 Y112.112 E0.01331
G1 X94.435 Y111.692 E0.01328
G1 X94.424 Y111.208 E0.01518
G1 X94.424 Y98.792 E0.38931
G1 X94.435 Y98.308 E0.01517
G1 X94.488 Y97.887 E0.01331
G1 X94.908 Y97.835 E0.01328
G1 X95.392 Y97.824 E0.01517
G1 X108.294 Y97.835 E0.40454
G1 X108.713 Y97.888 E0.01324
G1 X108.765 Y98.306 E0.01321
G1 X108.776 Y111.208 E0.40455
G1 X108.765 Y111.692 E0.01517
G1 X108.720 Y112.054 E0.01143
G1 X108.355 Y111.934 F10800.000
;WIPE_START
G1 F8640.000
G1 X108.292 Y112.165 E-0.10211
G1 X107.808 Y112.176 E-0.11175
G1 X102.974 Y112.176 E-1.11613
;WIPE_END
G1 E-0.07000 F2100.000
G1 Z0.400 F10800.000
G1 X108.399 Y88.399
G1 Z0.200
G1 E1.40000 F2100.000
G1 F1200.000
G1 X94.801 Y88.399 E0.42635
G1 X94.801 Y74.801 E0.42635
G1 X108.399 Y74.801 E0.42635
G1 X108.399 Y88.339 E0.42447
G1 X108.502 Y88.785 F10800.000
G1 X108.712 Y88.713
G1 F1200.000
G1 X108.292 Y88.765 E0.01328
G1 X107.808 Y88.776 E0.01518
G1 X95.392 Y88.776 E0.38931
G1 X94.908 Y88.765 E0.01517
G1 X94.487 Y88.712 E0.01331
G1 X94.435 Y88.292 E0.01328
G1 X94.424 Y87.808 E0.01518
G1 X94.424 Y75.392 E0.38931
G1 X94.435 Y74.908 E0.01517
G1 X94.488 Y74.487 E0.01331
G1 X94.908 Y74.435 E0.01328
G1 X95.392 Y74.424 E0.01517
G1 X108.294 Y74.435 E0.40454
G1 X108.713 Y74.488 E0.01324
G1 X108.765 Y74.906 E0.01321
G1 X108.776 Y87.808 E0.40455
G1 X108.765 Y88.292 E0.01517
G1 X108.720 Y88.654 E0.01143
G1 X108.355 Y88.534 F10800.000
;WIPE_START
G1 F8640.000
G1 X108.292 Y88.765 E-0.10211
G1 X107.808 Y88.776 E-0.11175
G1 X102.974 Y88.776 E-1.11613
;WIPE_END
G1 E-0.07000 F2100.000
G1 Z0.400 F10800.000
G1 X118.201 Y88.399
G1 Z0.200
G1 E1.40000 F2100.000
G1 F1200.000
G1 X118.201 Y74.801 E0.42635
G1 X131.799 Y74.801 E0.42635
M73 P2 R54
M73 Q2 S54
G1 X131.799 Y88.399 E0.42635
G1 X118.261 Y88.399 E0.42447
G1 X117.815 Y88.502 F10800.000
G1 X117.887 Y88.712
G1 F1200.000
G1 X117.835 Y88.292 E0.01328
G1 X117.824 Y87.808 E0.01518
G1 X117.824 Y75.392 E0.38931
G1 X117.835 Y74.908 E0.01517
G1 X117.888 Y74.487 E0.01331
G1 X118.308 Y74.435 E0.01328
G1 X118.792 Y74.424 E0.01517
G1 X131.694 Y74.435 E0.40454
G1 X132.113 Y74.488 E0.01324
G1 X132.165 Y74.906 E0.01321
G1 X132.176 Y87.808 E0.40455
G1 X132.165 Y88.292 E0.01517
G1 X132.112 Y88.713 E0.01331
G1 X131.692 Y88.765 E0.01328
G1 X131.208 Y88.776 E0.01518
G1 X118.792 Y88.776 E0.38931
G1 X118.308 Y88.765 E0.01517
G1 X117.946 Y88.720 E0.01143
G1 X118.066 Y88.355 F10800.000
;WIPE_START
G1 F8640.000
G1 X117.835 Y88.292 E-0.10211
G1 X117.824 Y87.808 E-0.11175
G1 X117.824 Y82.974 E-1.11613
;WIPE_END
G1 E-0.07000 F2100.000
G1 Z0.400 F10800.000
G1 X141.601 Y88.399
G1 Z0.200
G1 E1.40000 F2100.000
G1 F1200.000
G1 X141.601 Y74.801 E0.42635
G1 X155.199 Y74.801 E0.42635
G1 X155.199 Y88.399 E0.42635
G1 X141.661 Y88.399 E0.42447
G1 X141.215 Y88.502 F10800.000
G1 X141.287 Y88.712
G1 F1200.000
G1 X141.235 Y88.292 E0.01328
G1 X141.224 Y87.808 E0.01518
G1 X141.224 Y75.392 E0.38931
G1 X141.235 Y74.908 E0.01517
G1 X141.288 Y74.487 E0.01331
G1 X141.708 Y74.435 E0.01328
G1 X142.192 Y74.424 E0.01517
G1 X155.094 Y74.435 E0.40454
G1 X155.513 Y74.488 E0.01324
G1 X155.565 Y74.906 E0.01321
G1 X155.576 Y87.808 E0.40455
G1 X155.565 Y88.292 E0.01517
G1 X155.512 Y88.713 E0.01331
G1 X155.092 Y88.765 E0.01328
G1 X154.608 Y88.776 E0.01518
G1 X142.192 Y88.776 E0.38931
G1 X141.708 Y88.765 E0.01517
G1 X141.346 Y88.720 E0.01143
G1 X141.466 Y88.355 F10800.000
;LAYER_CHANGE
;Z:0.4
;HEIGHT:0.2
;BEFORE_LAYER_CHANGE
G92 E0.0
;0.4


;WIPE_START
G1 F8640.000
G1 X141.235 Y88.292 E-0.10211
G1 X141.224 Y87.808 E-0.11175
G1 X141.224 Y82.974 E-1.11613
;WIPE_END
G1 E-0.07000 F2100.000
G1 Z0.400 F10800.000
;AFTER_LAYER_CHANGE
;0.4
M104 S250 ; set temperature
M140 S90 ; set bed temperature
G1 Z0.600
G1 X92.390 Y137.742
G1 Z0.400
G1 E1.40000 F2100.000
;TYPE:Skirt
G1 F3000.000
G1 X92.031 Y137.335 E0.01701
G1 X91.735 Y136.824 E0.01853
G1 X91.541 Y136.220 E0.01988
G1 X91.484 Y135.652 E0.01791
G1 X91.484 Y74.321 E1.92298
G1 X91.537 Y73.796 E0.01656
G1 X91.690 Y73.281 E0.01685
G1 X92.258 Y72.390 E0.03311
G1 X92.658 Y72.036 E0.01678
G1 X93.162 Y71.742 E0.01829
G1 X93.761 Y71.545 E0.01977
G1 X94.318 Y71.484 E0.01755
G1 X155.652 Y71.484 E1.92309
G1 X156.193 Y71.535 E0.01704
G1 X156.716 Y71.688 E0.01709
G1 X157.176 Y71.923 E0.01620
G1 X157.618 Y72.266 E0.01753
G1 X157.960 Y72.652 E0.01618
G1 X158.248 Y73.138 E0.01769
G1 X158.429 Y73.648 E0.01697
G1 X158.514 Y74.237 E0.01865
G1 X158.516 Y135.679 E1.92647
G1 X158.463 Y136.204 E0.01656
G1 X158.310 Y136.719 E0.01685
G1 X157.742 Y137.610 E0.03311
G1 X157.335 Y137.969 E0.01701
G1 X156.824 Y138.265 E0.01853
G1 X156.220 Y138.459 E0.01988
G1 X155.652 Y138.516 E0.01791
G1 X94.321 Y138.516 E1.92298
M73 P2 R53
G1 X93.796 Y138.463 E0.01656
G1 X93.281 Y138.310 E0.01685
G1 X92.441 Y137.774 E0.03123
;WIPE_START
G1 F8640.000
G1 X92.031 Y137.335 E-0.13866
G1 X91.735 Y136.824 E-0.13644
G1 X91.541 Y136.220 E-0.14641
G1 X91.484 Y135.652 E-0.13189
G1 X91.484 Y132.289 E-0.77659
;WIPE_END
G1 E-0.07000 F2100.000
G1 Z0.600 F10800.000
G1 X141.675 Y135.125
G1 Z0.400
G1 E1.40000 F2100.000
M204 S800
;TYPE:External perimeter
;WIDTH:0.45
G1 F1500.000
G1 X141.675 Y121.675 E0.45527
G1 X155.125 Y121.675 E0.45527
G1 X155.125 Y135.125 E0.45527
G1 X141.735 Y135.125 E0.45324
M204 S1000
G1 X141.289 Y135.229 F10800.000
G1 X140.959 Y135.643
M204 S800
G1 F1500.000
G1 X140.959 Y121.183 E0.48944
G1 X140.976 Y121.081 E0.00350
G1 X141.006 Y121.033 E0.00191
G1 X141.074 Y120.978 E0.00295
G1 X141.175 Y120.959 E0.00347
G1 X155.617 Y120.959 E0.48886
G1 X155.719 Y120.976 E0.00350
G1 X155.767 Y121.006 E0.00191
G1 X155.816 Y121.067 E0.00266
G1 X155.841 Y121.157 E0.00317
G1 X155.841 Y135.617 E0.48944
G1 X155.823 Y135.719 E0.00350
G1 X155.794 Y135.767 E0.00191
G1 X155.733 Y135.816 E0.00266
G1 X155.643 Y135.841 E0.00317
G1 X141.183 Y135.841 E0.48944
G1 X141.081 Y135.823 E0.00350
G1 X141.033 Y135.794 E0.00191
G1 X140.975 Y135.700 E0.00373
M204 S1000
G1 X141.260 Y135.378 F10800.000
G1 X141.343 Y135.456
;TYPE:Gap fill
;WIDTH:0.351732
G1 F2400.000
G1 X141.317 Y135.329 E0.00335
G1 X141.317 Y121.471 E0.35582
;WIDTH:0.377971
G1 X141.330 Y121.408 E0.00182
;WIDTH:0.404441
G1 X141.344 Y121.344 E0.00196
;WIDTH:0.351732
G1 X141.471 Y121.317 E0.00335
G1 X155.329 Y121.317 E0.35582
G1 X155.457 Y121.344 E0.00336
G1 X155.483 Y121.471 E0.00335
G1 X155.483 Y135.329 E0.35582
G1 X155.456 Y135.457 E0.00336
G1 X155.329 Y135.483 E0.00335
G1 X141.471 Y135.483 E0.35582
G1 X141.402 Y135.468 E0.00182
;WIPE_START
G1 F8640.000
G1 X141.317 Y135.329 E-0.03783
G1 X141.317 Y129.732 E-1.29217
;WIPE_END
G1 E-0.07000 F2100.000
G1 Z0.600 F10800.000
G1 X141.675 Y111.725
G1 Z0.400
G1 E1.40000 F2100.000
M204 S800
;TYPE:External perimeter
;WIDTH:0.45
G1 F1500.000
G1 X141.675 Y98.275 E0.45527
G1 X155.125 Y98.275 E0.45527
G1 X155.125 Y111.725 E0.45527
G1 X141.735 Y111.725 E0.45324
M204 S1000
G1 X141.289 Y111.829 F10800.000
G1 X140.959 Y112.243
M204 S800
G1 F1500.000
G1 X140.959 Y97.783 E0.48944
G1 X140.976 Y97.681 E0.00350
G1 X141.006 Y97.633 E0.00191
G1 X141.074 Y97.578 E0.00295
G1 X141.175 Y97.559 E0.00347
G1 X155.617 Y97.559 E0.48886
G1 X155.719 Y97.576 E0.00350
G1 X155.767 Y97.606 E0.00191
G1 X155.816 Y97.667 E0.00266
G1 X155.841 Y97.757 E0.00317
G1 X155.841 Y112.217 E0.48944
G1 X155.823 Y112.319 E0.00350
G1 X155.794 Y112.367 E0.00191
G1 X155.733 Y112.417 E0.00266
G1 X155.643 Y112.441 E0.00317
G1 X141.183 Y112.441 E0.48944
G1 X141.081 Y112.423 E0.00350
G1 X141.033 Y112.394 E0.00191
G1 X140.975 Y112.300 E0.00373
M204 S1000
G1 X141.260 Y111.978 F10800.000
G1 X141.343 Y112.056
;TYPE:Gap fill
;WIDTH:0.351732
G1 F2400.000
G1 X141.317 Y111.929 E0.00335
G1 X141.317 Y98.071 E0.35582
;WIDTH:0.377971
G1 X141.330 Y98.008 E0.00182
;WIDTH:0.404441
G1 X141.344 Y97.944 E0.00196
;WIDTH:0.351732
G1 X141.471 Y97.917 E0.00335
G1 X155.329 Y97.917 E0.35582
G1 X155.457 Y97.944 E0.00336
