; generated by PrusaSlicer 2.3.0+win64 on 2021-07-23 at 00:31:55 UTC

; 

; external perimeters extrusion width = 0.25mm
; perimeters extrusion width = 0.25mm
; infill extrusion width = 0.25mm
; solid infill extrusion width = 0.25mm
; top infill extrusion width = 0.25mm
; first layer extrusion width = 0.30mm

M73 P0 R39
M73 Q0 S39
M201 X1000 Y1000 Z200 E5000 ; sets maximum accelerations, mm/sec^2
M203 X200 Y200 Z12 E120 ; sets maximum feedrates, mm/sec
M204 P1250 R1250 T1250 ; sets acceleration (P, T) and retract acceleration (R), mm/sec^2
M205 X8.00 Y8.00 Z0.40 E4.50 ; sets the jerk limits, mm/sec
M205 S0 T0 ; sets the minimum extruding and travel feed rate, mm/sec
M107
;TYPE:Custom
M862.3 P "MK3S" ; printer model check
M862.1 P0.25 ; nozzle diameter check
M115 U3.9.1 ; tell printer latest fw version
G90 ; use absolute coordinates
M83 ; extruder relative mode
M104 S240 ; set extruder temp
M140 S85 ; set bed temp
M190 S85 ; wait for bed temp
M109 S240 ; wait for extruder temp
G28 W ; home all without mesh bed level
G80 ; mesh bed leveling
G1 Y-3.0 F1000.0 ; go outside print area
G92 E0.0
G1 X60.0 E8.0 F700.0 ; intro line
G1 X100.0 E12.5 F700.0 ; intro line
G92 E0.0
M221 S95

; Don't change E value below. Excessive value can damage the printer.
M907 E430 ; set extruder motor current
G21 ; set units to millimeters
G90 ; use absolute coordinates
M83 ; use relative distances for extrusion
M900 K0.08 ; Filament gcode LA 1.5
M900 K45 ; Filament gcode LA 1.0
;LAYER_CHANGE
;Z:0.2
;HEIGHT:0.2
;BEFORE_LAYER_CHANGE
G92 E0.0
;0.2


G1 E-1.40000 F2100.000
G1 Z0.200 F10800.000
;AFTER_LAYER_CHANGE
;0.2
G1 Z0.400
G1 X102.866 Y83.078
G1 Z0.200
G1 E1.40000 F2100.000
M204 S500
;TYPE:Skirt
;WIDTH:0.3
G1 F1200.000
G1 X103.298 Y82.684 E0.01251
G1 X103.842 Y82.361 E0.01351
G1 X104.429 Y82.161 E0.01326
G1 X105.041 Y82.087 E0.01318
G1 X144.904 Y82.086 E0.85212
G1 X145.498 Y82.146 E0.01276
G1 X146.039 Y82.311 E0.01209
G1 X146.953 Y82.896 E0.02320
G1 X147.323 Y83.308 E0.01184
G1 X147.634 Y83.831 E0.01301
G1 X147.830 Y84.395 E0.01276
G1 X147.911 Y84.975 E0.01251
G1 X147.914 Y124.947 E0.85446
G1 X147.850 Y125.517 E0.01226
G1 X147.689 Y126.039 E0.01168
G1 X147.134 Y126.922 E0.02229
G1 X146.695 Y127.321 E0.01268
G1 X146.140 Y127.647 E0.01376
G1 X145.544 Y127.845 E0.01343
G1 X144.912 Y127.914 E0.01360
G1 X105.053 Y127.914 E0.85203
G1 X104.483 Y127.850 E0.01226
G1 X103.961 Y127.689 E0.01168
G1 X103.078 Y127.134 E0.02229
G1 X102.679 Y126.695 E0.01268
G1 X102.353 Y126.140 E0.01376
G1 X102.155 Y125.544 E0.01343
G1 X102.086 Y124.912 E0.01360
G1 X102.086 Y85.053 E0.85203
G1 X102.150 Y84.483 E0.01226
G1 X102.311 Y83.961 E0.01168
G1 X102.846 Y83.110 E0.02149
M204 S1000
G1 X102.550 Y84.054 F10800.000
M204 S500
G1 F1200.000
G1 X103.060 Y83.247 E0.02041
G1 X103.454 Y82.889 E0.01138
G1 X103.950 Y82.594 E0.01233
G1 X104.486 Y82.412 E0.01209
G1 X105.051 Y82.343 E0.01217
G1 X144.904 Y82.343 E0.85190
G1 X145.451 Y82.399 E0.01176
G1 X145.946 Y82.550 E0.01106
G1 X146.777 Y83.083 E0.02111
G1 X147.116 Y83.460 E0.01083
G1 X147.403 Y83.943 E0.01201
G1 X147.583 Y84.464 E0.01178
G1 X147.655 Y84.995 E0.01146
G1 X147.657 Y124.937 E0.85381
G1 X147.450 Y125.946 E0.02201
G1 X146.940 Y126.753 E0.02041
G1 X146.540 Y127.116 E0.01154
G1 X146.033 Y127.413 E0.01257
M73 Q1 S39
G1 X145.489 Y127.593 E0.01225
G1 X144.908 Y127.657 E0.01249
G1 X105.063 Y127.657 E0.85175
M73 P1 R39
G1 X104.054 Y127.450 E0.02201
G1 X103.247 Y126.940 E0.02041
G1 X102.884 Y126.540 E0.01154
G1 X102.587 Y126.033 E0.01257
G1 X102.407 Y125.489 E0.01225
G1 X102.343 Y124.908 E0.01249
G1 X102.343 Y85.063 E0.85174
G1 X102.543 Y84.091 E0.02121
M204 S1000
;WIPE_START
G1 F8640.000
G1 X103.060 Y83.247 E-0.22862
G1 X103.454 Y82.889 E-0.12292
G1 X103.950 Y82.594 E-0.13317
G1 X104.486 Y82.412 E-0.13062
G1 X105.051 Y82.343 E-0.13148
G1 X107.577 Y82.343 E-0.58319
;WIPE_END
G1 E-0.07000 F2100.000
G1 Z0.400 F10800.000
G1 X128.407 Y86.046
G1 Z0.200
G1 E1.40000 F2100.000
M204 S500
;TYPE:Perimeter
G1 F1200.000
G1 X129.043 Y86.229 E0.01414
G1 X129.043 Y100.371 E0.30230
G1 X128.407 Y100.554 E0.01414
G1 X128.407 Y86.083 E0.30933
M204 S1000
G1 X129.300 Y85.900 F10800.000
M204 S500
;TYPE:External perimeter
G1 F1200.000
G1 X144.100 Y85.900 E0.31637
G1 X144.100 Y100.700 E0.31637
G1 X129.300 Y100.700 E0.31637
G1 X129.300 Y85.938 E0.31557
M204 S1000
M73 P1 R38
G1 X129.235 Y85.659 F10800.000
G1 X128.800 Y85.400
M204 S500
G1 F1200.000
G1 X129.292 Y85.400 E0.01051
G1 X129.370 Y85.673 E0.00608
G1 X129.099 Y85.900 E0.00756
G1 X129.134 Y85.900 E0.00076
G1 X129.086 Y85.974 E0.00188
G1 X128.800 Y85.892 E0.00637
G1 X128.800 Y85.438 E0.00971
M204 S1000
G1 X128.762 Y85.153 F10800.000
G1 X129.446 Y85.007
M204 S500
;TYPE:Perimeter
G1 F1200.000
G1 X143.954 Y85.008 E0.31013
G1 X143.771 Y85.643 E0.01413
G1 X129.629 Y85.643 E0.30230
G1 X129.456 Y85.043 E0.01334
M204 S1000
;WIPE_START
G1 F8640.000
G1 X135.216 Y85.029 E-1.33000
;WIPE_END
G1 E-0.07000 F2100.000
G1 Z0.400 F10800.000
G1 X144.026 Y85.688
G1 Z0.200
G1 E1.40000 F2100.000
M204 S500
;TYPE:External perimeter
G1 F1200.000
G1 X144.108 Y85.400 E0.00640
G1 X144.600 Y85.400 E0.01051
G1 X144.600 Y85.892 E0.01051
G1 X144.327 Y85.970 E0.00608
G1 X144.100 Y85.700 E0.00755
G1 X144.100 Y85.735 E0.00075
G1 X144.057 Y85.708 E0.00108
M204 S1000
G1 X143.783 Y85.629 F10800.000
G1 X144.357 Y86.229
M204 S500
;TYPE:Perimeter
G1 F1200.000
G1 X144.993 Y86.046 E0.01414
G1 X144.993 Y100.554 E0.31013
G1 X144.357 Y100.371 E0.01414
G1 X144.357 Y86.267 E0.30150
M204 S1000
;WIPE_START
G1 F8640.000
G1 X144.993 Y86.046 E-0.15541
G1 X144.993 Y91.133 E-1.17459
;WIPE_END
G1 E-0.07000 F2100.000
G1 Z0.400 F10800.000
G1 X144.312 Y100.626
G1 Z0.200
G1 E1.40000 F2100.000
M204 S500
;TYPE:External perimeter
G1 F1200.000
G1 X144.600 Y100.708 E0.00640
G1 X144.600 Y101.200 E0.01051
G1 X144.108 Y101.200 E0.01051
G1 X144.030 Y100.927 E0.00608
G1 X144.300 Y100.700 E0.00755
G1 X144.265 Y100.700 E0.00075
G1 X144.292 Y100.657 E0.00108
M204 S1000
G1 X144.371 Y100.383 F10800.000
G1 X143.771 Y100.957
M204 S500
;TYPE:Perimeter
G1 F1200.000
G1 X143.954 Y101.593 E0.01414
G1 X129.446 Y101.593 E0.31013
M73 Q1 S38
G1 X129.629 Y100.957 E0.01414
G1 X143.733 Y100.957 E0.30150
M204 S1000
;WIPE_START
G1 F8640.000
G1 X143.954 Y101.593 E-0.15541
G1 X138.867 Y101.593 E-1.17459
;WIPE_END
G1 E-0.07000 F2100.000
G1 Z0.400 F10800.000
G1 X129.374 Y100.914
G1 Z0.200
G1 E1.40000 F2100.000
M204 S500
;TYPE:External perimeter
G1 F1200.000
G1 X129.292 Y101.200 E0.00637
G1 X128.800 Y101.200 E0.01051
G1 X128.800 Y100.708 E0.01051
G1 X129.073 Y100.630 E0.00608
G1 X129.300 Y100.901 E0.00756
G1 X129.300 Y100.866 E0.00076
G1 X129.343 Y100.893 E0.00108
M204 S1000
G1 X129.617 Y100.974 F10800.000
;WIPE_START
G1 F8640.000
G1 X129.292 Y101.200 E-0.07179
G1 X128.800 Y101.200 E-0.11350
G1 X128.800 Y100.708 E-0.11350
G1 X129.073 Y100.630 E-0.06568
G1 X129.300 Y100.901 E-0.08167
G1 X129.300 Y100.866 E-0.00819
G1 X129.343 Y100.893 E-0.01170
;WIPE_END
G1 E-0.93397 F2100.000
G1 Z0.400 F10800.000
G1 X128.227 Y101.718
G1 Z0.200
G1 E1.40000 F2100.000
M204 S500
G1 F1200.000
G1 X128.160 Y101.578 E0.00332
G1 X128.150 Y101.492 E0.00185
G1 X128.150 Y85.109 E0.35019
G1 X128.161 Y85.025 E0.00182
G1 X128.233 Y84.877 E0.00353
G1 X128.282 Y84.827 E0.00149
G1 X128.422 Y84.760 E0.00332
G1 X128.508 Y84.750 E0.00185
G1 X144.890 Y84.751 E0.35018
G1 X145.058 Y84.790 E0.00369
G1 X145.173 Y84.882 E0.00314
G1 X145.240 Y85.022 E0.00332
G1 X145.250 Y85.108 E0.00185
G1 X145.250 Y101.491 E0.35019
G1 X145.239 Y101.575 E0.00182
G1 X145.167 Y101.723 E0.00353
G1 X145.118 Y101.773 E0.00149
G1 X144.978 Y101.840 E0.00332
G1 X144.892 Y101.850 E0.00185
G1 X128.509 Y101.850 E0.35019
G1 X128.425 Y101.839 E0.00182
G1 X128.254 Y101.744 E0.00419
M204 S1000
G1 X128.283 Y101.573 F10800.000
;WIPE_START
G1 F8640.000
G1 X128.160 Y101.578 E-0.04413
G1 X128.150 Y101.492 E-0.02001
G1 X128.150 Y96.009 E-1.26586
;WIPE_END
G1 E-0.07000 F2100.000
G1 Z0.400 F10800.000
G1 X128.475 Y100.668
G1 Z0.200
G1 E1.40000 F2100.000
M204 S500
;TYPE:Gap fill
;WIDTH:0.435842
G1 F1200.000
G1 X128.475 Y101.329 E0.02157
G1 X128.507 Y101.484 E0.00518
G1 X128.671 Y101.525 E0.00555
G1 X129.332 Y101.525 E0.02157
M204 S1000
G1 X129.671 Y101.275 F10800.000
M204 S500
;WIDTH:0.421684
G1 F1200.000
G1 X143.729 Y101.275 E0.44273
M204 S1000
G1 X144.068 Y101.525 F10800.000
M204 S500
;WIDTH:0.435842
G1 F1200.000
G1 X144.729 Y101.525 E0.02157
G1 X144.884 Y101.493 E0.00518
G1 X144.925 Y101.329 E0.00555
G1 X144.925 Y100.668 E0.02157
M204 S1000
G1 X144.675 Y100.329 F10800.000
M204 S500
;WIDTH:0.421684
G1 F1200.000
G1 X144.675 Y86.271 E0.44273
M204 S1000
;WIPE_START
G1 F8640.000
G1 X144.675 Y92.031 E-1.33000
;WIPE_END
G1 E-0.07000 F2100.000
G1 Z0.400 F10800.000
G1 X143.729 Y85.325
G1 Z0.200
G1 E1.40000 F2100.000
M204 S500
;WIDTH:0.421611
G1 F1200.000
G1 X129.671 Y85.325 E0.44264
M204 S1000
M73 P2 R38
M73 Q2 S38
G1 X129.332 Y85.075 F10800.000
M204 S500
;WIDTH:0.435832
G1 F1200.000
G1 X128.671 Y85.075 E0.02157
G1 X128.516 Y85.107 E0.00518
G1 X128.475 Y85.271 E0.00555
G1 X128.475 Y85.932 E0.02157
M204 S1000
G1 X128.725 Y86.271 F10800.000
M204 S500
;WIDTH:0.421682
G1 F1200.000
G1 X128.725 Y100.329 E0.44273
M204 S1000
;WIPE_START
G1 F8640.000
G1 X128.725 Y94.569 E-1.33000
;WIPE_END
G1 E-0.07000 F2100.000
G1 Z0.400 F10800.000
G1 X105.643 Y100.329
G1 Z0.200
G1 E1.40000 F2100.000
M204 S500
;TYPE:Perimeter
;WIDTH:0.3
G1 F1200.000
G1 X105.643 Y100.371 E0.00090
G1 X105.007 Y100.554 E0.01414
G1 X105.007 Y86.046 E0.31013
G1 X105.643 Y86.229 E0.01414
G1 X105.643 Y100.291 E0.30060
M204 S1000
;WIPE_START
G1 F8640.000
G1 X105.643 Y100.371 E-0.01840
G1 X105.007 Y100.554 E-0.15279
G1 X105.007 Y95.536 E-1.15881
;WIPE_END
G1 E-0.07000 F2100.000
G1 Z0.400 F10800.000
G1 X105.900 Y85.900
G1 Z0.200
G1 E1.40000 F2100.000
M204 S500
;TYPE:External perimeter
G1 F1200.000
G1 X120.700 Y85.900 E0.31637
G1 X120.700 Y100.700 E0.31637
G1 X105.900 Y100.700 E0.31637
G1 X105.900 Y85.938 E0.31557
M204 S1000
G1 X105.835 Y85.659 F10800.000
G1 X105.400 Y85.400
M204 S500
G1 F1200.000
G1 X105.892 Y85.400 E0.01051
G1 X105.970 Y85.673 E0.00608
G1 X105.699 Y85.900 E0.00756
G1 X105.734 Y85.900 E0.00076
G1 X105.686 Y85.974 E0.00188
G1 X105.400 Y85.892 E0.00637
G1 X105.400 Y85.438 E0.00971
M204 S1000
G1 X105.362 Y85.153 F10800.000
G1 X106.046 Y85.007
M204 S500
;TYPE:Perimeter
G1 F1200.000
G1 X120.554 Y85.008 E0.31013
G1 X120.371 Y85.643 E0.01413
G1 X106.229 Y85.643 E0.30230
G1 X106.056 Y85.043 E0.01334
M204 S1000
;WIPE_START
G1 F8640.000
G1 X111.816 Y85.029 E-1.33000
;WIPE_END
G1 E-0.07000 F2100.000
G1 Z0.400 F10800.000
G1 X120.626 Y85.688
G1 Z0.200
G1 E1.40000 F2100.000
M204 S500
;TYPE:External perimeter
G1 F1200.000
G1 X120.708 Y85.400 E0.00640
G1 X121.200 Y85.400 E0.01051
G1 X121.200 Y85.892 E0.01051
G1 X120.927 Y85.970 E0.00608
G1 X120.700 Y85.700 E0.00755
G1 X120.700 Y85.735 E0.00075
G1 X120.657 Y85.708 E0.00108
M204 S1000
G1 X120.383 Y85.629 F10800.000
G1 X120.957 Y86.229
M204 S500
;TYPE:Perimeter
G1 F1200.000
G1 X121.593 Y86.046 E0.01414
G1 X121.593 Y100.554 E0.31013
G1 X120.957 Y100.371 E0.01414
G1 X120.957 Y86.267 E0.30150
M204 S1000
;WIPE_START
G1 F8640.000
G1 X121.593 Y86.046 E-0.15541
G1 X121.593 Y91.133 E-1.17459
;WIPE_END
G1 E-0.07000 F2100.000
G1 Z0.400 F10800.000
G1 X120.912 Y100.626
G1 Z0.200
G1 E1.40000 F2100.000
M204 S500
;TYPE:External perimeter
G1 F1200.000
G1 X121.200 Y100.708 E0.00640
G1 X121.200 Y101.200 E0.01051
G1 X120.708 Y101.200 E0.01051
G1 X120.630 Y100.927 E0.00608
G1 X120.900 Y100.700 E0.00755
G1 X120.865 Y100.700 E0.00075
G1 X120.892 Y100.657 E0.00108
M204 S1000
G1 X120.971 Y100.383 F10800.000
G1 X120.371 Y100.957
M204 S500
;TYPE:Perimeter
G1 F1200.000
G1 X120.554 Y101.593 E0.01414
G1 X106.046 Y101.593 E0.31013
G1 X106.229 Y100.957 E0.01414
G1 X120.333 Y100.957 E0.30150
M204 S1000
;WIPE_START
G1 F8640.000
G1 X120.554 Y101.593 E-0.15541
G1 X115.467 Y101.593 E-1.17459
;WIPE_END
G1 E-0.07000 F2100.000
G1 Z0.400 F10800.000
G1 X105.974 Y100.914
G1 Z0.200
G1 E1.40000 F2100.000
M204 S500
;TYPE:External perimeter
G1 F1200.000
G1 X105.892 Y101.200 E0.00637
G1 X105.400 Y101.200 E0.01051
G1 X105.400 Y100.708 E0.01051
G1 X105.673 Y100.630 E0.00608
G1 X105.900 Y100.901 E0.00756
G1 X105.900 Y100.866 E0.00076
G1 X105.943 Y100.893 E0.00108
M204 S1000
G1 X106.217 Y100.974 F10800.000
;WIPE_START
G1 F8640.000
G1 X105.892 Y101.200 E-0.07179
G1 X105.400 Y101.200 E-0.11350
G1 X105.400 Y100.708 E-0.11350
G1 X105.673 Y100.630 E-0.06568
G1 X105.900 Y100.901 E-0.08167
G1 X105.900 Y100.866 E-0.00819
G1 X105.943 Y100.893 E-0.01170
;WIPE_END
G1 E-0.93397 F2100.000
G1 Z0.400 F10800.000
G1 X104.827 Y101.718
G1 Z0.200
G1 E1.40000 F2100.000
M204 S500
G1 F1200.000
G1 X104.760 Y101.578 E0.00332
G1 X104.750 Y101.492 E0.00185
G1 X104.750 Y85.109 E0.35019
G1 X104.761 Y85.025 E0.00182
G1 X104.833 Y84.877 E0.00353
G1 X104.882 Y84.827 E0.00149
G1 X105.022 Y84.760 E0.00332
G1 X105.108 Y84.750 E0.00185
G1 X121.490 Y84.751 E0.35018
G1 X121.658 Y84.790 E0.00369
G1 X121.773 Y84.882 E0.00314
G1 X121.840 Y85.022 E0.00332
G1 X121.850 Y85.108 E0.00185
G1 X121.850 Y101.491 E0.35019
G1 X121.839 Y101.575 E0.00182
G1 X121.767 Y101.723 E0.00353
G1 X121.718 Y101.773 E0.00149
G1 X121.578 Y101.840 E0.00332
G1 X121.492 Y101.850 E0.00185
G1 X105.109 Y101.850 E0.35019
G1 X105.025 Y101.839 E0.00182
G1 X104.854 Y101.744 E0.00419
M204 S1000
G1 X104.883 Y101.573 F10800.000
;WIPE_START
G1 F8640.000
G1 X104.760 Y101.578 E-0.04413
G1 X104.750 Y101.492 E-0.02001
G1 X104.750 Y96.009 E-1.26586
;WIPE_END
G1 E-0.07000 F2100.000
G1 Z0.400 F10800.000
G1 X105.075 Y100.668
G1 Z0.200
G1 E1.40000 F2100.000
M204 S500
;TYPE:Gap fill
;WIDTH:0.435842
G1 F1200.000
G1 X105.075 Y101.329 E0.02157
G1 X105.107 Y101.484 E0.00518
G1 X105.271 Y101.525 E0.00555
G1 X105.932 Y101.525 E0.02157
M204 S1000
G1 X106.271 Y101.275 F10800.000
M204 S500
;WIDTH:0.421684
G1 F1200.000
G1 X120.329 Y101.275 E0.44273
M204 S1000
G1 X120.668 Y101.525 F10800.000
M204 S500
;WIDTH:0.435842
G1 F1200.000
G1 X121.329 Y101.525 E0.02157
G1 X121.484 Y101.493 E0.00518
G1 X121.525 Y101.329 E0.00555
G1 X121.525 Y100.668 E0.02157
M204 S1000
G1 X121.275 Y100.329 F10800.000
M204 S500
;WIDTH:0.421684
G1 F1200.000
G1 X121.275 Y86.271 E0.44273
M204 S1000
;WIPE_START
G1 F8640.000
G1 X121.275 Y92.031 E-1.33000
;WIPE_END
G1 E-0.07000 F2100.000
G1 Z0.400 F10800.000
G1 X120.329 Y85.325
G1 Z0.200
G1 E1.40000 F2100.000
M204 S500
;WIDTH:0.421611
G1 F1200.000
G1 X106.271 Y85.325 E0.44264
M204 S1000
G1 X105.932 Y85.075 F10800.000
M204 S500
;WIDTH:0.435832
G1 F1200.000
G1 X105.271 Y85.075 E0.02157
G1 X105.116 Y85.107 E0.00518
G1 X105.075 Y85.271 E0.00555
G1 X105.075 Y85.932 E0.02157
M204 S1000
G1 X105.325 Y86.271 F10800.000
M204 S500
;WIDTH:0.421682
G1 F1200.000
G1 X105.325 Y100.329 E0.44273
M204 S1000
;WIPE_START
G1 F8640.000
G1 X105.325 Y94.569 E-1.33000
;WIPE_END
G1 E-0.07000 F2100.000
G1 Z0.400 F10800.000
G1 X105.007 Y109.446
G1 Z0.200
G1 E1.40000 F2100.000
M204 S500
;TYPE:Perimeter
;WIDTH:0.3
G1 F1200.000
G1 X105.643 Y109.629 E0.01414
G1 X105.643 Y123.771 E0.30230
G1 X105.007 Y123.954 E0.01414
M73 Q3 S38
G1 X105.007 Y109.483 E0.30933
M204 S1000
M73 P3 R38
G1 X105.900 Y109.300 F10800.000
M204 S500
;TYPE:External perimeter
G1 F1200.000
G1 X120.700 Y109.300 E0.31637
G1 X120.700 Y124.100 E0.31637
G1 X105.900 Y124.100 E0.31637
G1 X105.900 Y109.337 E0.31557
M204 S1000
G1 X105.835 Y109.059 F10800.000
G1 X105.400 Y108.800
M204 S500
G1 F1200.000
G1 X105.892 Y108.800 E0.01051
G1 X105.970 Y109.073 E0.00608
G1 X105.699 Y109.300 E0.00756
G1 X105.734 Y109.300 E0.00076
G1 X105.686 Y109.374 E0.00188
G1 X105.400 Y109.292 E0.00637
G1 X105.400 Y108.837 E0.00971
M204 S1000
G1 X105.362 Y108.553 F10800.000
G1 X106.046 Y108.407
M204 S500
;TYPE:Perimeter
G1 F1200.000
G1 X120.554 Y108.408 E0.31013
G1 X120.371 Y109.043 E0.01413
G1 X106.229 Y109.043 E0.30230
G1 X106.056 Y108.443 E0.01334
M204 S1000
;WIPE_START
G1 F8640.000
G1 X111.816 Y108.429 E-1.33000
;WIPE_END
G1 E-0.07000 F2100.000
G1 Z0.400 F10800.000
G1 X120.626 Y109.088
G1 Z0.200
G1 E1.40000 F2100.000
M204 S500
;TYPE:External perimeter
G1 F1200.000
