; generated by PrusaSlicer 2.3.0+win64 on 2021-07-23 at 02:51:52 UTC

; 

; external perimeters extrusion width = 0.45mm
; perimeters extrusion width = 0.45mm
; infill extrusion width = 0.45mm
; solid infill extrusion width = 0.45mm
; top infill extrusion width = 0.40mm
; first layer extrusion width = 0.42mm

M73 P0 R32
M73 Q0 S33
M201 X1000 Y1000 Z200 E5000 ; sets maximum accelerations, mm/sec^2
M203 X200 Y200 Z12 E120 ; sets maximum feedrates, mm/sec
M204 P1250 R1250 T1250 ; sets acceleration (P, T) and retract acceleration (R), mm/sec^2
M205 X8.00 Y8.00 Z0.40 E4.50 ; sets the jerk limits, mm/sec
M205 S0 T0 ; sets the minimum extruding and travel feed rate, mm/sec
M107
;TYPE:Custom
M862.3 P "MK3S" ; printer model check
M862.1 P0.4 ; nozzle diameter check
M115 U3.9.1 ; tell printer latest fw version
G90 ; use absolute coordinates
M83 ; extruder relative mode
M104 S240 ; set extruder temp
M140 S85 ; set bed temp
M190 S85 ; wait for bed temp
M109 S240 ; wait for extruder temp
G28 W ; home all without mesh bed level
G80 ; mesh bed leveling
G1 Y-3.0 F1000.0 ; go outside print area
G92 E0.0
G1 X60.0 E9.0 F1000.0 ; intro line
G1 X100.0 E12.5 F1000.0 ; intro line
G92 E0.0
M221 S95

; Don't change E values below. Excessive value can damage the printer.
M907 E430 ; set extruder motor current
G21 ; set units to millimeters
G90 ; use absolute coordinates
M83 ; use relative distances for extrusion
M900 K0.08 ; Filament gcode LA 1.5
M900 K45 ; Filament gcode LA 1.0
;LAYER_CHANGE
;Z:0.2
;HEIGHT:0.2
;BEFORE_LAYER_CHANGE
G92 E0.0
;0.2


G1 E-1.40000 F2100.000
G1 Z0.200 F10800.000
;AFTER_LAYER_CHANGE
;0.2
G1 Z0.400
G1 X91.291 Y71.446
G1 Z0.200
G1 E1.40000 F2100.000
M204 S1000
;TYPE:Skirt
;WIDTH:0.42
G1 F1200.000
G1 X91.697 Y71.082 E0.01711
G1 X92.217 Y70.777 E0.01889
G1 X92.775 Y70.592 E0.01842
G1 X93.366 Y70.523 E0.01866
G1 X156.604 Y70.523 E1.98279
G1 X157.177 Y70.581 E0.01806
G1 X157.698 Y70.742 E0.01711
G1 X158.574 Y71.309 E0.03270
G1 X158.923 Y71.703 E0.01651
G1 X159.221 Y72.214 E0.01853
G1 X159.405 Y72.760 E0.01806
M73 Q0 S32
G1 X159.476 Y73.328 E0.01794
G1 X159.477 Y136.627 E1.98470
G1 X159.416 Y137.188 E0.01770
G1 X159.258 Y137.698 E0.01675
G1 X158.709 Y138.554 E0.03189
G1 X158.297 Y138.923 E0.01734
G1 X157.772 Y139.227 E0.01901
G1 X157.207 Y139.412 E0.01866
G1 X156.604 Y139.477 E0.01901
G1 X93.373 Y139.477 E1.98255
G1 X92.812 Y139.416 E0.01770
G1 X92.302 Y139.258 E0.01675
G1 X91.446 Y138.709 E0.03188
G1 X91.077 Y138.297 E0.01734
G1 X90.773 Y137.772 E0.01901
G1 X90.588 Y137.207 E0.01866
G1 X90.523 Y136.604 E0.01901
G1 X90.523 Y73.373 E1.98255
M73 P1 R32
M73 Q1 S32
G1 X90.584 Y72.812 E0.01770
G1 X90.742 Y72.302 E0.01675
G1 X91.258 Y71.496 E0.03000
;WIPE_START
G1 F8640.000
G1 X91.697 Y71.082 E-0.13937
G1 X92.217 Y70.777 E-0.13913
G1 X92.775 Y70.592 E-0.13564
G1 X93.366 Y70.523 E-0.13740
G1 X96.737 Y70.523 E-0.77847
;WIPE_END
G1 E-0.07000 F2100.000
G1 Z0.400 F10800.000
G1 X140.439 Y120.439
G1 Z0.200
G1 E1.40000 F2100.000
;TYPE:External perimeter
G1 F1200.000
G1 X141.210 Y120.323 E0.02444
G1 X141.061 Y120.946 E0.02006
G1 X141.620 Y120.908 E0.01756
G1 X142.117 Y120.797 E0.01598
G1 X142.639 Y120.749 E0.01643
G1 X143.649 Y120.740 E0.03166
G1 X154.161 Y120.749 E0.32961
G1 X154.683 Y120.797 E0.01641
G1 X155.180 Y120.908 E0.01598
G1 X155.739 Y120.946 E0.01756
G1 X155.590 Y120.323 E0.02006
G1 X156.361 Y120.439 E0.02444
G1 X156.477 Y121.210 E0.02444
G1 X155.854 Y121.061 E0.02006
G1 X155.892 Y121.620 E0.01756
G1 X156.003 Y122.117 E0.01598
G1 X156.051 Y122.639 E0.01641
G1 X156.060 Y133.151 E0.32961
G1 X156.051 Y134.161 E0.03166
G1 X156.003 Y134.683 E0.01643
G1 X155.892 Y135.180 E0.01598
G1 X155.854 Y135.739 E0.01756
G1 X156.477 Y135.590 E0.02006
G1 X156.361 Y136.361 E0.02444
G1 X155.590 Y136.477 E0.02444
G1 X155.739 Y135.854 E0.02006
G1 X155.180 Y135.892 E0.01756
G1 X154.683 Y136.003 E0.01598
G1 X154.161 Y136.051 E0.01641
G1 X143.649 Y136.060 E0.32961
G1 X142.639 Y136.051 E0.03166
G1 X142.117 Y136.003 E0.01643
G1 X141.620 Y135.892 E0.01598
G1 X141.061 Y135.854 E0.01756
G1 X141.210 Y136.477 E0.02006
G1 X140.439 Y136.361 E0.02444
G1 X140.323 Y135.590 E0.02444
G1 X140.946 Y135.739 E0.02006
G1 X140.908 Y135.180 E0.01756
G1 X140.797 Y134.683 E0.01598
G1 X140.749 Y134.161 E0.01641
G1 X140.740 Y123.649 E0.32961
G1 X140.749 Y122.639 E0.03166
G1 X140.797 Y122.117 E0.01643
G1 X140.908 Y121.620 E0.01598
G1 X140.946 Y121.061 E0.01756
G1 X140.323 Y121.210 E0.02006
G1 X140.430 Y120.498 E0.02256
G1 X140.311 Y120.060 F10800.000
G1 X140.064 Y120.140
G1 F1200.000
G1 X140.092 Y120.095 E0.00165
G1 X140.194 Y120.042 E0.00362
G1 X140.703 Y119.987 E0.01604
G1 X141.175 Y120.011 E0.01481
G1 X141.674 Y120.077 E0.01578
G1 X142.681 Y120.110 E0.03161
G1 X154.119 Y120.110 E0.35860
G1 X155.126 Y120.077 E0.03161
G1 X155.625 Y120.011 E0.01578
G1 X156.099 Y119.987 E0.01488
G1 X156.544 Y120.026 E0.01401
G1 X156.673 Y120.068 E0.00426
G1 X156.740 Y120.150 E0.00332
G1 X156.774 Y120.256 E0.00347
G1 X156.813 Y120.701 E0.01401
G1 X156.789 Y121.175 E0.01488
G1 X156.723 Y121.671 E0.01571
G1 X156.695 Y122.182 E0.01602
G1 X156.690 Y134.119 E0.37428
G1 X156.723 Y135.126 E0.03161
G1 X156.789 Y135.625 E0.01578
G1 X156.813 Y136.099 E0.01488
G1 X156.774 Y136.544 E0.01401
G1 X156.708 Y136.705 E0.00544
G1 X156.606 Y136.758 E0.00362
G1 X156.097 Y136.813 E0.01604
G1 X155.625 Y136.789 E0.01481
G1 X155.129 Y136.723 E0.01571
G1 X154.618 Y136.695 E0.01602
G1 X142.681 Y136.690 E0.37428
G1 X141.674 Y136.723 E0.03161
G1 X141.175 Y136.789 E0.01578
G1 X140.701 Y136.813 E0.01488
G1 X140.256 Y136.774 E0.01401
G1 X140.095 Y136.708 E0.00544
G1 X140.042 Y136.606 E0.00362
G1 X139.987 Y136.097 E0.01604
G1 X140.011 Y135.625 E0.01481
G1 X140.077 Y135.129 E0.01571
G1 X140.105 Y134.618 E0.01602
G1 X140.110 Y133.619 E0.03135
G1 X140.110 Y122.681 E0.34293
G1 X140.077 Y121.674 E0.03161
G1 X140.011 Y121.175 E0.01578
G1 X139.987 Y120.701 E0.01488
G1 X140.045 Y120.197 E0.01591
G1 X140.116 Y120.133 F10800.000
G1 X140.257 Y120.230
;TYPE:Gap fill
;WIDTH:0.100934
G1 F1200.000
G1 X140.223 Y120.445 E0.00105
;WIPE_START
G1 F8640.000
G1 X140.257 Y120.230 E-0.05027
;WIPE_END
G1 E-1.34973 F2100.000
G1 Z0.400 F10800.000
G1 X140.737 Y135.457
G1 Z0.200
G1 E1.40000 F2100.000
;WIDTH:0.408146
G1 F1200.000
G1 X140.486 Y135.201 E0.01087
G1 X140.451 Y134.747 E0.01384
;WIDTH:0.296149
G1 X140.425 Y133.655 E0.02299
G1 X140.425 Y123.647 E0.21074
;WIDTH:0.307764
G1 X140.429 Y122.618 E0.02267
;WIDTH:0.34165
G1 X140.437 Y122.345 E0.00677
;WIDTH:0.379516
G1 X140.446 Y122.052 E0.00822
;WIDTH:0.41306
G1 X140.459 Y121.918 E0.00413
;WIDTH:0.446604
G1 X140.471 Y121.785 E0.00450
;WIDTH:0.471861
G1 X140.486 Y121.599 E0.00666
G1 X140.737 Y121.343 E0.01276
G1 X141.343 Y120.737 F10800.000
;WIDTH:0.413061
G1 F1200.000
G1 X141.599 Y120.486 E0.01101
G1 X142.052 Y120.446 E0.01400
;WIDTH:0.296754
G1 X143.648 Y120.425 E0.03370
G1 X153.655 Y120.425 E0.21122
;WIDTH:0.30796
G1 X154.184 Y120.429 E0.01164
;WIDTH:0.34175
G1 X154.455 Y120.437 E0.00675
;WIDTH:0.379518
G1 X154.748 Y120.446 E0.00820
;WIDTH:0.413061
G1 X154.882 Y120.459 E0.00413
;WIDTH:0.446604
G1 X155.015 Y120.471 E0.00450
;WIDTH:0.471858
G1 X155.201 Y120.486 E0.00666
G1 X155.457 Y120.737 E0.01276
G1 X156.063 Y121.343 F10800.000
;WIDTH:0.408148
G1 F1200.000
G1 X156.314 Y121.599 E0.01087
G1 X156.349 Y122.053 E0.01384
;WIDTH:0.296151
G1 X156.375 Y123.145 E0.02299
G1 X156.375 Y133.153 E0.21074
;WIDTH:0.307766
G1 X156.371 Y134.182 E0.02267
;WIDTH:0.341653
G1 X156.363 Y134.455 E0.00677
;WIDTH:0.379518
G1 X156.354 Y134.748 E0.00822
;WIDTH:0.413062
G1 X156.341 Y134.882 E0.00413
;WIDTH:0.446604
G1 X156.329 Y135.015 E0.00450
;WIDTH:0.471862
G1 X156.314 Y135.201 E0.00666
G1 X156.063 Y135.457 E0.01276
G1 X155.457 Y136.063 F10800.000
;WIDTH:0.47186
G1 F1200.000
G1 X155.201 Y136.314 E0.01276
G1 X155.021 Y136.327 E0.00645
;WIDTH:0.445571
G1 X154.884 Y136.338 E0.00460
;WIDTH:0.408146
G1 X154.747 Y136.349 E0.00417
;WIDTH:0.370723
G1 X154.633 Y136.352 E0.00313
;WIDTH:0.352589
G1 X154.184 Y136.372 E0.01156
;WIDTH:0.308689
G1 X153.655 Y136.375 E0.01168
;WIDTH:0.296613
G1 X143.648 Y136.375 E0.21110
G1 X142.052 Y136.354 E0.03368
;WIDTH:0.41306
G1 X141.599 Y136.314 E0.01400
G1 X141.343 Y136.063 E0.01101
;WIPE_START
G1 F8640.000
G1 X141.599 Y136.314 E-0.08262
G1 X142.052 Y136.354 E-0.10506
;WIPE_END
G1 E-1.21232 F2100.000
G1 Z0.400 F10800.000
G1 X140.445 Y136.577
G1 Z0.200
G1 E1.40000 F2100.000
;WIDTH:0.100934
G1 F1200.000
G1 X140.230 Y136.543 E0.00105
;WIPE_START
G1 F8640.000
G1 X140.445 Y136.577 E-0.05027
;WIPE_END
G1 E-1.34973 F2100.000
G1 Z0.400 F10800.000
G1 X156.543 Y136.570
G1 Z0.200
G1 E1.40000 F2100.000
;WIDTH:0.100935
G1 F1200.000
G1 X156.577 Y136.355 E0.00105
;WIPE_START
G1 F8640.000
G1 X156.543 Y136.570 E-0.05028
;WIPE_END
G1 E-1.34972 F2100.000
G1 Z0.400 F10800.000
G1 X156.577 Y120.445
G1 Z0.200
G1 E1.40000 F2100.000
;WIDTH:0.100931
G1 F1200.000
G1 X156.546 Y120.254 E0.00094
G1 X156.355 Y120.223 E0.00094
;WIPE_START
G1 F8640.000
G1 X156.546 Y120.254 E-0.04482
G1 X156.577 Y120.445 E-0.04482
;WIPE_END
G1 E-1.31036 F2100.000
G1 Z0.400 F10800.000
G1 X155.590 Y113.077
G1 Z0.200
G1 E1.40000 F2100.000
;TYPE:External perimeter
;WIDTH:0.42
G1 F1200.000
G1 X155.739 Y112.454 E0.02006
G1 X155.180 Y112.492 E0.01756
G1 X154.683 Y112.603 E0.01598
G1 X154.161 Y112.651 E0.01641
G1 X143.649 Y112.660 E0.32961
G1 X142.639 Y112.651 E0.03166
G1 X142.117 Y112.603 E0.01643
G1 X141.620 Y112.492 E0.01598
G1 X141.061 Y112.454 E0.01756
G1 X141.210 Y113.077 E0.02006
G1 X140.439 Y112.961 E0.02444
G1 X140.323 Y112.190 E0.02444
G1 X140.946 Y112.339 E0.02006
G1 X140.908 Y111.780 E0.01756
G1 X140.797 Y111.283 E0.01598
G1 X140.749 Y110.761 E0.01641
G1 X140.740 Y100.249 E0.32961
G1 X140.749 Y99.239 E0.03166
G1 X140.797 Y98.717 E0.01643
G1 X140.908 Y98.220 E0.01598
G1 X140.946 Y97.661 E0.01756
G1 X140.323 Y97.810 E0.02006
G1 X140.439 Y97.039 E0.02444
G1 X141.210 Y96.923 E0.02444
G1 X141.061 Y97.546 E0.02006
G1 X141.620 Y97.508 E0.01756
G1 X142.117 Y97.397 E0.01598
G1 X142.639 Y97.349 E0.01643
G1 X143.649 Y97.340 E0.03166
G1 X154.161 Y97.349 E0.32961
G1 X154.683 Y97.397 E0.01641
G1 X155.180 Y97.508 E0.01598
G1 X155.739 Y97.546 E0.01756
G1 X155.590 Y96.923 E0.02006
G1 X156.361 Y97.039 E0.02444
G1 X156.477 Y97.810 E0.02444
G1 X155.854 Y97.661 E0.02006
G1 X155.892 Y98.220 E0.01756
G1 X156.003 Y98.717 E0.01598
G1 X156.051 Y99.239 E0.01641
G1 X156.060 Y109.751 E0.32961
G1 X156.051 Y110.761 E0.03166
G1 X156.003 Y111.283 E0.01643
G1 X155.892 Y111.780 E0.01598
G1 X155.854 Y112.339 E0.01756
G1 X156.477 Y112.190 E0.02006
G1 X156.361 Y112.961 E0.02444
G1 X155.649 Y113.068 E0.02256
G1 X155.192 Y113.119 F10800.000
;WIPE_START
G1 F8640.000
G1 X155.739 Y112.454 E-0.14312
G1 X155.180 Y112.492 E-0.12930
G1 X154.683 Y112.603 E-0.11767
G1 X154.161 Y112.651 E-0.12083
G1 X150.614 Y112.654 E-0.81907
;WIPE_END
G1 E-0.07000 F2100.000
G1 Z0.400 F10800.000
G1 X156.708 Y113.305
G1 Z0.200
G1 E1.40000 F2100.000
G1 F1200.000
G1 X156.606 Y113.358 E0.00362
G1 X156.097 Y113.413 E0.01604
G1 X155.625 Y113.389 E0.01481
G1 X155.129 Y113.323 E0.01571
G1 X154.618 Y113.295 E0.01602
G1 X142.681 Y113.290 E0.37428
G1 X141.674 Y113.323 E0.03161
G1 X141.175 Y113.389 E0.01578
G1 X140.701 Y113.413 E0.01488
M73 Q2 S32
G1 X140.256 Y113.374 E0.01401
G1 X140.095 Y113.308 E0.00544
G1 X140.042 Y113.206 E0.00362
G1 X139.987 Y112.697 E0.01604
G1 X140.011 Y112.225 E0.01481
G1 X140.077 Y111.729 E0.01571
G1 X140.105 Y111.218 E0.01602
G1 X140.110 Y99.281 E0.37428
M73 P2 R32
G1 X140.077 Y98.274 E0.03161
G1 X140.011 Y97.775 E0.01578
G1 X139.987 Y97.301 E0.01488
G1 X140.026 Y96.856 E0.01401
G1 X140.092 Y96.695 E0.00544
G1 X140.194 Y96.642 E0.00362
G1 X140.703 Y96.587 E0.01604
G1 X141.175 Y96.611 E0.01481
G1 X141.674 Y96.677 E0.01578
G1 X142.681 Y96.710 E0.03161
G1 X154.119 Y96.710 E0.35860
G1 X155.126 Y96.677 E0.03161
G1 X155.625 Y96.611 E0.01578
G1 X156.099 Y96.587 E0.01488
G1 X156.544 Y96.626 E0.01401
G1 X156.673 Y96.668 E0.00426
G1 X156.740 Y96.750 E0.00332
G1 X156.774 Y96.856 E0.00347
G1 X156.813 Y97.301 E0.01401
G1 X156.789 Y97.775 E0.01488
G1 X156.723 Y98.271 E0.01571
G1 X156.695 Y98.782 E0.01602
G1 X156.690 Y99.781 E0.03135
G1 X156.690 Y110.719 E0.34293
G1 X156.723 Y111.726 E0.03161
G1 X156.789 Y112.225 E0.01578
G1 X156.813 Y112.699 E0.01488
G1 X156.774 Y113.144 E0.01401
G1 X156.739 Y113.253 E0.00359
G1 X156.596 Y113.275 F10800.000
G1 X156.543 Y113.170
;TYPE:Gap fill
;WIDTH:0.100935
G1 F1200.000
G1 X156.577 Y112.955 E0.00105
;WIPE_START
G1 F8640.000
G1 X156.543 Y113.170 E-0.05028
;WIPE_END
G1 E-1.34972 F2100.000
G1 Z0.400 F10800.000
G1 X156.577 Y97.045
G1 Z0.200
G1 E1.40000 F2100.000
;WIDTH:0.100931
G1 F1200.000
G1 X156.546 Y96.854 E0.00094
G1 X156.355 Y96.823 E0.00094
;WIPE_START
G1 F8640.000
G1 X156.546 Y96.854 E-0.04482
G1 X156.577 Y97.045 E-0.04482
;WIPE_END
G1 E-1.31036 F2100.000
G1 Z0.400 F10800.000
G1 X141.343 Y97.337
G1 Z0.200
G1 E1.40000 F2100.000
;WIDTH:0.413061
G1 F1200.000
G1 X141.599 Y97.086 E0.01101
G1 X142.052 Y97.046 E0.01400
;WIDTH:0.296754
G1 X143.648 Y97.025 E0.03370
G1 X153.655 Y97.025 E0.21122
;WIDTH:0.30796
G1 X154.184 Y97.029 E0.01164
;WIDTH:0.34175
G1 X154.455 Y97.037 E0.00675
;WIDTH:0.379518
G1 X154.748 Y97.046 E0.00820
;WIDTH:0.413061
G1 X154.882 Y97.059 E0.00413
;WIDTH:0.446604
G1 X155.015 Y97.071 E0.00450
;WIDTH:0.471858
G1 X155.201 Y97.086 E0.00666
G1 X155.457 Y97.337 E0.01276
G1 X156.063 Y97.943 F10800.000
;WIDTH:0.408148
G1 F1200.000
G1 X156.314 Y98.199 E0.01087
G1 X156.349 Y98.653 E0.01384
;WIDTH:0.296151
G1 X156.375 Y99.745 E0.02299
G1 X156.375 Y109.753 E0.21074
;WIDTH:0.307766
G1 X156.371 Y110.782 E0.02267
;WIDTH:0.341653
G1 X156.363 Y111.055 E0.00677
;WIDTH:0.379518
G1 X156.354 Y111.348 E0.00822
;WIDTH:0.413062
G1 X156.341 Y111.482 E0.00413
;WIDTH:0.446604
G1 X156.329 Y111.615 E0.00450
;WIDTH:0.471862
G1 X156.314 Y111.801 E0.00666
G1 X156.063 Y112.057 E0.01276
G1 X155.457 Y112.663 F10800.000
;WIDTH:0.47186
G1 F1200.000
G1 X155.201 Y112.914 E0.01276
G1 X155.021 Y112.927 E0.00645
;WIDTH:0.445571
G1 X154.884 Y112.938 E0.00460
;WIDTH:0.408146
G1 X154.747 Y112.949 E0.00417
;WIDTH:0.370723
G1 X154.633 Y112.952 E0.00313
;WIDTH:0.352589
G1 X154.184 Y112.972 E0.01156
;WIDTH:0.308689
G1 X153.655 Y112.975 E0.01168
;WIDTH:0.296613
G1 X143.648 Y112.975 E0.21110
G1 X142.052 Y112.954 E0.03368
;WIDTH:0.41306
G1 X141.599 Y112.914 E0.01400
G1 X141.343 Y112.663 E0.01101
G1 X140.737 Y112.057 F10800.000
;WIDTH:0.408146
G1 F1200.000
G1 X140.486 Y111.801 E0.01087
G1 X140.451 Y111.347 E0.01384
;WIDTH:0.296149
G1 X140.425 Y110.255 E0.02299
G1 X140.425 Y100.247 E0.21074
;WIDTH:0.307764
G1 X140.429 Y99.218 E0.02267
;WIDTH:0.34165
G1 X140.437 Y98.945 E0.00677
;WIDTH:0.379516
G1 X140.446 Y98.652 E0.00822
;WIDTH:0.41306
G1 X140.459 Y98.518 E0.00413
;WIDTH:0.446604
G1 X140.471 Y98.385 E0.00450
;WIDTH:0.471861
G1 X140.486 Y98.199 E0.00666
G1 X140.737 Y97.943 E0.01276
;WIPE_START
G1 F8640.000
G1 X140.486 Y98.199 E-0.08262
G1 X140.471 Y98.385 E-0.04314
;WIPE_END
G1 E-1.27424 F2100.000
G1 Z0.400 F10800.000
G1 X140.223 Y97.045
G1 Z0.200
G1 E1.40000 F2100.000
;WIDTH:0.100934
G1 F1200.000
G1 X140.257 Y96.830 E0.00105
;WIPE_START
G1 F8640.000
G1 X140.223 Y97.045 E-0.05027
;WIPE_END
G1 E-1.34973 F2100.000
G1 Z0.400 F10800.000
G1 X140.230 Y113.143
G1 Z0.200
G1 E1.40000 F2100.000
;WIDTH:0.100934
G1 F1200.000
G1 X140.445 Y113.177 E0.00105
;WIPE_START
G1 F8640.000
G1 X140.230 Y113.143 E-0.05027
;WIPE_END
G1 E-1.34973 F2100.000
G1 Z0.400 F10800.000
G1 X133.077 Y112.190
G1 Z0.200
G1 E1.40000 F2100.000
;TYPE:External perimeter
;WIDTH:0.42
G1 F1200.000
G1 X132.961 Y112.961 E0.02444
G1 X132.190 Y113.077 E0.02444
G1 X132.339 Y112.454 E0.02006
G1 X131.780 Y112.492 E0.01756
G1 X131.283 Y112.603 E0.01598
G1 X130.761 Y112.651 E0.01641
G1 X120.249 Y112.660 E0.32961
G1 X119.239 Y112.651 E0.03166
G1 X118.717 Y112.603 E0.01643
G1 X118.220 Y112.492 E0.01598
G1 X117.661 Y112.454 E0.01756
G1 X117.810 Y113.077 E0.02006
G1 X117.039 Y112.961 E0.02444
G1 X116.923 Y112.190 E0.02444
G1 X117.546 Y112.339 E0.02006
G1 X117.508 Y111.780 E0.01756
G1 X117.397 Y111.283 E0.01598
G1 X117.349 Y110.761 E0.01641
