; generated by PrusaSlicer 2.3.3+win64 on 2021-08-04 at 22:53:44 UTC

; 

; external perimeters extrusion width = 0.45mm
; perimeters extrusion width = 0.45mm
; infill extrusion width = 0.45mm
; solid infill extrusion width = 0.45mm
; top infill extrusion width = 0.40mm
; support material extrusion width = 0.35mm
; first layer extrusion width = 0.42mm

M73 P0 R49
M73 Q0 S49
M201 X1000 Y1000 Z200 E5000 ; sets maximum accelerations, mm/sec^2
M203 X200 Y200 Z12 E120 ; sets maximum feedrates, mm/sec
M204 P1250 R1250 T1250 ; sets acceleration (P, T) and retract acceleration (R), mm/sec^2
M205 X8.00 Y8.00 Z0.40 E4.50 ; sets the jerk limits, mm/sec
M205 S0 T0 ; sets the minimum extruding and travel feed rate, mm/sec
M107
;TYPE:Custom
M862.3 P "MK3S" ; printer model check
M862.1 P0.4 ; nozzle diameter check
M115 U3.10.0 ; tell printer latest fw version
G90 ; use absolute coordinates
M83 ; extruder relative mode
M104 S215 ; set extruder temp
M140 S60 ; set bed temp
M190 S60 ; wait for bed temp
M109 S215 ; wait for extruder temp
G28 W ; home all without mesh bed level
G80 ; mesh bed leveling
G1 Y-3.0 F1000.0 ; go outside print area
G92 E0.0
G1 X60.0 E9.0 F1000.0 ; intro line
G1 X100.0 E12.5 F1000.0 ; intro line
G92 E0.0
M221 S95

; Don't change E values below. Excessive value can damage the printer.
M907 E430 ; set extruder motor current
G21 ; set units to millimeters
G90 ; use absolute coordinates
M83 ; use relative distances for extrusion
M900 K0.05 ; Filament gcode LA 1.5
M900 K30 ; Filament gcode LA 1.0
;LAYER_CHANGE
;Z:0.2
;HEIGHT:0.2
;BEFORE_LAYER_CHANGE
G92 E0.0
;0.2


G1 E-0.80000 F2100.000
G1 Z0.400 F10800.000
;AFTER_LAYER_CHANGE
;0.2
G1 X117.607 Y90.624
G1 Z0.200
G1 E0.80000 F2100.000
M204 S1000
;TYPE:Skirt
;WIDTH:0.42
G1 F1200.000
G1 X117.834 Y89.971 E0.02166
G1 X118.239 Y89.412 E0.02166
G1 X128.085 Y79.449 E0.43918
G1 X128.527 Y79.108 E0.01752
G1 X129.037 Y78.880 E0.01752
G1 X129.720 Y78.772 E0.02166
G1 X156.145 Y78.602 E0.82857
G1 X168.458 Y78.785 E0.38610
G1 X169.042 Y78.923 E0.01882
G1 X169.573 Y79.203 E0.01882
G1 X170.019 Y79.610 E0.01894
G1 X170.347 Y80.113 E0.01882
G1 X170.521 Y80.600 E0.01621
G1 X170.585 Y81.109 E0.01609
G1 X170.585 Y93.893 E0.40084
G1 X170.411 Y103.926 E0.31463
G1 X170.263 Y105.614 E0.05311
G1 X170.003 Y107.240 E0.05164
M73 P0 R48
G1 X166.643 Y124.513 E0.55172
G1 X166.206 Y125.214 E0.02590
G1 X160.185 Y131.717 E0.27788
G1 X159.456 Y132.234 E0.02802
G1 X158.584 Y132.445 E0.02813
G1 X145.890 Y132.406 E0.39799
G1 X145.286 Y132.203 E0.02000
G1 X125.650 Y122.438 E0.68759
G1 X125.154 Y122.100 E0.01882
G1 X124.760 Y121.652 E0.01870
G1 X117.625 Y104.317 E0.58776
G1 X117.565 Y103.788 E0.01668
G1 X117.607 Y90.684 E0.41089
; printing object Falcon_9_Second_Stage_2.stl id:0 copy 0
;WIPE_START
G1 F8640.000
G1 X117.834 Y89.971 E-0.17266
G1 X118.239 Y89.412 E-0.15950
G1 X119.541 Y88.094 E-0.42783
;WIPE_END
G1 E-0.04000 F2100.000
G1 Z0.600 F10800.000
G1 X128.237 Y92.095
G1 Z0.200
G1 E0.80000 F2100.000
;TYPE:Support material
G1 F1200.000
G1 X128.237 Y91.070 E0.03213
G1 X127.483 Y91.070 E0.02365
G1 X127.483 Y93.151 E0.06523
G1 X127.208 Y93.726 E0.02001
G1 X126.729 Y94.866 E0.03875
G1 X126.729 Y91.070 E0.11901
G1 X125.975 Y91.070 E0.02365
G1 X125.975 Y97.174 E0.19137
G1 X125.767 Y98.020 E0.02730
G1 X125.612 Y98.784 E0.02445
G1 X125.487 Y99.530 E0.02373
G1 X125.389 Y100.281 E0.02376
G1 X125.317 Y101.036 E0.02377
G1 X125.271 Y101.802 E0.02405
G1 X125.253 Y102.562 E0.02383
G1 X125.274 Y103.614 E0.03301
G1 X125.221 Y103.614 E0.00167
G1 X125.221 Y91.070 E0.39331
G1 X124.467 Y91.070 E0.02365
G1 X124.467 Y103.614 E0.39331
G1 X123.712 Y103.614 E0.02365
G1 X123.712 Y91.070 E0.39331
G1 X122.958 Y91.070 E0.02365
G1 X122.958 Y103.614 E0.39331
G1 X122.204 Y103.614 E0.02365
G1 X122.204 Y91.070 E0.39331
G1 X121.450 Y91.070 E0.02365
G1 X121.450 Y103.614 E0.39331
G1 X120.696 Y103.614 E0.02365
G1 X120.696 Y91.070 E0.39331
G1 X119.942 Y91.070 E0.02365
G1 X119.942 Y103.784 E0.39863
;WIPE_START
G1 F8640.000
G1 X119.942 Y100.493 E-0.76000
;WIPE_END
G1 E-0.04000 F2100.000
G1 Z0.600 F10800.000
G1 X129.746 Y89.800
G1 Z0.200
G1 E0.80000 F2100.000
G1 F1200.000
G1 X129.746 Y81.149 E0.27126
G1 X130.500 Y81.149 E0.02365
G1 X130.500 Y88.593 E0.23341
G1 X131.254 Y87.768 E0.03506
G1 X131.254 Y81.149 E0.20753
G1 X132.008 Y81.149 E0.02365
G1 X132.008 Y87.015 E0.18391
G1 X132.762 Y86.336 E0.03182
G1 X132.762 Y81.149 E0.16262
G1 X133.517 Y81.149 E0.02365
G1 X133.517 Y85.716 E0.14320
G1 X134.271 Y85.149 E0.02959
G1 X134.271 Y81.149 E0.12541
G1 X135.025 Y81.149 E0.02365
G1 X135.025 Y84.629 E0.10912
G1 X135.779 Y84.159 E0.02787
G1 X135.779 Y81.149 E0.09437
G1 X136.533 Y81.149 E0.02365
G1 X136.533 Y83.730 E0.08091
G1 X137.287 Y83.339 E0.02663
G1 X137.287 Y81.149 E0.06866
G1 X138.041 Y81.149 E0.02365
G1 X138.041 Y83.170 E0.06336
;WIPE_START
G1 F8640.000
G1 X138.041 Y81.149 E-0.46660
G1 X137.287 Y81.149 E-0.17414
G1 X137.287 Y81.666 E-0.11926
;WIPE_END
G1 E-0.04000 F2100.000
G1 Z0.600 F10800.000
G1 X156.141 Y80.979
G1 Z0.200
G1 E0.80000 F2100.000
G1 F1200.000
G1 X156.141 Y83.190 E0.06930
G1 X156.895 Y83.567 E0.02645
G1 X156.895 Y81.149 E0.07582
G1 X157.650 Y81.149 E0.02365
G1 X157.650 Y83.983 E0.08885
G1 X158.404 Y84.438 E0.02762
G1 X158.404 Y81.149 E0.10313
G1 X159.158 Y81.149 E0.02365
G1 X159.158 Y84.937 E0.11875
G1 X159.912 Y85.480 E0.02915
G1 X159.912 Y81.149 E0.13581
M73 Q1 S49
G1 X160.666 Y81.149 E0.02365
G1 X160.666 Y86.079 E0.15457
M73 P1 R48
G1 X161.420 Y86.737 E0.03138
G1 X161.420 Y81.149 E0.17520
G1 X162.175 Y81.149 E0.02365
G1 X162.175 Y86.323 E0.16223
G1 X162.209 Y86.324 E0.00108
G1 X162.929 Y87.069 E0.03249
G1 X162.929 Y81.149 E0.18562
M73 Q1 S48
G1 X163.683 Y81.149 E0.02365
G1 X163.683 Y89.137 E0.25045
G1 X164.437 Y90.129 E0.03907
G1 X164.437 Y81.149 E0.28155
G1 X165.191 Y81.149 E0.02365
G1 X165.191 Y91.257 E0.31693
G1 X165.731 Y92.164 E0.03308
G1 X165.945 Y92.563 E0.01421
G1 X165.945 Y81.149 E0.35788
G1 X166.700 Y81.149 E0.02365
G1 X166.700 Y93.693 E0.39331
G1 X167.454 Y93.693 E0.02365
G1 X167.454 Y81.149 E0.39331
G1 X168.208 Y81.149 E0.02365
G1 X168.208 Y93.863 E0.39863
G1 X162.929 Y88.506 F10800.000
G1 F1200.000
G1 X162.929 Y87.904 E0.01888
;WIPE_START
G1 F8640.000
G1 X162.929 Y88.506 E-0.13903
;WIPE_END
G1 E-0.66097 F2100.000
G1 Z0.600 F10800.000
G1 X146.337 Y124.146
G1 Z0.200
G1 E0.80000 F2100.000
G1 F1200.000
G1 X146.337 Y130.071 E0.18577
G1 X147.091 Y130.071 E0.02365
G1 X147.091 Y124.321 E0.18028
G1 X147.846 Y124.300 E0.02366
G1 X147.846 Y130.071 E0.18094
G1 X148.600 Y130.071 E0.02365
G1 X148.600 Y124.253 E0.18242
G1 X149.354 Y124.179 E0.02376
G1 X149.354 Y130.071 E0.18474
G1 X150.108 Y130.071 E0.02365
G1 X150.108 Y124.078 E0.18790
G1 X150.862 Y123.950 E0.02399
G1 X150.862 Y130.071 E0.19192
G1 X151.616 Y130.071 E0.02365
G1 X151.616 Y123.794 E0.19681
G1 X152.370 Y123.609 E0.02434
G1 X152.370 Y130.071 E0.20260
G1 X153.125 Y130.071 E0.02365
G1 X153.125 Y123.396 E0.20930
G1 X153.879 Y123.152 E0.02485
G1 X153.879 Y130.071 E0.21694
G1 X154.633 Y130.071 E0.02365
G1 X154.633 Y122.877 E0.22555
G1 X155.387 Y122.570 E0.02553
G1 X155.387 Y130.071 E0.23519
G1 X156.141 Y130.071 E0.02365
G1 X156.141 Y122.229 E0.24588
G1 X156.895 Y121.852 E0.02643
G1 X156.895 Y130.071 E0.25769
G1 X157.650 Y130.071 E0.02365
G1 X157.650 Y121.439 E0.27066
G1 X158.404 Y120.985 E0.02759
G1 X158.404 Y130.071 E0.28488
G1 X158.469 Y130.071 E0.00205
G1 X158.469 Y123.457 E0.20738
G1 X159.158 Y123.457 E0.02159
G1 X159.158 Y120.487 E0.09310
G1 X159.912 Y119.939 E0.02924
G1 X159.912 Y123.457 E0.11030
G1 X160.666 Y123.457 E0.02365
G1 X160.666 Y119.340 E0.12907
G1 X161.420 Y118.687 E0.03129
G1 X161.420 Y123.457 E0.14956
G1 X162.175 Y123.457 E0.02365
G1 X162.175 Y117.964 E0.17221
G1 X162.929 Y117.167 E0.03440
G1 X162.929 Y123.457 E0.19720
G1 X163.683 Y123.457 E0.02365
G1 X163.683 Y116.284 E0.22491
G1 X164.437 Y115.293 E0.03904
G1 X164.437 Y123.626 E0.26129
;WIPE_START
G1 F8640.000
G1 X164.437 Y120.335 E-0.76000
;WIPE_END
G1 E-0.04000 F2100.000
G1 Z0.600 F10800.000
G1 X158.404 Y112.225
G1 Z0.200
G1 E0.80000 F2100.000
G1 F1200.000
G1 X158.404 Y94.377 E0.55961
G1 X157.650 Y94.377 E0.02365
G1 X157.650 Y112.822 E0.57833
G1 X156.935 Y113.536 E0.03166
G1 X156.895 Y113.536 E0.00123
G1 X156.895 Y94.377 E0.60069
G1 X156.141 Y94.377 E0.02365
G1 X156.141 Y113.536 E0.60069
G1 X155.387 Y113.536 E0.02365
G1 X155.387 Y94.377 E0.60069
G1 X155.162 Y94.377 E0.00705
G1 X155.162 Y91.070 E0.10369
G1 X154.633 Y91.070 E0.01659
G1 X154.633 Y113.536 E0.70438
G1 X153.879 Y113.536 E0.02365
G1 X153.879 Y91.070 E0.70438
G1 X153.125 Y91.070 E0.02365
G1 X153.125 Y113.536 E0.70438
G1 X152.370 Y113.536 E0.02365
G1 X152.370 Y91.070 E0.70438
G1 X151.616 Y91.070 E0.02365
G1 X151.616 Y113.536 E0.70438
G1 X150.862 Y113.536 E0.02365
G1 X150.862 Y91.070 E0.70438
G1 X150.108 Y91.070 E0.02365
G1 X150.108 Y113.536 E0.70438
M73 P2 R48
M73 Q2 S48
G1 X149.354 Y113.536 E0.02365
G1 X149.354 Y91.070 E0.70438
G1 X148.600 Y91.070 E0.02365
G1 X148.600 Y113.536 E0.70438
G1 X147.846 Y113.536 E0.02365
G1 X147.846 Y91.070 E0.70438
G1 X147.091 Y91.070 E0.02365
G1 X147.091 Y113.536 E0.70438
G1 X146.337 Y113.536 E0.02365
G1 X146.337 Y91.070 E0.70438
G1 X145.583 Y91.070 E0.02365
G1 X145.583 Y113.536 E0.70438
G1 X144.829 Y113.536 E0.02365
G1 X144.829 Y91.070 E0.70438
G1 X144.075 Y91.070 E0.02365
G1 X144.075 Y113.536 E0.70438
G1 X143.321 Y113.536 E0.02365
G1 X143.321 Y91.070 E0.70438
G1 X142.566 Y91.070 E0.02365
G1 X142.566 Y113.536 E0.70438
G1 X141.812 Y113.536 E0.02365
G1 X141.812 Y91.070 E0.70438
M73 P2 R47
G1 X141.058 Y91.070 E0.02365
G1 X141.058 Y113.536 E0.70438
G1 X140.304 Y113.536 E0.02365
G1 X140.304 Y91.070 E0.70438
G1 X139.550 Y91.070 E0.02365
G1 X139.550 Y113.536 E0.70438
G1 X138.796 Y113.536 E0.02365
G1 X138.796 Y91.070 E0.70438
G1 X138.041 Y91.070 E0.02365
G1 X138.041 Y113.536 E0.70438
G1 X137.287 Y113.536 E0.02365
G1 X137.287 Y91.448 E0.69253
G1 X136.533 Y92.136 E0.03199
G1 X136.533 Y113.520 E0.67048
;WIPE_START
G1 F8640.000
G1 X136.533 Y110.228 E-0.76000
;WIPE_END
G1 E-0.04000 F2100.000
G1 Z0.600 F10800.000
G1 X133.517 Y120.319
G1 Z0.200
G1 E0.80000 F2100.000
G1 F1200.000
G1 X133.517 Y119.708 E0.01917
G1 X132.762 Y119.085 E0.03068
G1 X132.762 Y120.150 E0.03339
G1 X132.008 Y120.150 E0.02365
G1 X132.008 Y118.404 E0.05473
G1 X131.254 Y117.657 E0.03329
G1 X131.254 Y120.150 E0.07817
G1 X130.500 Y120.150 E0.02365
G1 X130.500 Y116.823 E0.10429
G1 X129.746 Y115.901 E0.03735
G1 X129.746 Y120.150 E0.13321
G1 X128.992 Y120.150 E0.02365
G1 X128.992 Y114.859 E0.16588
G1 X128.506 Y114.116 E0.02784
G1 X128.237 Y113.666 E0.01643
G1 X128.237 Y120.150 E0.20330
G1 X127.483 Y120.150 E0.02365
G1 X127.483 Y112.270 E0.24708
G1 X127.308 Y111.906 E0.01266
G1 X126.729 Y112.076 E0.01894
G1 X126.729 Y120.319 E0.25846
;WIPE_START
G1 F8640.000
G1 X126.729 Y117.028 E-0.76000
;WIPE_END
G1 E-0.04000 F2100.000
G1 Z0.600 F10800.000
G1 X134.764 Y113.155
G1 Z0.200
G1 E0.80000 F2100.000
;TYPE:Perimeter
G1 F1200.000
G1 X134.292 Y112.585 E0.02319
G1 X133.893 Y112.054 E0.02086
G1 X133.515 Y111.506 E0.02086
G1 X133.161 Y110.943 E0.02086
G1 X132.830 Y110.366 E0.02086
G1 X132.524 Y109.775 E0.02086
G1 X132.242 Y109.173 E0.02086
G1 X131.986 Y108.559 E0.02086
G1 X131.756 Y107.935 E0.02086
G1 X131.552 Y107.302 E0.02086
G1 X131.374 Y106.661 E0.02086
G1 X131.223 Y106.013 E0.02086
G1 X131.099 Y105.359 E0.02086
G1 X131.003 Y104.701 E0.02086
G1 X130.934 Y104.040 E0.02086
G1 X130.892 Y103.376 E0.02086
G1 X130.878 Y102.711 E0.02086
G1 X130.892 Y102.046 E0.02086
G1 X130.934 Y101.382 E0.02086
G1 X131.003 Y100.720 E0.02086
G1 X131.097 Y100.077 E0.02039
G1 X131.223 Y99.409 E0.02132
G1 X131.374 Y98.761 E0.02087
G1 X131.552 Y98.120 E0.02086
G1 X131.756 Y97.486 E0.02086
G1 X131.986 Y96.862 E0.02086
G1 X132.242 Y96.249 E0.02086
G1 X132.524 Y95.646 E0.02086
G1 X132.830 Y95.055 E0.02086
G1 X133.161 Y94.478 E0.02086
G1 X133.515 Y93.915 E0.02086
G1 X133.893 Y93.367 E0.02086
G1 X134.292 Y92.836 E0.02086
G1 X134.714 Y92.321 E0.02086
G1 X135.157 Y91.825 E0.02086
G1 X135.620 Y91.347 E0.02086
G1 X136.102 Y90.889 E0.02086
G1 X136.603 Y90.452 E0.02086
G1 X137.122 Y90.036 E0.02086
G1 X137.658 Y89.641 E0.02086
G1 X138.209 Y89.269 E0.02086
G1 X138.776 Y88.921 E0.02086
G1 X139.357 Y88.596 E0.02086
G1 X139.950 Y88.296 E0.02086
G1 X140.556 Y88.021 E0.02086
G1 X141.172 Y87.771 E0.02086
G1 X141.799 Y87.547 E0.02086
G1 X142.434 Y87.350 E0.02086
G1 X143.077 Y87.179 E0.02086
G1 X143.726 Y87.035 E0.02086
G1 X144.381 Y86.918 E0.02086
G1 X145.040 Y86.828 E0.02086
G1 X145.702 Y86.766 E0.02086
G1 X146.367 Y86.731 E0.02086
G1 X147.017 Y86.724 E0.02039
G1 X147.696 Y86.745 E0.02132
G1 X148.360 Y86.793 E0.02087
G1 X149.021 Y86.869 E0.02086
G1 X149.678 Y86.973 E0.02086
G1 X150.330 Y87.103 E0.02086
G1 X150.977 Y87.261 E0.02086
G1 X151.601 Y87.441 E0.02039
G1 X152.246 Y87.656 E0.02132
G1 X152.868 Y87.893 E0.02087
G1 X153.479 Y88.156 E0.02086
G1 X154.079 Y88.443 E0.02086
G1 X154.666 Y88.756 E0.02086
G1 X155.240 Y89.092 E0.02086
G1 X155.799 Y89.452 E0.02086
G1 X156.343 Y89.836 E0.02086
G1 X156.871 Y90.241 E0.02086
G1 X157.381 Y90.668 E0.02086
G1 X157.872 Y91.116 E0.02086
G1 X158.345 Y91.584 E0.02086
G1 X158.798 Y92.071 E0.02086
G1 X159.221 Y92.565 E0.02039
G1 X159.641 Y93.099 E0.02132
G1 X160.030 Y93.639 E0.02087
G1 X160.396 Y94.195 E0.02086
G1 X160.739 Y94.765 E0.02086
G1 X161.057 Y95.349 E0.02086
G1 X161.351 Y95.946 E0.02086
G1 X161.620 Y96.554 E0.02086
G1 X161.863 Y97.173 E0.02086
G1 X162.081 Y97.802 E0.02086
G1 X162.272 Y98.439 E0.02086
G1 X162.436 Y99.084 E0.02086
G1 X162.573 Y99.735 E0.02086
G1 X162.684 Y100.391 E0.02086
G1 X162.766 Y101.051 E0.02086
G1 X162.822 Y101.713 E0.02086
G1 X162.849 Y102.378 E0.02086
G1 X162.849 Y103.043 E0.02086
G1 X162.822 Y103.708 E0.02086
G1 X162.766 Y104.371 E0.02086
G1 X162.684 Y105.031 E0.02086
G1 X162.573 Y105.687 E0.02086
G1 X162.436 Y106.338 E0.02086
G1 X162.272 Y106.982 E0.02086
G1 X162.081 Y107.619 E0.02086
G1 X161.863 Y108.248 E0.02086
G1 X161.620 Y108.867 E0.02086
G1 X161.357 Y109.462 E0.02039
G1 X161.057 Y110.072 E0.02132
G1 X160.739 Y110.656 E0.02087
G1 X160.396 Y111.226 E0.02086
G1 X160.030 Y111.782 E0.02086
G1 X159.641 Y112.322 E0.02086
G1 X159.230 Y112.845 E0.02086
G1 X158.798 Y113.350 E0.02086
G1 X158.345 Y113.838 E0.02086
G1 X157.872 Y114.305 E0.02086
G1 X157.381 Y114.753 E0.02086
G1 X156.871 Y115.180 E0.02086
G1 X156.343 Y115.586 E0.02086
G1 X155.799 Y115.969 E0.02086
G1 X155.240 Y116.329 E0.02086
G1 X154.666 Y116.666 E0.02086
G1 X154.079 Y116.978 E0.02086
G1 X153.479 Y117.266 E0.02086
G1 X152.868 Y117.528 E0.02086
M73 P3 R47
G1 X152.247 Y117.765 E0.02086
G1 X151.616 Y117.976 E0.02086
M73 Q3 S48
G1 X150.977 Y118.160 E0.02086
G1 X150.330 Y118.318 E0.02086
G1 X149.678 Y118.449 E0.02086
G1 X149.021 Y118.552 E0.02086
G1 X148.360 Y118.628 E0.02086
G1 X147.697 Y118.676 E0.02086
G1 X147.032 Y118.697 E0.02086
G1 X146.367 Y118.690 E0.02086
G1 X145.702 Y118.656 E0.02086
G1 X145.040 Y118.593 E0.02086
G1 X144.381 Y118.504 E0.02086
G1 X143.726 Y118.387 E0.02086
G1 X143.077 Y118.242 E0.02086
G1 X142.434 Y118.071 E0.02086
G1 X141.799 Y117.874 E0.02086
G1 X141.172 Y117.650 E0.02086
G1 X140.570 Y117.406 E0.02039
G1 X139.951 Y117.125 E0.02132
G1 X139.357 Y116.825 E0.02087
G1 X138.776 Y116.500 E0.02086
G1 X138.209 Y116.152 E0.02086
G1 X137.658 Y115.780 E0.02086
G1 X137.122 Y115.386 E0.02086
G1 X136.603 Y114.969 E0.02086
G1 X136.102 Y114.532 E0.02086
G1 X135.620 Y114.074 E0.02086
G1 X134.804 Y113.200 E0.03749
G1 X135.085 Y112.949 F10800.000
;TYPE:External perimeter
G1 F1200.000
G1 X134.589 Y112.352 E0.02433
G1 X134.199 Y111.833 E0.02036
G1 X133.830 Y111.299 E0.02036
G1 X133.484 Y110.749 E0.02036
G1 X133.161 Y110.185 E0.02036
G1 X132.862 Y109.609 E0.02036
G1 X132.587 Y109.020 E0.02036
G1 X132.337 Y108.421 E0.02036
G1 X132.112 Y107.812 E0.02036
G1 X131.913 Y107.193 E0.02036
G1 X131.739 Y106.568 E0.02036
G1 X131.592 Y105.935 E0.02036
G1 X131.471 Y105.297 E0.02036
G1 X131.377 Y104.654 E0.02036
G1 X131.309 Y104.008 E0.02036
G1 X131.269 Y103.360 E0.02036
G1 X131.255 Y102.711 E0.02036
G1 X131.269 Y102.061 E0.02036
G1 X131.309 Y101.413 E0.02036
