; generated by PrusaSlicer 2.3.0+win64 on 2021-05-12 at 02:09:03 UTC

; 

; external perimeters extrusion width = 0.45mm
; perimeters extrusion width = 0.45mm
; infill extrusion width = 0.45mm
; solid infill extrusion width = 0.45mm
; top infill extrusion width = 0.40mm
; first layer extrusion width = 0.42mm

M73 P0 R6
M73 Q0 S6
M201 X1000 Y1000 Z200 E5000 ; sets maximum accelerations, mm/sec^2
M203 X200 Y200 Z12 E120 ; sets maximum feedrates, mm/sec
M204 P1250 R1250 T1250 ; sets acceleration (P, T) and retract acceleration (R), mm/sec^2
M205 X8.00 Y8.00 Z0.40 E4.50 ; sets the jerk limits, mm/sec
M205 S0 T0 ; sets the minimum extruding and travel feed rate, mm/sec
M107
;TYPE:Custom
M862.3 P "MK3S" ; printer model check
M862.1 P0.4 ; nozzle diameter check
M115 U3.9.1 ; tell printer latest fw version
G90 ; use absolute coordinates
M83 ; extruder relative mode
M104 S240 ; set extruder temp
M140 S85 ; set bed temp
M190 S85 ; wait for bed temp
M109 S240 ; wait for extruder temp
G28 W ; home all without mesh bed level
G80 ; mesh bed leveling
G1 Y-3.0 F1000.0 ; go outside print area
G92 E0.0
G1 X60.0 E9.0 F1000.0 ; intro line
G1 X100.0 E12.5 F1000.0 ; intro line
G92 E0.0
M221 S95

; Don't change E values below. Excessive value can damage the printer.
M907 E430 ; set extruder motor current
G21 ; set units to millimeters
G90 ; use absolute coordinates
M83 ; use relative distances for extrusion
M900 K0.08 ; Filament gcode LA 1.5
M900 K45 ; Filament gcode LA 1.0
;LAYER_CHANGE
;Z:0.2
;HEIGHT:0.2
;BEFORE_LAYER_CHANGE
G92 E0.0
;0.2


M73 P1 R6
M73 Q1 S6
G1 E-1.40000 F2100.000
G1 Z0.200 F10800.000
;AFTER_LAYER_CHANGE
;0.2
G1 Z0.400
G1 X137.743 Y22.879
G1 Z0.200
G1 E1.40000 F2100.000
M204 S1000
;TYPE:Skirt
;WIDTH:0.42
G1 F900
G1 X138.257 Y21.296 E0.05219
G1 X138.906 Y20.133 E0.04175
G1 X139.970 Y18.876 E0.05164
G1 X141.015 Y18.043 E0.04189
G1 X142.488 Y17.278 E0.05205
G1 X143.749 Y16.909 E0.04121
G1 X145.367 Y16.756 E0.05096
M73 P2 R6
M73 Q2 S6
G1 X146.714 Y16.892 E0.04244
G1 X148.310 Y17.380 E0.05233
G1 X149.472 Y18.003 E0.04134
G1 X150.758 Y19.053 E0.05205
G1 X151.600 Y20.073 E0.04148
G1 X152.395 Y21.536 E0.05219
G1 X152.786 Y22.793 E0.04128
G1 X152.967 Y24.449 E0.05225
G1 X152.786 Y26.104 E0.05219
G1 X152.394 Y27.363 E0.04134
G1 X151.599 Y28.825 E0.05219
G1 X150.757 Y29.845 E0.04148
G1 X149.474 Y30.893 E0.05192
G1 X148.308 Y31.518 E0.04148
G1 X146.712 Y32.005 E0.05233
G1 X145.361 Y32.141 E0.04257
G1 X143.743 Y31.987 E0.05096
G1 X142.470 Y31.612 E0.04162
G1 X140.998 Y30.843 E0.05205
G1 X139.916 Y29.967 E0.04366
G1 X138.888 Y28.737 E0.05028
G1 X138.223 Y27.523 E0.04339
G1 X137.725 Y25.930 E0.05232
G1 X137.584 Y24.272 E0.05219
G1 X137.737 Y22.939 E0.04205
G1 X138.109 Y22.982 F10800.000
G1 F900
G1 X138.604 Y21.444 E0.05066
G1 X139.217 Y20.347 E0.03939
G1 X140.233 Y19.147 E0.04930
G1 X141.218 Y18.361 E0.03952
G1 X142.623 Y17.629 E0.04968
G1 X143.817 Y17.280 E0.03901
G1 X145.367 Y17.133 E0.04879
G1 X146.637 Y17.261 E0.04003
G1 X148.160 Y17.726 E0.04994
G1 X149.261 Y18.315 E0.03914
G1 X150.491 Y19.320 E0.04981
G1 X151.287 Y20.282 E0.03915
G1 X152.047 Y21.681 E0.04992
M73 P3 R6
G1 X152.416 Y22.866 E0.03889
M73 Q3 S6
G1 X152.590 Y24.448 E0.04992
G1 X152.484 Y25.684 E0.03889
G1 X152.047 Y27.215 E0.04992
G1 X151.287 Y28.615 E0.04994
G1 X150.492 Y29.577 E0.03914
G1 X149.261 Y30.581 E0.04981
G1 X148.161 Y31.171 E0.03914
G1 X146.637 Y31.635 E0.04994
G1 X145.363 Y31.764 E0.04016
G1 X143.814 Y31.616 E0.04879
G1 X142.612 Y31.263 E0.03927
G1 X141.205 Y30.527 E0.04981
G1 X140.183 Y29.701 E0.04118
G1 X139.201 Y28.527 E0.04802
G1 X138.571 Y27.378 E0.04107
G1 X138.095 Y25.859 E0.04992
G1 X137.961 Y24.272 E0.04994
G1 X138.103 Y23.041 E0.03882
G1 X138.475 Y23.084 F10800.000
G1 F900
G1 X138.949 Y21.595 E0.04900
G1 X139.523 Y20.567 E0.03693
G1 X140.495 Y19.417 E0.04719
G1 X141.422 Y18.678 E0.03717
G1 X142.763 Y17.980 E0.04743
G1 X143.886 Y17.651 E0.03669
G1 X145.366 Y17.510 E0.04660
G1 X146.561 Y17.631 E0.03764
G1 X148.015 Y18.074 E0.04767
G1 X149.047 Y18.626 E0.03669
G1 X150.222 Y19.584 E0.04755
G1 X150.971 Y20.489 E0.03686
G1 X151.697 Y21.823 E0.04762
G1 X152.046 Y22.938 E0.03662
G1 X152.213 Y24.448 E0.04762
G1 X152.114 Y25.611 E0.03662
G1 X151.698 Y27.072 E0.04762
G1 X150.971 Y28.407 E0.04766
G1 X150.223 Y29.312 E0.03681
G1 X149.048 Y30.270 E0.04755
G1 X148.013 Y30.824 E0.03681
G1 X146.558 Y31.267 E0.04767
M73 P4 R6
G1 X145.360 Y31.387 E0.03776
M73 Q4 S6
G1 X143.884 Y31.246 E0.04648
G1 X142.754 Y30.914 E0.03693
G1 X141.410 Y30.211 E0.04755
G1 X140.450 Y29.435 E0.03871
G1 X139.511 Y28.313 E0.04588
G1 X138.921 Y27.235 E0.03852
G1 X138.465 Y25.786 E0.04762
G1 X138.338 Y24.272 E0.04766
G1 X138.468 Y23.144 E0.03559
;WIPE_START
G1 F8640.000
G1 X138.949 Y21.595 E-0.37444
G1 X139.523 Y20.567 E-0.27197
G1 X140.495 Y19.417 E-0.34752
G1 X141.422 Y18.678 E-0.27372
G1 X141.661 Y18.553 E-0.06234
;WIPE_END
G1 E-0.07000 F2100.000
G1 Z0.400 F10800.000
G1 X142.481 Y23.793
G1 Z0.200
G1 E1.40000 F2100.000
;TYPE:External perimeter
G1 F900
G1 X142.611 Y23.382 E0.01351
G1 X142.811 Y22.978 E0.01413
G1 X143.063 Y22.622 E0.01368
G1 X143.363 Y22.310 E0.01357
G1 X143.720 Y22.037 E0.01410
G1 X144.121 Y21.823 E0.01426
G1 X144.510 Y21.684 E0.01296
G1 X144.934 Y21.601 E0.01352
G1 X145.366 Y21.582 E0.01356
G1 X145.817 Y21.632 E0.01423
G1 X146.257 Y21.754 E0.01433
G1 X146.648 Y21.930 E0.01344
G1 X147.011 Y22.165 E0.01355
G1 X147.337 Y22.455 E0.01368
G1 X147.623 Y22.802 E0.01410
G1 X147.852 Y23.194 E0.01422
G1 X148.007 Y23.578 E0.01300
G1 X148.106 Y23.995 E0.01342
G1 X148.143 Y24.448 E0.01428
G1 X148.106 Y24.902 E0.01428
G1 X148.007 Y25.319 E0.01342
G1 X147.852 Y25.703 E0.01300
G1 X147.624 Y26.093 E0.01417
G1 X147.337 Y26.442 E0.01417
G1 X146.995 Y26.742 E0.01425
G1 X146.648 Y26.966 E0.01296
G1 X146.257 Y27.143 E0.01345
G1 X145.817 Y27.265 E0.01430
G1 X145.387 Y27.315 E0.01359
G1 X144.931 Y27.296 E0.01430
G1 X144.510 Y27.213 E0.01344
G1 X144.103 Y27.067 E0.01356
G1 X143.720 Y26.859 E0.01369
G1 X143.363 Y26.587 E0.01408
G1 X143.063 Y26.275 E0.01356
G1 X142.811 Y25.919 E0.01368
G1 X142.611 Y25.515 E0.01413
G1 X142.481 Y25.104 E0.01351
G1 X142.415 Y24.677 E0.01355
G1 X142.406 Y24.448 E0.00717
G1 X142.415 Y24.220 E0.00717
G1 X142.472 Y23.852 E0.01167
G1 X142.193 Y23.516 F10800.000
;WIPE_START
G1 F8640.000
G1 X142.611 Y23.382 E-0.11324
G1 X142.811 Y22.978 E-0.10404
G1 X143.063 Y22.622 E-0.10072
G1 X143.363 Y22.310 E-0.09993
G1 X143.720 Y22.037 E-0.10382
G1 X144.121 Y21.823 E-0.10500
G1 X144.510 Y21.684 E-0.09541
G1 X144.934 Y21.601 E-0.09956
G1 X145.366 Y21.582 E-0.09985
G1 X145.817 Y21.632 E-0.10483
G1 X146.257 Y21.754 E-0.10550
G1 X146.648 Y21.930 E-0.09899
G1 X147.008 Y22.164 E-0.09912
;WIPE_END
G1 E-0.07000 F2100.000
G1 Z0.400 F10800.000
G1 X143.517 Y21.718
G1 Z0.200
G1 E1.40000 F2100.000
;TYPE:Perimeter
G1 F900
G1 X143.647 Y21.630 E0.00492
G1 X144.108 Y21.409 E0.01605
G1 X144.385 Y21.318 E0.00913
G1 X144.843 Y21.221 E0.01469
G1 X145.383 Y21.196 E0.01695
G1 X145.849 Y21.244 E0.01469
G1 X146.371 Y21.385 E0.01695
G1 X146.790 Y21.568 E0.01433
G1 X147.227 Y21.844 E0.01622
G1 X147.406 Y21.988 E0.00720
G1 X147.595 Y22.180 E0.00846
G1 X147.240 Y21.865 E0.01491
G1 X146.829 Y21.598 E0.01535
G1 X146.386 Y21.399 E0.01524
G1 X145.888 Y21.260 E0.01619
G1 X145.378 Y21.204 E0.01610
G1 X144.889 Y21.225 E0.01535
G1 X144.410 Y21.319 E0.01531
G1 X143.968 Y21.478 E0.01472
G1 X143.570 Y21.690 E0.01414
;WIPE_START
G1 F8640.000
G1 X143.647 Y21.630 E-0.02248
G1 X144.108 Y21.409 E-0.11821
G1 X144.385 Y21.318 E-0.06724
G1 X144.843 Y21.221 E-0.10815
G1 X145.383 Y21.196 E-0.12482
G1 X145.849 Y21.244 E-0.10815
G1 X146.371 Y21.385 E-0.12482
G1 X146.790 Y21.568 E-0.10551
G1 X147.227 Y21.844 E-0.11944
G1 X147.406 Y21.988 E-0.05304
G1 X147.595 Y22.180 E-0.06228
G1 X147.240 Y21.865 E-0.10977
M73 P5 R6
M73 Q5 S6
G1 X146.829 Y21.598 E-0.11307
G1 X146.461 Y21.433 E-0.09303
;WIPE_END
G1 E-0.07000 F2100.000
G1 Z0.400 F10800.000
G1 X147.619 Y22.205
G1 Z0.200
G1 E1.40000 F2100.000
G1 F900
G1 X147.768 Y22.356 E0.00666
G1 X147.920 Y22.570 E0.00822
G1 X147.657 Y22.251 E0.01296
G1 X147.941 Y22.599 F10800.000
G1 F900
G1 X148.061 Y22.767 E0.00645
G1 X148.192 Y23.027 E0.00913
G1 X147.972 Y22.651 E0.01365
G1 X148.192 Y23.027 F10800.000
G1 F900
G1 X148.292 Y23.228 E0.00704
G1 X148.371 Y23.443 E0.00720
G1 X148.490 Y23.945 E0.01618
G1 X148.530 Y24.460 E0.01618
G1 X148.521 Y24.689 E0.00720
G1 X148.480 Y24.954 E0.00839
G1 X148.521 Y24.448 E0.01589
G1 X148.479 Y23.936 E0.01613
G1 X148.368 Y23.464 E0.01521
G1 X148.214 Y23.083 E0.01288
;WIPE_START
G1 F8640.000
G1 X148.292 Y23.228 E-0.03805
G1 X148.371 Y23.443 E-0.05304
G1 X148.490 Y23.945 E-0.11913
G1 X148.530 Y24.460 E-0.11913
G1 X148.521 Y24.689 E-0.05304
G1 X148.480 Y24.954 E-0.06176
G1 X148.521 Y24.448 E-0.11704
G1 X148.479 Y23.936 E-0.11880
G1 X148.368 Y23.464 E-0.11200
G1 X148.214 Y23.083 E-0.09482
;WIPE_END
G1 E-0.51319 F2100.000
G1 Z0.400 F10800.000
G1 X148.477 Y24.968
G1 Z0.200
G1 E1.40000 F2100.000
G1 F900
G1 X148.440 Y25.210 E0.00768
G1 X148.378 Y25.432 E0.00720
G1 X148.183 Y25.909 E0.01618
G1 X147.922 Y26.341 E0.01582
G1 X147.591 Y26.736 E0.01618
G1 X147.415 Y26.902 E0.00756
G1 X147.227 Y27.053 E0.00756
G1 X146.791 Y27.328 E0.01618
G1 X146.321 Y27.531 E0.01605
G1 X146.041 Y27.611 E0.00913
G1 X145.591 Y27.688 E0.01433
G1 X145.410 Y27.692 E0.00565
G1 X145.890 Y27.636 E0.01515
G1 X146.385 Y27.498 E0.01612
G1 X146.829 Y27.299 E0.01524
G1 X147.223 Y27.043 E0.01472
G1 X147.608 Y26.705 E0.01606
G1 X147.934 Y26.310 E0.01607
G1 X148.192 Y25.870 E0.01599
G1 X148.368 Y25.433 E0.01476
G1 X148.464 Y25.027 E0.01310
;WIPE_START
G1 F8640.000
G1 X148.440 Y25.210 E-0.04276
G1 X148.378 Y25.432 E-0.05304
G1 X148.183 Y25.909 E-0.11913
G1 X147.922 Y26.341 E-0.11648
G1 X147.591 Y26.736 E-0.11913
G1 X147.415 Y26.902 E-0.05567
G1 X147.227 Y27.053 E-0.05568
G1 X146.791 Y27.328 E-0.11913
G1 X146.321 Y27.531 E-0.11820
G1 X146.041 Y27.611 E-0.06724
G1 X145.591 Y27.688 E-0.10551
G1 X145.410 Y27.692 E-0.04164
G1 X145.890 Y27.636 E-0.11156
G1 X146.385 Y27.498 E-0.11872
G1 X146.726 Y27.345 E-0.08612
;WIPE_END
G1 E-0.07000 F2100.000
G1 Z0.400 F10800.000
G1 X145.386 Y27.692
G1 Z0.200
G1 E1.40000 F2100.000
G1 F900
G1 X145.073 Y27.698 E0.00980
G1 X144.845 Y27.676 E0.00720
G1 X144.341 Y27.567 E0.01618
G1 X143.870 Y27.385 E0.01582
G1 X143.423 Y27.127 E0.01618
G1 X143.113 Y26.871 E0.01261
G1 X143.514 Y27.177 E0.01583
G1 X143.949 Y27.412 E0.01550
G1 X144.410 Y27.578 E0.01535
G1 X144.887 Y27.671 E0.01524
G1 X145.326 Y27.690 E0.01378
;WIPE_START
G1 F8640.000
G1 X145.073 Y27.698 E-0.05835
G1 X144.845 Y27.676 E-0.05304
G1 X144.341 Y27.567 E-0.11913
G1 X143.870 Y27.385 E-0.11648
G1 X143.423 Y27.127 E-0.11913
G1 X143.113 Y26.871 E-0.09288
G1 X143.514 Y27.177 E-0.11655
G1 X143.949 Y27.412 E-0.11413
G1 X144.410 Y27.578 E-0.11307
G1 X144.887 Y27.671 E-0.11223
G1 X145.326 Y27.690 E-0.10147
;WIPE_END
G1 E-0.28354 F2100.000
G1 Z0.400 F10800.000
G1 X143.107 Y26.866
G1 Z0.200
G1 E1.40000 F2100.000
G1 F900
G1 X142.864 Y26.636 E0.01051
G1 X142.550 Y26.231 E0.01605
G1 X142.403 Y25.980 E0.00913
G1 X142.211 Y25.553 E0.01469
G1 X142.141 Y25.333 E0.00724
G1 X142.041 Y24.826 E0.01618
G1 X142.022 Y24.322 E0.01582
G1 X142.080 Y23.821 E0.01582
G1 X142.218 Y23.324 E0.01618
G1 X142.418 Y22.885 E0.01511
G1 X142.701 Y22.454 E0.01618
G1 X143.048 Y22.072 E0.01618
G1 X143.221 Y21.921 E0.00720
G1 X143.513 Y21.721 E0.01111
G1 X143.111 Y22.027 E0.01586
G1 X142.771 Y22.381 E0.01538
G1 X142.486 Y22.785 E0.01549
G1 X142.260 Y23.241 E0.01595
G1 X142.113 Y23.707 E0.01532
G1 X142.039 Y24.184 E0.01514
G1 X142.039 Y24.713 E0.01660
G1 X142.113 Y25.190 E0.01514
G1 X142.260 Y25.656 E0.01532
G1 X142.486 Y26.112 E0.01595
G1 X142.771 Y26.516 E0.01550
G1 X143.066 Y26.823 E0.01333
G1 X142.584 Y26.890 F10800.000
;TYPE:External perimeter
G1 F900
G1 X142.237 Y26.443 E0.01774
M73 Q6 S6
G1 X142.067 Y26.153 E0.01054
G1 X141.858 Y25.688 E0.01598
M73 P6 R6
G1 X141.775 Y25.427 E0.00859
G1 X141.665 Y24.870 E0.01778
G1 X141.644 Y24.308 E0.01766
G1 X141.709 Y23.748 E0.01766
G1 X141.861 Y23.202 E0.01778
G1 X141.966 Y22.945 E0.00871
G1 X142.091 Y22.697 E0.00871
G1 X142.402 Y22.223 E0.01778
G1 X142.784 Y21.803 E0.01778
G1 X142.990 Y21.623 E0.00858
G1 X143.457 Y21.302 E0.01778
G1 X143.968 Y21.058 E0.01774
G1 X144.287 Y20.953 E0.01054
G1 X144.786 Y20.848 E0.01598
G1 X145.061 Y20.821 E0.00868
G1 X145.401 Y20.819 E0.01066
G1 X145.909 Y20.871 E0.01598
G1 X146.179 Y20.929 E0.00868
G1 X146.504 Y21.031 E0.01066
G1 X146.967 Y21.234 E0.01585
G1 X147.447 Y21.536 E0.01780
G1 X147.660 Y21.708 E0.00858
G1 X148.057 Y22.113 E0.01778
G1 X148.385 Y22.571 E0.01766
G1 X148.639 Y23.078 E0.01778
G1 X148.733 Y23.335 E0.00858
G1 X148.864 Y23.887 E0.01778
G1 X148.908 Y24.453 E0.01778
G1 X148.897 Y24.726 E0.00858
G1 X148.809 Y25.290 E0.01791
G1 X148.735 Y25.554 E0.00858
G1 X148.521 Y26.079 E0.01778
G1 X148.230 Y26.561 E0.01766
G1 X147.865 Y26.996 E0.01778
G1 X147.663 Y27.186 E0.00871
G1 X147.447 Y27.361 E0.00871
G1 X146.967 Y27.663 E0.01778
G1 X146.448 Y27.887 E0.01774
G1 X146.125 Y27.979 E0.01054
G1 X145.626 Y28.065 E0.01585
G1 X145.059 Y28.076 E0.01780
G1 X144.786 Y28.049 E0.00858
G1 X144.232 Y27.929 E0.01778
G1 X143.707 Y27.726 E0.01766
G1 X143.216 Y27.443 E0.01778
G1 X142.996 Y27.279 E0.00858
G1 X142.627 Y26.931 E0.01590
G1 X142.711 Y26.511 F10800.000
;LAYER_CHANGE
;Z:0.4
;HEIGHT:0.2
;BEFORE_LAYER_CHANGE
G92 E0.0
;0.4


;WIPE_START
G1 F8640.000
G1 X142.237 Y26.443 E-0.14434
G1 X142.067 Y26.153 E-0.07759
G1 X141.858 Y25.688 E-0.11770
G1 X141.775 Y25.427 E-0.06329
G1 X141.665 Y24.870 E-0.13096
G1 X141.644 Y24.308 E-0.13002
G1 X141.709 Y23.748 E-0.13002
G1 X141.861 Y23.202 E-0.13096
G1 X141.966 Y22.945 E-0.06412
G1 X142.091 Y22.697 E-0.06412
G1 X142.402 Y22.223 E-0.13096
G1 X142.784 Y21.803 E-0.13096
G1 X142.832 Y21.760 E-0.01494
;WIPE_END
G1 E-0.07000 F2100.000
G1 Z0.400 F10800.000
;AFTER_LAYER_CHANGE
;0.4
M104 S250 ; set temperature
M140 S90 ; set bed temperature
G1 Z0.600
G1 X139.970 Y18.876
G1 Z0.400
G1 E1.40000 F2100.000
;TYPE:Skirt
G1 F900
G1 X141.015 Y18.043 E0.04189
G1 X142.488 Y17.278 E0.05205
G1 X143.749 Y16.909 E0.04121
G1 X145.367 Y16.756 E0.05096
G1 X146.714 Y16.892 E0.04244
G1 X148.310 Y17.380 E0.05233
G1 X149.472 Y18.003 E0.04134
G1 X150.758 Y19.053 E0.05205
G1 X151.600 Y20.073 E0.04148
G1 X152.395 Y21.536 E0.05219
G1 X152.786 Y22.793 E0.04128
G1 X152.967 Y24.449 E0.05225
G1 X152.786 Y26.104 E0.05219
G1 X152.394 Y27.363 E0.04134
G1 X151.599 Y28.825 E0.05219
G1 X150.757 Y29.845 E0.04148
G1 X149.474 Y30.893 E0.05192
G1 X148.308 Y31.518 E0.04148
M73 Q7 S6
G1 X146.712 Y32.005 E0.05233
M73 P7 R6
G1 X145.361 Y32.141 E0.04257
G1 X143.743 Y31.987 E0.05096
G1 X142.470 Y31.612 E0.04162
G1 X140.998 Y30.843 E0.05205
G1 X139.916 Y29.967 E0.04366
G1 X138.888 Y28.737 E0.05028
G1 X138.223 Y27.523 E0.04339
G1 X137.725 Y25.930 E0.05232
G1 X137.584 Y24.272 E0.05219
G1 X137.743 Y22.879 E0.04393
G1 X138.257 Y21.296 E0.05219
G1 X138.906 Y20.133 E0.04175
G1 X139.931 Y18.922 E0.04976
G1 X140.218 Y19.164 F10800.000
G1 F900
G1 X141.218 Y18.361 E0.04022
G1 X142.623 Y17.629 E0.04968
G1 X143.817 Y17.280 E0.03901
G1 X145.367 Y17.133 E0.04879
G1 X146.637 Y17.261 E0.04003
G1 X148.160 Y17.726 E0.04994
G1 X149.261 Y18.315 E0.03914
G1 X150.491 Y19.320 E0.04981
G1 X151.287 Y20.282 E0.03915
G1 X152.047 Y21.681 E0.04992
G1 X152.416 Y22.866 E0.03889
G1 X152.590 Y24.448 E0.04992
G1 X152.484 Y25.684 E0.03889
G1 X152.047 Y27.215 E0.04992
G1 X151.287 Y28.615 E0.04994
G1 X150.492 Y29.577 E0.03914
G1 X149.261 Y30.581 E0.04981
G1 X148.161 Y31.171 E0.03914
G1 X146.637 Y31.635 E0.04994
G1 X145.363 Y31.764 E0.04016
G1 X143.814 Y31.616 E0.04879
G1 X142.612 Y31.263 E0.03927
G1 X141.205 Y30.527 E0.04981
G1 X140.183 Y29.701 E0.04118
G1 X139.201 Y28.527 E0.04802
M73 P8 R6
M73 Q8 S6
G1 X138.571 Y27.378 E0.04107
G1 X138.095 Y25.859 E0.04992
G1 X137.961 Y24.272 E0.04994
G1 X138.112 Y22.959 E0.04144
G1 X138.604 Y21.444 E0.04994
G1 X139.217 Y20.347 E0.03939
G1 X140.179 Y19.210 E0.04670
G1 X140.466 Y19.452 F10800.000
G1 F900
G1 X141.422 Y18.678 E0.03858
G1 X142.763 Y17.980 E0.04743
G1 X143.886 Y17.651 E0.03669
