; generated by PrusaSlicer 2.3.0+win64 on 2021-05-04 at 02:12:13 UTC

; 

; external perimeters extrusion width = 0.60mm
; perimeters extrusion width = 0.50mm
; infill extrusion width = 0.50mm
; solid infill extrusion width = 0.50mm
; top infill extrusion width = 0.45mm
; support material extrusion width = 0.38mm
; first layer extrusion width = 0.42mm

M73 P0 R58
M73 Q0 S58
M201 X1000 Y1000 Z200 E5000 ; sets maximum accelerations, mm/sec^2
M203 X200 Y200 Z12 E120 ; sets maximum feedrates, mm/sec
M204 P1250 R1250 T1250 ; sets acceleration (P, T) and retract acceleration (R), mm/sec^2
M205 X8.00 Y8.00 Z0.40 E4.50 ; sets the jerk limits, mm/sec
M205 S0 T0 ; sets the minimum extruding and travel feed rate, mm/sec
M107
;TYPE:Custom
M862.3 P "MK3S" ; printer model check
M862.1 P0.4 ; nozzle diameter check
M115 U3.9.1 ; tell printer latest fw version
G90 ; use absolute coordinates
M83 ; extruder relative mode
M104 S240 ; set extruder temp
M140 S85 ; set bed temp
M190 S85 ; wait for bed temp
M109 S240 ; wait for extruder temp
G28 W ; home all without mesh bed level
G80 ; mesh bed leveling
G1 Y-3.0 F1000.0 ; go outside print area
G92 E0.0
G1 X60.0 E9.0 F1000.0 ; intro line
G1 X100.0 E12.5 F1000.0 ; intro line
G92 E0.0
M221 S95

; Don't change E values below. Excessive value can damage the printer.

M907 E538 ; set extruder motor current
G21 ; set units to millimeters
G90 ; use absolute coordinates
M83 ; use relative distances for extrusion
M900 K0.08 ; Filament gcode LA 1.5
M900 K45 ; Filament gcode LA 1.0
;LAYER_CHANGE
;Z:0.2
;HEIGHT:0.2
;BEFORE_LAYER_CHANGE
G92 E0.0
;0.2


G1 E-1.40000 F2100.000
G1 Z0.200 F10800.000
;AFTER_LAYER_CHANGE
;0.2
G1 Z0.400
G1 X162.865 Y117.656
G1 Z0.200
G1 E1.40000 F2100.000
M204 S1000
;TYPE:Skirt
;WIDTH:0.42
G1 F1200.000
G1 X163.459 Y116.969 E0.02848
G1 X164.472 Y116.081 E0.04223
G1 X165.234 Y115.581 E0.02858
G1 X166.148 Y115.133 E0.03191
G1 X167.113 Y114.806 E0.03194
G1 X168.082 Y114.609 E0.03100
G1 X169.169 Y114.532 E0.03417
G1 X187.609 Y114.532 E0.57818
G1 X188.792 Y114.592 E0.03715
G1 X189.879 Y114.754 E0.03446
G1 X191.249 Y115.106 E0.04435
G1 X192.279 Y115.489 E0.03446
G1 X193.346 Y116.008 E0.03720
G1 X194.358 Y116.634 E0.03732
G1 X195.223 Y117.293 E0.03410
G1 X214.208 Y134.961 E0.81313
G1 X214.910 Y135.826 E0.03493
G1 X215.527 Y136.873 E0.03812
G1 X215.946 Y137.897 E0.03468
G1 X216.184 Y138.770 E0.02838
G1 X216.316 Y139.685 E0.02897
G1 X216.333 Y140.897 E0.03801
G1 X216.185 Y141.993 E0.03469
G1 X215.885 Y143.062 E0.03481
G1 X215.396 Y144.154 E0.03752
G1 X214.901 Y144.958 E0.02958
G1 X214.323 Y145.679 E0.02897
G1 X213.468 Y146.505 E0.03730
G1 X190.561 Y166.051 E0.94414
G1 X189.639 Y166.742 E0.03612
G1 X188.874 Y167.183 E0.02769
G1 X188.000 Y167.553 E0.02976
G1 X186.873 Y167.865 E0.03667
G1 X185.712 Y168.004 E0.03667
G1 X160.323 Y167.998 E0.79603
M73 P0 R57
G1 X158.927 Y167.789 E0.04427
G1 X158.030 Y167.521 E0.02936
G1 X156.988 Y167.046 E0.03588
G1 X156.117 Y166.497 E0.03231
G1 X155.190 Y165.702 E0.03828
G1 X154.586 Y165.035 E0.02822
G1 X154.054 Y164.279 E0.02896
G1 X153.546 Y163.327 E0.03384
G1 X153.133 Y162.191 E0.03790
G1 X152.917 Y161.133 E0.03386
G1 X152.846 Y160.029 E0.03469
G1 X152.918 Y159.017 E0.03183
G1 X161.489 Y120.496 E1.23733
G1 X161.836 Y119.449 E0.03457
G1 X162.307 Y118.492 E0.03345
G1 X162.832 Y117.706 E0.02963
;WIPE_START
G1 F8640.000
G1 X163.459 Y116.969 E-0.22349
G1 X164.472 Y116.081 E-0.31101
G1 X165.234 Y115.581 E-0.21050
G1 X166.148 Y115.133 E-0.23502
G1 X167.113 Y114.806 E-0.23523
G1 X167.600 Y114.707 E-0.11475
;WIPE_END
G1 E-0.07000 F2100.000
G1 Z0.400 F10800.000
G1 X189.549 Y142.226
G1 Z0.200
G1 E1.40000 F2100.000
;TYPE:Perimeter
G1 F1200.000
G1 X190.063 Y141.735 E0.02229
G1 X190.656 Y141.343 E0.02229
G1 X191.310 Y141.064 E0.02229
G1 X192.003 Y140.906 E0.02229
G1 X192.713 Y140.874 E0.02229
G1 X193.418 Y140.969 E0.02229
G1 X194.094 Y141.189 E0.02229
G1 X194.720 Y141.526 E0.02229
G1 X195.276 Y141.969 E0.02229
G1 X195.743 Y142.505 E0.02229
G1 X196.108 Y143.115 E0.02229
G1 X196.358 Y143.780 E0.02229
G1 X196.485 Y144.480 E0.02229
G1 X196.485 Y145.191 E0.02229
G1 X196.358 Y145.890 E0.02229
G1 X196.108 Y146.556 E0.02229
G1 X195.743 Y147.166 E0.02229
G1 X195.276 Y147.701 E0.02229
G1 X194.720 Y148.145 E0.02229
G1 X194.094 Y148.481 E0.02229
G1 X193.418 Y148.701 E0.02229
G1 X192.713 Y148.797 E0.02229
G1 X192.003 Y148.765 E0.02229
G1 X191.310 Y148.606 E0.02229
G1 X190.656 Y148.327 E0.02229
G1 X190.063 Y147.935 E0.02229
G1 X189.549 Y147.444 E0.02229
G1 X189.131 Y146.869 E0.02229
G1 X188.823 Y146.229 E0.02229
G1 X188.634 Y145.543 E0.02229
G1 X188.570 Y144.835 E0.02229
G1 X188.634 Y144.127 E0.02229
G1 X188.823 Y143.442 E0.02229
G1 X189.131 Y142.801 E0.02229
G1 X189.514 Y142.275 E0.02041
G1 X189.819 Y142.497 F10800.000
;TYPE:External perimeter
G1 F1200.000
G1 X190.299 Y142.031 E0.02097
G1 X190.836 Y141.677 E0.02016
G1 X191.427 Y141.424 E0.02016
G1 X192.054 Y141.281 E0.02016
G1 X192.696 Y141.252 E0.02016
G1 X193.333 Y141.339 E0.02016
G1 X193.945 Y141.537 E0.02016
G1 X194.511 Y141.842 E0.02016
G1 X195.014 Y142.243 E0.02016
G1 X195.437 Y142.727 E0.02016
G1 X195.767 Y143.279 E0.02016
G1 X195.993 Y143.881 E0.02016
G1 X196.108 Y144.514 E0.02016
G1 X196.108 Y145.157 E0.02016
G1 X195.993 Y145.789 E0.02016
G1 X195.767 Y146.391 E0.02016
G1 X195.437 Y146.943 E0.02016
G1 X195.014 Y147.428 E0.02016
G1 X194.511 Y147.829 E0.02016
G1 X193.945 Y148.133 E0.02016
G1 X193.333 Y148.332 E0.02016
G1 X192.696 Y148.418 E0.02016
G1 X192.054 Y148.389 E0.02016
G1 X191.427 Y148.246 E0.02016
G1 X190.836 Y147.994 E0.02016
G1 X190.299 Y147.639 E0.02016
G1 X189.834 Y147.195 E0.02016
G1 X189.456 Y146.675 E0.02016
G1 X189.177 Y146.096 E0.02016
G1 X189.006 Y145.476 E0.02016
G1 X188.949 Y144.835 E0.02016
G1 X189.006 Y144.195 E0.02016
G1 X189.177 Y143.575 E0.02016
G1 X189.456 Y142.996 E0.02016
G1 X189.784 Y142.545 E0.01746
G1 X189.688 Y142.119 F10800.000
;WIPE_START
G1 F8640.000
G1 X190.299 Y142.031 E-0.16806
G1 X190.836 Y141.677 E-0.14847
G1 X191.427 Y141.424 E-0.14847
G1 X192.054 Y141.281 E-0.14847
G1 X192.696 Y141.252 E-0.14847
G1 X193.333 Y141.339 E-0.14847
G1 X193.945 Y141.537 E-0.14847
G1 X194.511 Y141.842 E-0.14847
G1 X194.926 Y142.173 E-0.12263
;WIPE_END
G1 E-0.07000 F2100.000
G1 Z0.400 F10800.000
G1 X179.732 Y132.276
G1 Z0.200
G1 E1.40000 F2100.000
;TYPE:Perimeter
G1 F1200.000
G1 X179.732 Y154.853 E0.70787
G1 X176.048 Y154.845 E0.11551
G1 X175.799 Y154.829 E0.00782
G1 X176.124 Y155.519 E0.02392
G1 X176.203 Y156.059 E0.01711
G1 X176.134 Y156.592 E0.01685
G1 X175.930 Y157.086 E0.01676
G1 X175.605 Y157.510 E0.01673
G1 X175.182 Y157.834 E0.01673
G1 X174.689 Y158.039 E0.01673
G1 X174.212 Y158.101 E0.01510
G1 X173.108 Y158.101 E0.03459
G1 X172.631 Y158.039 E0.01510
G1 X172.138 Y157.834 E0.01673
G1 X171.715 Y157.510 E0.01673
G1 X171.390 Y157.086 E0.01673
G1 X171.186 Y156.592 E0.01676
G1 X171.117 Y156.059 E0.01685
G1 X171.196 Y155.519 E0.01711
G1 X171.520 Y154.830 E0.02389
G1 X171.293 Y154.845 E0.00714
G1 X168.088 Y154.853 E0.10050
G1 X168.088 Y132.276 E0.70789
G1 X171.293 Y132.284 E0.10050
G1 X171.520 Y132.299 E0.00714
G1 X171.196 Y131.609 E0.02389
G1 X171.117 Y131.069 E0.01711
G1 X171.186 Y130.536 E0.01685
G1 X171.390 Y130.043 E0.01676
G1 X171.715 Y129.619 E0.01673
G1 X172.138 Y129.294 E0.01673
G1 X172.631 Y129.090 E0.01673
G1 X173.108 Y129.027 E0.01510
G1 X174.212 Y129.027 E0.03459
G1 X174.689 Y129.090 E0.01510
G1 X175.182 Y129.294 E0.01673
G1 X175.605 Y129.619 E0.01673
G1 X175.930 Y130.043 E0.01673
G1 X176.134 Y130.536 E0.01676
G1 X176.203 Y131.069 E0.01685
G1 X176.124 Y131.609 E0.01711
G1 X175.799 Y132.300 E0.02392
G1 X176.048 Y132.283 E0.00782
G1 X179.672 Y132.276 E0.11363
;WIPE_START
G1 F8640.000
G1 X179.687 Y138.036 E-1.33000
;WIPE_END
G1 E-0.07000 F2100.000
G1 Z0.400 F10800.000
G1 X175.571 Y131.899
G1 Z0.200
G1 E1.40000 F2100.000
;TYPE:External perimeter
G1 F1200.000
G1 X175.263 Y132.216 E0.01384
G1 X174.884 Y132.399 E0.01320
G1 X174.520 Y132.479 E0.01171
G1 X174.174 Y132.524 E0.01094
G1 X173.146 Y132.524 E0.03222
G1 X172.800 Y132.479 E0.01094
G1 X172.436 Y132.399 E0.01171
G1 X172.057 Y132.216 E0.01320
G1 X171.749 Y131.899 E0.01384
G1 X171.561 Y131.499 E0.01384
G1 X171.498 Y131.066 E0.01373
G1 X171.553 Y130.634 E0.01366
G1 X171.719 Y130.233 E0.01363
G1 X171.984 Y129.888 E0.01362
G1 X172.328 Y129.624 E0.01362
G1 X172.729 Y129.457 E0.01362
G1 X173.133 Y129.404 E0.01277
G1 X174.187 Y129.404 E0.03304
G1 X174.591 Y129.457 E0.01277
G1 X174.992 Y129.624 E0.01362
G1 X175.336 Y129.888 E0.01362
G1 X175.601 Y130.233 E0.01362
G1 X175.767 Y130.634 E0.01363
G1 X175.822 Y131.066 E0.01366
G1 X175.759 Y131.499 E0.01373
G1 X175.596 Y131.845 E0.01196
G1 X175.740 Y132.262 F10800.000
;WIPE_START
G1 F8640.000
G1 X175.263 Y132.216 E-0.11514
G1 X174.884 Y132.399 E-0.09723
G1 X174.520 Y132.479 E-0.08621
G1 X174.174 Y132.524 E-0.08055
G1 X173.146 Y132.524 E-0.23726
G1 X172.800 Y132.479 E-0.08055
G1 X172.436 Y132.399 E-0.08621
G1 X172.057 Y132.216 E-0.09723
G1 X171.749 Y131.899 E-0.10195
G1 X171.561 Y131.499 E-0.10195
G1 X171.498 Y131.066 E-0.10112
G1 X171.553 Y130.634 E-0.10057
G1 X171.626 Y130.458 E-0.04403
;WIPE_END
G1 E-0.07000 F2100.000
G1 Z0.400 F10800.000
G1 X175.263 Y154.913
G1 Z0.200
G1 E1.40000 F2100.000
G1 F1200.000
G1 X175.571 Y155.230 E0.01384
G1 X175.759 Y155.629 E0.01384
G1 X175.822 Y156.062 E0.01373
G1 X175.767 Y156.494 E0.01366
G1 X175.601 Y156.896 E0.01363
G1 X175.336 Y157.241 E0.01362
G1 X174.992 Y157.505 E0.01362
G1 X174.591 Y157.671 E0.01362
G1 X174.187 Y157.724 E0.01277
G1 X173.133 Y157.724 E0.03304
G1 X172.729 Y157.671 E0.01277
G1 X172.328 Y157.505 E0.01362
G1 X171.984 Y157.241 E0.01362
G1 X171.719 Y156.896 E0.01362
G1 X171.553 Y156.494 E0.01363
G1 X171.498 Y156.062 E0.01366
G1 X171.561 Y155.629 E0.01373
G1 X171.749 Y155.230 E0.01384
G1 X172.057 Y154.913 E0.01384
G1 X172.436 Y154.729 E0.01320
G1 X172.800 Y154.650 E0.01171
G1 X173.146 Y154.604 E0.01094
G1 X174.174 Y154.604 E0.03222
G1 X174.520 Y154.650 E0.01094
G1 X174.884 Y154.729 E0.01171
G1 X175.209 Y154.887 E0.01132
G1 X175.632 Y154.757 F10800.000
;WIPE_START
G1 F8640.000
G1 X175.571 Y155.230 E-0.11506
G1 X175.759 Y155.629 E-0.10195
G1 X175.822 Y156.062 E-0.10112
G1 X175.767 Y156.494 E-0.10057
G1 X175.601 Y156.896 E-0.10034
G1 X175.336 Y157.241 E-0.10029
G1 X174.992 Y157.505 E-0.10028
G1 X174.591 Y157.671 E-0.10027
G1 X174.187 Y157.724 E-0.09402
G1 X173.133 Y157.724 E-0.24331
G1 X172.729 Y157.671 E-0.09402
G1 X172.414 Y157.541 E-0.07878
;WIPE_END
G1 E-0.07000 F2100.000
G1 Z0.400 F10800.000
G1 X168.465 Y154.475
G1 Z0.200
G1 E1.40000 F2100.000
G1 F1200.000
G1 X168.465 Y132.654 E0.68418
G1 X171.280 Y132.661 E0.08826
G1 X171.776 Y132.694 E0.01560
G1 X172.729 Y132.852 E0.03026
G1 X174.149 Y132.854 E0.04454
G1 X174.611 Y132.850 E0.01449
G1 X175.564 Y132.693 E0.03029
G1 X176.061 Y132.660 E0.01560
G1 X179.355 Y132.654 E0.10329
G1 X179.355 Y154.475 E0.68418
G1 X176.061 Y154.468 E0.10329
G1 X175.564 Y154.436 E0.01560
G1 X174.612 Y154.279 E0.03027
G1 X173.191 Y154.274 E0.04455
G1 X172.729 Y154.277 E0.01449
G1 X171.776 Y154.434 E0.03027
G1 X171.280 Y154.468 E0.01560
G1 X168.525 Y154.475 E0.08638
G1 X168.065 Y154.476 F10800.000
;WIPE_START
G1 F8640.000
G1 X168.509 Y148.715 E-1.33000
;WIPE_END
G1 E-0.07000 F2100.000
G1 Z0.400 F10800.000
G1 X187.971 Y121.896
G1 Z0.200
G1 E1.40000 F2100.000
;TYPE:Perimeter
G1 F1200.000
G1 X188.721 Y122.013 E0.02381
G1 X189.437 Y122.258 E0.02371
G1 X190.099 Y122.617 E0.02362
G1 X190.693 Y123.079 E0.02361
G1 X191.203 Y123.634 E0.02361
G1 X191.615 Y124.264 E0.02361
G1 X191.918 Y124.954 E0.02361
G1 X192.010 Y125.319 E0.01181
G1 X192.103 Y125.684 E0.01181
G1 X192.165 Y126.434 E0.02361
G1 X192.103 Y127.185 E0.02361
G1 X191.918 Y127.915 E0.02361
G1 X191.615 Y128.605 E0.02361
G1 X191.203 Y129.235 E0.02361
G1 X190.693 Y129.789 E0.02361
G1 X190.099 Y130.252 E0.02361
G1 X189.437 Y130.610 E0.02361
G1 X188.724 Y130.855 E0.02361
G1 X188.353 Y130.917 E0.01181
G1 X187.981 Y130.979 E0.01181
G1 X187.228 Y130.979 E0.02361
G1 X186.485 Y130.855 E0.02361
G1 X185.773 Y130.610 E0.02361
G1 X185.111 Y130.252 E0.02361
G1 X184.516 Y129.789 E0.02361
G1 X184.006 Y129.235 E0.02361
G1 X183.594 Y128.605 E0.02361
G1 X183.292 Y127.915 E0.02361
G1 X183.107 Y127.185 E0.02361
G1 X183.045 Y126.434 E0.02361
G1 X183.107 Y125.684 E0.02361
G1 X183.292 Y124.954 E0.02361
G1 X183.594 Y124.264 E0.02361
G1 X184.006 Y123.634 E0.02361
G1 X184.517 Y123.079 E0.02362
G1 X185.115 Y122.615 E0.02375
G1 X185.687 Y122.316 E0.02025
G1 X185.167 Y121.933 E0.02026
G1 X184.846 Y121.519 E0.01641
G1 X184.646 Y121.040 E0.01629
G1 X184.578 Y120.526 E0.01626
G1 X184.646 Y120.012 E0.01625
G1 X184.844 Y119.533 E0.01624
G1 X185.160 Y119.122 E0.01624
G1 X185.571 Y118.807 E0.01624
G1 X186.049 Y118.609 E0.01624
G1 X186.521 Y118.547 E0.01491
G1 X187.070 Y118.606 E0.01733
G1 X187.555 Y118.807 E0.01646
G1 X187.966 Y119.122 E0.01624
G1 X188.282 Y119.533 E0.01624
G1 X188.480 Y120.012 E0.01625
G1 X188.547 Y120.526 E0.01627
G1 X188.478 Y121.043 E0.01633
G1 X188.272 Y121.525 E0.01646
G1 X188.008 Y121.850 E0.01310
G1 X187.944 Y122.274 F10800.000
;TYPE:External perimeter
G1 F1200.000
G1 X188.630 Y122.381 E0.02176
G1 X189.285 Y122.605 E0.02169
G1 X189.892 Y122.934 E0.02166
G1 X190.437 Y123.358 E0.02165
G1 X190.905 Y123.866 E0.02165
G1 X191.283 Y124.444 E0.02165
G1 X191.560 Y125.077 E0.02165
G1 X191.645 Y125.411 E0.01083
G1 X191.730 Y125.746 E0.01083
G1 X191.787 Y126.434 E0.02165
G1 X191.730 Y127.123 E0.02165
G1 X191.560 Y127.792 E0.02165
G1 X191.283 Y128.425 E0.02165
G1 X190.905 Y129.003 E0.02165
G1 X190.437 Y129.511 E0.02165
G1 X189.892 Y129.935 E0.02165
G1 X189.285 Y130.264 E0.02165
G1 X188.631 Y130.488 E0.02165
G1 X188.291 Y130.545 E0.01083
G1 X187.950 Y130.602 E0.01083
G1 X187.260 Y130.602 E0.02165
G1 X186.578 Y130.488 E0.02165
G1 X185.925 Y130.264 E0.02165
G1 X185.318 Y129.935 E0.02165
G1 X184.773 Y129.511 E0.02165
G1 X184.539 Y129.257 E0.01083
G1 X184.305 Y129.003 E0.01083
G1 X183.927 Y128.425 E0.02165
G1 X183.650 Y127.792 E0.02165
G1 X183.480 Y127.123 E0.02165
G1 X183.423 Y126.434 E0.02165
G1 X183.480 Y125.746 E0.02165
G1 X183.650 Y125.077 E0.02165
G1 X183.927 Y124.444 E0.02165
G1 X184.305 Y123.866 E0.02165
M73 Q1 S58
G1 X184.773 Y123.358 E0.02166
G1 X185.319 Y122.933 E0.02170
G1 X185.938 Y122.610 E0.02190
G1 X186.601 Y122.442 E0.02144
G1 X187.252 Y122.324 E0.02072
G1 X187.884 Y122.276 E0.01990
M73 P1 R57
G1 X188.165 Y121.940 F10800.000
G1 X187.333 Y121.891
G1 F1200.000
G1 X186.951 Y122.008 E0.01250
G1 X186.576 Y122.063 E0.01189
G1 X186.170 Y122.055 E0.01274
G1 X185.772 Y121.910 E0.01330
G1 X185.432 Y121.660 E0.01321
G1 X185.175 Y121.328 E0.01318
G1 X185.014 Y120.941 E0.01315
G1 X184.959 Y120.526 E0.01313
G1 X185.013 Y120.110 E0.01313
G1 X185.174 Y119.723 E0.01313
G1 X185.429 Y119.391 E0.01313
G1 X185.761 Y119.136 E0.01313
G1 X186.148 Y118.976 E0.01313
G1 X186.525 Y118.926 E0.01193
G1 X186.976 Y118.975 E0.01422
G1 X187.365 Y119.136 E0.01321
G1 X187.697 Y119.391 E0.01313
G1 X187.952 Y119.723 E0.01313
G1 X188.112 Y120.110 E0.01313
G1 X188.167 Y120.526 E0.01314
G1 X188.111 Y120.942 E0.01316
G1 X187.946 Y121.329 E0.01319
G1 X187.680 Y121.656 E0.01321
G1 X187.382 Y121.858 E0.01129
G1 X187.301 Y122.289 F10800.000
;WIPE_START
G1 F8640.000
G1 X186.951 Y122.008 E-0.10535
G1 X186.576 Y122.063 E-0.08754
G1 X186.170 Y122.055 E-0.09381
G1 X185.772 Y121.910 E-0.09793
G1 X185.432 Y121.660 E-0.09725
G1 X185.175 Y121.328 E-0.09708
G1 X185.014 Y120.941 E-0.09681
G1 X184.959 Y120.526 E-0.09672
G1 X185.013 Y120.110 E-0.09670
G1 X185.174 Y119.723 E-0.09670
G1 X185.429 Y119.391 E-0.09670
G1 X185.761 Y119.136 E-0.09669
G1 X186.148 Y118.976 E-0.09670
G1 X186.466 Y118.934 E-0.07403
;WIPE_END
G1 E-0.07000 F2100.000
G1 Z0.400 F10800.000
G1 X188.483 Y117.742
G1 Z0.200
G1 E1.40000 F2100.000
;TYPE:Perimeter
G1 F1200.000
G1 X189.352 Y117.874 E0.02757
G1 X190.204 Y118.093 E0.02757
G1 X191.029 Y118.397 E0.02757
G1 X191.820 Y118.782 E0.02757
G1 X192.568 Y119.244 E0.02757
G1 X193.266 Y119.779 E0.02757
G1 X193.906 Y120.382 E0.02757
G1 X194.482 Y121.046 E0.02757
G1 X194.989 Y121.765 E0.02757
G1 X195.421 Y122.531 E0.02757
