; generated by PrusaSlicer 2.3.0+win64 on 2021-05-04 at 00:50:13 UTC

; 

; external perimeters extrusion width = 0.60mm
; perimeters extrusion width = 0.50mm
; infill extrusion width = 0.50mm
; solid infill extrusion width = 0.50mm
; top infill extrusion width = 0.45mm
; support material extrusion width = 0.38mm
; first layer extrusion width = 0.42mm

M73 P0 R57
M73 Q0 S58
M201 X1000 Y1000 Z200 E5000 ; sets maximum accelerations, mm/sec^2
M203 X200 Y200 Z12 E120 ; sets maximum feedrates, mm/sec
M204 P1250 R1250 T1250 ; sets acceleration (P, T) and retract acceleration (R), mm/sec^2
M205 X8.00 Y8.00 Z0.40 E4.50 ; sets the jerk limits, mm/sec
M205 S0 T0 ; sets the minimum extruding and travel feed rate, mm/sec
M107
;TYPE:Custom
M862.3 P "MK3S" ; printer model check
M862.1 P0.4 ; nozzle diameter check
M115 U3.9.1 ; tell printer latest fw version
G90 ; use absolute coordinates
M83 ; extruder relative mode
M104 S240 ; set extruder temp
M140 S85 ; set bed temp
M190 S85 ; wait for bed temp
M109 S240 ; wait for extruder temp
G28 W ; home all without mesh bed level
G80 ; mesh bed leveling
G1 Y-3.0 F1000.0 ; go outside print area
G92 E0.0
G1 X60.0 E9.0 F1000.0 ; intro line
M73 Q0 S57
G1 X100.0 E12.5 F1000.0 ; intro line
G92 E0.0
M221 S95

; Don't change E values below. Excessive value can damage the printer.

M907 E538 ; set extruder motor current
G21 ; set units to millimeters
G90 ; use absolute coordinates
M83 ; use relative distances for extrusion
M900 K0.08 ; Filament gcode LA 1.5
M900 K45 ; Filament gcode LA 1.0
;LAYER_CHANGE
;Z:0.2
;HEIGHT:0.2
;BEFORE_LAYER_CHANGE
G92 E0.0
;0.2


G1 E-1.40000 F2100.000
G1 Z0.200 F10800.000
;AFTER_LAYER_CHANGE
;0.2
G1 Z0.400
G1 X187.574 Y115.797
G1 Z0.200
G1 E1.40000 F2100.000
M204 S1000
;TYPE:Skirt
;WIDTH:0.42
G1 F1200.000
G1 X188.415 Y114.599 E0.04588
G1 X189.228 Y113.760 E0.03664
G1 X190.160 Y113.061 E0.03652
G1 X191.503 Y112.356 E0.04756
G1 X192.928 Y111.933 E0.04661
G1 X194.457 Y111.778 E0.04819
G1 X212.908 Y111.778 E0.57851
G1 X214.843 Y111.937 E0.06087
G1 X216.730 Y112.410 E0.06099
G1 X218.515 Y113.183 E0.06099
G1 X220.150 Y114.237 E0.06099
G1 X239.484 Y132.182 E0.82707
G1 X240.292 Y133.191 E0.04056
G1 X240.945 Y134.361 E0.04201
G1 X241.392 Y135.627 E0.04208
G1 X241.618 Y136.936 E0.04164
G1 X241.622 Y138.295 E0.04262
G1 X241.399 Y139.606 E0.04171
G1 X240.958 Y140.869 E0.04194
G1 X240.364 Y141.957 E0.03888
G1 X239.478 Y143.086 E0.04500
G1 X238.580 Y143.895 E0.03788
G1 X215.471 Y163.614 E0.95250
G1 X214.259 Y164.384 E0.04502
G1 X213.118 Y164.858 E0.03873
G1 X211.689 Y165.190 E0.04600
G1 X210.438 Y165.255 E0.03929
G1 X185.792 Y165.255 E0.77277
G1 X184.238 Y165.036 E0.04918
G1 X183.111 Y164.683 E0.03705
G1 X181.958 Y164.104 E0.04046
G1 X180.862 Y163.301 E0.04258
G1 X180.027 Y162.446 E0.03747
G1 X179.074 Y161.038 E0.05330
G1 X178.591 Y159.944 E0.03749
G1 X178.259 Y158.659 E0.04163
G1 X178.145 Y157.336 E0.04163
G1 X178.240 Y156.118 E0.03831
G1 X186.678 Y118.241 E1.21672
G1 X186.999 Y117.051 E0.03867
G1 X187.549 Y115.851 E0.04137
;WIPE_START
G1 F8640.000
G1 X188.415 Y114.599 E-0.35154
G1 X189.228 Y113.760 E-0.26983
G1 X190.160 Y113.061 E-0.26891
G1 X191.503 Y112.356 E-0.35028
G1 X191.874 Y112.246 E-0.08943
;WIPE_END
G1 E-0.07000 F2100.000
G1 Z0.400 F10800.000
G1 X214.750 Y139.590
G1 Z0.200
G1 E1.40000 F2100.000
;TYPE:Perimeter
G1 F1200.000
G1 X215.215 Y139.105 E0.02109
G1 X215.756 Y138.705 E0.02109
G1 X216.356 Y138.402 E0.02109
G1 X216.999 Y138.205 E0.02109
G1 X217.631 Y138.124 E0.01995
G1 X218.336 Y138.148 E0.02212
G1 X218.996 Y138.290 E0.02117
G1 X219.620 Y138.541 E0.02109
G1 X220.192 Y138.893 E0.02109
G1 X220.697 Y139.338 E0.02109
G1 X221.120 Y139.861 E0.02109
G1 X221.448 Y140.448 E0.02109
G1 X221.672 Y141.082 E0.02109
G1 X221.785 Y141.741 E0.02095
G1 X221.785 Y142.422 E0.02135
G1 X221.672 Y143.080 E0.02095
G1 X221.448 Y143.714 E0.02109
G1 X221.120 Y144.301 E0.02109
G1 X220.697 Y144.825 E0.02109
G1 X220.192 Y145.269 E0.02109
G1 X219.620 Y145.621 E0.02109
G1 X218.996 Y145.872 E0.02109
G1 X218.338 Y146.014 E0.02109
G1 X217.667 Y146.042 E0.02109
G1 X217.035 Y145.962 E0.01995
G1 X216.359 Y145.761 E0.02212
G1 X215.756 Y145.457 E0.02117
G1 X215.215 Y145.057 E0.02109
G1 X214.750 Y144.572 E0.02109
G1 X214.373 Y144.015 E0.02109
G1 X214.096 Y143.402 E0.02109
G1 X213.927 Y142.751 E0.02109
G1 X213.870 Y142.081 E0.02109
G1 X213.927 Y141.411 E0.02109
G1 X214.096 Y140.760 E0.02109
G1 X214.373 Y140.147 E0.02109
G1 X214.716 Y139.640 E0.01920
G1 X215.029 Y139.851 F10800.000
;TYPE:External perimeter
G1 F1200.000
G1 X215.465 Y139.389 E0.01994
G1 X215.954 Y139.027 E0.01907
G1 X216.498 Y138.753 E0.01907
G1 X217.079 Y138.575 E0.01907
G1 X217.649 Y138.502 E0.01800
G1 X218.289 Y138.523 E0.02010
G1 X218.885 Y138.652 E0.01910
G1 X219.449 Y138.879 E0.01907
G1 X219.967 Y139.198 E0.01907
G1 X220.424 Y139.599 E0.01907
G1 X220.806 Y140.073 E0.01907
G1 X221.103 Y140.604 E0.01907
G1 X221.306 Y141.177 E0.01907
G1 X221.408 Y141.773 E0.01894
G1 X221.408 Y142.389 E0.01934
G1 X221.306 Y142.985 E0.01894
G1 X221.103 Y143.558 E0.01907
G1 X220.806 Y144.089 E0.01907
G1 X220.424 Y144.563 E0.01907
G1 X219.967 Y144.965 E0.01907
G1 X219.449 Y145.284 E0.01907
G1 X218.885 Y145.510 E0.01907
G1 X218.290 Y145.638 E0.01907
G1 X217.683 Y145.664 E0.01907
G1 X217.113 Y145.591 E0.01800
G1 X216.498 Y145.409 E0.02010
G1 X215.954 Y145.135 E0.01910
G1 X215.465 Y144.773 E0.01907
G1 X215.044 Y144.334 E0.01907
G1 X214.704 Y143.830 E0.01907
G1 X214.453 Y143.276 E0.01907
G1 X214.300 Y142.687 E0.01907
G1 X214.248 Y142.081 E0.01907
G1 X214.300 Y141.475 E0.01907
G1 X214.453 Y140.886 E0.01907
G1 X214.704 Y140.332 E0.01907
G1 X214.995 Y139.901 E0.01632
G1 X214.883 Y139.479 F10800.000
;WIPE_START
G1 F8640.000
G1 X215.465 Y139.389 E-0.16050
G1 X215.954 Y139.027 E-0.14046
G1 X216.498 Y138.753 E-0.14046
G1 X217.079 Y138.575 E-0.14046
G1 X217.649 Y138.502 E-0.13254
G1 X218.289 Y138.523 E-0.14805
G1 X218.885 Y138.652 E-0.14069
G1 X219.449 Y138.879 E-0.14046
G1 X219.967 Y139.198 E-0.14046
G1 X220.117 Y139.329 E-0.04592
;WIPE_END
G1 E-0.07000 F2100.000
G1 Z0.400 F10800.000
G1 X202.842 Y131.595
G1 Z0.200
G1 E1.40000 F2100.000
;TYPE:Perimeter
G1 F1200.000
G1 X202.842 Y153.671 E0.69218
G1 X200.130 Y153.667 E0.08502
G1 X199.613 Y153.644 E0.01623
G1 X199.296 Y153.600 E0.01005
G1 X199.465 Y154.021 E0.01423
G1 X199.524 Y154.337 E0.01008
G1 X199.515 Y154.661 E0.01017
G1 X199.442 Y154.968 E0.00987
G1 X199.319 Y155.251 E0.00968
G1 X199.148 Y155.506 E0.00962
G1 X198.938 Y155.726 E0.00956
G1 X198.693 Y155.907 E0.00953
G1 X198.422 Y156.044 E0.00952
G1 X198.132 Y156.133 E0.00952
G1 X197.831 Y156.171 E0.00952
G1 X197.527 Y156.158 E0.00952
G1 X197.231 Y156.095 E0.00952
G1 X196.949 Y155.981 E0.00952
G1 X196.690 Y155.822 E0.00953
G1 X196.462 Y155.621 E0.00954
G1 X196.271 Y155.382 E0.00959
G1 X196.123 Y155.113 E0.00964
G1 X196.024 Y154.817 E0.00978
G1 X195.982 Y154.503 E0.00992
G1 X196.008 Y154.175 E0.01031
G1 X196.098 Y153.863 E0.01019
G1 X196.252 Y153.595 E0.00968
G1 X195.896 Y153.644 E0.01125
G1 X195.379 Y153.667 E0.01623
M73 P0 R56
G1 X192.668 Y153.671 E0.08502
G1 X192.668 Y131.595 E0.69218
G1 X195.379 Y131.600 E0.08502
G1 X195.897 Y131.622 E0.01623
G1 X196.252 Y131.671 E0.01124
G1 X196.090 Y131.392 E0.01011
G1 X195.984 Y130.929 E0.01488
G1 X196.019 Y130.466 E0.01456
G1 X196.123 Y130.155 E0.01029
G1 X196.271 Y129.885 E0.00964
G1 X196.462 Y129.647 E0.00959
G1 X196.690 Y129.446 E0.00954
G1 X196.949 Y129.286 E0.00953
G1 X197.231 Y129.173 E0.00952
G1 X197.527 Y129.109 E0.00952
G1 X197.831 Y129.096 E0.00952
G1 X198.132 Y129.135 E0.00952
G1 X198.422 Y129.224 E0.00952
G1 X198.693 Y129.360 E0.00952
G1 X198.938 Y129.541 E0.00953
G1 X199.148 Y129.762 E0.00956
G1 X199.319 Y130.017 E0.00962
G1 X199.442 Y130.300 E0.00968
G1 X199.515 Y130.606 E0.00988
G1 X199.524 Y130.930 E0.01017
G1 X199.465 Y131.246 E0.01008
G1 X199.295 Y131.666 E0.01418
G1 X199.613 Y131.622 E0.01005
G1 X200.130 Y131.600 E0.01623
G1 X202.782 Y131.595 E0.08314
G1 X202.465 Y131.973 F10800.000
;TYPE:External perimeter
G1 F1200.000
G1 X202.465 Y153.293 E0.66850
G1 X200.139 Y153.290 E0.07293
G1 X199.647 Y153.268 E0.01544
G1 X199.150 Y153.200 E0.01572
G1 X198.686 Y153.093 E0.01492
G1 X198.262 Y153.093 E0.01330
G1 X198.221 Y153.267 E0.00560
G1 X198.388 Y153.351 E0.00585
G1 X198.866 Y153.700 E0.01857
G1 X199.011 Y153.903 E0.00782
G1 X199.101 Y154.128 E0.00759
G1 X199.146 Y154.367 E0.00762
G1 X199.139 Y154.612 E0.00770
G1 X199.083 Y154.848 E0.00761
G1 X198.987 Y155.069 E0.00755
G1 X198.853 Y155.269 E0.00754
G1 X198.687 Y155.442 E0.00752
G1 X198.495 Y155.585 E0.00751
G1 X198.281 Y155.693 E0.00751
G1 X198.052 Y155.763 E0.00751
G1 X197.815 Y155.793 E0.00751
G1 X197.576 Y155.783 E0.00751
G1 X197.341 Y155.733 E0.00751
G1 X197.119 Y155.643 E0.00751
G1 X196.915 Y155.518 E0.00751
G1 X196.736 Y155.359 E0.00751
G1 X196.585 Y155.172 E0.00753
G1 X196.470 Y154.961 E0.00755
G1 X196.393 Y154.732 E0.00759
G1 X196.362 Y154.493 E0.00754
G1 X196.381 Y154.243 E0.00788
G1 X196.448 Y154.011 E0.00756
G1 X196.569 Y153.800 E0.00762
G1 X196.728 Y153.623 E0.00748
G1 X197.281 Y153.254 E0.02083
G1 X197.232 Y153.093 E0.00526
G1 X196.823 Y153.093 E0.01281
G1 X196.359 Y153.200 E0.01492
G1 X195.863 Y153.268 E0.01572
G1 X195.371 Y153.290 E0.01544
G1 X193.045 Y153.293 E0.07293
G1 X193.045 Y131.973 E0.66850
G1 X195.371 Y131.977 E0.07293
G1 X195.863 Y131.998 E0.01544
G1 X196.359 Y132.066 E0.01572
G1 X196.823 Y132.173 E0.01492
G1 X197.230 Y132.173 E0.01275
G1 X197.278 Y132.013 E0.00526
G1 X196.729 Y131.644 E0.02075
G1 X196.569 Y131.467 E0.00747
G1 X196.445 Y131.252 E0.00780
G1 X196.364 Y130.901 E0.01131
G1 X196.391 Y130.542 E0.01129
G1 X196.470 Y130.307 E0.00777
G1 X196.585 Y130.095 E0.00754
G1 X196.736 Y129.908 E0.00753
G1 X196.915 Y129.750 E0.00751
G1 X197.119 Y129.624 E0.00751
G1 X197.341 Y129.535 E0.00751
G1 X197.576 Y129.484 E0.00751
G1 X197.815 Y129.474 E0.00751
G1 X198.052 Y129.505 E0.00751
G1 X198.281 Y129.575 E0.00751
G1 X198.495 Y129.683 E0.00751
G1 X198.687 Y129.825 E0.00751
G1 X198.853 Y129.999 E0.00752
G1 X198.987 Y130.198 E0.00754
G1 X199.083 Y130.419 E0.00755
G1 X199.139 Y130.656 E0.00761
G1 X199.146 Y130.901 E0.00770
G1 X199.101 Y131.140 E0.00762
G1 X199.010 Y131.364 E0.00759
G1 X198.864 Y131.569 E0.00790
G1 X198.389 Y131.916 E0.01844
G1 X198.224 Y131.999 E0.00581
G1 X198.265 Y132.173 E0.00560
G1 X198.687 Y132.173 E0.01322
G1 X199.150 Y132.066 E0.01492
G1 X199.647 Y131.998 E0.01572
G1 X200.139 Y131.977 E0.01544
G1 X202.405 Y131.973 E0.07105
G1 X202.865 Y131.971 F10800.000
;WIPE_START
G1 F8640.000
G1 X202.421 Y137.733 E-1.33000
;WIPE_END
G1 E-0.07000 F2100.000
G1 Z0.400 F10800.000
G1 X213.290 Y119.121
G1 Z0.200
G1 E1.40000 F2100.000
;TYPE:Perimeter
G1 F1200.000
G1 X214.238 Y119.319 E0.03036
G1 X214.957 Y119.608 E0.02431
G1 X215.616 Y120.014 E0.02425
G1 X216.197 Y120.525 E0.02425
G1 X216.682 Y121.127 E0.02425
G1 X217.060 Y121.802 E0.02425
G1 X217.317 Y122.531 E0.02425
G1 X217.445 Y123.277 E0.02372
G1 X217.462 Y123.680 E0.01266
G1 X217.445 Y124.083 E0.01266
G1 X217.317 Y124.829 E0.02372
G1 X217.060 Y125.559 E0.02425
G1 X216.682 Y126.234 E0.02425
G1 X216.197 Y126.836 E0.02425
G1 X215.616 Y127.347 E0.02425
G1 X214.957 Y127.752 E0.02425
G1 X214.240 Y128.041 E0.02425
G1 X213.484 Y128.203 E0.02425
G1 X212.711 Y128.236 E0.02425
G1 X211.944 Y128.138 E0.02425
G1 X211.204 Y127.912 E0.02425
G1 X210.513 Y127.563 E0.02425
G1 X210.210 Y127.339 E0.01182
G1 X209.891 Y127.103 E0.01243
G1 X209.356 Y126.545 E0.02425
G1 X208.923 Y125.904 E0.02425
G1 X208.605 Y125.199 E0.02425
G1 X208.410 Y124.451 E0.02425
G1 X208.344 Y123.680 E0.02425
G1 X208.410 Y122.909 E0.02425
G1 X208.605 Y122.161 E0.02425
G1 X208.923 Y121.456 E0.02425
G1 X209.356 Y120.815 E0.02425
G1 X209.892 Y120.257 E0.02427
G1 X210.519 Y119.794 E0.02445
G1 X210.995 Y119.567 E0.01651
G1 X210.563 Y119.262 E0.01658
G1 X210.325 Y119.018 E0.01069
G1 X210.134 Y118.738 E0.01061
G1 X209.995 Y118.431 E0.01057
G1 X209.910 Y118.106 E0.01054
G1 X209.882 Y117.771 E0.01054
G1 X209.910 Y117.437 E0.01053
G1 X209.995 Y117.112 E0.01053
G1 X210.133 Y116.805 E0.01053
G1 X210.321 Y116.527 E0.01053
G1 X210.554 Y116.285 E0.01053
G1 X210.824 Y116.085 E0.01053
G1 X211.124 Y115.934 E0.01053
G1 X211.445 Y115.835 E0.01053
G1 X211.751 Y115.796 E0.00967
G1 X212.110 Y115.806 E0.01125
G1 X212.442 Y115.878 E0.01067
G1 X212.754 Y116.003 E0.01053
G1 X213.040 Y116.179 E0.01053
G1 X213.292 Y116.401 E0.01053
G1 X213.503 Y116.662 E0.01053
G1 X213.667 Y116.956 E0.01053
G1 X213.779 Y117.272 E0.01053
G1 X213.835 Y117.599 E0.01040
G1 X213.835 Y117.944 E0.01080
G1 X213.778 Y118.273 E0.01047
G1 X213.663 Y118.590 E0.01058
G1 X213.493 Y118.891 E0.01084
G1 X213.330 Y119.076 E0.00776
G1 X213.429 Y119.536 F10800.000
;TYPE:External perimeter
G1 F1200.000
G1 X214.128 Y119.682 E0.02238
G1 X214.787 Y119.946 E0.02226
G1 X215.391 Y120.318 E0.02224
G1 X215.923 Y120.787 E0.02224
G1 X216.369 Y121.338 E0.02224
G1 X216.715 Y121.958 E0.02224
G1 X216.951 Y122.626 E0.02224
G1 X217.070 Y123.317 E0.02196
G1 X217.085 Y123.680 E0.01140
G1 X217.070 Y124.043 E0.01140
G1 X216.951 Y124.734 E0.02196
G1 X216.715 Y125.403 E0.02224
G1 X216.369 Y126.022 E0.02224
G1 X215.923 Y126.574 E0.02224
G1 X215.391 Y127.042 E0.02224
G1 X214.787 Y127.414 E0.02224
G1 X214.129 Y127.679 E0.02224
G1 X213.435 Y127.828 E0.02224
G1 X212.727 Y127.858 E0.02224
G1 X212.023 Y127.768 E0.02224
G1 X211.345 Y127.560 E0.02224
G1 X210.712 Y127.241 E0.02224
G1 X210.434 Y127.036 E0.01082
G1 X210.141 Y126.819 E0.01142
G1 X209.651 Y126.307 E0.02224
G1 X209.254 Y125.720 E0.02224
G1 X208.961 Y125.073 E0.02224
G1 X208.783 Y124.387 E0.02224
G1 X208.722 Y123.680 E0.02224
G1 X208.783 Y122.973 E0.02224
G1 X208.961 Y122.287 E0.02224
G1 X209.254 Y121.641 E0.02224
G1 X209.651 Y121.053 E0.02224
G1 X210.142 Y120.541 E0.02224
G1 X210.714 Y120.119 E0.02231
G1 X211.363 Y119.809 E0.02253
G1 X212.716 Y119.539 E0.04328
G1 X213.369 Y119.536 E0.02048
G1 X213.661 Y119.209 F10800.000
G1 X212.900 Y118.961
G1 F1200.000
G1 X212.792 Y119.049 E0.00437
G1 X212.546 Y119.173 E0.00862
G1 X212.293 Y119.243 E0.00822
G1 X211.820 Y119.311 E0.01498
G1 X211.550 Y119.309 E0.00847
G1 X211.283 Y119.243 E0.00864
G1 X211.033 Y119.133 E0.00856
G1 X210.808 Y118.974 E0.00863
G1 X210.618 Y118.778 E0.00857
G1 X210.464 Y118.553 E0.00854
G1 X210.352 Y118.305 E0.00853
G1 X210.283 Y118.042 E0.00852
G1 X210.260 Y117.771 E0.00852
G1 X210.283 Y117.501 E0.00852
G1 X210.352 Y117.238 E0.00852
G1 X210.464 Y116.990 E0.00852
G1 X210.616 Y116.765 E0.00852
G1 X210.804 Y116.569 E0.00852
G1 X211.022 Y116.407 E0.00852
G1 X211.265 Y116.285 E0.00852
G1 X211.525 Y116.205 E0.00852
G1 X211.770 Y116.174 E0.00774
G1 X212.064 Y116.182 E0.00924
G1 X212.332 Y116.239 E0.00857
G1 X212.584 Y116.341 E0.00852
G1 X212.815 Y116.483 E0.00852
G1 X213.019 Y116.663 E0.00852
G1 X213.190 Y116.874 E0.00852
G1 X213.322 Y117.111 E0.00852
G1 X213.413 Y117.368 E0.00852
G1 X213.458 Y117.631 E0.00839
G1 X213.458 Y117.911 E0.00879
G1 X213.412 Y118.176 E0.00841
G1 X213.320 Y118.432 E0.00853
G1 X213.184 Y118.671 E0.00862
G1 X212.946 Y118.923 E0.01088
G1 X212.932 Y119.097 F10800.000
;WIPE_START
G1 F8640.000
G1 X212.792 Y119.049 E-0.04606
G1 X212.546 Y119.173 E-0.06348
G1 X212.293 Y119.243 E-0.06056
G1 X211.820 Y119.311 E-0.11031
G1 X211.550 Y119.309 E-0.06241
G1 X211.283 Y119.243 E-0.06359
G1 X211.033 Y119.133 E-0.06305
G1 X210.808 Y118.974 E-0.06353
G1 X210.618 Y118.778 E-0.06310
G1 X210.464 Y118.553 E-0.06292
G1 X210.352 Y118.305 E-0.06283
G1 X210.283 Y118.042 E-0.06276
G1 X210.260 Y117.771 E-0.06275
G1 X210.283 Y117.501 E-0.06274
G1 X210.352 Y117.238 E-0.06274
G1 X210.464 Y116.990 E-0.06274
G1 X210.616 Y116.765 E-0.06275
G1 X210.804 Y116.569 E-0.06274
G1 X211.022 Y116.407 E-0.06274
G1 X211.265 Y116.285 E-0.06274
G1 X211.445 Y116.230 E-0.04345
;WIPE_END
G1 E-0.07000 F2100.000
G1 Z0.400 F10800.000
G1 X214.327 Y115.062
G1 Z0.200
G1 E1.40000 F2100.000
;TYPE:Perimeter
G1 F1200.000
G1 X215.712 Y115.408 E0.04476
G1 X217.022 Y115.976 E0.04476
G1 X218.222 Y116.750 E0.04476
G1 X219.280 Y117.709 E0.04476
G1 X220.167 Y118.827 E0.04476
G1 X220.861 Y120.075 E0.04476
G1 X221.353 Y121.450 E0.04578
