; generated by PrusaSlicer 2.3.0+win64 on 2021-05-04 at 06:24:09 UTC

; 

; external perimeters extrusion width = 0.60mm
; perimeters extrusion width = 0.50mm
; infill extrusion width = 0.50mm
; solid infill extrusion width = 0.50mm
; top infill extrusion width = 0.45mm
; support material extrusion width = 0.38mm
; first layer extrusion width = 0.42mm

M73 P0 R56
M73 Q0 S56
M201 X1000 Y1000 Z200 E5000 ; sets maximum accelerations, mm/sec^2
M203 X200 Y200 Z12 E120 ; sets maximum feedrates, mm/sec
M204 P1250 R1250 T1250 ; sets acceleration (P, T) and retract acceleration (R), mm/sec^2
M205 X8.00 Y8.00 Z0.40 E4.50 ; sets the jerk limits, mm/sec
M205 S0 T0 ; sets the minimum extruding and travel feed rate, mm/sec
M107
;TYPE:Custom
M862.3 P "MK3S" ; printer model check
M862.1 P0.4 ; nozzle diameter check
M115 U3.9.1 ; tell printer latest fw version
G90 ; use absolute coordinates
M83 ; extruder relative mode
M104 S240 ; set extruder temp
M140 S85 ; set bed temp
M190 S85 ; wait for bed temp
M109 S240 ; wait for extruder temp
G28 W ; home all without mesh bed level
G80 ; mesh bed leveling
G1 Y-3.0 F1000.0 ; go outside print area
G92 E0.0
G1 X60.0 E9.0 F1000.0 ; intro line
G1 X100.0 E12.5 F1000.0 ; intro line
G92 E0.0
M221 S95

; Don't change E values below. Excessive value can damage the printer.

M907 E538 ; set extruder motor current
G21 ; set units to millimeters
G90 ; use absolute coordinates
M83 ; use relative distances for extrusion
M900 K0.08 ; Filament gcode LA 1.5
M900 K45 ; Filament gcode LA 1.0
;LAYER_CHANGE
;Z:0.2
;HEIGHT:0.2
;BEFORE_LAYER_CHANGE
G92 E0.0
;0.2


G1 E-1.40000 F2100.000
G1 Z0.200 F10800.000
;AFTER_LAYER_CHANGE
;0.2
G1 Z0.400
G1 X103.278 Y81.382
G1 Z0.200
G1 E1.40000 F2100.000
M204 S1000
;TYPE:Skirt
;WIDTH:0.42
G1 F1200.000
G1 X103.883 Y80.683 E0.02898
G1 X104.874 Y79.817 E0.04124
G1 X105.633 Y79.318 E0.02851
G1 X106.559 Y78.863 E0.03233
G1 X107.524 Y78.536 E0.03197
G1 X108.494 Y78.340 E0.03101
G1 X109.575 Y78.264 E0.03399
G1 X128.017 Y78.264 E0.57824
G1 X129.201 Y78.323 E0.03715
G1 X130.288 Y78.485 E0.03446
G1 X131.657 Y78.837 E0.04435
G1 X132.688 Y79.220 E0.03446
G1 X133.754 Y79.740 E0.03720
G1 X134.767 Y80.365 E0.03732
G1 X135.632 Y81.025 E0.03410
G1 X154.617 Y98.693 E0.81317
G1 X155.319 Y99.558 E0.03493
G1 X155.930 Y100.592 E0.03766
G1 X156.349 Y101.613 E0.03459
G1 X156.593 Y102.503 E0.02894
G1 X156.726 Y103.432 E0.02944
G1 X156.742 Y104.633 E0.03766
G1 X156.593 Y105.730 E0.03469
G1 X156.293 Y106.795 E0.03469
G1 X155.811 Y107.874 E0.03707
G1 X155.307 Y108.693 E0.03016
G1 X154.723 Y109.419 E0.02920
G1 X153.872 Y110.240 E0.03706
G1 X130.971 Y129.781 E0.94394
G1 X130.024 Y130.487 E0.03702
G1 X129.290 Y130.910 E0.02656
G1 X128.416 Y131.281 E0.02979
G1 X127.288 Y131.595 E0.03670
G1 X126.109 Y131.736 E0.03726
G1 X100.730 Y131.730 E0.79573
M73 P0 R55
G1 X99.365 Y131.529 E0.04324
G1 X98.440 Y131.253 E0.03028
G1 X97.395 Y130.777 E0.03600
G1 X96.530 Y130.232 E0.03207
G1 X95.619 Y129.455 E0.03754
G1 X94.897 Y128.636 E0.03423
G1 X94.376 Y127.875 E0.02894
G1 X93.954 Y127.057 E0.02885
G1 X93.540 Y125.917 E0.03802
G1 X93.324 Y124.859 E0.03386
G1 X93.254 Y123.759 E0.03457
G1 X93.326 Y122.746 E0.03183
G1 X101.897 Y84.228 E1.23725
G1 X102.246 Y83.175 E0.03478
G1 X102.714 Y82.226 E0.03316
G1 X103.245 Y81.432 E0.02997
;WIPE_START
G1 F8640.000
G1 X103.883 Y80.683 E-0.22720
G1 X104.874 Y79.817 E-0.30371
G1 X105.633 Y79.318 E-0.20992
G1 X106.559 Y78.863 E-0.23805
G1 X107.524 Y78.536 E-0.23541
G1 X108.015 Y78.437 E-0.11570
;WIPE_END
G1 E-0.07000 F2100.000
G1 Z0.400 F10800.000
G1 X129.958 Y105.958
G1 Z0.200
G1 E1.40000 F2100.000
;TYPE:Perimeter
G1 F1200.000
G1 X130.472 Y105.466 E0.02229
G1 X131.065 Y105.075 E0.02229
G1 X131.719 Y104.795 E0.02229
G1 X132.412 Y104.637 E0.02229
G1 X132.775 Y104.621 E0.01141
G1 X133.122 Y104.605 E0.01087
G1 X133.826 Y104.701 E0.02229
G1 X134.502 Y104.920 E0.02229
G1 X135.128 Y105.257 E0.02229
G1 X135.684 Y105.701 E0.02229
G1 X136.152 Y106.236 E0.02229
G1 X136.516 Y106.846 E0.02229
G1 X136.766 Y107.512 E0.02229
G1 X136.893 Y108.211 E0.02229
G1 X136.893 Y108.922 E0.02229
G1 X136.766 Y109.622 E0.02229
G1 X136.516 Y110.287 E0.02229
G1 X136.152 Y110.897 E0.02229
G1 X135.684 Y111.433 E0.02229
G1 X135.128 Y111.876 E0.02229
G1 X134.502 Y112.213 E0.02229
G1 X133.826 Y112.432 E0.02229
G1 X133.122 Y112.528 E0.02229
G1 X132.412 Y112.496 E0.02229
G1 X131.719 Y112.338 E0.02229
G1 X131.065 Y112.058 E0.02229
G1 X130.472 Y111.667 E0.02229
G1 X129.958 Y111.176 E0.02229
G1 X129.540 Y110.600 E0.02229
G1 X129.231 Y109.960 E0.02229
G1 X129.042 Y109.275 E0.02229
G1 X128.979 Y108.567 E0.02229
G1 X129.042 Y107.859 E0.02229
G1 X129.231 Y107.173 E0.02229
G1 X129.540 Y106.533 E0.02229
G1 X129.922 Y106.006 E0.02041
G1 X130.228 Y106.228 F10800.000
;TYPE:External perimeter
G1 F1200.000
G1 X130.708 Y105.762 E0.02097
G1 X131.244 Y105.408 E0.02016
G1 X131.836 Y105.156 E0.02016
G1 X132.462 Y105.012 E0.02016
G1 X133.105 Y104.984 E0.02016
G1 X133.742 Y105.070 E0.02016
G1 X134.354 Y105.269 E0.02016
G1 X134.920 Y105.573 E0.02016
G1 X135.422 Y105.974 E0.02016
G1 X135.846 Y106.458 E0.02016
G1 X136.175 Y107.010 E0.02016
G1 X136.401 Y107.612 E0.02016
G1 X136.516 Y108.245 E0.02016
G1 X136.516 Y108.888 E0.02016
G1 X136.401 Y109.521 E0.02016
G1 X136.175 Y110.123 E0.02016
G1 X135.846 Y110.675 E0.02016
G1 X135.422 Y111.159 E0.02016
G1 X134.920 Y111.560 E0.02016
G1 X134.354 Y111.865 E0.02016
G1 X133.742 Y112.063 E0.02016
G1 X133.105 Y112.150 E0.02016
G1 X132.462 Y112.121 E0.02016
G1 X131.836 Y111.978 E0.02016
G1 X131.244 Y111.725 E0.02016
G1 X130.708 Y111.371 E0.02016
G1 X130.243 Y110.926 E0.02016
G1 X129.865 Y110.406 E0.02016
G1 X129.586 Y109.827 E0.02016
G1 X129.415 Y109.207 E0.02016
G1 X129.357 Y108.567 E0.02016
G1 X129.415 Y107.926 E0.02016
G1 X129.586 Y107.306 E0.02016
G1 X129.865 Y106.727 E0.02016
G1 X130.192 Y106.276 E0.01746
G1 X130.096 Y105.850 F10800.000
;WIPE_START
G1 F8640.000
G1 X130.708 Y105.762 E-0.16806
G1 X131.244 Y105.408 E-0.14847
G1 X131.836 Y105.156 E-0.14847
G1 X132.462 Y105.012 E-0.14847
G1 X133.105 Y104.984 E-0.14847
G1 X133.742 Y105.070 E-0.14847
G1 X134.354 Y105.269 E-0.14847
G1 X134.920 Y105.573 E-0.14847
G1 X135.335 Y105.904 E-0.12263
;WIPE_END
G1 E-0.07000 F2100.000
G1 Z0.400 F10800.000
G1 X119.441 Y96.408
G1 Z0.200
G1 E1.40000 F2100.000
;TYPE:Perimeter
G1 F1200.000
G1 X119.441 Y118.183 E0.68274
G1 X115.489 Y118.168 E0.12391
G1 X115.767 Y118.670 E0.01799
G1 X115.855 Y119.071 E0.01288
G1 X115.837 Y119.475 E0.01269
G1 X115.712 Y119.861 E0.01270
G1 X115.492 Y120.199 E0.01265
G1 X115.192 Y120.469 E0.01264
G1 X114.833 Y120.651 E0.01264
G1 X114.439 Y120.735 E0.01264
G1 X114.036 Y120.714 E0.01264
G1 X113.653 Y120.589 E0.01264
G1 X113.315 Y120.369 E0.01264
G1 X113.045 Y120.069 E0.01264
G1 X112.863 Y119.709 E0.01266
G1 X112.779 Y119.313 E0.01271
G1 X112.804 Y118.908 E0.01272
G1 X112.937 Y118.517 E0.01296
G1 X113.189 Y118.166 E0.01353
G1 X112.888 Y118.181 E0.00946
G1 X109.196 Y118.183 E0.11574
G1 X109.196 Y96.408 E0.68274
G1 X113.148 Y96.423 E0.12391
G1 X112.870 Y95.921 E0.01799
G1 X112.782 Y95.520 E0.01288
G1 X112.800 Y95.116 E0.01269
G1 X112.925 Y94.731 E0.01270
G1 X113.145 Y94.392 E0.01265
G1 X113.445 Y94.123 E0.01264
G1 X113.804 Y93.940 E0.01264
G1 X114.198 Y93.856 E0.01264
G1 X114.601 Y93.878 E0.01264
G1 X114.984 Y94.002 E0.01264
G1 X115.322 Y94.222 E0.01264
G1 X115.591 Y94.522 E0.01264
G1 X115.774 Y94.882 E0.01266
G1 X115.857 Y95.279 E0.01271
G1 X115.832 Y95.684 E0.01272
G1 X115.700 Y96.075 E0.01296
G1 X115.448 Y96.425 E0.01353
G1 X115.749 Y96.411 E0.00946
G1 X119.381 Y96.408 E0.11386
G1 X119.064 Y96.786 F10800.000
;TYPE:External perimeter
G1 F1200.000
G1 X119.064 Y117.806 E0.65908
G1 X115.758 Y117.804 E0.10363
G1 X114.318 Y117.734 E0.04520
G1 X112.879 Y117.804 E0.04520
G1 X109.573 Y117.806 E0.10363
G1 X109.573 Y96.786 E0.65908
G1 X112.879 Y96.788 E0.10363
G1 X114.318 Y96.857 E0.04520
G1 X115.758 Y96.788 E0.04520
G1 X119.004 Y96.786 E0.10175
G1 X119.464 Y96.784 F10800.000
;WIPE_START
G1 F8640.000
G1 X119.020 Y102.546 E-1.33000
;WIPE_END
G1 E-0.07000 F2100.000
G1 Z0.400 F10800.000
G1 X115.459 Y95.610
G1 Z0.200
G1 E1.40000 F2100.000
G1 F1200.000
G1 X115.361 Y95.900 E0.00961
G1 X115.183 Y96.147 E0.00952
G1 X114.949 Y96.342 E0.00954
G1 X114.669 Y96.449 E0.00940
G1 X114.397 Y96.482 E0.00861
G1 X114.134 Y96.474 E0.00825
G1 X113.852 Y96.419 E0.00900
G1 X113.585 Y96.270 E0.00957
G1 X113.374 Y96.054 E0.00949
G1 X113.226 Y95.787 E0.00957
G1 X113.161 Y95.488 E0.00960
G1 X113.174 Y95.184 E0.00954
G1 X113.268 Y94.894 E0.00954
G1 X113.434 Y94.640 E0.00953
G1 X113.660 Y94.436 E0.00953
G1 X113.931 Y94.299 E0.00953
G1 X114.228 Y94.236 E0.00952
G1 X114.531 Y94.252 E0.00953
G1 X114.820 Y94.346 E0.00953
G1 X115.075 Y94.511 E0.00953
G1 X115.278 Y94.737 E0.00953
G1 X115.416 Y95.008 E0.00953
G1 X115.478 Y95.306 E0.00955
G1 X115.463 Y95.550 E0.00766
G1 X115.690 Y95.812 F10800.000
;WIPE_START
G1 F8640.000
G1 X115.361 Y95.900 E-0.08425
G1 X115.183 Y96.147 E-0.07013
G1 X114.949 Y96.342 E-0.07028
G1 X114.669 Y96.449 E-0.06924
G1 X114.397 Y96.482 E-0.06343
G1 X114.134 Y96.474 E-0.06076
G1 X113.852 Y96.419 E-0.06629
G1 X113.585 Y96.270 E-0.07047
G1 X113.374 Y96.054 E-0.06987
G1 X113.226 Y95.787 E-0.07046
G1 X113.161 Y95.488 E-0.07066
G1 X113.174 Y95.184 E-0.07024
G1 X113.268 Y94.894 E-0.07029
G1 X113.434 Y94.640 E-0.07016
G1 X113.660 Y94.436 E-0.07016
G1 X113.931 Y94.299 E-0.07015
G1 X114.228 Y94.236 E-0.07014
G1 X114.531 Y94.252 E-0.07015
G1 X114.820 Y94.346 E-0.07015
G1 X114.830 Y94.352 E-0.00273
;WIPE_END
G1 E-0.07000 F2100.000
G1 Z0.400 F10800.000
G1 X114.785 Y118.172
G1 Z0.200
G1 E1.40000 F2100.000
G1 F1200.000
G1 X115.051 Y118.321 E0.00957
G1 X115.263 Y118.538 E0.00949
G1 X115.411 Y118.805 E0.00957
G1 X115.476 Y119.104 E0.00960
G1 X115.462 Y119.407 E0.00954
G1 X115.368 Y119.697 E0.00954
G1 X115.203 Y119.952 E0.00953
G1 X114.977 Y120.155 E0.00953
G1 X114.706 Y120.293 E0.00953
G1 X114.409 Y120.356 E0.00952
G1 X114.106 Y120.340 E0.00953
G1 X113.817 Y120.246 E0.00953
G1 X113.562 Y120.080 E0.00953
G1 X113.359 Y119.854 E0.00953
G1 X113.221 Y119.583 E0.00953
G1 X113.159 Y119.285 E0.00955
G1 X113.178 Y118.981 E0.00955
G1 X113.276 Y118.691 E0.00961
G1 X113.454 Y118.444 E0.00952
G1 X113.688 Y118.250 E0.00954
G1 X113.968 Y118.143 E0.00940
G1 X114.240 Y118.109 E0.00861
G1 X114.503 Y118.117 E0.00825
G1 X114.726 Y118.161 E0.00712
G1 X115.025 Y117.983 F10800.000
;WIPE_START
G1 F8640.000
G1 X115.051 Y118.321 E-0.08374
G1 X115.263 Y118.538 E-0.06987
G1 X115.411 Y118.805 E-0.07046
G1 X115.476 Y119.104 E-0.07066
G1 X115.462 Y119.407 E-0.07024
G1 X115.368 Y119.697 E-0.07029
G1 X115.203 Y119.952 E-0.07016
G1 X114.977 Y120.155 E-0.07016
G1 X114.706 Y120.293 E-0.07015
G1 X114.409 Y120.356 E-0.07014
G1 X114.106 Y120.340 E-0.07015
G1 X113.817 Y120.246 E-0.07015
G1 X113.562 Y120.080 E-0.07015
G1 X113.359 Y119.854 E-0.07016
G1 X113.221 Y119.583 E-0.07019
G1 X113.159 Y119.285 E-0.07031
G1 X113.178 Y118.981 E-0.07029
G1 X113.276 Y118.691 E-0.07081
G1 X113.408 Y118.508 E-0.05193
;WIPE_END
G1 E-0.07000 F2100.000
G1 Z0.400 F10800.000
G1 X128.379 Y85.628
G1 Z0.200
G1 E1.40000 F2100.000
;TYPE:Perimeter
G1 F1200.000
G1 X129.130 Y85.744 E0.02381
G1 X129.845 Y85.990 E0.02371
G1 X130.508 Y86.348 E0.02362
G1 X131.102 Y86.811 E0.02361
G1 X131.612 Y87.365 E0.02361
G1 X132.024 Y87.995 E0.02361
G1 X132.326 Y88.685 E0.02361
G1 X132.511 Y89.415 E0.02361
G1 X132.573 Y90.166 E0.02361
G1 X132.511 Y90.916 E0.02361
G1 X132.326 Y91.646 E0.02361
G1 X132.024 Y92.336 E0.02361
G1 X131.612 Y92.967 E0.02361
G1 X131.102 Y93.521 E0.02361
G1 X130.508 Y93.983 E0.02361
G1 X129.845 Y94.342 E0.02361
G1 X129.133 Y94.586 E0.02361
G1 X128.761 Y94.648 E0.01181
G1 X128.390 Y94.710 E0.01181
G1 X127.637 Y94.710 E0.02361
G1 X126.894 Y94.586 E0.02361
G1 X126.182 Y94.342 E0.02361
G1 X125.519 Y93.983 E0.02361
G1 X124.925 Y93.521 E0.02361
G1 X124.415 Y92.967 E0.02361
G1 X124.003 Y92.336 E0.02361
G1 X123.700 Y91.646 E0.02361
G1 X123.515 Y90.916 E0.02361
G1 X123.453 Y90.166 E0.02361
G1 X123.515 Y89.415 E0.02361
G1 X123.700 Y88.685 E0.02361
G1 X124.003 Y87.995 E0.02361
G1 X124.415 Y87.365 E0.02361
G1 X124.925 Y86.811 E0.02362
G1 X125.523 Y86.346 E0.02375
G1 X126.096 Y86.047 E0.02025
G1 X125.575 Y85.664 E0.02026
G1 X125.254 Y85.251 E0.01641
G1 X125.055 Y84.771 E0.01629
G1 X124.987 Y84.257 E0.01626
G1 X125.055 Y83.743 E0.01625
G1 X125.253 Y83.265 E0.01624
G1 X125.568 Y82.854 E0.01624
G1 X125.979 Y82.538 E0.01624
G1 X126.458 Y82.340 E0.01624
G1 X126.929 Y82.278 E0.01491
G1 X127.479 Y82.337 E0.01733
G1 X127.964 Y82.538 E0.01646
G1 X128.375 Y82.854 E0.01624
G1 X128.690 Y83.265 E0.01624
G1 X128.888 Y83.743 E0.01625
G1 X128.956 Y84.258 E0.01627
G1 X128.887 Y84.774 E0.01633
G1 X128.680 Y85.257 E0.01646
G1 X128.417 Y85.581 E0.01310
G1 X128.353 Y86.005 F10800.000
;TYPE:External perimeter
G1 F1200.000
G1 X129.039 Y86.112 E0.02176
G1 X129.693 Y86.336 E0.02169
G1 X130.301 Y86.665 E0.02166
G1 X130.846 Y87.089 E0.02165
G1 X131.313 Y87.597 E0.02165
G1 X131.691 Y88.175 E0.02165
G1 X131.969 Y88.808 E0.02165
G1 X132.138 Y89.477 E0.02165
G1 X132.195 Y90.166 E0.02165
G1 X132.138 Y90.854 E0.02165
G1 X131.969 Y91.524 E0.02165
G1 X131.691 Y92.156 E0.02165
G1 X131.313 Y92.734 E0.02165
G1 X130.846 Y93.242 E0.02165
G1 X130.301 Y93.667 E0.02165
G1 X129.693 Y93.995 E0.02165
G1 X129.040 Y94.220 E0.02165
G1 X128.699 Y94.276 E0.01083
G1 X128.359 Y94.333 E0.01083
G1 X127.668 Y94.333 E0.02165
G1 X126.987 Y94.220 E0.02165
G1 X126.334 Y93.995 E0.02165
G1 X125.726 Y93.667 E0.02165
G1 X125.181 Y93.242 E0.02165
G1 X124.947 Y92.988 E0.01083
G1 X124.713 Y92.734 E0.01083
G1 X124.336 Y92.156 E0.02165
G1 X124.058 Y91.524 E0.02165
G1 X123.889 Y90.854 E0.02165
G1 X123.832 Y90.166 E0.02165
G1 X123.889 Y89.477 E0.02165
G1 X124.058 Y88.808 E0.02165
G1 X124.336 Y88.175 E0.02165
G1 X124.713 Y87.597 E0.02165
G1 X125.181 Y87.089 E0.02166
G1 X125.728 Y86.664 E0.02170
G1 X126.347 Y86.341 E0.02190
G1 X127.010 Y86.173 E0.02144
G1 X127.660 Y86.056 E0.02072
G1 X128.293 Y86.008 E0.01990
G1 X128.574 Y85.672 F10800.000
G1 X127.741 Y85.623
G1 F1200.000
G1 X127.360 Y85.739 E0.01250
G1 X126.985 Y85.794 E0.01189
G1 X126.579 Y85.786 E0.01274
G1 X126.180 Y85.641 E0.01330
G1 X125.841 Y85.392 E0.01321
G1 X125.583 Y85.059 E0.01318
G1 X125.422 Y84.672 E0.01315
G1 X125.367 Y84.257 E0.01313
G1 X125.422 Y83.842 E0.01313
G1 X125.582 Y83.455 E0.01313
G1 X125.837 Y83.123 E0.01313
G1 X126.169 Y82.868 E0.01313
G1 X126.556 Y82.707 E0.01313
G1 X126.934 Y82.658 E0.01193
G1 X127.384 Y82.706 E0.01422
G1 X127.774 Y82.868 E0.01321
M73 Q1 S56
G1 X128.106 Y83.123 E0.01313
G1 X128.361 Y83.455 E0.01313
G1 X128.521 Y83.842 E0.01313
G1 X128.575 Y84.257 E0.01314
G1 X128.520 Y84.673 E0.01316
M73 P1 R55
G1 X128.354 Y85.060 E0.01319
G1 X128.089 Y85.387 E0.01321
G1 X127.791 Y85.589 E0.01129
G1 X127.710 Y86.020 F10800.000
;WIPE_START
G1 F8640.000
G1 X127.360 Y85.739 E-0.10535
G1 X126.985 Y85.794 E-0.08754
G1 X126.579 Y85.786 E-0.09381
G1 X126.180 Y85.641 E-0.09793
G1 X125.841 Y85.392 E-0.09725
G1 X125.583 Y85.059 E-0.09708
G1 X125.422 Y84.672 E-0.09681
G1 X125.367 Y84.257 E-0.09672
G1 X125.422 Y83.842 E-0.09670
G1 X125.582 Y83.455 E-0.09670
G1 X125.837 Y83.123 E-0.09670
G1 X126.169 Y82.868 E-0.09669
G1 X126.556 Y82.707 E-0.09670
G1 X126.874 Y82.666 E-0.07403
;WIPE_END
G1 E-0.07000 F2100.000
G1 Z0.400 F10800.000
G1 X128.892 Y81.473
G1 Z0.200
G1 E1.40000 F2100.000
;TYPE:Perimeter
G1 F1200.000
G1 X129.761 Y81.605 E0.02757
G1 X130.613 Y81.824 E0.02757
G1 X131.438 Y82.128 E0.02757
G1 X132.229 Y82.513 E0.02757
G1 X132.977 Y82.975 E0.02757
G1 X133.674 Y83.511 E0.02757
G1 X134.314 Y84.113 E0.02757
G1 X134.891 Y84.778 E0.02757
G1 X135.398 Y85.496 E0.02757
G1 X135.830 Y86.262 E0.02757
G1 X136.183 Y87.068 E0.02757
G1 X136.459 Y87.923 E0.02819
G1 X138.360 Y95.017 E0.23028
G1 X138.598 Y95.720 E0.02326
G1 X138.938 Y96.408 E0.02407
G1 X139.364 Y97.047 E0.02407
G1 X139.870 Y97.624 E0.02407
G1 X140.447 Y98.130 E0.02407
G1 X141.086 Y98.557 E0.02407
G1 X141.774 Y98.896 E0.02407
G1 X142.501 Y99.143 E0.02407
G1 X143.254 Y99.293 E0.02407
G1 X143.994 Y99.341 E0.02326
G1 X148.792 Y99.341 E0.15043
