; generated by PrusaSlicer 2.3.0+win64 on 2021-05-04 at 04:14:18 UTC

; 

; external perimeters extrusion width = 0.60mm
; perimeters extrusion width = 0.50mm
; infill extrusion width = 0.50mm
; solid infill extrusion width = 0.50mm
; top infill extrusion width = 0.45mm
; support material extrusion width = 0.38mm
; first layer extrusion width = 0.42mm

M73 P0 R56
M73 Q0 S57
M201 X1000 Y1000 Z200 E5000 ; sets maximum accelerations, mm/sec^2
M203 X200 Y200 Z12 E120 ; sets maximum feedrates, mm/sec
M204 P1250 R1250 T1250 ; sets acceleration (P, T) and retract acceleration (R), mm/sec^2
M205 X8.00 Y8.00 Z0.40 E4.50 ; sets the jerk limits, mm/sec
M205 S0 T0 ; sets the minimum extruding and travel feed rate, mm/sec
M107
;TYPE:Custom
M862.3 P "MK3S" ; printer model check
M862.1 P0.4 ; nozzle diameter check
M115 U3.9.1 ; tell printer latest fw version
G90 ; use absolute coordinates
M83 ; extruder relative mode
M104 S240 ; set extruder temp
M140 S85 ; set bed temp
M190 S85 ; wait for bed temp
M109 S240 ; wait for extruder temp
G28 W ; home all without mesh bed level
G80 ; mesh bed leveling
G1 Y-3.0 F1000.0 ; go outside print area
G92 E0.0
G1 X60.0 E9.0 F1000.0 ; intro line
G1 X100.0 E12.5 F1000.0 ; intro line
G92 E0.0
M221 S95

; Don't change E values below. Excessive value can damage the printer.

M907 E538 ; set extruder motor current
G21 ; set units to millimeters
G90 ; use absolute coordinates
M83 ; use relative distances for extrusion
M900 K0.08 ; Filament gcode LA 1.5
M900 K45 ; Filament gcode LA 1.0
;LAYER_CHANGE
;Z:0.2
;HEIGHT:0.2
;BEFORE_LAYER_CHANGE
G92 E0.0
;0.2


G1 E-1.40000 F2100.000
G1 Z0.200 F10800.000
;AFTER_LAYER_CHANGE
;0.2
G1 Z0.400
G1 X103.267 Y81.387
G1 Z0.200
G1 E1.40000 F2100.000
M204 S1000
;TYPE:Skirt
;WIDTH:0.42
G1 F1200.000
G1 X103.861 Y80.699 E0.02848
G1 X104.874 Y79.811 E0.04223
G1 X105.636 Y79.311 E0.02858
G1 X106.550 Y78.863 E0.03191
G1 X107.515 Y78.536 E0.03194
G1 X108.484 Y78.339 E0.03100
G1 X109.571 Y78.263 E0.03417
G1 X128.011 Y78.263 E0.57818
G1 X129.194 Y78.322 E0.03715
G1 X130.281 Y78.484 E0.03446
G1 X131.651 Y78.836 E0.04435
G1 X132.681 Y79.219 E0.03446
G1 X133.748 Y79.739 E0.03720
G1 X134.760 Y80.364 E0.03732
G1 X135.625 Y81.024 E0.03410
G1 X154.610 Y98.691 E0.81313
G1 X155.312 Y99.556 E0.03493
G1 X155.929 Y100.603 E0.03812
G1 X156.348 Y101.627 E0.03467
G1 X156.586 Y102.500 E0.02838
G1 X156.718 Y103.415 E0.02897
G1 X156.735 Y104.627 E0.03801
G1 X156.587 Y105.724 E0.03469
G1 X156.287 Y106.792 E0.03481
G1 X155.796 Y107.888 E0.03765
G1 X155.303 Y108.688 E0.02946
G1 X154.725 Y109.409 E0.02897
G1 X153.870 Y110.235 E0.03729
G1 X130.958 Y129.786 E0.94435
G1 X130.060 Y130.461 E0.03523
G1 X129.270 Y130.916 E0.02858
G1 X128.408 Y131.280 E0.02934
G1 X127.272 Y131.596 E0.03698
G1 X126.121 Y131.734 E0.03634
G1 X100.723 Y131.729 E0.79633
G1 X99.359 Y131.528 E0.04324
G1 X98.433 Y131.252 E0.03028
G1 X97.392 Y130.778 E0.03588
G1 X96.523 Y130.231 E0.03219
G1 X95.612 Y129.454 E0.03754
G1 X94.890 Y128.635 E0.03423
G1 X94.369 Y127.874 E0.02894
G1 X93.948 Y127.056 E0.02885
G1 X93.534 Y125.916 E0.03802
G1 X93.318 Y124.858 E0.03386
G1 X93.248 Y123.758 E0.03457
G1 X93.320 Y122.745 E0.03183
G1 X101.891 Y84.226 E1.23727
G1 X102.238 Y83.180 E0.03457
G1 X102.709 Y82.223 E0.03345
G1 X103.234 Y81.436 E0.02963
;WIPE_START
G1 F8640.000
G1 X103.861 Y80.699 E-0.22349
G1 X104.874 Y79.811 E-0.31101
G1 X105.636 Y79.311 E-0.21050
G1 X106.550 Y78.863 E-0.23502
G1 X107.515 Y78.536 E-0.23523
G1 X108.002 Y78.437 E-0.11475
;WIPE_END
G1 E-0.07000 F2100.000
G1 Z0.400 F10800.000
G1 X129.951 Y105.957
G1 Z0.200
G1 E1.40000 F2100.000
;TYPE:Perimeter
G1 F1200.000
G1 X130.465 Y105.465 E0.02229
G1 X131.058 Y105.074 E0.02229
G1 X131.712 Y104.794 E0.02229
G1 X132.405 Y104.636 E0.02229
G1 X133.115 Y104.604 E0.02229
G1 X133.820 Y104.700 E0.02229
G1 X134.496 Y104.919 E0.02229
G1 X135.122 Y105.256 E0.02229
G1 X135.678 Y105.700 E0.02229
G1 X136.145 Y106.235 E0.02229
G1 X136.510 Y106.845 E0.02229
G1 X136.760 Y107.511 E0.02229
G1 X136.887 Y108.210 E0.02229
G1 X136.887 Y108.921 E0.02229
G1 X136.760 Y109.620 E0.02229
G1 X136.510 Y110.286 E0.02229
G1 X136.145 Y110.896 E0.02229
G1 X135.678 Y111.432 E0.02229
G1 X135.122 Y111.875 E0.02229
G1 X134.496 Y112.212 E0.02229
M73 Q0 S56
G1 X133.820 Y112.431 E0.02229
G1 X133.115 Y112.527 E0.02229
G1 X132.405 Y112.495 E0.02229
G1 X131.712 Y112.337 E0.02229
G1 X131.058 Y112.057 E0.02229
G1 X130.465 Y111.666 E0.02229
G1 X129.951 Y111.174 E0.02229
G1 X129.533 Y110.599 E0.02229
G1 X129.225 Y109.959 E0.02229
G1 X129.036 Y109.274 E0.02229
G1 X128.972 Y108.566 E0.02229
G1 X129.036 Y107.858 E0.02229
G1 X129.225 Y107.172 E0.02229
G1 X129.533 Y106.532 E0.02229
G1 X129.916 Y106.005 E0.02041
G1 X130.221 Y106.227 F10800.000
;TYPE:External perimeter
G1 F1200.000
G1 X130.701 Y105.761 E0.02097
G1 X131.238 Y105.407 E0.02016
G1 X131.829 Y105.154 E0.02016
G1 X132.456 Y105.011 E0.02016
G1 X133.098 Y104.983 E0.02016
G1 X133.736 Y105.069 E0.02016
G1 X134.347 Y105.268 E0.02016
G1 X134.913 Y105.572 E0.02016
G1 X135.416 Y105.973 E0.02016
G1 X135.839 Y106.457 E0.02016
G1 X136.169 Y107.009 E0.02016
G1 X136.395 Y107.611 E0.02016
G1 X136.510 Y108.244 E0.02016
G1 X136.510 Y108.887 E0.02016
G1 X136.395 Y109.520 E0.02016
G1 X136.169 Y110.122 E0.02016
G1 X135.839 Y110.674 E0.02016
G1 X135.416 Y111.158 E0.02016
G1 X134.913 Y111.559 E0.02016
G1 X134.347 Y111.864 E0.02016
G1 X133.736 Y112.062 E0.02016
G1 X133.098 Y112.149 E0.02016
G1 X132.456 Y112.120 E0.02016
G1 X131.829 Y111.977 E0.02016
G1 X131.238 Y111.724 E0.02016
G1 X130.701 Y111.370 E0.02016
G1 X130.236 Y110.925 E0.02016
G1 X129.858 Y110.405 E0.02016
G1 X129.579 Y109.826 E0.02016
G1 X129.408 Y109.206 E0.02016
G1 X129.351 Y108.566 E0.02016
G1 X129.408 Y107.925 E0.02016
G1 X129.579 Y107.305 E0.02016
G1 X129.858 Y106.726 E0.02016
G1 X130.186 Y106.275 E0.01746
G1 X130.090 Y105.849 F10800.000
;WIPE_START
G1 F8640.000
G1 X130.701 Y105.761 E-0.16806
G1 X131.238 Y105.407 E-0.14847
G1 X131.829 Y105.154 E-0.14847
G1 X132.456 Y105.011 E-0.14847
G1 X133.098 Y104.983 E-0.14847
G1 X133.736 Y105.069 E-0.14847
G1 X134.347 Y105.268 E-0.14847
G1 X134.913 Y105.572 E-0.14847
G1 X135.328 Y105.903 E-0.12263
;WIPE_END
G1 E-0.07000 F2100.000
G1 Z0.400 F10800.000
G1 X119.934 Y96.407
G1 Z0.200
G1 E1.40000 F2100.000
;TYPE:Perimeter
G1 F1200.000
G1 X119.934 Y118.182 E0.68274
G1 X116.242 Y118.179 E0.11576
G1 X115.924 Y118.164 E0.00999
G1 X116.131 Y118.410 E0.01007
G1 X116.298 Y118.786 E0.01292
G1 X116.354 Y119.191 E0.01280
G1 X116.304 Y119.593 E0.01270
G1 X116.149 Y119.966 E0.01268
G1 X115.904 Y120.286 E0.01264
G1 X115.584 Y120.532 E0.01264
G1 X115.212 Y120.686 E0.01264
G1 X114.812 Y120.738 E0.01264
G1 X114.412 Y120.686 E0.01264
G1 X114.040 Y120.532 E0.01264
G1 X113.720 Y120.286 E0.01264
G1 X113.475 Y119.966 E0.01264
G1 X113.320 Y119.593 E0.01268
G1 X113.269 Y119.191 E0.01270
G1 X113.326 Y118.786 E0.01280
G1 X113.493 Y118.410 E0.01292
G1 X113.700 Y118.164 E0.01007
G1 X113.382 Y118.179 E0.00999
G1 X109.690 Y118.182 E0.11576
G1 X109.690 Y96.407 E0.68274
G1 X113.382 Y96.410 E0.11576
G1 X113.700 Y96.426 E0.00999
G1 X113.493 Y96.179 E0.01007
G1 X113.326 Y95.803 E0.01292
G1 X113.269 Y95.399 E0.01280
G1 X113.320 Y94.997 E0.01270
G1 X113.475 Y94.623 E0.01268
G1 X113.720 Y94.303 E0.01264
G1 X114.040 Y94.058 E0.01264
G1 X114.412 Y93.903 E0.01264
G1 X114.812 Y93.851 E0.01264
G1 X115.212 Y93.903 E0.01264
G1 X115.584 Y94.058 E0.01264
G1 X115.904 Y94.303 E0.01264
G1 X116.149 Y94.623 E0.01264
G1 X116.304 Y94.997 E0.01268
G1 X116.354 Y95.399 E0.01270
G1 X116.298 Y95.803 E0.01280
G1 X116.131 Y96.179 E0.01292
G1 X115.924 Y96.426 E0.01007
G1 X116.242 Y96.410 E0.00999
G1 X119.874 Y96.407 E0.11387
G1 X119.557 Y96.784 F10800.000
;TYPE:External perimeter
G1 F1200.000
G1 X119.557 Y117.805 E0.65908
G1 X116.252 Y117.802 E0.10364
G1 X114.812 Y117.731 E0.04520
G1 X113.372 Y117.802 E0.04520
G1 X110.067 Y117.805 E0.10364
G1 X110.067 Y96.784 E0.65908
G1 X113.372 Y96.787 E0.10364
G1 X114.812 Y96.858 E0.04520
G1 X116.252 Y96.787 E0.04520
G1 X119.497 Y96.785 E0.10176
G1 X119.957 Y96.782 F10800.000
;WIPE_START
G1 F8640.000
G1 X119.514 Y102.544 E-1.33000
;WIPE_END
G1 E-0.07000 F2100.000
G1 Z0.400 F10800.000
G1 X115.932 Y95.698
G1 Z0.200
G1 E1.40000 F2100.000
G1 F1200.000
G1 X115.808 Y95.978 E0.00959
G1 X115.613 Y96.210 E0.00950
G1 X115.361 Y96.382 E0.00955
G1 X115.079 Y96.463 E0.00919
G1 X114.812 Y96.483 E0.00841
G1 X114.544 Y96.463 E0.00841
G1 X114.262 Y96.382 E0.00919
G1 X114.011 Y96.210 E0.00955
G1 X113.816 Y95.978 E0.00950
G1 X113.692 Y95.698 E0.00959
G1 X113.650 Y95.396 E0.00957
G1 X113.688 Y95.094 E0.00954
G1 X113.804 Y94.813 E0.00954
G1 X113.989 Y94.572 E0.00953
G1 X114.230 Y94.387 E0.00952
G1 X114.511 Y94.271 E0.00952
G1 X114.812 Y94.231 E0.00952
G1 X115.113 Y94.271 E0.00952
G1 X115.394 Y94.387 E0.00952
G1 X115.635 Y94.572 E0.00952
G1 X115.820 Y94.813 E0.00953
G1 X115.936 Y95.094 E0.00954
G1 X115.974 Y95.396 E0.00954
G1 X115.940 Y95.639 E0.00769
G1 X116.144 Y95.919 F10800.000
;WIPE_START
G1 F8640.000
G1 X115.808 Y95.978 E-0.08403
G1 X115.613 Y96.210 E-0.06998
G1 X115.361 Y96.382 E-0.07036
G1 X115.079 Y96.463 E-0.06769
G1 X114.812 Y96.483 E-0.06194
G1 X114.544 Y96.463 E-0.06194
G1 X114.262 Y96.382 E-0.06769
G1 X114.011 Y96.210 E-0.07036
G1 X113.816 Y95.978 E-0.06998
G1 X113.692 Y95.698 E-0.07062
G1 X113.650 Y95.396 E-0.07048
G1 X113.688 Y95.094 E-0.07027
G1 X113.804 Y94.813 E-0.07023
G1 X113.989 Y94.572 E-0.07015
G1 X114.230 Y94.387 E-0.07014
G1 X114.511 Y94.271 E-0.07014
G1 X114.812 Y94.231 E-0.07013
G1 X115.113 Y94.271 E-0.07014
G1 X115.394 Y94.387 E-0.07014
G1 X115.406 Y94.396 E-0.00357
;WIPE_END
G1 E-0.07000 F2100.000
G1 Z0.400 F10800.000
G1 X114.262 Y118.207
G1 Z0.200
G1 E1.40000 F2100.000
G1 F1200.000
G1 X114.544 Y118.127 E0.00919
G1 X114.812 Y118.106 E0.00841
G1 X115.079 Y118.127 E0.00841
G1 X115.361 Y118.207 E0.00919
G1 X115.613 Y118.379 E0.00955
G1 X115.808 Y118.611 E0.00950
G1 X115.932 Y118.891 E0.00959
G1 X115.974 Y119.193 E0.00957
G1 X115.936 Y119.495 E0.00954
G1 X115.820 Y119.776 E0.00954
G1 X115.635 Y120.017 E0.00953
G1 X115.394 Y120.202 E0.00952
G1 X115.113 Y120.319 E0.00952
G1 X114.812 Y120.358 E0.00952
G1 X114.511 Y120.319 E0.00952
G1 X114.230 Y120.202 E0.00952
G1 X113.989 Y120.017 E0.00952
G1 X113.804 Y119.776 E0.00953
G1 X113.688 Y119.495 E0.00954
G1 X113.650 Y119.193 E0.00954
G1 X113.692 Y118.891 E0.00957
G1 X113.816 Y118.611 E0.00959
G1 X114.011 Y118.379 E0.00950
G1 X114.213 Y118.241 E0.00767
G1 X114.290 Y117.915 F10800.000
;WIPE_START
G1 F8640.000
G1 X114.544 Y118.127 E-0.08095
G1 X114.812 Y118.106 E-0.06194
G1 X115.079 Y118.127 E-0.06194
G1 X115.361 Y118.207 E-0.06769
G1 X115.613 Y118.379 E-0.07036
G1 X115.808 Y118.611 E-0.06998
G1 X115.932 Y118.891 E-0.07062
G1 X115.974 Y119.193 E-0.07048
G1 X115.936 Y119.495 E-0.07027
G1 X115.820 Y119.776 E-0.07023
G1 X115.635 Y120.017 E-0.07015
G1 X115.394 Y120.202 E-0.07014
G1 X115.113 Y120.319 E-0.07014
G1 X114.812 Y120.358 E-0.07014
G1 X114.511 Y120.319 E-0.07014
G1 X114.230 Y120.202 E-0.07014
G1 X113.989 Y120.017 E-0.07014
G1 X113.804 Y119.776 E-0.07015
G1 X113.688 Y119.495 E-0.07023
G1 X113.686 Y119.477 E-0.00416
;WIPE_END
G1 E-0.07000 F2100.000
G1 Z0.400 F10800.000
G1 X128.373 Y85.627
G1 Z0.200
G1 E1.40000 F2100.000
;TYPE:Perimeter
G1 F1200.000
G1 X129.123 Y85.743 E0.02381
G1 X129.839 Y85.989 E0.02372
G1 X130.501 Y86.347 E0.02362
G1 X131.095 Y86.810 E0.02361
G1 X131.605 Y87.364 E0.02361
G1 X132.017 Y87.994 E0.02361
G1 X132.320 Y88.684 E0.02361
G1 X132.505 Y89.414 E0.02361
G1 X132.567 Y90.165 E0.02361
G1 X132.505 Y90.915 E0.02361
G1 X132.320 Y91.645 E0.02361
G1 X132.017 Y92.335 E0.02361
G1 X131.605 Y92.966 E0.02361
G1 X131.095 Y93.520 E0.02361
G1 X130.501 Y93.982 E0.02361
G1 X129.839 Y94.341 E0.02361
G1 X129.162 Y94.573 E0.02243
G1 X128.386 Y94.709 E0.02471
G1 X127.630 Y94.709 E0.02369
G1 X126.887 Y94.585 E0.02361
G1 X126.175 Y94.341 E0.02361
G1 X125.513 Y93.982 E0.02361
G1 X124.918 Y93.520 E0.02361
G1 X124.408 Y92.966 E0.02361
G1 X123.996 Y92.335 E0.02361
G1 X123.694 Y91.645 E0.02361
G1 X123.509 Y90.915 E0.02361
G1 X123.447 Y90.165 E0.02361
G1 X123.509 Y89.414 E0.02361
G1 X123.694 Y88.684 E0.02361
G1 X123.996 Y87.994 E0.02361
G1 X124.408 Y87.364 E0.02361
G1 X124.919 Y86.810 E0.02362
G1 X125.517 Y86.345 E0.02375
G1 X126.089 Y86.046 E0.02025
G1 X125.569 Y85.663 E0.02026
G1 X125.248 Y85.250 E0.01641
G1 X125.048 Y84.770 E0.01629
G1 X124.981 Y84.256 E0.01626
G1 X125.048 Y83.742 E0.01625
G1 X125.246 Y83.264 E0.01624
G1 X125.562 Y82.853 E0.01624
G1 X125.973 Y82.537 E0.01624
G1 X126.451 Y82.339 E0.01624
G1 X126.923 Y82.277 E0.01491
G1 X127.472 Y82.336 E0.01733
G1 X127.957 Y82.537 E0.01646
G1 X128.368 Y82.853 E0.01624
G1 X128.684 Y83.264 E0.01624
G1 X128.882 Y83.742 E0.01625
G1 X128.949 Y84.257 E0.01627
G1 X128.880 Y84.773 E0.01633
G1 X128.674 Y85.256 E0.01646
G1 X128.410 Y85.580 E0.01310
G1 X128.346 Y86.004 F10800.000
;TYPE:External perimeter
G1 F1200.000
G1 X129.032 Y86.111 E0.02176
G1 X129.687 Y86.335 E0.02169
G1 X130.294 Y86.664 E0.02166
G1 X130.839 Y87.088 E0.02165
G1 X131.307 Y87.596 E0.02165
G1 X131.685 Y88.174 E0.02165
G1 X131.823 Y88.491 E0.01083
G1 X131.962 Y88.807 E0.01083
G1 X132.132 Y89.476 E0.02165
G1 X132.189 Y90.165 E0.02165
G1 X132.132 Y90.853 E0.02165
G1 X131.962 Y91.522 E0.02165
G1 X131.823 Y91.839 E0.01083
G1 X131.685 Y92.155 E0.01083
G1 X131.307 Y92.733 E0.02165
G1 X130.839 Y93.241 E0.02165
G1 X130.294 Y93.665 E0.02165
G1 X129.687 Y93.994 E0.02165
G1 X129.068 Y94.207 E0.02052
G1 X128.353 Y94.332 E0.02275
G1 X127.662 Y94.332 E0.02168
G1 X126.980 Y94.218 E0.02165
G1 X126.327 Y93.994 E0.02165
G1 X125.720 Y93.665 E0.02165
G1 X125.175 Y93.241 E0.02165
G1 X124.941 Y92.987 E0.01083
G1 X124.707 Y92.733 E0.01083
G1 X124.329 Y92.155 E0.02165
G1 X124.052 Y91.522 E0.02165
G1 X123.882 Y90.853 E0.02165
G1 X123.825 Y90.165 E0.02165
G1 X123.882 Y89.476 E0.02165
G1 X124.052 Y88.807 E0.02165
G1 X124.329 Y88.174 E0.02165
G1 X124.707 Y87.596 E0.02165
G1 X125.175 Y87.088 E0.02166
G1 X125.721 Y86.663 E0.02170
G1 X126.340 Y86.340 E0.02190
G1 X127.003 Y86.172 E0.02144
G1 X127.654 Y86.054 E0.02072
G1 X128.286 Y86.006 E0.01990
G1 X128.567 Y85.671 F10800.000
G1 X127.735 Y85.622
G1 F1200.000
G1 X127.353 Y85.738 E0.01250
G1 X126.978 Y85.793 E0.01189
G1 X126.572 Y85.785 E0.01274
G1 X126.174 Y85.640 E0.01330
G1 X125.834 Y85.390 E0.01321
G1 X125.577 Y85.058 E0.01318
G1 X125.416 Y84.671 E0.01315
G1 X125.361 Y84.256 E0.01313
G1 X125.416 Y83.841 E0.01313
G1 X125.576 Y83.454 E0.01313
G1 X125.831 Y83.122 E0.01313
G1 X126.163 Y82.867 E0.01313
G1 X126.550 Y82.706 E0.01313
G1 X126.927 Y82.657 E0.01193
G1 X127.378 Y82.705 E0.01422
G1 X127.767 Y82.867 E0.01321
G1 X128.099 Y83.122 E0.01313
G1 X128.354 Y83.454 E0.01313
G1 X128.515 Y83.841 E0.01313
G1 X128.569 Y84.256 E0.01314
G1 X128.513 Y84.672 E0.01316
G1 X128.348 Y85.059 E0.01319
G1 X128.082 Y85.386 E0.01321
G1 X127.784 Y85.588 E0.01129
G1 X127.703 Y86.019 F10800.000
;WIPE_START
M73 Q1 S56
G1 F8640.000
G1 X127.353 Y85.738 E-0.10535
G1 X126.978 Y85.793 E-0.08754
G1 X126.572 Y85.785 E-0.09381
G1 X126.174 Y85.640 E-0.09793
G1 X125.834 Y85.390 E-0.09725
G1 X125.577 Y85.058 E-0.09708
G1 X125.416 Y84.671 E-0.09681
G1 X125.361 Y84.256 E-0.09672
G1 X125.416 Y83.841 E-0.09670
M73 P1 R56
G1 X125.576 Y83.454 E-0.09670
G1 X125.831 Y83.122 E-0.09670
G1 X126.163 Y82.867 E-0.09669
G1 X126.550 Y82.706 E-0.09670
G1 X126.868 Y82.664 E-0.07403
;WIPE_END
G1 E-0.07000 F2100.000
G1 Z0.400 F10800.000
G1 X128.885 Y81.472
G1 Z0.200
G1 E1.40000 F2100.000
;TYPE:Perimeter
G1 F1200.000
G1 X129.755 Y81.604 E0.02757
G1 X130.606 Y81.823 E0.02757
G1 X131.431 Y82.127 E0.02757
G1 X132.222 Y82.512 E0.02757
G1 X132.970 Y82.974 E0.02757
G1 X133.668 Y83.510 E0.02757
G1 X134.308 Y84.112 E0.02757
G1 X134.884 Y84.776 E0.02757
G1 X135.391 Y85.495 E0.02757
G1 X135.823 Y86.261 E0.02757
G1 X136.176 Y87.067 E0.02757
G1 X136.452 Y87.922 E0.02819
G1 X138.353 Y95.016 E0.23028
G1 X138.592 Y95.720 E0.02330
G1 X138.933 Y96.411 E0.02415
G1 X139.362 Y97.051 E0.02414
G1 X139.870 Y97.629 E0.02414
G1 X140.450 Y98.135 E0.02414
G1 X141.091 Y98.562 E0.02414
G1 X141.782 Y98.900 E0.02414
