; generated by PrusaSlicer 2.3.0+win64 on 2021-08-23 at 02:56:38 UTC

; 

; external perimeters extrusion width = 0.60mm
; perimeters extrusion width = 0.50mm
; infill extrusion width = 0.50mm
; solid infill extrusion width = 0.50mm
; top infill extrusion width = 0.45mm
; support material extrusion width = 0.38mm
; first layer extrusion width = 0.42mm

M73 P0 R31
M73 Q0 S31
M201 X1000 Y1000 Z200 E5000 ; sets maximum accelerations, mm/sec^2
M203 X200 Y200 Z12 E120 ; sets maximum feedrates, mm/sec
M204 P1250 R1250 T1250 ; sets acceleration (P, T) and retract acceleration (R), mm/sec^2
M205 X8.00 Y8.00 Z0.40 E4.50 ; sets the jerk limits, mm/sec
M205 S0 T0 ; sets the minimum extruding and travel feed rate, mm/sec
M107
;TYPE:Custom
M862.3 P "MK3S" ; printer model check
M862.1 P0.4 ; nozzle diameter check
M115 U3.9.1 ; tell printer latest fw version
G90 ; use absolute coordinates
M83 ; extruder relative mode
M104 S215 ; set extruder temp
M140 S60 ; set bed temp
M190 S60 ; wait for bed temp
M109 S215 ; wait for extruder temp
G28 W ; home all without mesh bed level
G80 ; mesh bed leveling
G1 Y-3.0 F1000.0 ; go outside print area
G92 E0.0
G1 X60.0 E9.0 F1000.0 ; intro line
G1 X100.0 E12.5 F1000.0 ; intro line
G92 E0.0
M221 S95

; Don't change E values below. Excessive value can damage the printer.

M907 E538 ; set extruder motor current
G21 ; set units to millimeters
G90 ; use absolute coordinates
M83 ; use relative distances for extrusion
M900 K0.05 ; Filament gcode LA 1.5
M900 K30 ; Filament gcode LA 1.0
;LAYER_CHANGE
;Z:0.2
;HEIGHT:0.2
;BEFORE_LAYER_CHANGE
G92 E0.0
;0.2


G1 E-0.80000 F2100.000
G1 Z0.600 F10800.000
;AFTER_LAYER_CHANGE
;0.2
G1 X76.769 Y88.463
G1 Z0.200
G1 E0.80000 F2100.000
M204 S1000
;TYPE:Skirt
;WIDTH:0.42
G1 F1200.000
G1 X77.121 Y87.804 E0.02343
G1 X77.479 Y87.426 E0.01633
G1 X77.911 Y87.135 E0.01633
G1 X78.396 Y86.945 E0.01633
G1 X78.915 Y86.866 E0.01645
G1 X103.150 Y86.694 E0.75991
G1 X166.650 Y88.343 E1.99165
G1 X171.282 Y88.518 E0.14534
G1 X172.155 Y88.756 E0.02837
G1 X172.684 Y89.112 E0.02000
G1 X173.102 Y89.599 E0.02012
G1 X173.373 Y90.176 E0.02000
G1 X173.481 Y90.809 E0.02012
G1 X173.482 Y120.172 E0.92065
G1 X173.418 Y120.704 E0.01680
G1 X173.237 Y121.205 E0.01668
G1 X172.886 Y121.728 E0.01977
G1 X172.406 Y122.143 E0.01989
G1 X171.833 Y122.416 E0.01989
G1 X171.209 Y122.528 E0.01989
G1 X142.428 Y122.530 E0.90241
G1 X110.593 Y122.093 E0.99828
G1 X78.894 Y120.879 E0.99463
G1 X78.202 Y120.739 E0.02213
G1 X77.579 Y120.399 E0.02225
G1 X77.191 Y120.029 E0.01680
G1 X76.894 Y119.578 E0.01692
G1 X76.707 Y119.072 E0.01692
M73 Q1 S31
G1 X76.638 Y118.537 E0.01692
G1 X76.638 Y89.202 E0.91976
M73 P1 R31
G1 X76.758 Y88.522 E0.02167
;WIPE_START
G1 F8640.000
G1 X77.121 Y87.804 E-0.18576
G1 X77.479 Y87.426 E-0.12025
G1 X77.911 Y87.135 E-0.12025
G1 X78.396 Y86.945 E-0.12025
G1 X78.915 Y86.866 E-0.12113
G1 X79.315 Y86.863 E-0.09236
;WIPE_END
G1 E-0.04000 F2100.000
G1 Z0.800 F10800.000
G1 X142.447 Y120.153
G1 Z0.200
G1 E0.80000 F2100.000
;TYPE:Support material
G1 F1200.000
G1 X142.447 Y90.889 E0.91756
G1 X143.201 Y90.889 E0.02365
G1 X143.201 Y119.983 E0.91224
G1 X143.956 Y119.983 E0.02365
G1 X143.956 Y90.889 E0.91224
G1 X144.710 Y90.889 E0.02365
G1 X144.710 Y119.983 E0.91224
G1 X145.464 Y119.983 E0.02365
G1 X145.464 Y90.889 E0.91224
G1 X146.218 Y90.889 E0.02365
G1 X146.218 Y120.153 E0.91756
;WIPE_START
M73 P1 R30
G1 F8640.000
G1 X146.218 Y116.862 E-0.76000
;WIPE_END
G1 E-0.04000 F2100.000
G1 Z0.800 F10800.000
G1 X164.318 Y104.617
G1 Z0.200
G1 E0.80000 F2100.000
G1 F1200.000
G1 X164.318 Y97.829 E0.21284
G1 X163.564 Y97.829 E0.02365
G1 X163.564 Y103.774 E0.18641
G1 X162.810 Y103.774 E0.02365
G1 X162.810 Y97.829 E0.18641
G1 X162.055 Y97.829 E0.02365
G1 X162.055 Y103.774 E0.18641
G1 X161.301 Y103.774 E0.02365
G1 X161.301 Y97.829 E0.18641
G1 X160.547 Y97.829 E0.02365
G1 X160.547 Y103.774 E0.18641
G1 X159.793 Y103.774 E0.02365
G1 X159.793 Y97.829 E0.18641
G1 X159.039 Y97.829 E0.02365
G1 X159.039 Y103.774 E0.18641
G1 X158.285 Y103.774 E0.02365
G1 X158.285 Y97.829 E0.18641
G1 X157.530 Y97.829 E0.02365
G1 X157.530 Y103.774 E0.18641
G1 X156.776 Y103.774 E0.02365
G1 X156.776 Y97.829 E0.18641
G1 X156.022 Y97.829 E0.02365
G1 X156.022 Y103.774 E0.18641
G1 X155.268 Y103.774 E0.02365
G1 X155.268 Y97.829 E0.18641
G1 X154.514 Y97.829 E0.02365
G1 X154.514 Y103.774 E0.18641
G1 X153.760 Y103.774 E0.02365
G1 X153.760 Y97.829 E0.18641
G1 X153.005 Y97.829 E0.02365
G1 X153.005 Y103.774 E0.18641
G1 X152.799 Y103.774 E0.00649
G1 X152.799 Y104.447 E0.02112
G1 X152.251 Y104.447 E0.01716
G1 X152.251 Y97.829 E0.20752
G1 X151.497 Y97.829 E0.02365
G1 X151.497 Y104.447 E0.20752
G1 X150.743 Y104.447 E0.02365
G1 X150.743 Y97.829 E0.20752
M73 P2 R30
M73 Q2 S31
G1 X149.989 Y97.829 E0.02365
G1 X149.989 Y104.447 E0.20752
G1 X149.235 Y104.447 E0.02365
G1 X149.235 Y97.659 E0.21284
;WIPE_START
G1 F8640.000
G1 X149.235 Y100.951 E-0.76000
;WIPE_END
G1 E-0.04000 F2100.000
G1 Z0.800 F10800.000
G1 X149.235 Y106.255
G1 Z0.200
G1 E0.80000 F2100.000
G1 F1200.000
G1 X149.235 Y113.043 E0.21284
G1 X149.989 Y113.043 E0.02365
G1 X149.989 Y106.425 E0.20752
G1 X150.743 Y106.425 E0.02365
G1 X150.743 Y113.043 E0.20752
G1 X151.497 Y113.043 E0.02365
G1 X151.497 Y106.425 E0.20752
G1 X152.251 Y106.425 E0.02365
G1 X152.251 Y113.043 E0.20752
G1 X153.005 Y113.043 E0.02365
G1 X153.005 Y107.098 E0.18641
G1 X153.760 Y107.098 E0.02365
G1 X153.760 Y113.043 E0.18641
G1 X154.514 Y113.043 E0.02365
G1 X154.514 Y107.098 E0.18641
G1 X155.268 Y107.098 E0.02365
G1 X155.268 Y113.043 E0.18641
G1 X156.022 Y113.043 E0.02365
G1 X156.022 Y107.098 E0.18641
G1 X156.776 Y107.098 E0.02365
G1 X156.776 Y113.043 E0.18641
G1 X157.530 Y113.043 E0.02365
G1 X157.530 Y107.098 E0.18641
G1 X158.285 Y107.098 E0.02365
G1 X158.285 Y113.043 E0.18641
G1 X159.039 Y113.043 E0.02365
G1 X159.039 Y107.098 E0.18641
G1 X159.793 Y107.098 E0.02365
G1 X159.793 Y113.043 E0.18641
G1 X160.547 Y113.043 E0.02365
G1 X160.547 Y107.098 E0.18641
G1 X161.301 Y107.098 E0.02365
G1 X161.301 Y113.043 E0.18641
G1 X162.055 Y113.043 E0.02365
G1 X162.055 Y107.098 E0.18641
G1 X162.810 Y107.098 E0.02365
G1 X162.810 Y113.043 E0.18641
G1 X163.564 Y113.043 E0.02365
G1 X163.564 Y107.098 E0.18641
G1 X164.165 Y107.098 E0.01885
G1 X164.165 Y106.425 E0.02112
G1 X164.318 Y106.425 E0.00480
G1 X164.318 Y113.213 E0.21284
;WIPE_START
G1 F8640.000
G1 X164.318 Y109.921 E-0.76000
;WIPE_END
G1 E-0.04000 F2100.000
G1 Z0.800 F10800.000
G1 X171.105 Y120.153
G1 Z0.200
G1 E0.80000 F2100.000
G1 F1200.000
G1 X171.105 Y90.889 E0.91756
G1 X170.351 Y90.889 E0.02365
G1 X170.351 Y119.983 E0.91224
M73 Q2 S30
G1 X169.597 Y119.983 E0.02365
G1 X169.597 Y90.889 E0.91224
G1 X168.843 Y90.889 E0.02365
G1 X168.843 Y119.983 E0.91224
G1 X168.089 Y119.983 E0.02365
G1 X168.089 Y90.889 E0.91224
G1 X167.335 Y90.889 E0.02365
G1 X167.334 Y119.983 E0.91224
G1 X166.580 Y119.983 E0.02365
G1 X166.580 Y114.263 E0.17934
M73 P3 R30
M73 Q3 S30
G1 X166.395 Y114.522 E0.00996
G1 X166.153 Y114.793 E0.01141
G1 X165.826 Y115.082 E0.01368
G1 X165.826 Y119.983 E0.15367
G1 X165.072 Y119.983 E0.02365
G1 X165.072 Y115.529 E0.13967
G1 X164.816 Y115.633 E0.00869
G1 X164.318 Y115.761 E0.01611
G1 X164.318 Y119.983 E0.13239
G1 X163.564 Y119.983 E0.02365
G1 X163.564 Y115.825 E0.13039
G1 X162.810 Y115.825 E0.02365
G1 X162.810 Y119.983 E0.13039
G1 X162.055 Y119.983 E0.02365
G1 X162.055 Y115.825 E0.13039
G1 X161.301 Y115.825 E0.02365
G1 X161.301 Y119.983 E0.13039
G1 X160.547 Y119.983 E0.02365
G1 X160.547 Y115.825 E0.13039
G1 X159.793 Y115.825 E0.02365
G1 X159.793 Y119.983 E0.13039
G1 X159.039 Y119.983 E0.02365
G1 X159.039 Y115.825 E0.13039
G1 X158.285 Y115.825 E0.02365
G1 X158.285 Y119.983 E0.13039
G1 X157.530 Y119.983 E0.02365
G1 X157.530 Y115.825 E0.13039
G1 X156.776 Y115.825 E0.02365
G1 X156.776 Y119.983 E0.13039
G1 X156.022 Y119.983 E0.02365
G1 X156.022 Y115.825 E0.13039
G1 X155.268 Y115.825 E0.02365
G1 X155.268 Y119.983 E0.13039
G1 X154.514 Y119.983 E0.02365
G1 X154.514 Y115.825 E0.13039
G1 X153.760 Y115.825 E0.02365
G1 X153.760 Y119.983 E0.13039
G1 X153.005 Y119.983 E0.02365
G1 X153.005 Y115.825 E0.13039
G1 X152.251 Y115.825 E0.02365
G1 X152.251 Y119.983 E0.13039
G1 X151.497 Y119.983 E0.02365
G1 X151.497 Y115.825 E0.13039
G1 X150.743 Y115.825 E0.02365
G1 X150.743 Y119.983 E0.13039
G1 X149.989 Y119.983 E0.02365
G1 X149.989 Y115.825 E0.13039
G1 X149.499 Y115.804 E0.01536
G1 X149.235 Y115.761 E0.00841
G1 X149.235 Y119.983 E0.13239
G1 X148.481 Y119.983 E0.02365
G1 X148.481 Y115.529 E0.13967
G1 X148.032 Y115.297 E0.01583
G1 X147.726 Y115.082 E0.01171
G1 X147.726 Y119.983 E0.15367
G1 X146.972 Y119.983 E0.02365
G1 X146.972 Y114.263 E0.17934
G1 X146.739 Y113.862 E0.01456
G1 X146.579 Y113.475 E0.01312
G1 X146.478 Y113.126 E0.01141
G1 X146.411 Y112.740 E0.01227
G1 X146.388 Y112.343 E0.01248
G1 X146.388 Y98.529 E0.43312
G1 X146.411 Y98.132 E0.01248
G1 X146.478 Y97.746 E0.01227
G1 X146.579 Y97.397 E0.01141
G1 X146.739 Y97.010 E0.01312
G1 X146.972 Y96.609 E0.01456
G1 X146.972 Y90.889 E0.17934
G1 X147.726 Y90.889 E0.02365
G1 X147.726 Y95.790 E0.15367
G1 X148.032 Y95.575 E0.01171
G1 X148.481 Y95.343 E0.01583
G1 X148.481 Y90.889 E0.13967
G1 X149.235 Y90.889 E0.02365
G1 X149.235 Y95.111 E0.13240
G1 X149.499 Y95.068 E0.00841
G1 X149.989 Y95.047 E0.01536
G1 X149.989 Y90.889 E0.13040
G1 X150.743 Y90.889 E0.02365
G1 X150.743 Y95.047 E0.13040
G1 X151.497 Y95.047 E0.02365
G1 X151.497 Y90.889 E0.13040
G1 X152.251 Y90.889 E0.02365
G1 X152.251 Y95.047 E0.13040
G1 X153.005 Y95.047 E0.02365
G1 X153.005 Y90.889 E0.13040
G1 X153.760 Y90.889 E0.02365
G1 X153.760 Y95.047 E0.13040
G1 X154.514 Y95.047 E0.02365
G1 X154.514 Y90.889 E0.13040
G1 X155.268 Y90.889 E0.02365
G1 X155.268 Y95.047 E0.13040
G1 X156.022 Y95.047 E0.02365
G1 X156.022 Y90.889 E0.13040
G1 X156.776 Y90.889 E0.02365
G1 X156.776 Y95.047 E0.13040
G1 X157.530 Y95.047 E0.02365
G1 X157.530 Y90.889 E0.13040
G1 X158.285 Y90.889 E0.02365
G1 X158.285 Y95.047 E0.13040
G1 X159.039 Y95.047 E0.02365
G1 X159.039 Y90.889 E0.13040
G1 X159.793 Y90.889 E0.02365
G1 X159.793 Y95.047 E0.13040
G1 X160.547 Y95.047 E0.02365
G1 X160.547 Y90.889 E0.13040
G1 X161.301 Y90.889 E0.02365
G1 X161.301 Y95.047 E0.13040
G1 X162.055 Y95.047 E0.02365
G1 X162.055 Y90.889 E0.13040
G1 X162.810 Y90.889 E0.02365
G1 X162.810 Y95.047 E0.13040
G1 X163.564 Y95.047 E0.02365
G1 X163.564 Y90.889 E0.13040
G1 X164.318 Y90.889 E0.02365
G1 X164.318 Y95.111 E0.13240
G1 X164.816 Y95.239 E0.01611
G1 X165.072 Y95.343 E0.00869
G1 X165.072 Y90.889 E0.13967
G1 X165.826 Y90.889 E0.02365
G1 X165.826 Y95.790 E0.15367
G1 X166.153 Y96.079 E0.01368
G1 X166.395 Y96.350 E0.01141
G1 X166.580 Y96.609 E0.00996
G1 X166.580 Y90.719 E0.18466
;WIPE_START
G1 F8640.000
G1 X166.580 Y94.010 E-0.76000
;WIPE_END
G1 E-0.04000 F2100.000
G1 Z0.800 F10800.000
G1 X165.517 Y97.001
G1 Z0.200
G1 E0.80000 F2100.000
;TYPE:External perimeter
G1 F1200.000
G1 X165.583 Y98.173 E0.03681
G1 X165.586 Y103.439 E0.16514
G1 X165.553 Y104.451 E0.03173
G1 X165.466 Y105.247 E0.02513
G1 X161.267 Y105.247 E0.13164
G1 X161.267 Y105.625 E0.01182
G1 X165.466 Y105.625 E0.13164
G1 X165.553 Y106.421 E0.02513
G1 X165.586 Y107.433 E0.03173
G1 X165.583 Y112.699 E0.16514
G1 X165.517 Y113.871 E0.03681
G1 X164.690 Y113.922 E0.02596
G1 X163.696 Y113.942 E0.03119
G1 X149.359 Y113.939 E0.44951
G1 X148.036 Y113.874 E0.04154
G1 X147.970 Y112.699 E0.03688
G1 X147.967 Y107.433 E0.16514
G1 X147.999 Y106.421 E0.03173
G1 X148.087 Y105.625 E0.02513
G1 X152.285 Y105.625 E0.13164
M73 P4 R30
G1 X152.285 Y105.247 E0.01182
G1 X148.087 Y105.247 E0.13164
M73 Q4 S30
G1 X147.999 Y104.451 E0.02513
G1 X147.967 Y103.439 E0.03173
G1 X147.970 Y98.173 E0.16514
G1 X148.036 Y96.998 E0.03688
G1 X149.359 Y96.933 E0.04154
G1 X150.353 Y96.930 E0.03115
G1 X163.696 Y96.930 E0.41836
G1 X164.690 Y96.950 E0.03119
G1 X165.457 Y96.997 E0.02408
G1 X165.917 Y96.991 F10800.000
;WIPE_START
G1 F8640.000
G1 X165.583 Y98.173 E-0.27303
G1 X165.584 Y100.282 E-0.48697
;WIPE_END
G1 E-0.04000 F2100.000
G1 Z0.800 F10800.000
G1 X163.844 Y96.556
G1 Z0.200
G1 E0.80000 F2100.000
;TYPE:Perimeter
G1 F1200.000
G1 X149.692 Y96.555 E0.44374
G1 X149.685 Y96.335 E0.00691
G1 X163.660 Y96.323 E0.43816
G1 X163.852 Y96.334 E0.00605
G1 X163.846 Y96.496 E0.00508
;WIPE_START
G1 F8640.000
G1 X160.555 Y96.510 E-0.76000
;WIPE_END
G1 E-0.04000 F2100.000
G1 Z0.800 F10800.000
G1 X163.844 Y114.316
G1 Z0.200
G1 E0.80000 F2100.000
G1 F1200.000
G1 X163.852 Y114.538 E0.00696
G1 X163.654 Y114.549 E0.00623
G1 X149.685 Y114.537 E0.43799
G1 X149.692 Y114.317 E0.00691
G1 X163.784 Y114.317 E0.44186
;WIPE_START
G1 F8640.000
G1 X163.852 Y114.538 E-0.05337
G1 X163.654 Y114.549 E-0.04585
G1 X160.792 Y114.546 E-0.66078
;WIPE_END
G1 E-0.04000 F2100.000
G1 Z0.800 F10800.000
G1 X165.879 Y113.849
G1 Z0.200
G1 E0.80000 F2100.000
;TYPE:External perimeter
G1 F1200.000
G1 X165.496 Y114.238 E0.01712
G1 X165.497 Y114.223 E0.00046
G1 X165.065 Y114.528 E0.01658
G1 X164.803 Y114.669 E0.00933
G1 X164.532 Y114.780 E0.00918
G1 X164.253 Y114.860 E0.00912
G1 X163.966 Y114.909 E0.00911
G1 X163.665 Y114.926 E0.00947
G1 X149.888 Y114.926 E0.43197
G1 X149.586 Y114.909 E0.00947
G1 X149.300 Y114.860 E0.00911
G1 X149.021 Y114.780 E0.00912
G1 X148.750 Y114.669 E0.00916
G1 X148.491 Y114.529 E0.00923
G1 X148.055 Y114.220 E0.01676
G1 X148.056 Y114.238 E0.00058
G1 X147.680 Y113.856 E0.01680
G1 X147.727 Y113.859 E0.00145
G1 X147.538 Y113.486 E0.01309
G1 X147.431 Y113.202 E0.00953
G1 X147.351 Y112.915 E0.00933
G1 X147.303 Y112.626 E0.00918
G1 X147.286 Y112.325 E0.00948
G1 X147.286 Y98.547 E0.43197
G1 X147.303 Y98.246 E0.00948
G1 X147.351 Y97.957 E0.00917
G1 X147.430 Y97.674 E0.00922
G1 X147.662 Y97.115 E0.01896
G1 X147.727 Y97.013 E0.00378
G1 X147.680 Y97.016 E0.00145
G1 X148.056 Y96.634 E0.01680
G1 X148.056 Y96.649 E0.00046
G1 X148.488 Y96.344 E0.01658
G1 X148.750 Y96.203 E0.00933
G1 X149.020 Y96.092 E0.00918
G1 X149.300 Y96.012 E0.00912
G1 X149.586 Y95.963 E0.00911
G1 X149.888 Y95.946 E0.00947
G1 X163.670 Y95.946 E0.43214
G1 X163.966 Y95.963 E0.00929
G1 X164.253 Y96.012 E0.00911
G1 X164.532 Y96.092 E0.00912
G1 X164.803 Y96.203 E0.00918
G1 X165.061 Y96.343 E0.00922
G1 X165.497 Y96.652 E0.01676
G1 X165.496 Y96.634 E0.00058
G1 X165.879 Y97.023 E0.01712
G1 X165.830 Y97.020 E0.00155
G1 X166.015 Y97.386 E0.01285
G1 X166.122 Y97.670 E0.00953
G1 X166.201 Y97.957 E0.00933
G1 X166.249 Y98.246 E0.00918
G1 X166.266 Y98.547 E0.00948
G1 X166.266 Y112.325 E0.43197
G1 X166.249 Y112.626 E0.00948
G1 X166.201 Y112.915 E0.00918
G1 X166.123 Y113.198 E0.00922
G1 X165.891 Y113.757 E0.01896
G1 X165.836 Y113.843 E0.00321
G1 X165.482 Y113.803 F10800.000
G1 X165.744 Y113.565
;TYPE:Gap fill
;WIDTH:0.130825
G1 F1200.000
G1 X165.823 Y113.219 E0.00259
;WIDTH:0.24334
G1 X165.892 Y112.847 E0.00632
G1 X165.917 Y112.589 E0.00431
;WIDTH:0.349048
G1 X165.926 Y107.430 E0.13134
G1 X165.892 Y106.072 E0.03458
;WIDTH:0.449634
G1 X165.857 Y105.436 E0.02153
G1 X165.892 Y104.800 E0.02153
;WIDTH:0.414949
G1 X165.909 Y104.483 E0.00985
;WIDTH:0.380262
G1 X165.926 Y103.447 E0.02904
;WIDTH:0.346263
G1 X165.917 Y98.283 E0.13027
;WIDTH:0.333919
G1 X165.907 Y98.167 E0.00280
;WIDTH:0.314776
G1 X165.892 Y98.025 E0.00322
;WIDTH:0.298926
G1 X165.870 Y97.892 E0.00287
;WIDTH:0.270239
G1 X165.848 Y97.759 E0.00255
;WIDTH:0.241552
G1 X165.818 Y97.619 E0.00236
;WIDTH:0.198233
G1 X165.789 Y97.479 E0.00185
;WIDTH:0.154915
G1 X165.766 Y97.386 E0.00089
;WIDTH:0.124118
G1 X165.743 Y97.293 E0.00065
G1 X165.289 Y96.736 F10800.000
;WIDTH:0.415897
G1 F1200.000
G1 X164.039 Y96.393 E0.04019
G1 X164.037 Y96.453 F10800.000
;WIDTH:0.494847
G1 F1200.000
G1 X164.388 Y96.506 E0.01334
G1 X165.205 Y96.676 E0.03135
;WIPE_START
G1 F8640.000
G1 X164.388 Y96.506 E-0.19262
G1 X164.037 Y96.453 E-0.08199
;WIPE_END
G1 E-0.52539 F2100.000
G1 Z0.800 F10800.000
G1 X149.500 Y96.450
G1 Z0.200
G1 E0.80000 F2100.000
;WIDTH:0.558442
G1 F1200.000
G1 X149.165 Y96.505 E0.01457
;WIDTH:0.540014
G1 X148.733 Y96.602 E0.01827
;WIDTH:0.497226
G1 X148.302 Y96.698 E0.01670
G1 X147.809 Y97.308 F10800.000
;WIDTH:0.143239
G1 F1200.000
G1 X147.739 Y97.614 E0.00262
;WIDTH:0.243077
