; generated by PrusaSlicer 2.3.0+win64 on 2021-07-14 at 19:30:32 UTC

; 

; external perimeters extrusion width = 0.45mm
; perimeters extrusion width = 0.45mm
; infill extrusion width = 0.45mm
; solid infill extrusion width = 0.45mm
; top infill extrusion width = 0.40mm
; support material extrusion width = 0.35mm
; first layer extrusion width = 0.42mm

M73 P0 R369
M73 Q0 S374
M201 X1000 Y1000 Z200 E5000 ; sets maximum accelerations, mm/sec^2
M203 X200 Y200 Z12 E120 ; sets maximum feedrates, mm/sec
M204 P1250 R1250 T1250 ; sets acceleration (P, T) and retract acceleration (R), mm/sec^2
M205 X8.00 Y8.00 Z0.40 E4.50 ; sets the jerk limits, mm/sec
M205 S0 T0 ; sets the minimum extruding and travel feed rate, mm/sec
M107
;TYPE:Custom
M862.3 P "MK3S" ; printer model check
M862.1 P0.4 ; nozzle diameter check
M115 U3.9.1 ; tell printer latest fw version
G90 ; use absolute coordinates
M83 ; extruder relative mode
M104 S240 ; set extruder temp
M140 S85 ; set bed temp
M190 S85 ; wait for bed temp
M109 S240 ; wait for extruder temp
G28 W ; home all without mesh bed level
G80 ; mesh bed leveling
G1 Y-3.0 F1000.0 ; go outside print area
G92 E0.0
G1 X60.0 E9.0 F1000.0 ; intro line
G1 X100.0 E12.5 F1000.0 ; intro line
G92 E0.0
M221 S95

; Don't change E values below. Excessive value can damage the printer.
M907 E430 ; set extruder motor current
G21 ; set units to millimeters
G90 ; use absolute coordinates
M83 ; use relative distances for extrusion
M900 K0.08 ; Filament gcode LA 1.5
M900 K45 ; Filament gcode LA 1.0
;LAYER_CHANGE
;Z:0.2
;HEIGHT:0.2
;BEFORE_LAYER_CHANGE
G92 E0.0
;0.2


G1 E-1.40000 F2100.000
G1 Z0.200 F10800.000
;AFTER_LAYER_CHANGE
;0.2
G1 Z0.400
G1 X86.611 Y21.054
G1 Z0.200
G1 E1.40000 F2100.000
M204 S1000
;TYPE:Skirt
;WIDTH:0.42
G1 F1200.000
G1 X86.960 Y20.462 E0.02154
G1 X87.461 Y19.997 E0.02142
G1 X88.076 Y19.692 E0.02154
G1 X88.753 Y19.576 E0.02154
G1 X156.709 Y19.371 E2.13071
G1 X157.586 Y19.541 E0.02802
G1 X158.342 Y20.025 E0.02813
G1 X158.863 Y20.751 E0.02802
G1 X159.078 Y21.618 E0.02802
G1 X165.964 Y186.732 E5.18152
G1 X165.941 Y187.291 E0.01755
G1 X165.794 Y187.822 E0.01728
G1 X165.443 Y188.417 E0.02166
G1 X164.936 Y188.886 E0.02166
G1 X164.301 Y189.200 E0.02221
G1 X163.613 Y189.316 E0.02190
G1 X97.832 Y189.515 E2.06252
M73 Q0 S373
G1 X88.262 Y189.485 E0.30006
G1 X87.409 Y189.309 E0.02731
G1 X86.908 Y189.029 E0.01799
G1 X86.486 Y188.635 E0.01811
G1 X86.171 Y188.151 E0.01811
G1 X85.984 Y187.608 E0.01799
G1 X77.289 Y142.405 E1.44329
G1 X77.336 Y133.043 E0.29355
G1 X77.548 Y128.433 E0.14470
G1 X86.443 Y21.751 E3.35654
G1 X86.597 Y21.112 E0.02060
;WIPE_START
G1 F8640.000
G1 X86.960 Y20.462 E-0.17193
G1 X87.461 Y19.997 E-0.15776
G1 X88.076 Y19.692 E-0.15863
G1 X88.753 Y19.576 E-0.15863
G1 X91.712 Y19.567 E-0.68304
;WIPE_END
G1 E-0.07000 F2100.000
G1 Z0.400 F10800.000
G1 X93.578 Y57.361
G1 Z0.200
G1 E1.40000 F2100.000
;TYPE:Support material
G1 F1200.000
G1 X92.512 Y58.427 E0.04727
G1 X92.360 Y58.798 E0.01259
G1 X92.300 Y59.263 E0.01470
G1 X92.352 Y59.653 E0.01234
G1 X94.491 Y57.514 E0.09486
G1 X94.555 Y57.522 E0.00202
G1 X94.989 Y57.700 E0.01469
G1 X95.206 Y57.866 E0.00857
G1 X92.704 Y60.369 E0.11097
G1 X92.829 Y60.532 E0.00646
G1 X93.202 Y60.816 E0.01470
G1 X93.288 Y60.851 E0.00289
G1 X95.688 Y58.451 E0.10642
G1 X95.829 Y58.788 E0.01145
G1 X95.891 Y59.253 E0.01470
G1 X95.882 Y59.323 E0.00223
G1 X93.994 Y61.211 E0.08372
;WIPE_START
G1 F8640.000
G1 X95.882 Y59.323 E-0.61651
G1 X95.891 Y59.253 E-0.01645
G1 X95.829 Y58.788 E-0.10826
G1 X95.688 Y58.451 E-0.08432
G1 X94.143 Y59.996 E-0.50447
;WIPE_END
G1 E-0.07000 F2100.000
G1 Z0.400 F10800.000
G1 X113.328 Y63.208
G1 Z0.200
G1 E1.40000 F2100.000
G1 F1200.000
G1 X110.494 Y66.042 E0.12567
G1 X110.067 Y66.951 E0.03148
G1 X109.849 Y67.754 E0.02608
G1 X114.684 Y62.919 E0.21438
G1 X115.003 Y62.835 E0.01036
G1 X115.911 Y62.758 E0.02858
G1 X109.687 Y68.982 E0.27597
G1 X109.668 Y69.195 E0.00671
G1 X109.666 Y70.070 E0.02745
G1 X116.923 Y62.813 E0.32179
G1 X117.235 Y62.841 E0.00984
G1 X117.806 Y62.996 E0.01854
G1 X109.662 Y71.140 E0.36111
G1 X109.659 Y72.210 E0.03354
G1 X118.601 Y63.268 E0.39649
G1 X119.326 Y63.609 E0.02514
G1 X109.656 Y73.280 E0.42881
G1 X109.652 Y74.350 E0.03354
G1 X119.952 Y64.049 E0.45672
G1 X120.246 Y64.257 E0.01127
G1 X120.528 Y64.540 E0.01254
G1 X109.649 Y75.419 E0.48240
G1 X109.646 Y76.489 E0.03354
G1 X121.056 Y65.079 E0.50593
G1 X121.493 Y65.708 E0.02402
G1 X109.643 Y77.559 E0.52547
G1 X109.639 Y78.629 E0.03354
G1 X121.872 Y66.396 E0.54243
G1 X122.146 Y66.988 E0.02046
G1 X122.188 Y67.146 E0.00513
G1 X109.636 Y79.699 E0.55658
M73 P0 R368
G1 X109.633 Y80.768 E0.03354
G1 X122.411 Y67.990 E0.56662
G1 X122.433 Y68.070 E0.00261
G1 X122.508 Y68.960 E0.02799
G1 X109.630 Y81.838 E0.57105
G1 X109.626 Y82.908 E0.03354
G1 X122.529 Y70.006 E0.57211
G1 X122.525 Y71.075 E0.03354
G1 X109.623 Y83.978 E0.57211
G1 X109.620 Y85.048 E0.03354
G1 X122.522 Y72.145 E0.57211
G1 X122.519 Y73.215 E0.03354
G1 X109.616 Y86.117 E0.57211
G1 X109.613 Y87.187 E0.03354
G1 X122.516 Y74.285 E0.57211
G1 X122.512 Y75.355 E0.03354
G1 X112.001 Y85.866 E0.46610
G1 X112.534 Y86.400 E0.02365
G1 X122.509 Y76.424 E0.44231
G1 X122.506 Y77.494 E0.03354
G1 X113.067 Y86.933 E0.41852
G1 X113.601 Y87.466 E0.02365
G1 X122.503 Y78.564 E0.39473
G1 X122.499 Y79.634 E0.03354
G1 X114.134 Y87.999 E0.37094
G1 X114.259 Y88.125 E0.00557
G1 X116.598 Y85.786 E0.10369
G1 X117.006 Y86.194 E0.01808
G1 X122.496 Y80.704 E0.24346
G1 X122.493 Y81.774 E0.03354
G1 X117.539 Y86.727 E0.21966
G1 X118.072 Y87.261 E0.02365
G1 X122.489 Y82.843 E0.19587
G1 X122.486 Y83.913 E0.03354
G1 X118.605 Y87.794 E0.17208
G1 X118.936 Y88.125 E0.01468
G1 X121.275 Y85.786 E0.10369
G1 X121.477 Y85.989 E0.00897
G1 X122.483 Y84.983 E0.04460
G1 X122.480 Y86.053 E0.03354
G1 X121.890 Y86.642 E0.02613
;WIPE_START
G1 F8640.000
G1 X122.480 Y86.053 E-0.19243
G1 X122.483 Y84.983 E-0.24702
G1 X121.477 Y85.989 E-0.32845
G1 X121.275 Y85.786 E-0.06605
G1 X119.756 Y87.306 E-0.49605
;WIPE_END
G1 E-0.07000 F2100.000
G1 Z0.400 F10800.000
G1 X94.231 Y89.771
G1 Z0.200
G1 E1.40000 F2100.000
G1 F1200.000
G1 X95.749 Y88.253 E0.06731
G1 X95.804 Y87.828 E0.01344
G1 X95.741 Y87.363 E0.01470
G1 X95.692 Y87.244 E0.00404
G1 X93.419 Y89.516 E0.10075
G1 X93.115 Y89.391 E0.01032
G1 X92.754 Y89.115 E0.01425
G1 X95.290 Y86.579 E0.11245
G1 X95.274 Y86.559 E0.00080
G1 X94.901 Y86.275 E0.01469
G1 X94.636 Y86.166 E0.00899
G1 X92.341 Y88.461 E0.10176
G1 X92.275 Y88.303 E0.00537
G1 X92.212 Y87.838 E0.01470
G1 X92.259 Y87.477 E0.01143
G1 X93.849 Y85.887 E0.07050
;WIPE_START
G1 F8640.000
G1 X92.259 Y87.477 E-0.51915
G1 X92.212 Y87.838 E-0.08414
G1 X92.275 Y88.303 E-0.10828
G1 X92.341 Y88.461 E-0.03958
G1 X94.114 Y86.689 E-0.57884
;WIPE_END
G1 E-0.07000 F2100.000
G1 Z0.400 F10800.000
G1 X118.026 Y136.368
G1 Z0.200
G1 E1.40000 F2100.000
G1 F1200.000
G1 X121.856 Y132.538 E0.16981
G1 X121.947 Y132.344 E0.00671
G1 X122.240 Y131.264 E0.03510
G1 X122.257 Y131.070 E0.00611
G1 X116.853 Y136.474 E0.23964
G1 X115.894 Y136.555 E0.03017
G1 X115.721 Y136.539 E0.00544
G1 X122.346 Y129.915 E0.29374
G1 X122.349 Y128.845 E0.03354
G1 X114.748 Y136.446 E0.33703
G1 X113.909 Y136.218 E0.02725
G1 X122.352 Y127.775 E0.37438
G1 X122.355 Y126.705 E0.03354
G1 X113.155 Y135.906 E0.40796
G1 X112.683 Y135.684 E0.01636
G1 X112.464 Y135.530 E0.00837
G1 X122.359 Y125.636 E0.43874
G1 X122.362 Y124.566 E0.03354
G1 X111.839 Y135.089 E0.46663
G1 X111.767 Y135.039 E0.00275
G1 X111.296 Y134.565 E0.02094
G1 X122.365 Y123.496 E0.49082
G1 X122.369 Y122.426 E0.03354
G1 X110.802 Y133.993 E0.51287
G1 X110.365 Y133.364 E0.02402
G1 X122.372 Y121.356 E0.53242
G1 X122.375 Y120.287 E0.03354
G1 X110.021 Y132.641 E0.54780
G1 X109.867 Y132.307 E0.01151
G1 X109.746 Y131.849 E0.01485
G1 X122.378 Y119.217 E0.56015
G1 X122.382 Y118.147 E0.03354
G1 X109.559 Y130.970 E0.56858
G1 X109.483 Y129.980 E0.03114
G1 X122.385 Y117.077 E0.57211
G1 X122.388 Y116.007 E0.03354
G1 X109.486 Y128.910 E0.57211
G1 X109.489 Y127.840 E0.03354
G1 X122.391 Y114.938 E0.57211
G1 X122.395 Y113.868 E0.03354
G1 X109.492 Y126.770 E0.57211
G1 X109.496 Y125.700 E0.03354
G1 X120.828 Y114.368 E0.50248
G1 X120.294 Y113.835 E0.02365
G1 X109.499 Y124.631 E0.47868
G1 X109.502 Y123.561 E0.03354
G1 X119.761 Y113.302 E0.45489
G1 X119.228 Y112.769 E0.02365
G1 X109.505 Y122.491 E0.43110
G1 X109.509 Y121.421 E0.03354
G1 X116.356 Y114.574 E0.30362
G1 X115.823 Y114.041 E0.02365
G1 X109.512 Y120.351 E0.27983
G1 X109.515 Y119.281 E0.03354
G1 X115.289 Y113.507 E0.25604
G1 X114.756 Y112.974 E0.02365
G1 X109.518 Y118.212 E0.23225
G1 X109.522 Y117.142 E0.03354
G1 X111.884 Y114.779 E0.10477
G1 X111.351 Y114.246 E0.02365
G1 X109.525 Y116.072 E0.08097
G1 X109.528 Y115.002 E0.03354
G1 X110.818 Y113.713 E0.05718
G1 X110.285 Y113.179 E0.02365
G1 X109.532 Y113.932 E0.03339
G1 X109.535 Y112.863 E0.03354
G1 X109.871 Y112.526 E0.01492
;WIPE_START
G1 F8640.000
G1 X109.535 Y112.863 E-0.10989
G1 X109.532 Y113.932 E-0.24702
G1 X110.285 Y113.179 E-0.24591
G1 X110.818 Y113.713 E-0.17414
G1 X109.528 Y115.002 E-0.42112
G1 X109.527 Y115.574 E-0.13192
;WIPE_END
G1 E-0.07000 F2100.000
G1 Z0.400 F10800.000
G1 X87.490 Y121.042
G1 Z0.200
G1 E1.40000 F2100.000
G1 F1200.000
G1 X79.918 Y128.614 E0.33577
G1 X80.451 Y129.148 E0.02365
G1 X87.317 Y122.282 E0.30443
G1 X87.314 Y123.352 E0.03354
G1 X80.985 Y129.681 E0.28064
G1 X81.518 Y130.214 E0.02365
G1 X87.310 Y124.422 E0.25685
G1 X87.307 Y125.491 E0.03354
G1 X79.713 Y133.086 E0.33675
M73 Q0 S372
G1 X80.246 Y133.619 E0.02365
G1 X87.385 Y126.480 E0.31656
G1 X87.493 Y126.736 E0.00869
G1 X87.850 Y127.082 E0.01560
G1 X80.779 Y134.152 E0.31352
G1 X81.313 Y134.686 E0.02365
G1 X88.391 Y127.607 E0.31388
G1 X88.933 Y128.132 E0.02365
G1 X81.846 Y135.219 E0.31424
G1 X82.005 Y135.378 E0.00705
G1 X79.666 Y137.716 E0.10369
G1 X80.041 Y138.091 E0.01659
G1 X89.474 Y128.657 E0.41829
G1 X90.015 Y129.182 E0.02365
G1 X80.574 Y138.624 E0.41865
G1 X81.107 Y139.157 E0.02365
G1 X90.557 Y129.708 E0.41901
G1 X91.098 Y130.233 E0.02365
G1 X81.640 Y139.690 E0.41937
G1 X82.005 Y140.055 E0.01616
G1 X79.666 Y142.393 E0.10369
G1 X79.835 Y142.562 E0.00749
G1 X91.119 Y131.278 E0.50034
G1 X91.116 Y132.348 E0.03354
G1 X80.369 Y143.095 E0.47655
G1 X80.902 Y143.629 E0.02365
G1 X91.112 Y133.418 E0.45276
G1 X91.109 Y134.488 E0.03354
G1 X81.435 Y144.162 E0.42897
G1 X81.968 Y144.695 E0.02365
G1 X91.106 Y135.558 E0.40518
G1 X91.103 Y136.627 E0.03354
G1 X82.502 Y145.229 E0.38139
G1 X83.035 Y145.762 E0.02365
G1 X91.099 Y137.697 E0.35760
G1 X91.096 Y138.767 E0.03354
G1 X83.568 Y146.295 E0.33380
G1 X84.101 Y146.828 E0.02365
G1 X91.093 Y139.837 E0.31001
G1 X91.091 Y140.497 E0.02069
G1 X87.465 Y143.635 E0.15036
G1 X87.250 Y144.104 E0.01616
G1 X87.248 Y144.748 E0.02019
G1 X84.635 Y147.362 E0.11590
G1 X85.168 Y147.895 E0.02365
G1 X87.245 Y145.818 E0.09210
G1 X87.242 Y146.888 E0.03354
G1 X85.701 Y148.428 E0.06831
G1 X86.235 Y148.961 E0.02365
G1 X87.239 Y147.957 E0.04452
G1 X87.235 Y149.027 E0.03354
G1 X86.648 Y149.615 E0.02605
;WIPE_START
G1 F8640.000
G1 X87.235 Y149.027 E-0.19185
G1 X87.239 Y147.957 E-0.24702
G1 X86.235 Y148.961 E-0.32788
G1 X85.701 Y148.428 E-0.17414
G1 X86.893 Y147.237 E-0.38911
;WIPE_END
G1 E-0.07000 F2100.000
G1 Z0.400 F10800.000
G1 X91.923 Y145.406
G1 Z0.200
G1 E1.40000 F2100.000
G1 F1200.000
G1 X94.106 Y143.223 E0.09682
G1 X94.293 Y143.247 E0.00590
G1 X94.727 Y143.425 E0.01470
G1 X94.865 Y143.530 E0.00546
G1 X92.381 Y146.015 E0.11015
G1 X92.568 Y146.256 E0.00958
G1 X92.930 Y146.532 E0.01427
G1 X95.384 Y144.078 E0.10884
G1 X95.567 Y144.513 E0.01478
G1 X95.620 Y144.909 E0.01253
G1 X93.609 Y146.920 E0.08919
;WIPE_START
G1 F8640.000
G1 X95.620 Y144.909 E-0.65682
G1 X95.567 Y144.513 E-0.09225
G1 X95.384 Y144.078 E-0.10887
G1 X93.939 Y145.524 E-0.47206
;WIPE_END
G1 E-0.07000 F2100.000
G1 Z0.400 F10800.000
G1 X93.426 Y171.633
G1 Z0.200
G1 E1.40000 F2100.000
G1 F1200.000
G1 X92.045 Y173.014 E0.06126
G1 X92.010 Y173.098 E0.00283
G1 X91.951 Y173.563 E0.01470
G1 X92.013 Y174.028 E0.01470
G1 X92.038 Y174.087 E0.00203
G1 X94.276 Y171.850 E0.09921
G1 X94.639 Y172.000 E0.01233
G1 X94.953 Y172.239 E0.01238
G1 X92.428 Y174.764 E0.11196
G1 X92.481 Y174.831 E0.00267
G1 X92.853 Y175.116 E0.01470
G1 X93.059 Y175.200 E0.00697
G1 X95.389 Y172.870 E0.10331
G1 X95.479 Y173.088 E0.00739
G1 X95.542 Y173.552 E0.01470
G1 X95.508 Y173.817 E0.00838
G1 X93.808 Y175.517 E0.07537
;WIPE_START
G1 F8640.000
G1 X95.508 Y173.817 E-0.55503
G1 X95.542 Y173.552 E-0.06174
G1 X95.479 Y173.088 E-0.10825
G1 X95.389 Y172.870 E-0.05440
G1 X93.703 Y174.556 E-0.55058
;WIPE_END
G1 E-0.07000 F2100.000
G1 Z0.400 F10800.000
G1 X133.217 Y173.437
G1 Z0.200
G1 E1.40000 F2100.000
G1 F1200.000
G1 X134.728 Y171.927 E0.06697
G1 X134.827 Y171.913 E0.00315
G1 X135.203 Y171.962 E0.01188
G1 X135.589 Y172.132 E0.01322
G1 X133.597 Y174.123 E0.08829
G1 X133.808 Y174.396 E0.01078
G1 X134.147 Y174.641 E0.01312
G1 X136.106 Y172.681 E0.08688
G1 X136.233 Y172.986 E0.01034
G1 X136.284 Y173.361 E0.01188
G1 X136.253 Y173.601 E0.00758
G1 X134.869 Y174.985 E0.06135
;WIPE_START
G1 F8640.000
G1 X136.253 Y173.601 E-0.45180
G1 X136.284 Y173.361 E-0.05583
G1 X136.233 Y172.986 E-0.08751
G1 X136.106 Y172.681 E-0.07614
G1 X134.147 Y174.641 E-0.63984
G1 X134.080 Y174.593 E-0.01889
;WIPE_END
G1 E-0.07000 F2100.000
G1 Z0.400 F10800.000
G1 X125.351 Y38.387
G1 Z0.200
G1 E1.40000 F2100.000
G1 F1200.000
G1 X127.147 Y36.591 E0.07963
G1 X127.125 Y36.432 E0.00503
G1 X126.979 Y36.082 E0.01189
G1 X126.809 Y35.862 E0.00872
G1 X124.773 Y37.898 E0.09028
G1 X124.700 Y37.842 E0.00288
G1 X124.468 Y37.542 E0.01189
G1 X124.349 Y37.256 E0.00972
G1 X126.167 Y35.438 E0.08062
G1 X126.095 Y35.408 E0.00243
G1 X125.719 Y35.360 E0.01188
G1 X125.344 Y35.410 E0.01188
G1 X124.994 Y35.557 E0.01189
G1 X124.163 Y36.375 E0.03654
;WIPE_START
G1 F8640.000
G1 X124.994 Y35.557 E-0.26912
G1 X125.344 Y35.410 E-0.08756
G1 X125.719 Y35.360 E-0.08752
G1 X126.095 Y35.408 E-0.08752
G1 X126.167 Y35.438 E-0.01791
G1 X124.349 Y37.256 E-0.59373
G1 X124.468 Y37.542 E-0.07159
G1 X124.700 Y37.842 E-0.08760
G1 X124.773 Y37.898 E-0.02122
G1 X124.792 Y37.879 E-0.00623
;WIPE_END
G1 E-0.07000 F2100.000
G1 Z0.400 F10800.000
G1 X95.892 Y84.546
G1 Z0.200
G1 E1.40000 F2100.000
;TYPE:Perimeter
G1 F1200.000
G1 X96.679 Y85.146 E0.03102
G1 X97.283 Y85.929 E0.03101
G1 X97.647 Y86.799 E0.02956
G1 X97.797 Y87.818 E0.03230
G1 X97.670 Y88.802 E0.03113
G1 X97.295 Y89.718 E0.03102
G1 X96.695 Y90.504 E0.03100
G1 X95.912 Y91.108 E0.03100
G1 X95.000 Y91.489 E0.03101
G1 X94.020 Y91.621 E0.03101
G1 X93.039 Y91.495 E0.03101
G1 X92.124 Y91.119 E0.03101
G1 X91.338 Y90.520 E0.03101
G1 X90.733 Y89.737 E0.03100
G1 X90.352 Y88.824 E0.03102
G1 X90.220 Y87.844 E0.03101
G1 X90.346 Y86.863 E0.03101
G1 X90.722 Y85.949 E0.03100
G1 X91.321 Y85.162 E0.03101
G1 X92.104 Y84.558 E0.03102
G1 X93.017 Y84.177 E0.03100
G1 X93.951 Y84.051 E0.02956
G1 X94.974 Y84.170 E0.03228
G1 X95.837 Y84.523 E0.02924
G1 X95.694 Y84.872 F10800.000
;TYPE:External perimeter
G1 F1200.000
G1 X96.411 Y85.416 E0.02821
M73 P0 R367
G1 X96.954 Y86.120 E0.02790
G1 X97.281 Y86.901 E0.02652
G1 X97.416 Y87.821 E0.02918
G1 X97.303 Y88.705 E0.02794
G1 X96.965 Y89.528 E0.02790
G1 X96.425 Y90.236 E0.02789
G1 X95.721 Y90.779 E0.02789
G1 X94.900 Y91.122 E0.02790
G1 X94.018 Y91.241 E0.02790
G1 X93.136 Y91.128 E0.02789
G1 X92.313 Y90.790 E0.02790
G1 X91.606 Y90.250 E0.02789
G1 X91.062 Y89.546 E0.02789
G1 X90.719 Y88.725 E0.02790
G1 X90.600 Y87.843 E0.02790
G1 X90.714 Y86.961 E0.02790
G1 X91.052 Y86.138 E0.02789
G1 X91.591 Y85.430 E0.02790
G1 X92.295 Y84.886 E0.02790
G1 X93.116 Y84.544 E0.02789
G1 X93.955 Y84.431 E0.02653
G1 X94.879 Y84.538 E0.02917
G1 X95.638 Y84.849 E0.02573
G1 X96.038 Y84.669 F10800.000
;WIPE_START
G1 F8640.000
G1 X96.411 Y85.416 E-0.22118
G1 X96.954 Y86.120 E-0.20547
G1 X97.281 Y86.901 E-0.19529
G1 X97.416 Y87.821 E-0.21490
G1 X97.303 Y88.705 E-0.20576
G1 X96.965 Y89.528 E-0.20549
G1 X96.750 Y89.810 E-0.08191
;WIPE_END
G1 E-0.07000 F2100.000
G1 Z0.400 F10800.000
G1 X94.107 Y63.047
G1 Z0.200
G1 E1.40000 F2100.000
;TYPE:Perimeter
G1 F1200.000
G1 X93.126 Y62.920 E0.03101
