; generated by PrusaSlicer 2.3.3+win64 on 2021-08-03 at 11:15:04 UTC

; 

; external perimeters extrusion width = 0.45mm
; perimeters extrusion width = 0.45mm
; infill extrusion width = 0.45mm
; solid infill extrusion width = 0.45mm
; top infill extrusion width = 0.40mm
; first layer extrusion width = 0.42mm

M73 P0 R15
M73 Q0 S15
M201 X1000 Y1000 Z200 E5000 ; sets maximum accelerations, mm/sec^2
M203 X200 Y200 Z12 E120 ; sets maximum feedrates, mm/sec
M204 P1250 R1250 T1250 ; sets acceleration (P, T) and retract acceleration (R), mm/sec^2
M205 X8.00 Y8.00 Z0.40 E4.50 ; sets the jerk limits, mm/sec
M205 S0 T0 ; sets the minimum extruding and travel feed rate, mm/sec
M107
;TYPE:Custom
M862.3 P "MK3S" ; printer model check
M862.1 P0.4 ; nozzle diameter check
M115 U3.10.0 ; tell printer latest fw version
G90 ; use absolute coordinates
M83 ; extruder relative mode
M104 S215 ; set extruder temp
M140 S60 ; set bed temp
M190 S60 ; wait for bed temp
M109 S215 ; wait for extruder temp
G28 W ; home all without mesh bed level
G80 ; mesh bed leveling
G1 Y-3.0 F1000.0 ; go outside print area
G92 E0.0
G1 X60.0 E9.0 F1000.0 ; intro line
G1 X100.0 E12.5 F1000.0 ; intro line
G92 E0.0
M221 S95

; Don't change E values below. Excessive value can damage the printer.
M907 E430 ; set extruder motor current
G21 ; set units to millimeters
G90 ; use absolute coordinates
M83 ; use relative distances for extrusion
M900 K0.05 ; Filament gcode LA 1.5
M900 K30 ; Filament gcode LA 1.0
;LAYER_CHANGE
;Z:0.2
;HEIGHT:0.2
;BEFORE_LAYER_CHANGE
G92 E0.0
;0.2


G1 E-0.80000 F2100.000
G1 Z0.400 F10800.000
;AFTER_LAYER_CHANGE
;0.2
G1 X114.422 Y101.923
G1 Z0.200
G1 E0.80000 F2100.000
M204 S1000
;TYPE:Skirt
;WIDTH:0.42
G1 F1200.000
G1 X114.937 Y101.519 E0.02052
G1 X115.525 Y101.232 E0.02052
G1 X119.070 Y100.226 E0.11555
G1 X122.046 Y99.716 E0.09467
G1 X125.005 Y99.541 E0.09293
G1 X127.957 Y99.716 E0.09274
G1 X130.929 Y100.226 E0.09454
G1 X134.461 Y101.227 E0.11510
G1 X135.049 Y101.515 E0.02052
G1 X135.564 Y101.918 E0.02052
G1 X135.962 Y102.388 E0.01930
G1 X136.262 Y102.930 E0.01943
G1 X136.448 Y103.517 E0.01930
G1 X136.517 Y104.133 E0.01943
G1 X136.496 Y108.143 E0.12574
G1 X136.205 Y109.065 E0.03031
G1 X135.649 Y109.851 E0.03017
G1 X135.173 Y110.254 E0.01957
G1 X134.621 Y110.556 E0.01970
G1 X134.025 Y110.741 E0.01957
G1 X133.400 Y110.804 E0.01971
M73 Q1 S15
G1 X116.443 Y110.800 E0.53168
M73 P1 R15
G1 X115.864 Y110.716 E0.01834
G1 X115.307 Y110.524 E0.01848
G1 X114.795 Y110.231 E0.01848
G1 X114.351 Y109.851 E0.01834
G1 X113.795 Y109.065 E0.03017
G1 X113.506 Y108.152 E0.03004
G1 X113.469 Y104.142 E0.12574
G1 X113.536 Y103.526 E0.01943
G1 X113.724 Y102.935 E0.01943
G1 X114.021 Y102.396 E0.01930
G1 X114.383 Y101.969 E0.01755
G1 X114.734 Y102.147 F10800.000
G1 F1200.000
G1 X115.182 Y101.811 E0.01758
G1 X115.690 Y101.573 E0.01758
G1 X119.210 Y100.582 E0.11464
G1 X122.090 Y100.090 E0.09160
G1 X125.005 Y99.918 E0.09158
G1 X127.911 Y100.090 E0.09127
G1 X130.790 Y100.582 E0.09159
G1 X134.309 Y101.573 E0.11463
G1 X134.817 Y101.811 E0.01758
G1 X135.269 Y102.150 E0.01771
G1 X135.635 Y102.563 E0.01733
G1 X135.911 Y103.042 E0.01733
G1 X136.087 Y103.566 E0.01733
G1 X136.154 Y104.114 E0.01733
G1 X136.129 Y108.040 E0.12309
G1 X135.891 Y108.847 E0.02638
G1 X135.423 Y109.541 E0.02625
G1 X135.023 Y109.898 E0.01681
G1 X134.561 Y110.170 E0.01681
G1 X134.058 Y110.347 E0.01669
G1 X133.528 Y110.424 E0.01681
G1 X116.600 Y110.427 E0.53076
G1 X116.034 Y110.368 E0.01784
G1 X115.496 Y110.196 E0.01771
G1 X115.001 Y109.915 E0.01784
G1 X114.575 Y109.539 E0.01784
G1 X114.107 Y108.844 E0.02625
G1 X113.871 Y108.041 E0.02625
G1 X113.846 Y104.115 E0.12310
G1 X113.913 Y103.566 E0.01733
G1 X114.090 Y103.039 E0.01745
G1 X114.367 Y102.560 E0.01733
G1 X114.694 Y102.192 E0.01544
G1 X114.452 Y103.155 F10800.000
G1 F1200.000
G1 X115.033 Y102.385 E0.03024
G1 X115.547 Y102.041 E0.01941
G1 X116.249 Y101.784 E0.02344
G1 X119.674 Y100.867 E0.11117
G1 X122.464 Y100.428 E0.08853
G1 X125.007 Y100.295 E0.07986
G1 X127.538 Y100.428 E0.07945
G1 X130.327 Y100.867 E0.08855
G1 X133.640 Y101.749 E0.10748
G1 X134.430 Y102.030 E0.02629
G1 X134.969 Y102.386 E0.02024
G1 X135.551 Y103.160 E0.03036
G1 X135.776 Y104.098 E0.03024
G1 X135.762 Y107.942 E0.12054
G1 X135.572 Y108.638 E0.02260
G1 X135.185 Y109.242 E0.02249
G1 X134.429 Y109.815 E0.02977
G1 X133.504 Y110.047 E0.02989
G1 X116.600 Y110.049 E0.53001
G1 X116.097 Y109.996 E0.01585
G1 X115.617 Y109.837 E0.01585
G1 X115.185 Y109.582 E0.01574
G1 X114.813 Y109.240 E0.01585
G1 X114.427 Y108.635 E0.02249
G1 X114.238 Y107.943 E0.02249
G1 X114.224 Y104.096 E0.12062
G1 X114.438 Y103.213 E0.02848
; printing object Grid_Fin.stl id:0 copy 0
;WIPE_START
G1 F8640.000
G1 X115.033 Y102.385 E-0.23549
G1 X115.547 Y102.041 E-0.14295
G1 X116.249 Y101.784 E-0.17259
G1 X117.124 Y101.550 E-0.20897
;WIPE_END
G1 E-0.04000 F2100.000
G1 Z0.600 F10800.000
G1 X117.387 Y104.746
G1 Z0.200
G1 E0.80000 F2100.000
;TYPE:Perimeter
G1 F1200.000
G1 X118.943 Y104.290 E0.05085
G1 X119.930 Y104.049 E0.03185
G1 X120.992 Y103.834 E0.03396
G1 X121.991 Y103.673 E0.03174
G1 X122.999 Y103.555 E0.03182
G1 X123.974 Y103.485 E0.03063
G1 X125.025 Y103.460 E0.03297
G1 X126.026 Y103.485 E0.03140
G1 X127.000 Y103.555 E0.03063
G1 X128.049 Y103.679 E0.03311
G1 X129.008 Y103.834 E0.03045
G1 X130.070 Y104.049 E0.03397
G1 X131.091 Y104.298 E0.03298
G1 X132.613 Y104.746 E0.04973
G1 X132.613 Y106.751 E0.06287
G1 X132.146 Y106.579 E0.01560
G1 X131.156 Y106.265 E0.03255
G1 X130.151 Y105.997 E0.03264
G1 X129.090 Y105.769 E0.03401
G1 X128.091 Y105.603 E0.03176
G1 X127.092 Y105.485 E0.03153
G1 X126.065 Y105.411 E0.03228
G1 X125.000 Y105.385 E0.03341
G1 X123.935 Y105.411 E0.03341
G1 X122.908 Y105.485 E0.03228
G1 X121.909 Y105.603 E0.03153
G1 X120.910 Y105.769 E0.03176
G1 X119.849 Y105.997 E0.03401
G1 X118.844 Y106.265 E0.03264
M73 Q2 S15
G1 X117.854 Y106.579 E0.03255
G1 X117.387 Y106.751 E0.01560
G1 X117.387 Y104.806 E0.06099
G1 X117.010 Y104.470 F10800.000
;TYPE:External perimeter
G1 F1200.000
G1 X117.780 Y104.225 E0.02533
M73 P2 R15
G1 X118.848 Y103.925 E0.03478
G1 X119.848 Y103.681 E0.03229
G1 X120.924 Y103.463 E0.03443
G1 X121.939 Y103.299 E0.03224
G1 X122.964 Y103.179 E0.03234
G1 X123.956 Y103.108 E0.03118
G1 X125.025 Y103.083 E0.03354
G1 X126.044 Y103.108 E0.03196
G1 X127.036 Y103.179 E0.03118
G1 X128.101 Y103.305 E0.03364
G1 X129.076 Y103.463 E0.03094
G1 X130.152 Y103.681 E0.03443
G1 X131.187 Y103.934 E0.03342
G1 X132.220 Y104.225 E0.03364
G1 X132.990 Y104.471 E0.02535
G1 X132.990 Y107.293 E0.08848
G1 X132.024 Y106.936 E0.03230
G1 X131.051 Y106.627 E0.03200
G1 X130.062 Y106.364 E0.03207
G1 X129.019 Y106.140 E0.03345
G1 X128.037 Y105.977 E0.03121
G1 X127.056 Y105.860 E0.03098
G1 X126.047 Y105.788 E0.03172
G1 X125.000 Y105.762 E0.03284
G1 X123.953 Y105.788 E0.03284
G1 X122.944 Y105.860 E0.03172
G1 X121.963 Y105.977 E0.03098
G1 X120.981 Y106.140 E0.03121
G1 X119.938 Y106.364 E0.03345
G1 X118.949 Y106.627 E0.03207
G1 X117.976 Y106.936 E0.03200
G1 X117.010 Y107.293 E0.03230
G1 X117.010 Y104.530 E0.08661
G1 X117.403 Y104.547 F10800.000
;WIPE_START
G1 F8640.000
G1 X117.780 Y104.225 E-0.19119
G1 X118.848 Y103.925 E-0.25613
G1 X119.848 Y103.681 E-0.23779
G1 X120.166 Y103.617 E-0.07488
;WIPE_END
G1 E-0.04000 F2100.000
G1 Z0.600 F10800.000
G1 X131.392 Y104.505
G1 Z0.200
G1 E0.80000 F2100.000
;TYPE:Solid infill
;WIDTH:0.42696
G1 F1200.000
G1 X132.330 Y105.443 E0.04236
G1 X132.330 Y105.986 E0.01734
G1 X130.883 Y104.539 E0.06536
G1 X130.164 Y104.363 E0.02362
G1 X132.054 Y106.253 E0.08533
G1 X131.258 Y106.000 E0.02666
G1 X129.475 Y104.217 E0.08053
G1 X128.801 Y104.087 E0.02190
G1 X130.516 Y105.802 E0.07745
G1 X129.805 Y105.633 E0.02334
G1 X128.153 Y103.982 E0.07459
G1 X127.531 Y103.902 E0.02005
G1 X129.115 Y105.487 E0.07155
G1 X128.464 Y105.379 E0.02107
G1 X126.918 Y103.832 E0.06983
G1 X126.333 Y103.790 E0.01873
G1 X127.830 Y105.288 E0.06762
G1 X127.214 Y105.215 E0.01982
G1 X125.760 Y103.761 E0.06564
G1 X125.203 Y103.747 E0.01780
G1 X126.624 Y105.168 E0.06415
G1 X126.040 Y105.128 E0.01867
G1 X124.664 Y103.751 E0.06215
G1 X124.134 Y103.764 E0.01694
G1 X125.484 Y105.114 E0.06097
G1 X124.931 Y105.104 E0.01767
G1 X123.620 Y103.794 E0.05917
G1 X123.114 Y103.830 E0.01622
G1 X124.400 Y105.117 E0.05810
G1 X123.872 Y105.132 E0.01687
G1 X122.624 Y103.884 E0.05638
G1 X122.138 Y103.940 E0.01563
G1 X123.366 Y105.168 E0.05546
G1 X122.860 Y105.206 E0.01619
G1 X121.666 Y104.012 E0.05393
G1 X121.198 Y104.087 E0.01513
G1 X122.375 Y105.263 E0.05313
G1 X121.889 Y105.321 E0.01561
G1 X120.741 Y104.173 E0.05184
G1 X120.290 Y104.265 E0.01471
G1 X121.422 Y105.398 E0.05116
G1 X120.956 Y105.475 E0.01508
G1 X119.843 Y104.361 E0.05028
G1 X119.406 Y104.468 E0.01435
G1 X120.505 Y105.567 E0.04963
G1 X120.058 Y105.663 E0.01460
G1 X118.971 Y104.576 E0.04908
G1 X118.552 Y104.699 E0.01397
G1 X119.618 Y105.766 E0.04817
G1 X119.189 Y105.880 E0.01417
G1 X118.132 Y104.822 E0.04776
G1 X117.712 Y104.946 E0.01397
G1 X118.760 Y105.994 E0.04736
G1 X118.348 Y106.125 E0.01381
G1 X117.670 Y105.447 E0.03063
G1 X117.670 Y105.990 E0.01734
G1 X118.071 Y106.391 E0.01812
; stop printing object Grid_Fin.stl id:0 copy 0
M106 S84.15
;LAYER_CHANGE
;Z:0.4
;HEIGHT:0.2
;BEFORE_LAYER_CHANGE
G92 E0.0
;0.4


;WIPE_START
G1 F8640.000
G1 X117.670 Y105.990 E-0.13103
G1 X117.670 Y105.447 E-0.12541
G1 X118.348 Y106.125 E-0.22152
G1 X118.760 Y105.994 E-0.09987
G1 X118.203 Y105.436 E-0.18218
;WIPE_END
G1 E-0.04000 F2100.000
G1 Z0.600 F10800.000
;AFTER_LAYER_CHANGE
;0.4
G1 X113.506 Y108.152
G1 Z0.400
G1 E0.80000 F2100.000
;TYPE:Skirt
;WIDTH:0.42
G1 F1347
G1 X113.469 Y104.142 E0.12574
G1 X113.536 Y103.526 E0.01943
G1 X113.724 Y102.935 E0.01943
G1 X114.021 Y102.396 E0.01930
G1 X114.422 Y101.923 E0.01943
G1 X114.937 Y101.519 E0.02052
G1 X115.525 Y101.232 E0.02052
G1 X119.070 Y100.226 E0.11555
G1 X122.046 Y99.716 E0.09467
G1 X125.005 Y99.541 E0.09293
G1 X127.957 Y99.716 E0.09274
G1 X130.929 Y100.226 E0.09454
G1 X134.461 Y101.227 E0.11510
G1 X135.049 Y101.515 E0.02052
G1 X135.564 Y101.918 E0.02052
G1 X135.962 Y102.388 E0.01930
G1 X136.262 Y102.930 E0.01943
G1 X136.448 Y103.517 E0.01930
G1 X136.517 Y104.133 E0.01943
G1 X136.496 Y108.143 E0.12574
G1 X136.205 Y109.065 E0.03031
G1 X135.649 Y109.851 E0.03017
G1 X135.173 Y110.254 E0.01957
G1 X134.621 Y110.556 E0.01970
G1 X134.025 Y110.741 E0.01957
G1 X133.400 Y110.804 E0.01971
G1 X116.443 Y110.800 E0.53168
M73 Q3 S15
G1 X115.864 Y110.716 E0.01834
M73 P3 R15
G1 X115.307 Y110.524 E0.01848
G1 X114.795 Y110.231 E0.01848
G1 X114.351 Y109.851 E0.01834
G1 X113.795 Y109.065 E0.03017
G1 X113.524 Y108.209 E0.02816
G1 X114.107 Y108.844 F10800.000
G1 F1347
G1 X113.871 Y108.041 E0.02625
G1 X113.846 Y104.115 E0.12310
G1 X113.913 Y103.566 E0.01733
G1 X114.090 Y103.039 E0.01745
G1 X114.367 Y102.560 E0.01733
G1 X114.734 Y102.147 E0.01733
G1 X115.182 Y101.811 E0.01758
G1 X115.690 Y101.573 E0.01758
G1 X119.210 Y100.582 E0.11464
G1 X122.090 Y100.090 E0.09160
G1 X125.005 Y99.918 E0.09158
G1 X127.911 Y100.090 E0.09127
G1 X130.790 Y100.582 E0.09159
G1 X134.309 Y101.573 E0.11463
G1 X134.817 Y101.811 E0.01758
G1 X135.269 Y102.150 E0.01771
G1 X135.635 Y102.563 E0.01733
G1 X135.911 Y103.042 E0.01733
G1 X136.087 Y103.566 E0.01733
G1 X136.154 Y104.114 E0.01733
G1 X136.129 Y108.040 E0.12309
G1 X135.891 Y108.847 E0.02638
G1 X135.423 Y109.541 E0.02625
G1 X135.023 Y109.898 E0.01681
G1 X134.561 Y110.170 E0.01681
G1 X134.058 Y110.347 E0.01669
G1 X133.528 Y110.424 E0.01681
G1 X116.600 Y110.427 E0.53076
G1 X116.034 Y110.368 E0.01784
G1 X115.496 Y110.196 E0.01771
G1 X115.001 Y109.915 E0.01784
G1 X114.575 Y109.539 E0.01784
G1 X114.141 Y108.894 E0.02437
;WIPE_START
G1 F8640.000
G1 X113.871 Y108.041 E-0.20658
G1 X113.856 Y105.644 E-0.55342
;WIPE_END
G1 E-0.04000 F2100.000
G1 Z0.800 F10800.000
G1 X114.452 Y103.155
G1 Z0.400
G1 E0.80000 F2100.000
G1 F1347
G1 X115.033 Y102.385 E0.03024
G1 X115.547 Y102.041 E0.01941
G1 X116.249 Y101.784 E0.02344
G1 X119.674 Y100.867 E0.11117
G1 X122.464 Y100.428 E0.08853
G1 X125.007 Y100.295 E0.07986
G1 X127.538 Y100.428 E0.07945
G1 X130.327 Y100.867 E0.08855
G1 X133.640 Y101.749 E0.10748
G1 X134.430 Y102.030 E0.02629
G1 X134.969 Y102.386 E0.02024
G1 X135.551 Y103.160 E0.03036
G1 X135.776 Y104.098 E0.03024
G1 X135.762 Y107.942 E0.12054
G1 X135.572 Y108.638 E0.02260
G1 X135.185 Y109.242 E0.02249
G1 X134.429 Y109.815 E0.02977
G1 X133.504 Y110.047 E0.02989
G1 X116.600 Y110.049 E0.53001
G1 X116.097 Y109.996 E0.01585
G1 X115.617 Y109.837 E0.01585
G1 X115.185 Y109.582 E0.01574
G1 X114.813 Y109.240 E0.01585
G1 X114.427 Y108.635 E0.02249
G1 X114.238 Y107.943 E0.02249
G1 X114.224 Y104.096 E0.12062
G1 X114.438 Y103.213 E0.02848
; printing object Grid_Fin.stl id:0 copy 0
;WIPE_START
G1 F8640.000
G1 X115.033 Y102.385 E-0.23549
G1 X115.547 Y102.041 E-0.14295
G1 X116.249 Y101.784 E-0.17259
G1 X117.124 Y101.550 E-0.20897
;WIPE_END
G1 E-0.04000 F2100.000
G1 Z0.800 F10800.000
G1 X117.232 Y104.634
G1 Z0.400
G1 E0.80000 F2100.000
M204 S800
;TYPE:Perimeter
;WIDTH:0.45
G1 F1347
G1 X117.868 Y104.431 E0.02260
G1 X118.993 Y104.117 E0.03952
G1 X119.913 Y103.894 E0.03206
G1 X121.068 Y103.663 E0.03986
G1 X122.036 Y103.510 E0.03317
G1 X123.037 Y103.396 E0.03410
G1 X123.937 Y103.332 E0.03054
G1 X125.077 Y103.305 E0.03861
G1 X126.062 Y103.331 E0.03334
G1 X126.962 Y103.396 E0.03055
G1 X128.089 Y103.528 E0.03839
G1 X129.034 Y103.681 E0.03241
G1 X130.085 Y103.894 E0.03632
G1 X131.113 Y104.144 E0.03581
G1 X132.131 Y104.431 E0.03580
G1 X132.768 Y104.634 E0.02262
G1 X132.768 Y106.974 E0.07922
G1 X132.091 Y106.724 E0.02443
G1 X131.112 Y106.413 E0.03477
G1 X130.110 Y106.146 E0.03510
G1 X128.773 Y105.869 E0.04623
G1 X127.828 Y105.725 E0.03234
G1 X126.848 Y105.619 E0.03335
G1 X125.960 Y105.561 E0.03014
G1 X125.000 Y105.540 E0.03250
G1 X124.040 Y105.561 E0.03250
G1 X123.152 Y105.619 E0.03014
G1 X122.172 Y105.725 E0.03335
G1 X121.227 Y105.869 E0.03234
G1 X119.890 Y106.146 E0.04623
G1 X118.888 Y106.413 E0.03510
G1 X117.909 Y106.724 E0.03477
G1 X117.232 Y106.974 E0.02443
G1 X117.232 Y104.694 E0.07719
M204 S1000
G1 X116.825 Y104.337 F10800.000
M204 S800
;TYPE:External perimeter
G1 F1347
G1 X117.751 Y104.041 E0.03292
G1 X118.890 Y103.723 E0.04002
G1 X119.826 Y103.497 E0.03258
G1 X120.996 Y103.262 E0.04042
G1 X121.981 Y103.107 E0.03375
G1 X122.999 Y102.990 E0.03468
G1 X123.918 Y102.925 E0.03116
G1 X125.078 Y102.898 E0.03929
G1 X126.082 Y102.925 E0.03400
G1 X127.000 Y102.990 E0.03117
G1 X128.145 Y103.124 E0.03901
G1 X129.107 Y103.280 E0.03299
G1 X130.174 Y103.496 E0.03685
G1 X131.217 Y103.750 E0.03632
G1 X132.248 Y104.041 E0.03628
G1 X133.175 Y104.337 E0.03293
G1 X133.175 Y107.447 E0.10529
G1 X132.873 Y107.447 E0.01022
G1 X131.959 Y107.109 E0.03300
G1 X130.998 Y106.804 E0.03411
G1 X130.016 Y106.543 E0.03440
G1 X128.700 Y106.270 E0.04548
M73 Q4 S15
G1 X127.775 Y106.129 E0.03168
G1 X126.813 Y106.025 E0.03275
G1 X125.942 Y105.968 E0.02955
G1 X125.000 Y105.947 E0.03190
G1 X124.058 Y105.968 E0.03190
M73 P4 R15
G1 X123.187 Y106.025 E0.02955
G1 X122.225 Y106.129 E0.03275
G1 X121.300 Y106.270 E0.03168
G1 X119.984 Y106.543 E0.04548
G1 X119.002 Y106.804 E0.03440
G1 X118.041 Y107.109 E0.03411
G1 X117.127 Y107.447 E0.03300
G1 X116.825 Y107.447 E0.01022
G1 X116.825 Y104.397 E0.10326
M204 S1000
G1 X117.209 Y104.449 F10800.000
;WIPE_START
G1 F8640.000
G1 X117.751 Y104.041 E-0.22916
G1 X118.890 Y103.723 E-0.27299
G1 X119.826 Y103.497 E-0.22222
G1 X119.977 Y103.466 E-0.03564
;WIPE_END
G1 E-0.04000 F2100.000
G1 Z0.800 F10800.000
G1 X132.013 Y106.571
G1 Z0.400
G1 E0.80000 F2100.000
;TYPE:Solid infill
;WIDTH:0.453349
G1 F1347
G1 X132.463 Y106.122 E0.02168
G1 X132.463 Y105.541 E0.01981
G1 X131.719 Y106.285 E0.03590
G1 X131.278 Y106.146 E0.01578
G1 X132.463 Y104.961 E0.05717
G1 X132.463 Y104.857 E0.00355
G1 X132.102 Y104.742 E0.01294
G1 X130.823 Y106.020 E0.06171
G1 X130.364 Y105.898 E0.01619
G1 X131.650 Y104.612 E0.06206
G1 X131.197 Y104.485 E0.01606
G1 X129.893 Y105.790 E0.06297
G1 X129.412 Y105.690 E0.01675
G1 X130.736 Y104.366 E0.06388
G1 X130.269 Y104.253 E0.01640
G1 X128.931 Y105.590 E0.06455
G1 X128.433 Y105.508 E0.01725
