; generated by PrusaSlicer 2.3.0+win64 on 2021-11-26 at 23:19:19 UTC

; 

; external perimeters extrusion width = 0.60mm
; perimeters extrusion width = 0.50mm
; infill extrusion width = 0.50mm
; solid infill extrusion width = 0.50mm
; top infill extrusion width = 0.45mm
; support material extrusion width = 0.38mm
; first layer extrusion width = 0.42mm

M73 P0 R203
M73 Q0 S206
M201 X1000 Y1000 Z200 E5000 ; sets maximum accelerations, mm/sec^2
M203 X200 Y200 Z12 E120 ; sets maximum feedrates, mm/sec
M204 P1250 R1250 T1250 ; sets acceleration (P, T) and retract acceleration (R), mm/sec^2
M205 X8.00 Y8.00 Z0.40 E4.50 ; sets the jerk limits, mm/sec
M205 S0 T0 ; sets the minimum extruding and travel feed rate, mm/sec
M107
;TYPE:Custom
M862.3 P "MK3S" ; printer model check
M862.1 P0.4 ; nozzle diameter check
M115 U3.9.1 ; tell printer latest fw version
G90 ; use absolute coordinates
M83 ; extruder relative mode
M104 S240 ; set extruder temp
M140 S85 ; set bed temp
M190 S85 ; wait for bed temp
M109 S240 ; wait for extruder temp
G28 W ; home all without mesh bed level
G80 ; mesh bed leveling
G1 Y-3.0 F1000.0 ; go outside print area
G92 E0.0
G1 X60.0 E9.0 F1000.0 ; intro line
G1 X100.0 E12.5 F1000.0 ; intro line
G92 E0.0
M221 S95

; Don't change E values below. Excessive value can damage the printer.

M907 E538 ; set extruder motor current
G21 ; set units to millimeters
G90 ; use absolute coordinates
M83 ; use relative distances for extrusion
M900 K0.08 ; Filament gcode LA 1.5
M900 K45 ; Filament gcode LA 1.0
;LAYER_CHANGE
;Z:0.2
;HEIGHT:0.2
;BEFORE_LAYER_CHANGE
G92 E0.0
;0.2


G1 E-1.40000 F2100.000
G1 Z0.200 F10800.000
;AFTER_LAYER_CHANGE
;0.2
G1 Z0.400
G1 X25.160 Y6.931
G1 Z0.200
G1 E1.40000 F2100.000
M204 S1000
;TYPE:Skirt
;WIDTH:0.42
G1 F1200.000
G1 X25.619 Y6.200 E0.02708
G1 X25.983 Y5.877 E0.01526
G1 X26.409 Y5.634 E0.01538
G1 X26.872 Y5.484 E0.01526
G1 X27.360 Y5.431 E0.01538
G1 X222.635 Y5.431 E6.12271
G1 X223.516 Y5.602 E0.02813
G1 X224.271 Y6.087 E0.02813
G1 X224.792 Y6.818 E0.02813
G1 X225.005 Y7.689 E0.02813
G1 X225.003 Y52.923 E1.41825
G1 X210.829 Y200.335 E4.64334
G1 X210.512 Y201.508 E0.03808
G1 X210.187 Y202.167 E0.02305
G1 X209.660 Y202.891 E0.02806
G1 X208.971 Y203.536 E0.02959
G1 X207.815 Y204.202 E0.04183
G1 X206.867 Y204.484 E0.03102
G1 X205.968 Y204.569 E0.02830
G1 X44.018 Y204.568 E5.07782
M73 Q0 S205
G1 X43.170 Y204.492 E0.02670
G1 X42.325 Y204.261 E0.02747
G1 X41.548 Y203.891 E0.02699
G1 X40.795 Y203.346 E0.02913
G1 X40.245 Y202.781 E0.02473
G1 X39.747 Y202.052 E0.02770
G1 X39.397 Y201.277 E0.02663
G1 X39.172 Y200.341 E0.03019
G1 X24.999 Y52.949 E4.64271
M73 P0 R202
G1 X24.992 Y7.778 E1.41629
G1 X25.148 Y6.990 E0.02520
;WIPE_START
G1 F8640.000
G1 X25.619 Y6.200 E-0.21241
G1 X25.983 Y5.877 E-0.11238
G1 X26.409 Y5.634 E-0.11325
G1 X26.872 Y5.484 E-0.11238
G1 X27.360 Y5.431 E-0.11325
G1 X30.246 Y5.431 E-0.66632
;WIPE_END
G1 E-0.07000 F2100.000
G1 Z0.400 F10800.000
G1 X35.793 Y16.095
G1 Z0.200
G1 E1.40000 F2100.000
;TYPE:Support material
G1 F1200.000
G1 X34.636 Y17.251 E0.05127
G1 X34.690 Y17.535 E0.00905
G1 X34.761 Y17.686 E0.00524
G1 X34.857 Y17.823 E0.00524
G1 X34.997 Y17.957 E0.00607
G1 X36.342 Y16.612 E0.05965
G1 X36.423 Y16.727 E0.00441
G1 X36.494 Y16.878 E0.00524
G1 X36.537 Y17.040 E0.00524
G1 X36.552 Y17.207 E0.00524
G1 X36.537 Y17.373 E0.00524
G1 X36.497 Y17.524 E0.00490
G1 X35.693 Y18.328 E0.03563
;WIPE_START
G1 F8640.000
G1 X36.497 Y17.524 E-0.26239
G1 X36.537 Y17.373 E-0.03607
G1 X36.552 Y17.207 E-0.03862
G1 X36.537 Y17.040 E-0.03862
G1 X36.494 Y16.878 E-0.03862
G1 X36.423 Y16.727 E-0.03862
G1 X36.342 Y16.612 E-0.03245
G1 X34.997 Y17.957 E-0.43930
G1 X34.857 Y17.823 E-0.04472
G1 X34.761 Y17.686 E-0.03862
G1 X34.690 Y17.535 E-0.03862
G1 X34.636 Y17.251 E-0.06664
G1 X35.300 Y16.588 E-0.21670
;WIPE_END
G1 E-0.07000 F2100.000
G1 Z0.400 F10800.000
G1 X32.007 Y25.213
G1 Z0.200
G1 E1.40000 F2100.000
G1 F1200.000
G1 X36.645 Y20.575 E0.20566
G1 X37.496 Y20.185 E0.02935
G1 X38.419 Y19.868 E0.03059
G1 X31.661 Y26.626 E0.29966
G1 X31.464 Y27.386 E0.02461
G1 X31.371 Y27.983 E0.01895
G1 X39.764 Y19.589 E0.37218
G1 X40.342 Y19.511 E0.01829
G1 X40.929 Y19.491 E0.01842
G1 X31.268 Y29.152 E0.42840
G1 X31.258 Y29.329 E0.00554
G1 X31.294 Y30.192 E0.02710
G1 X41.968 Y19.518 E0.47330
G1 X42.296 Y19.539 E0.01029
G1 X42.913 Y19.640 E0.01961
G1 X31.417 Y31.136 E0.50977
G1 X31.615 Y32.005 E0.02793
G1 X43.783 Y19.836 E0.53958
G1 X44.206 Y19.949 E0.01371
G1 X44.592 Y20.094 E0.01293
G1 X31.875 Y32.811 E0.56392
G1 X31.993 Y33.147 E0.01117
G1 X32.188 Y33.565 E0.01445
G1 X45.348 Y20.404 E0.58356
G1 X46.058 Y20.761 E0.02490
G1 X32.548 Y34.271 E0.59906
G1 X32.950 Y34.935 E0.02435
G1 X46.715 Y21.170 E0.61037
G1 X47.328 Y21.624 E0.02391
G1 X33.402 Y35.550 E0.61750
G1 X33.897 Y36.121 E0.02371
G1 X47.903 Y22.116 E0.62101
G1 X48.319 Y22.507 E0.01789
G1 X48.440 Y22.645 E0.00578
G1 X34.430 Y36.655 E0.62123
G1 X34.862 Y37.049 E0.01833
G1 X35.000 Y37.152 E0.00540
G1 X48.937 Y23.214 E0.61803
G1 X49.384 Y23.834 E0.02395
G1 X35.610 Y37.608 E0.61076
G1 X36.273 Y38.012 E0.02433
G1 X49.792 Y24.493 E0.59945
G1 X50.018 Y24.887 E0.01424
G1 X50.156 Y25.195 E0.01059
G1 X36.977 Y38.374 E0.58437
G1 X37.367 Y38.559 E0.01351
G1 X37.729 Y38.689 E0.01206
G1 X50.487 Y25.931 E0.56573
G1 X50.587 Y26.153 E0.00763
G1 X51.039 Y26.445 E0.01689
G1 X38.533 Y38.952 E0.55456
G1 X39.236 Y39.129 E0.02273
G1 X39.398 Y39.153 E0.00515
G1 X52.017 Y26.534 E0.55955
G1 X53.084 Y26.534 E0.03344
G1 X40.338 Y39.279 E0.56516
G1 X41.362 Y39.322 E0.03212
G1 X54.150 Y26.534 E0.56707
G1 X55.217 Y26.534 E0.03344
G1 X42.428 Y39.322 E0.56707
G1 X43.495 Y39.322 E0.03344
G1 X56.283 Y26.534 E0.56707
G1 X57.350 Y26.534 E0.03344
G1 X44.561 Y39.322 E0.56707
G1 X45.628 Y39.322 E0.03344
G1 X58.416 Y26.534 E0.56707
G1 X59.483 Y26.534 E0.03344
G1 X46.694 Y39.322 E0.56707
G1 X47.761 Y39.322 E0.03344
G1 X60.330 Y26.753 E0.55734
G1 X60.864 Y27.286 E0.02365
G1 X48.827 Y39.322 E0.53370
G1 X49.894 Y39.322 E0.03344
G1 X61.397 Y27.820 E0.51005
G1 X61.699 Y28.122 E0.01338
G1 X63.286 Y26.534 E0.07040
G1 X63.749 Y26.534 E0.01451
G1 X50.961 Y39.322 E0.56707
G1 X52.027 Y39.322 E0.03344
G1 X64.816 Y26.534 E0.56707
G1 X65.882 Y26.534 E0.03344
G1 X53.094 Y39.322 E0.56707
G1 X54.160 Y39.322 E0.03344
G1 X66.949 Y26.534 E0.56707
G1 X68.015 Y26.534 E0.03344
G1 X55.227 Y39.322 E0.56707
G1 X56.293 Y39.322 E0.03344
G1 X69.082 Y26.534 E0.56707
G1 X70.148 Y26.534 E0.03344
G1 X57.360 Y39.322 E0.56707
G1 X58.426 Y39.322 E0.03344
G1 X71.215 Y26.534 E0.56707
G1 X72.282 Y26.534 E0.03344
G1 X59.493 Y39.322 E0.56707
G1 X60.559 Y39.322 E0.03344
G1 X73.348 Y26.534 E0.56707
G1 X74.415 Y26.534 E0.03344
G1 X61.626 Y39.322 E0.56707
G1 X62.693 Y39.322 E0.03344
G1 X75.481 Y26.534 E0.56707
G1 X75.971 Y26.534 E0.01537
G1 X76.155 Y26.926 E0.01359
G1 X71.164 Y31.918 E0.22133
G1 X71.697 Y32.451 E0.02365
G1 X76.539 Y27.609 E0.21471
G1 X76.802 Y28.003 E0.01485
G1 X76.993 Y28.222 E0.00911
G1 X72.230 Y32.984 E0.21117
G1 X72.764 Y33.518 E0.02365
G1 X77.512 Y28.770 E0.21053
G1 X78.101 Y29.247 E0.02378
G1 X73.177 Y34.171 E0.21834
;WIPE_START
G1 F8640.000
G1 X77.250 Y30.098 E-1.33000
;WIPE_END
G1 E-0.07000 F2100.000
G1 Z0.400 F10800.000
G1 X174.028 Y27.175
G1 Z0.200
G1 E1.40000 F2100.000
G1 F1200.000
G1 X174.670 Y26.534 E0.02844
G1 X175.736 Y26.534 E0.03344
G1 X174.681 Y27.589 E0.04677
G1 X175.215 Y28.122 E0.02365
G1 X176.803 Y26.534 E0.07042
G1 X177.869 Y26.534 E0.03344
G1 X175.748 Y28.655 E0.09406
G1 X176.281 Y29.188 E0.02365
G1 X178.936 Y26.534 E0.11771
G1 X180.002 Y26.534 E0.03344
G1 X176.814 Y29.722 E0.14135
G1 X177.348 Y30.255 E0.02365
G1 X181.069 Y26.534 E0.16500
G1 X182.135 Y26.534 E0.03344
G1 X177.881 Y30.788 E0.18865
G1 X178.414 Y31.321 E0.02365
G1 X183.202 Y26.534 E0.21229
M73 Q0 S204
G1 X184.268 Y26.534 E0.03344
G1 X178.948 Y31.855 E0.23594
G1 X179.481 Y32.388 E0.02365
G1 X185.335 Y26.534 E0.25958
G1 X186.402 Y26.534 E0.03344
G1 X180.014 Y32.921 E0.28323
G1 X180.547 Y33.455 E0.02365
G1 X187.468 Y26.534 E0.30688
G1 X188.535 Y26.534 E0.03344
G1 X181.081 Y33.988 E0.33052
G1 X181.614 Y34.521 E0.02365
G1 X189.601 Y26.534 E0.35417
G1 X190.668 Y26.534 E0.03344
G1 X182.147 Y35.054 E0.37781
G1 X182.680 Y35.588 E0.02365
G1 X191.734 Y26.534 E0.40146
G1 X192.801 Y26.534 E0.03344
G1 X183.214 Y36.121 E0.42511
G1 X183.747 Y36.654 E0.02365
G1 X193.867 Y26.534 E0.44875
G1 X194.934 Y26.534 E0.03344
G1 X184.280 Y37.187 E0.47240
G1 X184.813 Y37.721 E0.02365
G1 X196.000 Y26.534 E0.49605
M73 P0 R201
G1 X197.067 Y26.534 E0.03344
G1 X185.347 Y38.254 E0.51969
G1 X185.880 Y38.787 E0.02365
G1 X198.133 Y26.534 E0.54334
G1 X198.824 Y26.534 E0.02165
G1 X199.413 Y26.153 E0.02200
G1 X199.980 Y24.891 E0.04338
G1 X200.255 Y24.413 E0.01728
G1 X203.849 Y20.818 E0.15939
G1 X203.977 Y20.738 E0.00472
G1 X204.849 Y20.305 E0.03054
G1 X205.780 Y19.954 E0.03117
G1 X186.413 Y39.321 E0.85873
G1 X187.478 Y39.322 E0.03338
G1 X207.175 Y19.625 E0.87340
G1 X207.661 Y19.544 E0.01546
G1 X208.371 Y19.496 E0.02231
G1 X188.544 Y39.322 E0.87916
G1 X189.611 Y39.322 E0.03344
G1 X209.432 Y19.502 E0.87888
G1 X209.607 Y19.507 E0.00550
G1 X210.391 Y19.609 E0.02480
G1 X190.678 Y39.322 E0.87415
G1 X191.744 Y39.322 E0.03344
G1 X211.273 Y19.794 E0.86595
G1 X211.522 Y19.851 E0.00802
G1 X212.091 Y20.042 E0.01880
G1 X192.811 Y39.322 E0.85491
G1 X193.877 Y39.322 E0.03344
G1 X212.854 Y20.346 E0.84145
G1 X213.334 Y20.562 E0.01651
G1 X213.569 Y20.697 E0.00850
G1 X194.944 Y39.322 E0.82588
G1 X196.010 Y39.322 E0.03344
G1 X214.241 Y21.092 E0.80838
G1 X214.863 Y21.536 E0.02397
G1 X197.077 Y39.322 E0.78869
G1 X198.143 Y39.322 E0.03344
G1 X215.442 Y22.024 E0.76705
G1 X215.706 Y22.254 E0.01097
G1 X215.983 Y22.549 E0.01271
G1 X199.040 Y39.492 E0.75128
G1 X200.107 Y39.492 F10800.000
G1 F1200.000
G1 X209.387 Y30.212 E0.41152
G1 X209.637 Y29.962 F10800.000
G1 F1200.000
G1 X216.487 Y23.112 E0.30373
G1 X216.951 Y23.714 E0.02384
G1 X201.343 Y39.322 E0.69210
M73 P1 R201
G1 X202.410 Y39.322 E0.03344
G1 X217.363 Y24.369 E0.66308
M73 Q1 S204
G1 X217.484 Y24.561 E0.00712
G1 X217.733 Y25.065 E0.01763
G1 X203.476 Y39.322 E0.63219
G1 X204.543 Y39.322 E0.03344
G1 X218.058 Y25.808 E0.59927
G1 X218.261 Y26.345 E0.01803
G1 X218.330 Y26.601 E0.00832
G1 X205.609 Y39.322 E0.56407
G1 X206.676 Y39.322 E0.03344
G1 X218.543 Y27.455 E0.52623
G1 X218.696 Y28.369 E0.02905
G1 X207.742 Y39.322 E0.48570
G1 X208.810 Y39.322 E0.03347
G1 X219.073 Y29.058 E0.45510
G1 X219.137 Y29.220 E0.00547
G1 X219.157 Y29.339 E0.00376
G1 X219.137 Y29.577 E0.00749
G1 X219.043 Y29.796 E0.00749
G1 X218.825 Y30.083 E0.01130
G1 X218.710 Y30.349 E0.00908
G1 X218.682 Y30.516 E0.00531
G1 X209.948 Y39.250 E0.38728
G1 X210.732 Y39.135 E0.02486
G1 X211.260 Y39.005 E0.01704
G1 X218.427 Y31.837 E0.31781
G1 X218.269 Y32.428 E0.01917
G1 X217.931 Y33.329 E0.03016
G1 X217.863 Y33.468 E0.00488
G1 X212.564 Y38.767 E0.23496
;WIPE_START
G1 F8640.000
G1 X216.637 Y34.694 E-1.33000
;WIPE_END
G1 E-0.07000 F2100.000
G1 Z0.400 F10800.000
G1 X213.915 Y18.218
G1 Z0.200
G1 E1.40000 F2100.000
G1 F1200.000
G1 X215.292 Y16.841 E0.06108
G1 X215.239 Y16.727 E0.00395
G1 X215.143 Y16.590 E0.00524
G1 X215.025 Y16.471 E0.00524
G1 X214.888 Y16.375 E0.00524
G1 X214.754 Y16.313 E0.00464
G1 X213.387 Y17.680 E0.06061
;WIPE_START
G1 F8640.000
G1 X214.754 Y16.313 E-0.44635
G1 X214.888 Y16.375 E-0.03418
G1 X215.025 Y16.471 E-0.03863
G1 X215.143 Y16.590 E-0.03862
G1 X215.239 Y16.727 E-0.03862
G1 X215.292 Y16.841 E-0.02908
G1 X213.915 Y18.218 E-0.44984
;WIPE_END
G1 E-0.32468 F2100.000
G1 Z0.400 F10800.000
G1 X199.454 Y98.244
G1 Z0.200
G1 E1.40000 F2100.000
;TYPE:Perimeter
G1 F1200.000
G1 X200.371 Y98.426 E0.02933
G1 X201.255 Y98.726 E0.02928
G1 X202.093 Y99.139 E0.02928
G1 X202.838 Y99.637 E0.02809
G1 X203.570 Y100.272 E0.03041
G1 X204.187 Y100.976 E0.02933
G1 X204.706 Y101.752 E0.02928
G1 X205.119 Y102.590 E0.02928
G1 X205.419 Y103.474 E0.02928
G1 X205.601 Y104.390 E0.02928
G1 X205.661 Y105.296 E0.02847
G1 X205.661 Y143.447 E1.19621
G1 X205.601 Y144.353 E0.02847
G1 X205.419 Y145.269 E0.02928
G1 X205.119 Y146.153 E0.02928
G1 X204.706 Y146.991 E0.02928
G1 X204.187 Y147.767 E0.02928
G1 X203.571 Y148.469 E0.02928
G1 X202.869 Y149.085 E0.02928
G1 X202.125 Y149.583 E0.02809
G1 X201.257 Y150.016 E0.03041
G1 X200.371 Y150.317 E0.02933
G1 X199.455 Y150.499 E0.02928
G1 X198.524 Y150.560 E0.02928
G1 X197.592 Y150.499 E0.02928
G1 X196.676 Y150.317 E0.02928
G1 X195.792 Y150.017 E0.02928
G1 X194.954 Y149.604 E0.02928
G1 X194.178 Y149.085 E0.02928
G1 X193.476 Y148.469 E0.02928
G1 X192.860 Y147.767 E0.02928
G1 X192.341 Y146.991 E0.02928
G1 X191.928 Y146.153 E0.02928
G1 X191.628 Y145.269 E0.02928
G1 X191.446 Y144.353 E0.02928
G1 X191.386 Y143.447 E0.02847
G1 X191.386 Y105.296 E1.19621
G1 X191.446 Y104.390 E0.02847
G1 X191.628 Y103.474 E0.02928
G1 X191.928 Y102.590 E0.02928
G1 X192.341 Y101.752 E0.02928
G1 X192.860 Y100.976 E0.02928
G1 X193.476 Y100.274 E0.02928
G1 X194.178 Y99.658 E0.02928
G1 X194.954 Y99.139 E0.02928
G1 X195.792 Y98.726 E0.02928
G1 X196.676 Y98.426 E0.02928
G1 X197.592 Y98.244 E0.02928
G1 X198.486 Y98.185 E0.02809
G1 X199.394 Y98.240 E0.02853
G1 X199.371 Y98.616 F10800.000
;TYPE:External perimeter
G1 F1200.000
G1 X200.273 Y98.791 E0.02881
G1 X201.111 Y99.075 E0.02773
G1 X201.904 Y99.466 E0.02773
G1 X202.609 Y99.937 E0.02657
G1 X203.304 Y100.540 E0.02886
G1 X203.887 Y101.206 E0.02775
G1 X204.379 Y101.941 E0.02773
G1 X204.770 Y102.734 E0.02773
G1 X205.054 Y103.572 E0.02773
G1 X205.227 Y104.439 E0.02773
G1 X205.284 Y105.308 E0.02731
G1 X205.284 Y143.435 E1.19544
G1 X205.227 Y144.304 E0.02731
G1 X205.054 Y145.171 E0.02773
G1 X204.770 Y146.009 E0.02773
G1 X204.379 Y146.802 E0.02773
G1 X203.887 Y147.537 E0.02773
G1 X203.304 Y148.202 E0.02773
G1 X202.639 Y148.785 E0.02773
G1 X201.935 Y149.256 E0.02657
G1 X201.111 Y149.668 E0.02886
G1 X200.273 Y149.952 E0.02775
G1 X199.406 Y150.125 E0.02773
G1 X198.524 Y150.182 E0.02773
G1 X197.641 Y150.125 E0.02773
G1 X196.774 Y149.952 E0.02773
G1 X195.936 Y149.668 E0.02773
G1 X195.143 Y149.277 E0.02773
G1 X194.408 Y148.785 E0.02773
G1 X193.743 Y148.202 E0.02773
G1 X193.160 Y147.537 E0.02773
G1 X192.668 Y146.802 E0.02773
G1 X192.277 Y146.009 E0.02773
G1 X191.993 Y145.171 E0.02773
G1 X191.820 Y144.304 E0.02773
G1 X191.764 Y143.435 E0.02731
G1 X191.764 Y105.308 E1.19544
G1 X191.820 Y104.439 E0.02731
G1 X191.993 Y103.572 E0.02773
G1 X192.277 Y102.734 E0.02773
G1 X192.668 Y101.941 E0.02773
G1 X193.160 Y101.206 E0.02773
G1 X193.743 Y100.541 E0.02773
G1 X194.408 Y99.958 E0.02773
G1 X195.143 Y99.466 E0.02773
G1 X195.936 Y99.075 E0.02773
G1 X196.774 Y98.791 E0.02773
G1 X197.641 Y98.618 E0.02773
G1 X198.487 Y98.563 E0.02657
G1 X199.311 Y98.613 E0.02591
G1 X199.614 Y98.298 F10800.000
;WIPE_START
G1 F8640.000
G1 X200.273 Y98.791 E-0.22592
G1 X201.111 Y99.075 E-0.20420
G1 X201.904 Y99.466 E-0.20420
G1 X202.609 Y99.937 E-0.19565
G1 X203.304 Y100.540 E-0.21255
G1 X203.887 Y101.206 E-0.20433
G1 X204.087 Y101.505 E-0.08314
;WIPE_END
G1 E-0.07000 F2100.000
G1 Z0.400 F10800.000
G1 X203.938 Y57.151
G1 Z0.200
G1 E1.40000 F2100.000
;TYPE:Perimeter
G1 F1200.000
G1 X203.514 Y57.037 E0.01376
G1 X203.116 Y56.852 E0.01376
G1 X202.757 Y56.600 E0.01376
G1 X202.447 Y56.290 E0.01376
G1 X202.195 Y55.930 E0.01376
G1 X202.010 Y55.532 E0.01376
G1 X201.896 Y55.109 E0.01376
G1 X201.858 Y54.672 E0.01376
G1 X201.896 Y54.234 E0.01376
G1 X202.010 Y53.811 E0.01376
G1 X202.195 Y53.413 E0.01376
G1 X202.447 Y53.053 E0.01376
G1 X202.757 Y52.743 E0.01376
G1 X203.116 Y52.491 E0.01376
G1 X203.514 Y52.306 E0.01376
G1 X203.938 Y52.192 E0.01376
G1 X204.345 Y52.157 E0.01283
G1 X204.809 Y52.192 E0.01456
G1 X205.236 Y52.306 E0.01387
G1 X205.634 Y52.491 E0.01376
G1 X205.993 Y52.743 E0.01376
G1 X206.303 Y53.053 E0.01376
G1 X206.555 Y53.413 E0.01376
G1 X206.740 Y53.811 E0.01376
G1 X206.854 Y54.234 E0.01376
G1 X206.892 Y54.672 E0.01376
G1 X206.854 Y55.109 E0.01376
G1 X206.740 Y55.532 E0.01376
G1 X206.555 Y55.930 E0.01376
G1 X206.303 Y56.290 E0.01376
G1 X205.993 Y56.600 E0.01376
G1 X205.634 Y56.852 E0.01376
G1 X205.236 Y57.037 E0.01376
G1 X204.812 Y57.151 E0.01376
G1 X204.375 Y57.189 E0.01376
