; generated by PrusaSlicer 2.3.0+win64 on 2021-05-05 at 05:13:04 UTC

; 

; external perimeters extrusion width = 0.60mm
; perimeters extrusion width = 0.50mm
; infill extrusion width = 0.50mm
; solid infill extrusion width = 0.50mm
; top infill extrusion width = 0.45mm
; support material extrusion width = 0.38mm
; first layer extrusion width = 0.42mm

M73 P0 R40
M73 Q0 S40
M201 X1000 Y1000 Z200 E5000 ; sets maximum accelerations, mm/sec^2
M203 X200 Y200 Z12 E120 ; sets maximum feedrates, mm/sec
M204 P1250 R1250 T1250 ; sets acceleration (P, T) and retract acceleration (R), mm/sec^2
M205 X8.00 Y8.00 Z0.40 E4.50 ; sets the jerk limits, mm/sec
M205 S0 T0 ; sets the minimum extruding and travel feed rate, mm/sec
M107
;TYPE:Custom
M862.3 P "MK3S" ; printer model check
M862.1 P0.4 ; nozzle diameter check
M115 U3.9.1 ; tell printer latest fw version
G90 ; use absolute coordinates
M83 ; extruder relative mode
M104 S240 ; set extruder temp
M140 S85 ; set bed temp
M190 S85 ; wait for bed temp
M109 S240 ; wait for extruder temp
G28 W ; home all without mesh bed level
G80 ; mesh bed leveling
G1 Y-3.0 F1000.0 ; go outside print area
G92 E0.0
G1 X60.0 E9.0 F1000.0 ; intro line
G1 X100.0 E12.5 F1000.0 ; intro line
G92 E0.0
M221 S95

; Don't change E values below. Excessive value can damage the printer.

M907 E538 ; set extruder motor current
G21 ; set units to millimeters
G90 ; use absolute coordinates
M83 ; use relative distances for extrusion
M900 K0.08 ; Filament gcode LA 1.5
M900 K45 ; Filament gcode LA 1.0
;LAYER_CHANGE
;Z:0.2
;HEIGHT:0.2
;BEFORE_LAYER_CHANGE
G92 E0.0
;0.2


G1 E-1.40000 F2100.000
G1 Z0.200 F10800.000
;AFTER_LAYER_CHANGE
;0.2
G1 Z0.400
G1 X104.267 Y86.635
G1 Z0.200
G1 E1.40000 F2100.000
M204 S1000
;TYPE:Skirt
;WIDTH:0.42
G1 F1200.000
G1 X104.740 Y85.903 E0.02731
G1 X106.647 Y84.034 E0.08375
G1 X107.243 Y83.715 E0.02119
G1 X107.905 Y83.578 E0.02119
G1 X141.950 Y83.573 E1.06745
G1 X142.827 Y83.742 E0.02802
G1 X143.583 Y84.226 E0.02813
G1 X145.436 Y86.113 E0.08292
G1 X145.752 Y86.684 E0.02048
G1 X145.901 Y87.320 E0.02048
G1 X145.910 Y117.871 E0.95789
G1 X145.733 Y118.727 E0.02743
G1 X145.260 Y119.459 E0.02731
G1 X143.513 Y121.200 E0.07733
G1 X142.760 Y121.646 E0.02743
G1 X131.231 Y125.501 E0.38117
G1 X128.792 Y126.089 E0.07864
G1 X126.232 Y126.391 E0.08083
M73 P0 R39
G1 X124.929 Y126.426 E0.04086
G1 X122.527 Y126.283 E0.07546
G1 X119.907 Y125.813 E0.08345
G1 X118.684 Y125.475 E0.03978
G1 X107.275 Y121.658 E0.37723
G1 X106.821 Y121.445 E0.01574
G1 X106.421 Y121.140 E0.01574
G1 X104.546 Y119.225 E0.08405
G1 X104.225 Y118.618 E0.02154
G1 X104.092 Y117.940 E0.02166
G1 X104.090 Y87.488 E0.95479
G1 X104.255 Y86.694 E0.02543
;WIPE_START
G1 F8640.000
G1 X104.740 Y85.903 E-0.21413
G1 X106.647 Y84.034 E-0.61673
G1 X107.243 Y83.715 E-0.15602
G1 X107.905 Y83.578 E-0.15602
G1 X108.715 Y83.577 E-0.18710
;WIPE_END
G1 E-0.07000 F2100.000
G1 Z0.400 F10800.000
G1 X138.243 Y113.056
G1 Z0.200
G1 E1.40000 F2100.000
;TYPE:External perimeter
G1 F1200.000
G1 X138.501 Y112.894 E0.00956
G1 X138.777 Y112.825 E0.00892
G1 X139.012 Y112.808 E0.00738
G1 X139.290 Y112.825 E0.00873
G1 X139.567 Y112.894 E0.00896
G1 X139.826 Y113.056 E0.00956
G1 X140.021 Y113.286 E0.00949
G1 X140.137 Y113.529 E0.00842
G1 X140.195 Y113.863 E0.01065
G1 X140.158 Y114.169 E0.00964
G1 X140.042 Y114.450 E0.00955
G1 X139.857 Y114.691 E0.00953
G1 X139.616 Y114.876 E0.00953
G1 X139.335 Y114.993 E0.00952
G1 X139.034 Y115.032 E0.00952
G1 X138.733 Y114.993 E0.00952
G1 X138.452 Y114.876 E0.00952
G1 X138.211 Y114.691 E0.00953
G1 X138.026 Y114.450 E0.00953
G1 X137.910 Y114.169 E0.00955
G1 X137.873 Y113.867 E0.00954
G1 X137.916 Y113.563 E0.00962
G1 X138.046 Y113.287 E0.00957
G1 X138.204 Y113.101 E0.00762
G1 X138.187 Y112.756 F10800.000
;WIPE_START
G1 F8640.000
G1 X138.501 Y112.894 E-0.08371
G1 X138.777 Y112.825 E-0.06572
G1 X139.012 Y112.808 E-0.05435
G1 X139.290 Y112.825 E-0.06429
G1 X139.567 Y112.894 E-0.06602
G1 X139.826 Y113.056 E-0.07040
G1 X140.021 Y113.286 E-0.06986
G1 X140.137 Y113.529 E-0.06204
G1 X140.195 Y113.863 E-0.07843
G1 X140.158 Y114.169 E-0.07102
G1 X140.042 Y114.450 E-0.07033
G1 X139.857 Y114.691 E-0.07016
G1 X139.616 Y114.876 E-0.07015
G1 X139.335 Y114.993 E-0.07014
G1 X139.034 Y115.032 E-0.07014
G1 X138.733 Y114.993 E-0.07014
G1 X138.452 Y114.876 E-0.07014
G1 X138.211 Y114.691 E-0.07015
G1 X138.026 Y114.450 E-0.07016
G1 X138.006 Y114.400 E-0.01266
;WIPE_END
G1 E-0.07000 F2100.000
G1 Z0.400 F10800.000
G1 X138.501 Y90.756
G1 Z0.200
G1 E1.40000 F2100.000
G1 F1200.000
G1 X138.243 Y90.594 E0.00956
G1 X138.046 Y90.363 E0.00950
G1 X137.916 Y90.087 E0.00957
G1 X137.873 Y89.783 E0.00962
G1 X137.910 Y89.481 E0.00954
G1 X138.026 Y89.200 E0.00955
G1 X138.211 Y88.959 E0.00953
G1 X138.452 Y88.774 E0.00953
G1 X138.733 Y88.657 E0.00952
G1 X139.034 Y88.618 E0.00952
G1 X139.335 Y88.657 E0.00952
G1 X139.616 Y88.774 E0.00952
G1 X139.857 Y88.959 E0.00953
G1 X140.042 Y89.200 E0.00953
G1 X140.158 Y89.481 E0.00955
G1 X140.195 Y89.783 E0.00954
G1 X140.152 Y90.087 E0.00962
G1 X140.022 Y90.363 E0.00957
G1 X139.826 Y90.594 E0.00950
G1 X139.567 Y90.756 E0.00956
G1 X139.291 Y90.825 E0.00891
G1 X139.034 Y90.844 E0.00809
G1 X138.777 Y90.825 E0.00809
G1 X138.559 Y90.771 E0.00703
G1 X138.253 Y90.933 F10800.000
G1 X137.881 Y90.751
;TYPE:Perimeter
G1 F1200.000
G1 X132.159 Y90.743 E0.17941
G1 X132.159 Y112.907 E0.69491
G1 X137.881 Y112.899 E0.17941
G1 X137.726 Y113.081 E0.00748
G1 X137.551 Y113.454 E0.01293
G1 X137.493 Y113.863 E0.01296
G1 X137.542 Y114.265 E0.01270
G1 X137.697 Y114.640 E0.01271
G1 X137.942 Y114.960 E0.01265
G1 X138.262 Y115.206 E0.01264
G1 X138.634 Y115.360 E0.01264
G1 X139.034 Y115.413 E0.01264
G1 X139.434 Y115.360 E0.01264
G1 X139.806 Y115.206 E0.01264
G1 X140.126 Y114.960 E0.01264
G1 X140.371 Y114.640 E0.01265
G1 X140.526 Y114.265 E0.01271
G1 X140.576 Y113.854 E0.01300
G1 X140.500 Y113.413 E0.01402
G1 X140.341 Y113.080 E0.01159
G1 X140.182 Y112.893 E0.00768
G1 X142.746 Y112.905 E0.08041
G1 X142.746 Y117.499 E0.14403
G1 X141.620 Y118.625 E0.04995
G1 X137.177 Y118.625 E0.13929
G1 X136.101 Y119.502 E0.04352
G1 X135.221 Y120.135 E0.03399
G1 X134.304 Y120.715 E0.03401
G1 X133.355 Y121.239 E0.03401
G1 X132.376 Y121.707 E0.03401
G1 X131.371 Y122.115 E0.03401
G1 X130.344 Y122.463 E0.03401
G1 X129.298 Y122.750 E0.03401
G1 X128.237 Y122.973 E0.03401
G1 X127.164 Y123.134 E0.03401
G1 X126.084 Y123.230 E0.03401
G1 X125.000 Y123.263 E0.03401
G1 X123.916 Y123.230 E0.03401
G1 X122.836 Y123.134 E0.03401
G1 X121.763 Y122.973 E0.03401
G1 X120.702 Y122.750 E0.03401
G1 X119.656 Y122.463 E0.03401
G1 X118.629 Y122.115 E0.03401
G1 X117.624 Y121.707 E0.03401
G1 X116.645 Y121.239 E0.03401
G1 X115.696 Y120.715 E0.03401
G1 X114.779 Y120.135 E0.03401
G1 X113.899 Y119.501 E0.03401
G1 X112.823 Y118.625 E0.04351
G1 X108.380 Y118.625 E0.13929
G1 X107.254 Y117.499 E0.04995
G1 X107.254 Y112.905 E0.14403
G1 X109.818 Y112.893 E0.08041
G1 X109.658 Y113.081 E0.00773
G1 X109.483 Y113.454 E0.01293
G1 X109.425 Y113.863 E0.01296
G1 X109.474 Y114.265 E0.01270
G1 X109.629 Y114.640 E0.01271
G1 X109.874 Y114.960 E0.01265
G1 X110.194 Y115.206 E0.01264
G1 X110.566 Y115.360 E0.01264
G1 X110.966 Y115.413 E0.01264
G1 X111.366 Y115.360 E0.01264
G1 X111.738 Y115.206 E0.01264
G1 X112.058 Y114.960 E0.01264
G1 X112.303 Y114.640 E0.01265
G1 X112.458 Y114.265 E0.01271
G1 X112.507 Y113.863 E0.01270
G1 X112.449 Y113.454 E0.01296
G1 X112.274 Y113.081 E0.01293
G1 X112.119 Y112.899 E0.00748
G1 X117.841 Y112.907 E0.17941
G1 X117.841 Y90.743 E0.69491
G1 X112.119 Y90.751 E0.17941
M73 Q1 S40
G1 X112.274 Y90.569 E0.00748
M73 P1 R39
G1 X112.449 Y90.196 E0.01293
G1 X112.507 Y89.787 E0.01296
G1 X112.458 Y89.385 E0.01270
G1 X112.303 Y89.010 E0.01271
G1 X112.058 Y88.690 E0.01265
G1 X111.738 Y88.444 E0.01264
G1 X111.366 Y88.290 E0.01264
G1 X110.966 Y88.237 E0.01264
G1 X110.566 Y88.290 E0.01264
G1 X110.194 Y88.444 E0.01264
G1 X109.874 Y88.690 E0.01264
G1 X109.629 Y89.010 E0.01265
G1 X109.474 Y89.385 E0.01271
G1 X109.425 Y89.787 E0.01270
G1 X109.483 Y90.196 E0.01296
G1 X109.658 Y90.569 E0.01293
G1 X109.818 Y90.757 E0.00773
G1 X107.254 Y90.745 E0.08041
G1 X107.254 Y87.864 E0.09034
G1 X108.380 Y86.737 E0.04995
G1 X141.620 Y86.737 E1.04222
G1 X142.746 Y87.864 E0.04995
G1 X142.746 Y90.745 E0.09034
G1 X140.182 Y90.757 E0.08041
G1 X140.342 Y90.569 E0.00773
G1 X140.517 Y90.196 E0.01293
G1 X140.575 Y89.787 E0.01296
G1 X140.526 Y89.385 E0.01270
G1 X140.371 Y89.010 E0.01271
G1 X140.126 Y88.690 E0.01265
G1 X139.806 Y88.444 E0.01264
G1 X139.434 Y88.290 E0.01264
G1 X139.034 Y88.237 E0.01264
G1 X138.634 Y88.290 E0.01264
G1 X138.262 Y88.444 E0.01264
G1 X137.942 Y88.690 E0.01264
G1 X137.697 Y89.010 E0.01265
G1 X137.542 Y89.385 E0.01271
G1 X137.493 Y89.787 E0.01270
G1 X137.551 Y90.196 E0.01296
G1 X137.726 Y90.569 E0.01293
G1 X137.842 Y90.705 E0.00560
;WIPE_START
G1 F8640.000
G1 X132.159 Y90.743 E-1.31226
G1 X132.159 Y90.820 E-0.01774
;WIPE_END
G1 E-0.07000 F2100.000
G1 Z0.400 F10800.000
M73 Q1 S39
G1 X112.084 Y90.087
G1 Z0.200
G1 E1.40000 F2100.000
;TYPE:External perimeter
G1 F1200.000
G1 X111.954 Y90.363 E0.00957
G1 X111.757 Y90.594 E0.00950
G1 X111.499 Y90.756 E0.00956
G1 X111.223 Y90.825 E0.00891
G1 X110.966 Y90.844 E0.00809
G1 X110.709 Y90.825 E0.00809
G1 X110.433 Y90.756 E0.00891
G1 X110.174 Y90.594 E0.00956
G1 X109.978 Y90.363 E0.00950
G1 X109.848 Y90.087 E0.00957
G1 X109.805 Y89.783 E0.00962
G1 X109.842 Y89.481 E0.00954
G1 X109.958 Y89.200 E0.00955
G1 X110.143 Y88.959 E0.00953
G1 X110.384 Y88.774 E0.00953
G1 X110.665 Y88.657 E0.00952
G1 X110.966 Y88.618 E0.00952
G1 X111.267 Y88.657 E0.00952
G1 X111.548 Y88.774 E0.00952
G1 X111.789 Y88.959 E0.00953
G1 X111.974 Y89.200 E0.00953
G1 X112.090 Y89.481 E0.00955
G1 X112.127 Y89.783 E0.00954
G1 X112.092 Y90.028 E0.00774
G1 X112.292 Y90.310 F10800.000
;WIPE_START
G1 F8640.000
G1 X111.954 Y90.363 E-0.08385
G1 X111.757 Y90.594 E-0.06999
G1 X111.499 Y90.756 E-0.07040
G1 X111.223 Y90.825 E-0.06564
G1 X110.966 Y90.844 E-0.05959
G1 X110.709 Y90.825 E-0.05959
G1 X110.433 Y90.756 E-0.06564
G1 X110.174 Y90.594 E-0.07040
G1 X109.978 Y90.363 E-0.07000
G1 X109.848 Y90.087 E-0.07051
G1 X109.805 Y89.783 E-0.07084
G1 X109.842 Y89.481 E-0.07025
G1 X109.958 Y89.200 E-0.07033
G1 X110.143 Y88.959 E-0.07015
G1 X110.384 Y88.774 E-0.07015
G1 X110.665 Y88.657 E-0.07014
G1 X110.966 Y88.618 E-0.07014
G1 X111.267 Y88.657 E-0.07013
G1 X111.548 Y88.774 E-0.07014
G1 X111.589 Y88.806 E-0.01214
;WIPE_END
G1 E-0.07000 F2100.000
G1 Z0.400 F10800.000
G1 X110.433 Y112.894
G1 Z0.200
G1 E1.40000 F2100.000
G1 F1200.000
G1 X110.709 Y112.825 E0.00892
G1 X110.944 Y112.808 E0.00738
G1 X111.222 Y112.825 E0.00873
G1 X111.499 Y112.894 E0.00896
G1 X111.757 Y113.056 E0.00956
G1 X111.954 Y113.287 E0.00950
G1 X112.084 Y113.563 E0.00957
G1 X112.127 Y113.867 E0.00962
G1 X112.090 Y114.169 E0.00954
G1 X111.974 Y114.450 E0.00955
G1 X111.789 Y114.691 E0.00953
G1 X111.548 Y114.876 E0.00953
G1 X111.267 Y114.993 E0.00952
G1 X110.966 Y115.032 E0.00952
G1 X110.665 Y114.993 E0.00952
G1 X110.384 Y114.876 E0.00952
G1 X110.143 Y114.691 E0.00953
G1 X109.958 Y114.450 E0.00953
G1 X109.842 Y114.169 E0.00955
G1 X109.805 Y113.867 E0.00954
G1 X109.848 Y113.563 E0.00962
G1 X109.978 Y113.287 E0.00957
G1 X110.174 Y113.056 E0.00950
G1 X110.382 Y112.926 E0.00768
G1 X110.468 Y112.611 F10800.000
;WIPE_START
G1 F8640.000
G1 X110.709 Y112.825 E-0.07901
G1 X110.944 Y112.808 E-0.05435
G1 X111.222 Y112.825 E-0.06429
G1 X111.499 Y112.894 E-0.06602
G1 X111.757 Y113.056 E-0.07040
G1 X111.954 Y113.287 E-0.07000
G1 X112.084 Y113.563 E-0.07051
G1 X112.127 Y113.867 E-0.07084
G1 X112.090 Y114.169 E-0.07025
G1 X111.974 Y114.450 E-0.07033
G1 X111.789 Y114.691 E-0.07016
G1 X111.548 Y114.876 E-0.07015
G1 X111.267 Y114.993 E-0.07014
G1 X110.966 Y115.032 E-0.07014
G1 X110.665 Y114.993 E-0.07014
G1 X110.384 Y114.876 E-0.07014
G1 X110.143 Y114.691 E-0.07015
G1 X109.958 Y114.450 E-0.07016
G1 X109.842 Y114.169 E-0.07033
G1 X109.836 Y114.115 E-0.01252
;WIPE_END
G1 E-0.07000 F2100.000
G1 Z0.400 F10800.000
G1 X132.536 Y91.121
G1 Z0.200
G1 E1.40000 F2100.000
G1 F1200.000
G1 X132.536 Y112.529 E0.67123
G1 X137.764 Y112.522 E0.16392
G1 X138.256 Y112.497 E0.01545
G1 X138.734 Y112.446 E0.01507
G1 X139.196 Y112.437 E0.01448
G1 X140.154 Y112.515 E0.03014
G1 X140.643 Y112.527 E0.01536
G1 X143.124 Y112.529 E0.07776
G1 X143.124 Y117.655 E0.16074
G1 X141.776 Y119.002 E0.05974
G1 X137.311 Y119.002 E0.13999
G1 X136.330 Y119.801 E0.03967
G1 X135.432 Y120.447 E0.03469
G1 X134.496 Y121.039 E0.03471
G1 X133.528 Y121.575 E0.03471
G1 X132.529 Y122.052 E0.03471
G1 X131.503 Y122.469 E0.03471
G1 X130.455 Y122.824 E0.03471
G1 X129.387 Y123.116 E0.03471
G1 X128.304 Y123.345 E0.03471
G1 X127.209 Y123.508 E0.03471
G1 X126.106 Y123.607 E0.03471
G1 X125.000 Y123.640 E0.03471
G1 X123.894 Y123.607 E0.03471
G1 X122.791 Y123.508 E0.03471
G1 X121.696 Y123.345 E0.03471
G1 X120.613 Y123.116 E0.03471
G1 X119.545 Y122.824 E0.03471
G1 X118.497 Y122.469 E0.03471
G1 X117.471 Y122.052 E0.03471
G1 X116.472 Y121.575 E0.03471
G1 X115.504 Y121.039 E0.03471
G1 X114.568 Y120.447 E0.03471
G1 X113.670 Y119.801 E0.03471
G1 X112.689 Y119.002 E0.03966
G1 X108.224 Y119.002 E0.13999
G1 X106.876 Y117.655 E0.05974
G1 X106.876 Y112.529 E0.16074
G1 X109.357 Y112.527 E0.07776
G1 X109.846 Y112.515 E0.01536
G1 X110.804 Y112.437 E0.03014
G1 X111.266 Y112.446 E0.01448
G1 X111.744 Y112.497 E0.01507
G1 X112.236 Y112.522 E0.01545
G1 X117.464 Y112.529 E0.16392
G1 X117.464 Y91.121 E0.67123
G1 X112.236 Y91.128 E0.16392
G1 X111.744 Y91.153 E0.01545
G1 X111.266 Y91.204 E0.01507
G1 X110.804 Y91.213 E0.01448
G1 X109.846 Y91.135 E0.03014
G1 X109.357 Y91.123 E0.01536
G1 X106.876 Y91.121 E0.07776
G1 X106.876 Y87.707 E0.10705
G1 X108.224 Y86.360 E0.05974
G1 X141.776 Y86.360 E1.05201
G1 X143.124 Y87.707 E0.05974
G1 X143.124 Y91.121 E0.10705
G1 X140.643 Y91.123 E0.07776
G1 X140.154 Y91.135 E0.01536
G1 X139.196 Y91.213 E0.03014
G1 X138.734 Y91.204 E0.01448
G1 X138.256 Y91.153 E0.01507
G1 X137.764 Y91.128 E0.01545
G1 X132.596 Y91.121 E0.16204
G1 X132.136 Y91.120 F10800.000
;WIPE_START
G1 F8640.000
G1 X132.580 Y96.881 E-1.33000
;WIPE_END
G1 E-0.07000 F2100.000
G1 Z0.400 F10800.000
G1 X137.409 Y90.389
G1 Z0.200
G1 E1.40000 F2100.000
;TYPE:Gap fill
;WIDTH:0.126748
G1 F1200.000
G1 X137.461 Y90.562 E0.00126
G1 X138.223 Y90.830 F10800.000
;WIDTH:0.131281
G1 F1200.000
G1 X138.394 Y90.978 E0.00166
;WIPE_START
G1 F8640.000
G1 X138.223 Y90.830 E-0.05231
;WIPE_END
G1 E-1.34769 F2100.000
G1 Z0.400 F10800.000
G1 X139.794 Y90.923
G1 Z0.200
G1 E1.40000 F2100.000
;WIDTH:0.101518
G1 F1200.000
G1 X139.592 Y90.968 E0.00101
G1 X139.665 Y90.986 F10800.000
;WIDTH:0.134667
G1 F1200.000
G1 X139.845 Y90.830 E0.00181
G1 X140.608 Y90.558 F10800.000
;WIDTH:0.125718
G1 F1200.000
G1 X140.659 Y90.388 E0.00122
;WIPE_START
G1 F8640.000
G1 X140.608 Y90.558 E-0.04095
;WIPE_END
G1 E-1.35905 F2100.000
G1 Z0.400 F10800.000
G1 X142.633 Y88.152
G1 Z0.200
G1 E1.40000 F2100.000
;TYPE:Solid infill
;WIDTH:0.421963
G1 F1200.000
G1 X141.501 Y87.020 E0.05045
G1 X140.965 Y87.020 E0.01689
G1 X142.464 Y88.518 E0.06678
G1 X142.464 Y89.054 E0.01689
G1 X140.429 Y87.020 E0.09068
G1 X139.893 Y87.020 E0.01689
G1 X142.464 Y89.590 E0.11457
G1 X142.464 Y90.126 E0.01689
G1 X139.357 Y87.020 E0.13846
G1 X138.821 Y87.020 E0.01689
G1 X142.265 Y90.464 E0.15352
G1 X141.732 Y90.467 E0.01681
G1 X140.833 Y89.568 E0.04006
G1 X140.860 Y89.790 E0.00704
G1 X140.818 Y90.089 E0.00952
G1 X141.367 Y90.638 E0.02449
;WIPE_START
G1 F8640.000
G1 X140.818 Y90.089 E-0.17942
G1 X140.860 Y89.790 E-0.06978
G1 X140.833 Y89.568 E-0.05154
G1 X141.732 Y90.467 E-0.29350
G1 X142.265 Y90.464 E-0.12318
G1 X140.390 Y88.588 E-0.61258
;WIPE_END
G1 E-0.07000 F2100.000
G1 Z0.400 F10800.000
G1 X139.442 Y88.177
G1 Z0.200
G1 E1.40000 F2100.000
G1 F1200.000
G1 X138.285 Y87.020 E0.05158
G1 X137.749 Y87.020 E0.01689
G1 X138.722 Y87.993 E0.04338
G1 X138.561 Y88.014 E0.00514
G1 X138.311 Y88.118 E0.00852
G1 X137.213 Y87.020 E0.04894
G1 X136.677 Y87.020 E0.01689
G1 X137.969 Y88.312 E0.05761
G1 X137.740 Y88.488 E0.00910
G1 X137.683 Y88.562 E0.00295
G1 X136.141 Y87.020 E0.06875
