; generated by PrusaSlicer 2.3.0+win64 on 2021-05-05 at 05:36:00 UTC

; 

; external perimeters extrusion width = 0.60mm
; perimeters extrusion width = 0.50mm
; infill extrusion width = 0.50mm
; solid infill extrusion width = 0.50mm
; top infill extrusion width = 0.45mm
; support material extrusion width = 0.38mm
; first layer extrusion width = 0.42mm

M73 P0 R31
M73 Q0 S32
M201 X1000 Y1000 Z200 E5000 ; sets maximum accelerations, mm/sec^2
M203 X200 Y200 Z12 E120 ; sets maximum feedrates, mm/sec
M204 P1250 R1250 T1250 ; sets acceleration (P, T) and retract acceleration (R), mm/sec^2
M205 X8.00 Y8.00 Z0.40 E4.50 ; sets the jerk limits, mm/sec
M205 S0 T0 ; sets the minimum extruding and travel feed rate, mm/sec
M107
;TYPE:Custom
M862.3 P "MK3S" ; printer model check
M862.1 P0.4 ; nozzle diameter check
M115 U3.9.1 ; tell printer latest fw version
G90 ; use absolute coordinates
M83 ; extruder relative mode
M104 S240 ; set extruder temp
M140 S85 ; set bed temp
M190 S85 ; wait for bed temp
M109 S240 ; wait for extruder temp
G28 W ; home all without mesh bed level
G80 ; mesh bed leveling
G1 Y-3.0 F1000.0 ; go outside print area
G92 E0.0
G1 X60.0 E9.0 F1000.0 ; intro line
G1 X100.0 E12.5 F1000.0 ; intro line
G92 E0.0
M221 S95

; Don't change E values below. Excessive value can damage the printer.

M907 E538 ; set extruder motor current
G21 ; set units to millimeters
G90 ; use absolute coordinates
M83 ; use relative distances for extrusion
M900 K0.08 ; Filament gcode LA 1.5
M900 K45 ; Filament gcode LA 1.0
;LAYER_CHANGE
;Z:0.2
;HEIGHT:0.2
;BEFORE_LAYER_CHANGE
G92 E0.0
;0.2


G1 E-1.40000 F2100.000
G1 Z0.200 F10800.000
;AFTER_LAYER_CHANGE
;0.2
G1 Z0.400
G1 X104.267 Y86.635
M73 Q0 S31
G1 Z0.200
G1 E1.40000 F2100.000
M204 S1000
;TYPE:Skirt
;WIDTH:0.42
G1 F1200.000
G1 X104.740 Y85.903 E0.02731
G1 X106.647 Y84.034 E0.08375
G1 X107.243 Y83.715 E0.02119
G1 X107.905 Y83.578 E0.02119
G1 X141.950 Y83.573 E1.06745
G1 X142.827 Y83.742 E0.02802
G1 X143.583 Y84.226 E0.02813
G1 X145.436 Y86.113 E0.08292
G1 X145.752 Y86.684 E0.02048
G1 X145.901 Y87.320 E0.02048
G1 X145.910 Y117.871 E0.95789
G1 X145.733 Y118.727 E0.02743
G1 X145.260 Y119.459 E0.02731
G1 X143.513 Y121.200 E0.07733
G1 X142.760 Y121.646 E0.02743
G1 X131.231 Y125.501 E0.38117
G1 X128.792 Y126.089 E0.07864
G1 X126.232 Y126.391 E0.08083
G1 X124.929 Y126.426 E0.04086
G1 X122.527 Y126.283 E0.07546
G1 X119.907 Y125.813 E0.08345
G1 X118.684 Y125.475 E0.03978
G1 X107.275 Y121.658 E0.37723
G1 X106.821 Y121.445 E0.01574
G1 X106.421 Y121.140 E0.01574
G1 X104.546 Y119.225 E0.08405
G1 X104.225 Y118.618 E0.02154
G1 X104.092 Y117.940 E0.02166
G1 X104.090 Y87.488 E0.95479
G1 X104.255 Y86.694 E0.02543
;WIPE_START
G1 F8640.000
G1 X104.740 Y85.903 E-0.21413
G1 X106.647 Y84.034 E-0.61673
G1 X107.243 Y83.715 E-0.15602
G1 X107.905 Y83.578 E-0.15602
G1 X108.715 Y83.577 E-0.18710
;WIPE_END
G1 E-0.07000 F2100.000
G1 Z0.400 F10800.000
G1 X142.746 Y88.095
G1 Z0.200
G1 E1.40000 F2100.000
;TYPE:Perimeter
G1 F1200.000
G1 X142.746 Y90.764 E0.08369
G1 X141.130 Y90.768 E0.05068
G1 X140.440 Y90.808 E0.02168
G1 X140.590 Y90.570 E0.00883
G1 X140.695 Y90.122 E0.01444
G1 X140.662 Y89.666 E0.01433
G1 X140.497 Y89.248 E0.01410
G1 X140.232 Y88.897 E0.01378
G1 X139.885 Y88.630 E0.01373
G1 X139.482 Y88.463 E0.01367
G1 X139.050 Y88.406 E0.01366
G1 X138.618 Y88.463 E0.01366
G1 X138.215 Y88.630 E0.01367
G1 X137.868 Y88.897 E0.01373
G1 X137.603 Y89.248 E0.01378
G1 X137.438 Y89.666 E0.01410
G1 X137.405 Y90.122 E0.01433
G1 X137.510 Y90.570 E0.01444
G1 X137.675 Y90.832 E0.00969
G1 X137.386 Y90.791 E0.00913
G1 X136.869 Y90.767 E0.01624
G1 X134.159 Y90.762 E0.08497
G1 X134.159 Y112.913 E0.69455
G1 X136.870 Y112.908 E0.08500
G1 X137.388 Y112.881 E0.01627
G1 X137.666 Y112.841 E0.00881
G1 X137.515 Y113.077 E0.00878
G1 X137.408 Y113.524 E0.01443
G1 X137.437 Y113.982 E0.01437
G1 X137.603 Y114.401 E0.01415
G1 X137.868 Y114.753 E0.01379
G1 X138.215 Y115.020 E0.01374
G1 X138.618 Y115.187 E0.01367
G1 X139.050 Y115.244 E0.01366
G1 X139.482 Y115.187 E0.01366
G1 X139.885 Y115.020 E0.01367
G1 X140.232 Y114.753 E0.01374
G1 X140.497 Y114.401 E0.01379
G1 X140.663 Y113.982 E0.01415
G1 X140.692 Y113.524 E0.01437
G1 X140.585 Y113.077 E0.01443
G1 X140.448 Y112.863 E0.00798
G1 X141.129 Y112.906 E0.02140
G1 X142.746 Y112.911 E0.05072
G1 X142.746 Y117.499 E0.14387
G1 X141.620 Y118.625 E0.04995
G1 X137.177 Y118.625 E0.13929
M73 Q1 S31
G1 X136.101 Y119.502 E0.04352
G1 X135.221 Y120.135 E0.03399
G1 X134.304 Y120.715 E0.03401
G1 X133.355 Y121.239 E0.03401
G1 X132.376 Y121.707 E0.03401
M73 P1 R31
G1 X131.371 Y122.115 E0.03401
G1 X130.344 Y122.463 E0.03401
G1 X129.298 Y122.750 E0.03401
G1 X128.237 Y122.973 E0.03401
G1 X127.164 Y123.134 E0.03401
G1 X126.084 Y123.230 E0.03401
G1 X125.000 Y123.263 E0.03401
G1 X123.916 Y123.230 E0.03401
G1 X122.836 Y123.134 E0.03401
G1 X121.763 Y122.973 E0.03401
G1 X120.702 Y122.750 E0.03401
G1 X119.656 Y122.463 E0.03401
G1 X118.629 Y122.115 E0.03401
G1 X117.624 Y121.707 E0.03401
G1 X116.645 Y121.239 E0.03401
G1 X115.696 Y120.715 E0.03401
G1 X114.779 Y120.135 E0.03401
G1 X113.899 Y119.501 E0.03401
G1 X112.823 Y118.625 E0.04351
G1 X108.380 Y118.625 E0.13929
G1 X107.254 Y117.499 E0.04995
G1 X107.254 Y112.911 E0.14387
G1 X108.871 Y112.906 E0.05072
G1 X109.552 Y112.863 E0.02140
G1 X109.415 Y113.077 E0.00798
G1 X109.308 Y113.524 E0.01443
G1 X109.337 Y113.982 E0.01437
G1 X109.503 Y114.401 E0.01415
G1 X109.768 Y114.753 E0.01379
G1 X110.115 Y115.020 E0.01374
G1 X110.518 Y115.187 E0.01367
G1 X110.950 Y115.244 E0.01366
G1 X111.382 Y115.187 E0.01366
G1 X111.785 Y115.020 E0.01367
G1 X112.132 Y114.753 E0.01374
G1 X112.397 Y114.401 E0.01379
G1 X112.563 Y113.982 E0.01415
G1 X112.592 Y113.524 E0.01437
G1 X112.485 Y113.077 E0.01443
G1 X112.334 Y112.841 E0.00878
G1 X112.612 Y112.881 E0.00881
G1 X113.130 Y112.908 E0.01627
G1 X115.841 Y112.913 E0.08500
G1 X115.841 Y90.737 E0.69533
G1 X113.130 Y90.742 E0.08500
G1 X112.612 Y90.769 E0.01627
G1 X112.334 Y90.809 E0.00881
G1 X112.485 Y90.573 E0.00878
G1 X112.592 Y90.126 E0.01443
G1 X112.563 Y89.668 E0.01437
G1 X112.397 Y89.249 E0.01415
G1 X112.132 Y88.897 E0.01379
G1 X111.785 Y88.630 E0.01374
G1 X111.382 Y88.463 E0.01367
G1 X110.950 Y88.406 E0.01366
G1 X110.518 Y88.463 E0.01366
G1 X110.115 Y88.630 E0.01367
G1 X109.768 Y88.897 E0.01374
G1 X109.503 Y89.249 E0.01379
G1 X109.337 Y89.668 E0.01415
G1 X109.308 Y90.126 E0.01437
G1 X109.415 Y90.573 E0.01443
G1 X109.552 Y90.787 E0.00798
G1 X108.871 Y90.744 E0.02140
G1 X107.254 Y90.739 E0.05072
G1 X107.254 Y87.864 E0.09017
G1 X108.380 Y86.737 E0.04995
G1 X141.620 Y86.737 E1.04222
G1 X142.746 Y87.864 E0.04995
G1 X142.746 Y88.035 E0.00537
G1 X143.124 Y88.035 F10800.000
;TYPE:External perimeter
G1 F1200.000
G1 X143.124 Y91.140 E0.09737
G1 X141.142 Y91.145 E0.06214
G1 X140.647 Y91.174 E0.01555
G1 X139.699 Y91.340 E0.03018
G1 X139.288 Y91.340 E0.01287
G1 X139.252 Y91.158 E0.00582
G1 X139.586 Y91.019 E0.01132
G1 X140.052 Y90.716 E0.01744
G1 X140.237 Y90.423 E0.01088
G1 X140.315 Y90.092 E0.01066
G1 X140.290 Y89.751 E0.01072
G1 X140.165 Y89.434 E0.01068
G1 X139.962 Y89.165 E0.01058
G1 X139.694 Y88.959 E0.01057
G1 X139.384 Y88.830 E0.01055
G1 X139.050 Y88.786 E0.01055
G1 X138.716 Y88.830 E0.01055
G1 X138.406 Y88.959 E0.01055
G1 X138.138 Y89.165 E0.01057
G1 X137.935 Y89.434 E0.01058
G1 X137.810 Y89.751 E0.01068
G1 X137.785 Y90.092 E0.01072
G1 X137.863 Y90.423 E0.01066
G1 X138.048 Y90.716 E0.01088
G1 X138.514 Y91.019 E0.01744
G1 X138.848 Y91.158 E0.01132
G1 X138.812 Y91.340 E0.00582
G1 X138.309 Y91.340 E0.01577
G1 X137.846 Y91.236 E0.01487
G1 X137.351 Y91.167 E0.01567
G1 X136.860 Y91.144 E0.01543
G1 X134.536 Y91.139 E0.07285
G1 X134.536 Y112.535 E0.67086
G1 X136.860 Y112.531 E0.07286
G1 X137.352 Y112.505 E0.01544
G1 X137.846 Y112.435 E0.01564
G1 X138.308 Y112.335 E0.01483
G1 X138.752 Y112.335 E0.01392
G1 X138.788 Y112.517 E0.00582
G1 X138.513 Y112.631 E0.00933
G1 X138.053 Y112.937 E0.01733
G1 X137.867 Y113.227 E0.01080
G1 X137.788 Y113.557 E0.01064
G1 X137.810 Y113.898 E0.01072
G1 X137.935 Y114.215 E0.01069
G1 X138.138 Y114.485 E0.01058
G1 X138.406 Y114.691 E0.01057
G1 X138.716 Y114.820 E0.01055
G1 X139.050 Y114.864 E0.01055
G1 X139.384 Y114.820 E0.01055
G1 X139.694 Y114.691 E0.01055
G1 X139.962 Y114.485 E0.01057
G1 X140.165 Y114.215 E0.01058
G1 X140.290 Y113.898 E0.01069
G1 X140.312 Y113.557 E0.01072
G1 X140.233 Y113.227 E0.01064
G1 X140.047 Y112.937 E0.01080
G1 X139.587 Y112.631 E0.01733
G1 X139.312 Y112.517 E0.00933
G1 X139.348 Y112.335 E0.00582
G1 X139.699 Y112.335 E0.01101
G1 X140.647 Y112.498 E0.03015
G1 X141.141 Y112.529 E0.01554
G1 X143.124 Y112.534 E0.06216
G1 X143.124 Y117.655 E0.16056
G1 X141.776 Y119.002 E0.05974
G1 X137.311 Y119.002 E0.13999
G1 X136.330 Y119.801 E0.03967
G1 X135.432 Y120.447 E0.03469
G1 X134.496 Y121.039 E0.03471
G1 X133.528 Y121.575 E0.03471
G1 X132.529 Y122.052 E0.03471
G1 X131.503 Y122.469 E0.03471
G1 X130.455 Y122.824 E0.03471
G1 X129.387 Y123.116 E0.03471
G1 X128.304 Y123.345 E0.03471
G1 X127.209 Y123.508 E0.03471
G1 X126.106 Y123.607 E0.03471
G1 X125.000 Y123.640 E0.03471
G1 X123.894 Y123.607 E0.03471
G1 X122.791 Y123.508 E0.03471
G1 X121.696 Y123.345 E0.03471
G1 X120.613 Y123.116 E0.03471
G1 X119.545 Y122.824 E0.03471
G1 X118.497 Y122.469 E0.03471
G1 X117.471 Y122.052 E0.03471
G1 X116.472 Y121.575 E0.03471
G1 X115.504 Y121.039 E0.03471
G1 X114.568 Y120.447 E0.03471
G1 X113.670 Y119.801 E0.03471
G1 X112.689 Y119.002 E0.03966
G1 X108.224 Y119.002 E0.13999
G1 X106.876 Y117.655 E0.05974
G1 X106.876 Y112.534 E0.16056
G1 X108.859 Y112.529 E0.06216
G1 X109.353 Y112.498 E0.01554
G1 X110.301 Y112.335 E0.03015
G1 X110.652 Y112.335 E0.01101
G1 X110.688 Y112.517 E0.00582
G1 X110.413 Y112.631 E0.00933
G1 X109.953 Y112.937 E0.01733
G1 X109.767 Y113.227 E0.01080
G1 X109.688 Y113.557 E0.01064
G1 X109.710 Y113.898 E0.01072
G1 X109.835 Y114.215 E0.01069
G1 X110.038 Y114.485 E0.01058
G1 X110.306 Y114.691 E0.01057
G1 X110.616 Y114.820 E0.01055
G1 X110.950 Y114.864 E0.01055
G1 X111.284 Y114.820 E0.01055
G1 X111.594 Y114.691 E0.01055
G1 X111.862 Y114.485 E0.01057
G1 X112.065 Y114.215 E0.01058
G1 X112.190 Y113.898 E0.01069
G1 X112.212 Y113.557 E0.01072
G1 X112.133 Y113.227 E0.01064
G1 X111.947 Y112.937 E0.01080
G1 X111.487 Y112.631 E0.01733
G1 X111.212 Y112.517 E0.00933
G1 X111.248 Y112.335 E0.00582
G1 X111.692 Y112.335 E0.01392
G1 X112.154 Y112.435 E0.01483
G1 X112.648 Y112.505 E0.01564
G1 X113.140 Y112.531 E0.01544
G1 X115.464 Y112.535 E0.07286
G1 X115.464 Y91.115 E0.67164
G1 X113.140 Y91.119 E0.07286
G1 X112.648 Y91.145 E0.01544
G1 X112.154 Y91.215 E0.01564
G1 X111.692 Y91.315 E0.01483
G1 X111.248 Y91.315 E0.01392
G1 X111.212 Y91.133 E0.00582
G1 X111.487 Y91.019 E0.00933
G1 X111.947 Y90.713 E0.01733
G1 X112.133 Y90.423 E0.01080
G1 X112.212 Y90.093 E0.01064
G1 X112.190 Y89.752 E0.01072
G1 X112.065 Y89.435 E0.01069
G1 X111.862 Y89.165 E0.01058
G1 X111.594 Y88.959 E0.01058
G1 X111.284 Y88.830 E0.01055
G1 X110.950 Y88.786 E0.01055
G1 X110.616 Y88.830 E0.01055
G1 X110.306 Y88.959 E0.01055
G1 X110.038 Y89.165 E0.01057
G1 X109.835 Y89.435 E0.01058
G1 X109.710 Y89.752 E0.01069
G1 X109.688 Y90.093 E0.01072
G1 X109.767 Y90.423 E0.01064
G1 X109.953 Y90.713 E0.01080
G1 X110.413 Y91.019 E0.01733
G1 X110.688 Y91.133 E0.00933
G1 X110.652 Y91.315 E0.00582
G1 X110.301 Y91.315 E0.01101
G1 X109.353 Y91.152 E0.03015
G1 X108.859 Y91.121 E0.01554
G1 X106.876 Y91.116 E0.06216
G1 X106.876 Y87.707 E0.10686
G1 X108.224 Y86.360 E0.05974
G1 X141.776 Y86.360 E1.05201
G1 X143.124 Y87.707 E0.05974
G1 X143.124 Y87.975 E0.00839
G1 X142.831 Y88.307 F10800.000
;WIPE_START
G1 F8640.000
G1 X143.124 Y91.140 E-0.73091
G1 X141.142 Y91.145 E-0.45761
G1 X140.647 Y91.174 E-0.11449
G1 X140.532 Y91.194 E-0.02699
;WIPE_END
G1 E-0.07000 F2100.000
G1 Z0.400 F10800.000
G1 X141.332 Y86.850
G1 Z0.200
G1 E1.40000 F2100.000
;TYPE:Solid infill
;WIDTH:0.421963
G1 F1200.000
G1 X142.464 Y87.982 E0.05045
G1 X142.464 Y88.518 E0.01689
G1 X140.965 Y87.020 E0.06678
G1 X140.429 Y87.020 E0.01689
G1 X142.464 Y89.054 E0.09068
G1 X142.464 Y89.590 E0.01689
G1 X139.893 Y87.020 E0.11457
G1 X139.357 Y87.020 E0.01689
G1 X142.464 Y90.126 E0.13846
G1 X142.464 Y90.482 E0.01121
G1 X142.284 Y90.482 E0.00567
G1 X138.821 Y87.020 E0.15433
G1 X138.285 Y87.020 E0.01689
G1 X139.437 Y88.172 E0.05135
G1 X139.556 Y88.187 E0.00378
G1 X140.027 Y88.383 E0.01609
G1 X140.435 Y88.696 E0.01619
G1 X140.745 Y89.108 E0.01627
G1 X140.941 Y89.602 E0.01676
G1 X140.947 Y89.682 E0.00251
G1 X141.749 Y90.484 E0.03574
G1 X141.214 Y90.485 E0.01685
G1 X140.805 Y90.076 E0.01824
;WIPE_START
G1 F8640.000
G1 X141.214 Y90.485 E-0.13362
G1 X141.749 Y90.484 E-0.12347
G1 X140.947 Y89.682 E-0.26187
G1 X140.941 Y89.602 E-0.01840
G1 X140.745 Y89.108 E-0.12275
G1 X140.435 Y88.696 E-0.11917
G1 X140.027 Y88.383 E-0.11859
G1 X139.556 Y88.187 E-0.11788
G1 X139.437 Y88.172 E-0.02767
G1 X138.559 Y87.294 E-0.28659
;WIPE_END
G1 E-0.07000 F2100.000
G1 Z0.400 F10800.000
G1 X139.025 Y88.295
G1 Z0.200
M73 Q2 S31
G1 E1.40000 F2100.000
G1 F1200.000
G1 X137.749 Y87.020 E0.05685
G1 X137.213 Y87.020 E0.01689
G1 X138.429 Y88.235 E0.05418
M73 P2 R31
G1 X138.054 Y88.397 E0.01285
G1 X136.677 Y87.020 E0.06139
G1 X136.141 Y87.020 E0.01689
G1 X137.751 Y88.630 E0.07177
G1 X137.665 Y88.696 E0.00341
G1 X137.500 Y88.915 E0.00865
G1 X135.605 Y87.020 E0.08448
G1 X135.069 Y87.020 E0.01689
G1 X137.299 Y89.250 E0.09938
G1 X137.156 Y89.643 E0.01319
G1 X134.533 Y87.020 E0.11691
G1 X133.997 Y87.020 E0.01689
G1 X137.120 Y90.143 E0.13921
G1 X137.203 Y90.499 E0.01153
G1 X136.927 Y90.486 E0.00870
G1 X133.461 Y87.020 E0.15451
G1 X132.925 Y87.020 E0.01689
G1 X136.388 Y90.483 E0.15436
G1 X135.851 Y90.482 E0.01693
G1 X132.389 Y87.020 E0.15431
G1 X131.853 Y87.020 E0.01689
G1 X135.314 Y90.481 E0.15427
G1 X134.777 Y90.480 E0.01693
G1 X131.317 Y87.020 E0.15422
G1 X130.780 Y87.020 E0.01689
G1 X134.239 Y90.479 E0.15418
G1 X133.876 Y90.478 E0.01145
G1 X133.876 Y90.652 E0.00547
G1 X130.244 Y87.020 E0.16188
G1 X129.708 Y87.020 E0.01689
G1 X133.876 Y91.188 E0.18577
G1 X133.876 Y91.724 E0.01689
G1 X129.172 Y87.020 E0.20966
G1 X128.636 Y87.020 E0.01689
G1 X133.876 Y92.260 E0.23356
G1 X133.876 Y92.796 E0.01689
G1 X128.100 Y87.020 E0.25745
G1 X127.564 Y87.020 E0.01689
G1 X133.876 Y93.332 E0.28134
G1 X133.876 Y93.868 E0.01689
G1 X127.028 Y87.020 E0.30523
G1 X126.492 Y87.020 E0.01689
G1 X133.876 Y94.404 E0.32913
G1 X133.876 Y94.940 E0.01689
G1 X125.956 Y87.020 E0.35302
G1 X125.420 Y87.020 E0.01689
G1 X133.876 Y95.476 E0.37691
G1 X133.876 Y96.012 E0.01689
G1 X124.884 Y87.020 E0.40081
G1 X124.348 Y87.020 E0.01689
G1 X133.876 Y96.548 E0.42470
G1 X133.876 Y97.084 E0.01689
G1 X123.812 Y87.020 E0.44859
G1 X123.276 Y87.020 E0.01689
G1 X133.876 Y97.620 E0.47249
G1 X133.876 Y98.156 E0.01689
G1 X122.740 Y87.020 E0.49638
G1 X122.204 Y87.020 E0.01689
G1 X133.876 Y98.692 E0.52027
G1 X133.876 Y99.228 E0.01689
G1 X121.668 Y87.020 E0.54416
G1 X121.132 Y87.020 E0.01689
G1 X133.876 Y99.764 E0.56806
G1 X133.876 Y100.300 E0.01689
G1 X120.596 Y87.020 E0.59195
G1 X120.060 Y87.020 E0.01689
G1 X133.876 Y100.837 E0.61584
G1 X133.876 Y101.373 E0.01689
G1 X119.523 Y87.020 E0.63974
G1 X118.987 Y87.020 E0.01689
G1 X133.876 Y101.909 E0.66363
G1 X133.876 Y102.445 E0.01689
G1 X118.451 Y87.020 E0.68752
M73 P3 R30
M73 Q3 S31
G1 X117.915 Y87.020 E0.01689
G1 X133.876 Y102.981 E0.71142
G1 X133.876 Y103.517 E0.01689
G1 X117.379 Y87.020 E0.73531
G1 X116.843 Y87.020 E0.01689
G1 X133.876 Y104.053 E0.75920
G1 X133.876 Y104.589 E0.01689
G1 X116.307 Y87.020 E0.78309
G1 X115.771 Y87.020 E0.01689
G1 X133.876 Y105.125 E0.80699
G1 X133.876 Y105.661 E0.01689
G1 X115.235 Y87.020 E0.83088
G1 X114.699 Y87.020 E0.01689
G1 X133.876 Y106.197 E0.85477
G1 X133.876 Y106.733 E0.01689
G1 X114.163 Y87.020 E0.87867
M73 Q3 S30
G1 X113.627 Y87.020 E0.01689
G1 X133.876 Y107.269 E0.90256
G1 X133.876 Y107.805 E0.01689
G1 X113.091 Y87.020 E0.92645
G1 X112.555 Y87.020 E0.01689
G1 X133.876 Y108.341 E0.95035
G1 X133.876 Y108.877 E0.01689
G1 X116.124 Y91.125 E0.79127
G1 X116.124 Y91.661 E0.01689
G1 X133.876 Y109.413 E0.79127
G1 X133.876 Y109.949 E0.01689
