; generated by PrusaSlicer 2.3.0+win64 on 2021-05-05 at 07:26:04 UTC

; 

; external perimeters extrusion width = 0.60mm
; perimeters extrusion width = 0.50mm
; infill extrusion width = 0.50mm
; solid infill extrusion width = 0.50mm
; top infill extrusion width = 0.45mm
; support material extrusion width = 0.38mm
; first layer extrusion width = 0.42mm

M73 P0 R31
M73 Q0 S31
M201 X1000 Y1000 Z200 E5000 ; sets maximum accelerations, mm/sec^2
M203 X200 Y200 Z12 E120 ; sets maximum feedrates, mm/sec
M204 P1250 R1250 T1250 ; sets acceleration (P, T) and retract acceleration (R), mm/sec^2
M205 X8.00 Y8.00 Z0.40 E4.50 ; sets the jerk limits, mm/sec
M205 S0 T0 ; sets the minimum extruding and travel feed rate, mm/sec
M107
;TYPE:Custom
M862.3 P "MK3S" ; printer model check
M862.1 P0.4 ; nozzle diameter check
M115 U3.9.1 ; tell printer latest fw version
G90 ; use absolute coordinates
M83 ; extruder relative mode
M104 S240 ; set extruder temp
M140 S85 ; set bed temp
M190 S85 ; wait for bed temp
M109 S240 ; wait for extruder temp
G28 W ; home all without mesh bed level
G80 ; mesh bed leveling
G1 Y-3.0 F1000.0 ; go outside print area
G92 E0.0
G1 X60.0 E9.0 F1000.0 ; intro line
G1 X100.0 E12.5 F1000.0 ; intro line
G92 E0.0
M221 S95

; Don't change E values below. Excessive value can damage the printer.

M907 E538 ; set extruder motor current
G21 ; set units to millimeters
G90 ; use absolute coordinates
M83 ; use relative distances for extrusion
M900 K0.08 ; Filament gcode LA 1.5
M900 K45 ; Filament gcode LA 1.0
;LAYER_CHANGE
;Z:0.2
;HEIGHT:0.2
;BEFORE_LAYER_CHANGE
G92 E0.0
;0.2


G1 E-1.40000 F2100.000
G1 Z0.200 F10800.000
;AFTER_LAYER_CHANGE
;0.2
G1 Z0.400
G1 X104.267 Y86.635
G1 Z0.200
G1 E1.40000 F2100.000
M204 S1000
;TYPE:Skirt
;WIDTH:0.42
G1 F1200.000
G1 X104.740 Y85.903 E0.02731
G1 X106.647 Y84.034 E0.08375
G1 X107.243 Y83.715 E0.02119
G1 X107.905 Y83.578 E0.02119
G1 X141.950 Y83.573 E1.06745
G1 X142.827 Y83.742 E0.02802
M73 P0 R30
G1 X143.583 Y84.226 E0.02813
G1 X145.436 Y86.113 E0.08292
G1 X145.752 Y86.684 E0.02048
G1 X145.901 Y87.320 E0.02048
G1 X145.910 Y117.871 E0.95789
G1 X145.733 Y118.727 E0.02743
G1 X145.260 Y119.459 E0.02731
G1 X143.513 Y121.200 E0.07733
G1 X142.760 Y121.646 E0.02743
G1 X131.231 Y125.501 E0.38117
G1 X128.792 Y126.089 E0.07864
G1 X126.232 Y126.391 E0.08083
G1 X124.929 Y126.426 E0.04086
G1 X122.527 Y126.283 E0.07546
G1 X119.907 Y125.813 E0.08345
G1 X118.684 Y125.475 E0.03978
G1 X107.275 Y121.658 E0.37723
G1 X106.821 Y121.445 E0.01574
G1 X106.421 Y121.140 E0.01574
G1 X104.546 Y119.225 E0.08405
G1 X104.225 Y118.618 E0.02154
G1 X104.092 Y117.940 E0.02166
G1 X104.090 Y87.488 E0.95479
G1 X104.255 Y86.694 E0.02543
;WIPE_START
G1 F8640.000
G1 X104.740 Y85.903 E-0.21413
G1 X106.647 Y84.034 E-0.61673
G1 X107.243 Y83.715 E-0.15602
G1 X107.905 Y83.578 E-0.15602
G1 X108.715 Y83.577 E-0.18710
;WIPE_END
G1 E-0.07000 F2100.000
G1 Z0.400 F10800.000
G1 X139.981 Y113.308
G1 Z0.200
G1 E1.40000 F2100.000
;TYPE:External perimeter
G1 F1200.000
G1 X140.041 Y113.558 E0.00806
G1 X140.022 Y113.826 E0.00844
G1 X139.926 Y114.076 E0.00839
G1 X139.767 Y114.289 E0.00833
G1 X139.557 Y114.452 E0.00832
G1 X139.313 Y114.554 E0.00832
G1 X139.050 Y114.588 E0.00830
G1 X138.787 Y114.554 E0.00830
G1 X138.543 Y114.452 E0.00832
G1 X138.333 Y114.289 E0.00832
G1 X138.174 Y114.076 E0.00832
G1 X138.078 Y113.826 E0.00839
G1 X138.059 Y113.561 E0.00835
G1 X138.113 Y113.303 E0.00824
G1 X138.239 Y113.074 E0.00820
G1 X138.429 Y112.895 E0.00819
G1 X138.657 Y112.794 E0.00783
G1 X139.029 Y112.738 E0.01178
G1 X139.244 Y112.751 E0.00675
G1 X139.449 Y112.797 E0.00660
G1 X139.671 Y112.895 E0.00760
G1 X139.860 Y113.073 E0.00814
G1 X139.961 Y113.252 E0.00645
G1 X140.236 Y113.347 F10800.000
;WIPE_START
G1 F8640.000
G1 X140.041 Y113.558 E-0.07303
G1 X140.022 Y113.826 E-0.06216
G1 X139.926 Y114.076 E-0.06177
G1 X139.767 Y114.289 E-0.06132
G1 X139.557 Y114.452 E-0.06125
G1 X139.313 Y114.554 E-0.06124
G1 X139.050 Y114.588 E-0.06115
G1 X138.787 Y114.554 E-0.06114
G1 X138.543 Y114.452 E-0.06124
G1 X138.333 Y114.289 E-0.06126
G1 X138.174 Y114.076 E-0.06130
G1 X138.078 Y113.826 E-0.06180
G1 X138.059 Y113.561 E-0.06152
G1 X138.113 Y113.303 E-0.06072
G1 X138.239 Y113.074 E-0.06042
G1 X138.429 Y112.895 E-0.06029
G1 X138.657 Y112.794 E-0.05768
G1 X139.029 Y112.738 E-0.08674
G1 X139.244 Y112.751 E-0.04972
G1 X139.449 Y112.797 E-0.04859
G1 X139.671 Y112.895 E-0.05595
G1 X139.796 Y113.013 E-0.03971
;WIPE_END
G1 E-0.07000 F2100.000
G1 Z0.400 F10800.000
G1 X138.814 Y89.093
G1 Z0.200
G1 E1.40000 F2100.000
G1 F1200.000
G1 X139.050 Y89.062 E0.00747
G1 X139.312 Y89.096 E0.00830
G1 X139.557 Y89.198 E0.00831
G1 X139.767 Y89.361 E0.00832
G1 X139.926 Y89.573 E0.00831
G1 X140.023 Y89.822 E0.00838
G1 X140.045 Y90.088 E0.00838
G1 X139.991 Y90.345 E0.00822
G1 X139.870 Y90.578 E0.00824
G1 X139.680 Y90.760 E0.00827
G1 X139.458 Y90.864 E0.00766
G1 X139.241 Y90.912 E0.00696
G1 X138.859 Y90.912 E0.01201
G1 X138.642 Y90.864 E0.00696
G1 X138.420 Y90.760 E0.00766
G1 X138.230 Y90.578 E0.00827
G1 X138.109 Y90.345 E0.00824
G1 X138.055 Y90.088 E0.00822
G1 X138.077 Y89.822 E0.00839
G1 X138.174 Y89.573 E0.00838
G1 X138.333 Y89.361 E0.00831
G1 X138.543 Y89.198 E0.00832
G1 X138.756 Y89.109 E0.00726
G1 X138.876 Y88.863 F10800.000
;WIPE_START
G1 F8640.000
G1 X139.050 Y89.062 E-0.06866
G1 X139.312 Y89.096 E-0.06113
G1 X139.557 Y89.198 E-0.06121
G1 X139.767 Y89.361 E-0.06127
G1 X139.926 Y89.573 E-0.06122
G1 X140.023 Y89.822 E-0.06169
G1 X140.045 Y90.088 E-0.06175
G1 X139.991 Y90.345 E-0.06052
G1 X139.870 Y90.578 E-0.06067
G1 X139.680 Y90.760 E-0.06092
G1 X139.458 Y90.864 E-0.05642
G1 X139.241 Y90.912 E-0.05127
G1 X138.859 Y90.912 E-0.08842
G1 X138.642 Y90.864 E-0.05127
G1 X138.420 Y90.760 E-0.05642
G1 X138.230 Y90.578 E-0.06092
G1 X138.109 Y90.345 E-0.06067
G1 X138.055 Y90.088 E-0.06052
G1 X138.077 Y89.822 E-0.06175
G1 X138.174 Y89.573 E-0.06169
G1 X138.333 Y89.361 E-0.06122
G1 X138.471 Y89.254 E-0.04037
;WIPE_END
G1 E-0.07000 F2100.000
G1 Z0.400 F10800.000
G1 X107.254 Y113.975
G1 Z0.200
G1 E1.40000 F2100.000
;TYPE:Perimeter
G1 F1200.000
G1 X107.254 Y112.911 E0.03337
G1 X109.346 Y112.907 E0.06562
G1 X109.816 Y112.880 E0.01475
G1 X109.656 Y113.170 E0.01041
G1 X109.579 Y113.535 E0.01169
G1 X109.606 Y113.910 E0.01177
G1 X109.741 Y114.260 E0.01177
G1 X109.962 Y114.555 E0.01155
G1 X110.251 Y114.780 E0.01149
G1 X110.589 Y114.921 E0.01147
G1 X110.950 Y114.969 E0.01143
G1 X111.311 Y114.921 E0.01143
G1 X111.649 Y114.780 E0.01147
M73 Q1 S31
G1 X111.938 Y114.555 E0.01149
G1 X112.159 Y114.260 E0.01155
G1 X112.294 Y113.910 E0.01177
G1 X112.321 Y113.535 E0.01177
G1 X112.244 Y113.170 E0.01169
G1 X112.085 Y112.881 E0.01035
G1 X112.654 Y112.908 E0.01788
G1 X115.841 Y112.913 E0.09991
G1 X115.841 Y90.737 E0.69532
M73 P1 R30
G1 X112.654 Y90.742 E0.09991
M73 Q1 S30
G1 X112.085 Y90.769 E0.01788
G1 X112.244 Y90.480 E0.01035
G1 X112.321 Y90.115 E0.01169
G1 X112.294 Y89.740 E0.01177
G1 X112.159 Y89.390 E0.01177
G1 X111.938 Y89.095 E0.01155
G1 X111.649 Y88.870 E0.01149
G1 X111.311 Y88.729 E0.01147
G1 X110.950 Y88.681 E0.01143
G1 X110.589 Y88.729 E0.01143
G1 X110.251 Y88.870 E0.01147
G1 X109.962 Y89.095 E0.01149
G1 X109.741 Y89.390 E0.01155
G1 X109.606 Y89.740 E0.01177
G1 X109.579 Y90.115 E0.01177
G1 X109.656 Y90.480 E0.01169
G1 X109.816 Y90.770 E0.01041
G1 X109.346 Y90.743 E0.01475
G1 X107.254 Y90.739 E0.06562
G1 X107.254 Y87.864 E0.09016
G1 X108.380 Y86.737 E0.04995
G1 X141.620 Y86.737 E1.04222
G1 X142.746 Y87.864 E0.04995
G1 X142.746 Y90.764 E0.09093
G1 X140.656 Y90.767 E0.06556
G1 X140.185 Y90.791 E0.01479
G1 X140.350 Y90.473 E0.01126
G1 X140.425 Y90.112 E0.01154
G1 X140.395 Y89.736 E0.01184
G1 X140.258 Y89.388 E0.01173
G1 X140.038 Y89.094 E0.01150
G1 X139.749 Y88.869 E0.01149
G1 X139.411 Y88.729 E0.01146
G1 X139.050 Y88.681 E0.01143
G1 X138.689 Y88.729 E0.01142
G1 X138.351 Y88.869 E0.01146
G1 X138.062 Y89.094 E0.01149
G1 X137.842 Y89.388 E0.01150
G1 X137.705 Y89.736 E0.01173
G1 X137.675 Y90.112 E0.01184
G1 X137.750 Y90.473 E0.01154
G1 X137.915 Y90.790 E0.01120
G1 X137.344 Y90.766 E0.01791
G1 X134.159 Y90.762 E0.09986
G1 X134.159 Y112.913 E0.69454
G1 X137.346 Y112.908 E0.09991
G1 X137.915 Y112.881 E0.01787
G1 X137.756 Y113.171 E0.01035
G1 X137.679 Y113.535 E0.01167
G1 X137.706 Y113.910 E0.01179
G1 X137.841 Y114.260 E0.01178
G1 X138.062 Y114.555 E0.01154
G1 X138.351 Y114.780 E0.01149
G1 X138.689 Y114.921 E0.01147
G1 X139.050 Y114.969 E0.01143
G1 X139.411 Y114.921 E0.01143
G1 X139.749 Y114.780 E0.01147
G1 X140.038 Y114.555 E0.01149
G1 X140.259 Y114.260 E0.01155
G1 X140.394 Y113.910 E0.01177
G1 X140.422 Y113.527 E0.01203
G1 X140.327 Y113.132 E0.01273
G1 X140.183 Y112.880 E0.00911
G1 X140.654 Y112.907 E0.01477
G1 X142.746 Y112.911 E0.06562
G1 X142.746 Y117.499 E0.14386
G1 X141.620 Y118.625 E0.04995
G1 X137.177 Y118.625 E0.13929
G1 X136.101 Y119.501 E0.04351
G1 X135.221 Y120.135 E0.03401
G1 X134.304 Y120.715 E0.03401
G1 X133.355 Y121.239 E0.03401
G1 X132.376 Y121.707 E0.03401
G1 X131.371 Y122.115 E0.03401
G1 X130.344 Y122.463 E0.03401
G1 X129.298 Y122.750 E0.03401
G1 X128.237 Y122.973 E0.03401
G1 X127.164 Y123.134 E0.03401
G1 X126.084 Y123.230 E0.03401
G1 X125.000 Y123.263 E0.03401
G1 X123.916 Y123.230 E0.03401
G1 X122.836 Y123.134 E0.03401
G1 X121.763 Y122.973 E0.03401
G1 X120.702 Y122.750 E0.03401
G1 X119.656 Y122.463 E0.03401
G1 X118.629 Y122.115 E0.03401
G1 X117.624 Y121.707 E0.03401
G1 X116.645 Y121.239 E0.03401
G1 X115.696 Y120.715 E0.03401
G1 X114.779 Y120.135 E0.03401
G1 X113.899 Y119.501 E0.03401
G1 X112.823 Y118.625 E0.04351
G1 X108.380 Y118.625 E0.13929
G1 X107.254 Y117.499 E0.04995
G1 X107.254 Y114.035 E0.10861
;WIPE_START
G1 F8640.000
G1 X107.254 Y112.911 E-0.25958
G1 X109.346 Y112.907 E-0.48324
G1 X109.816 Y112.880 E-0.10860
G1 X109.656 Y113.170 E-0.07663
G1 X109.579 Y113.535 E-0.08607
G1 X109.606 Y113.910 E-0.08669
G1 X109.741 Y114.260 E-0.08667
G1 X109.962 Y114.555 E-0.08507
G1 X110.158 Y114.708 E-0.05744
;WIPE_END
G1 E-0.07000 F2100.000
G1 Z0.400 F10800.000
G1 X110.762 Y90.900
G1 Z0.200
G1 E1.40000 F2100.000
;TYPE:External perimeter
G1 F1200.000
G1 X110.551 Y90.853 E0.00679
G1 X110.329 Y90.755 E0.00760
G1 X110.139 Y90.576 E0.00819
G1 X110.013 Y90.347 E0.00820
G1 X109.959 Y90.089 E0.00825
G1 X109.978 Y89.824 E0.00835
G1 X110.074 Y89.574 E0.00839
G1 X110.233 Y89.361 E0.00833
G1 X110.443 Y89.198 E0.00832
G1 X110.687 Y89.096 E0.00832
G1 X110.950 Y89.062 E0.00830
G1 X111.213 Y89.096 E0.00830
G1 X111.457 Y89.198 E0.00832
G1 X111.667 Y89.361 E0.00832
G1 X111.826 Y89.574 E0.00833
G1 X111.922 Y89.824 E0.00839
G1 X111.941 Y90.089 E0.00835
G1 X111.887 Y90.347 E0.00825
G1 X111.761 Y90.576 E0.00820
G1 X111.571 Y90.755 E0.00819
G1 X111.349 Y90.853 E0.00760
G1 X111.138 Y90.900 E0.00679
G1 X110.822 Y90.900 E0.00990
G1 X110.632 Y91.074 F10800.000
;WIPE_START
G1 F8640.000
G1 X110.551 Y90.853 E-0.06363
G1 X110.329 Y90.755 E-0.05595
G1 X110.139 Y90.576 E-0.06029
G1 X110.013 Y90.347 E-0.06041
G1 X109.959 Y90.089 E-0.06075
G1 X109.978 Y89.824 E-0.06147
G1 X110.074 Y89.574 E-0.06176
G1 X110.233 Y89.361 E-0.06133
G1 X110.443 Y89.198 E-0.06125
G1 X110.687 Y89.096 E-0.06124
G1 X110.950 Y89.062 E-0.06115
G1 X111.213 Y89.096 E-0.06115
G1 X111.457 Y89.198 E-0.06124
G1 X111.667 Y89.361 E-0.06125
G1 X111.826 Y89.574 E-0.06133
G1 X111.922 Y89.824 E-0.06176
G1 X111.941 Y90.089 E-0.06147
G1 X111.887 Y90.347 E-0.06075
G1 X111.761 Y90.576 E-0.06041
G1 X111.571 Y90.755 E-0.06029
G1 X111.349 Y90.853 E-0.05595
G1 X111.138 Y90.900 E-0.05003
G1 X111.116 Y90.900 E-0.00513
;WIPE_END
G1 E-0.07000 F2100.000
G1 Z0.400 F10800.000
G1 X110.312 Y112.911
G1 Z0.200
G1 E1.40000 F2100.000
G1 F1200.000
G1 X110.557 Y112.794 E0.00854
G1 X110.929 Y112.738 E0.01178
G1 X111.144 Y112.751 E0.00675
G1 X111.349 Y112.797 E0.00660
G1 X111.571 Y112.895 E0.00760
G1 X111.761 Y113.074 E0.00819
G1 X111.887 Y113.303 E0.00820
G1 X111.941 Y113.561 E0.00825
G1 X111.922 Y113.826 E0.00835
G1 X111.826 Y114.076 E0.00839
G1 X111.667 Y114.289 E0.00833
G1 X111.457 Y114.452 E0.00832
G1 X111.213 Y114.554 E0.00832
G1 X110.950 Y114.588 E0.00830
G1 X110.687 Y114.554 E0.00830
G1 X110.443 Y114.452 E0.00832
G1 X110.233 Y114.289 E0.00832
G1 X110.074 Y114.076 E0.00833
G1 X109.978 Y113.826 E0.00839
G1 X109.959 Y113.561 E0.00835
G1 X110.013 Y113.303 E0.00825
G1 X110.139 Y113.074 E0.00820
G1 X110.268 Y112.952 E0.00556
G1 X110.290 Y112.639 F10800.000
;WIPE_START
G1 F8640.000
G1 X110.557 Y112.794 E-0.07620
G1 X110.929 Y112.738 E-0.08674
G1 X111.144 Y112.751 E-0.04972
G1 X111.349 Y112.797 E-0.04859
G1 X111.571 Y112.895 E-0.05595
G1 X111.761 Y113.074 E-0.06029
G1 X111.887 Y113.303 E-0.06041
G1 X111.941 Y113.561 E-0.06075
G1 X111.922 Y113.826 E-0.06147
G1 X111.826 Y114.076 E-0.06176
G1 X111.667 Y114.289 E-0.06133
G1 X111.457 Y114.452 E-0.06125
G1 X111.213 Y114.554 E-0.06124
G1 X110.950 Y114.588 E-0.06115
G1 X110.687 Y114.554 E-0.06115
G1 X110.443 Y114.452 E-0.06124
G1 X110.233 Y114.289 E-0.06125
G1 X110.074 Y114.076 E-0.06133
G1 X109.978 Y113.826 E-0.06176
G1 X109.959 Y113.561 E-0.06147
G1 X110.013 Y113.303 E-0.06076
G1 X110.085 Y113.174 E-0.03420
;WIPE_END
G1 E-0.07000 F2100.000
G1 Z0.400 F10800.000
G1 X123.673 Y123.587
G1 Z0.200
G1 E1.40000 F2100.000
G1 F1200.000
G1 X122.791 Y123.508 E0.02777
G1 X121.696 Y123.345 E0.03471
G1 X120.613 Y123.116 E0.03471
G1 X119.545 Y122.824 E0.03471
G1 X118.497 Y122.469 E0.03471
G1 X117.471 Y122.052 E0.03471
G1 X116.472 Y121.575 E0.03471
G1 X115.504 Y121.039 E0.03471
G1 X114.568 Y120.447 E0.03471
G1 X113.670 Y119.801 E0.03471
G1 X112.689 Y119.002 E0.03966
G1 X108.224 Y119.002 E0.13999
G1 X106.876 Y117.655 E0.05974
G1 X106.876 Y112.535 E0.16055
G1 X109.335 Y112.530 E0.07709
G1 X109.826 Y112.501 E0.01543
G1 X110.773 Y112.370 E0.02997
G1 X111.221 Y112.376 E0.01405
G1 X112.172 Y112.508 E0.03009
G1 X112.663 Y112.531 E0.01542
G1 X115.464 Y112.535 E0.08781
G1 X115.464 Y91.115 E0.67163
G1 X112.663 Y91.119 E0.08781
G1 X112.172 Y91.142 E0.01542
G1 X111.221 Y91.274 E0.03009
G1 X110.773 Y91.280 E0.01405
G1 X109.826 Y91.149 E0.02997
G1 X109.335 Y91.120 E0.01543
G1 X106.876 Y91.115 E0.07709
G1 X106.876 Y87.707 E0.10686
G1 X108.224 Y86.360 E0.05974
G1 X141.776 Y86.360 E1.05201
G1 X143.124 Y87.707 E0.05974
G1 X143.124 Y91.140 E0.10763
G1 X140.666 Y91.144 E0.07707
G1 X140.175 Y91.169 E0.01540
G1 X139.228 Y91.292 E0.02996
G1 X138.778 Y91.286 E0.01411
G1 X137.826 Y91.164 E0.03007
G1 X137.336 Y91.143 E0.01539
G1 X134.536 Y91.139 E0.08779
G1 X134.536 Y112.535 E0.67085
M73 Q2 S30
G1 X137.337 Y112.531 E0.08781
G1 X137.828 Y112.508 E0.01542
G1 X138.779 Y112.376 E0.03009
G1 X139.227 Y112.370 E0.01405
G1 X140.174 Y112.501 E0.02997
G1 X140.665 Y112.530 E0.01543
G1 X143.124 Y112.535 E0.07709
M73 P2 R30
G1 X143.124 Y117.655 E0.16055
G1 X141.776 Y119.002 E0.05974
G1 X137.311 Y119.002 E0.13999
G1 X136.330 Y119.801 E0.03966
G1 X135.432 Y120.447 E0.03471
G1 X134.496 Y121.039 E0.03471
G1 X133.528 Y121.575 E0.03471
G1 X132.529 Y122.052 E0.03471
G1 X131.503 Y122.469 E0.03471
G1 X130.455 Y122.824 E0.03471
G1 X129.387 Y123.116 E0.03471
G1 X128.304 Y123.345 E0.03471
G1 X127.209 Y123.508 E0.03471
G1 X126.106 Y123.607 E0.03471
G1 X125.000 Y123.640 E0.03471
G1 X123.733 Y123.593 E0.03975
G1 X123.495 Y123.229 F10800.000
;WIPE_START
G1 F8640.000
G1 X122.791 Y123.508 E-0.21839
G1 X121.696 Y123.345 E-0.25560
G1 X120.613 Y123.116 E-0.25560
G1 X119.545 Y122.824 E-0.25560
G1 X118.497 Y122.469 E-0.25560
G1 X118.139 Y122.323 E-0.08919
;WIPE_END
G1 E-0.07000 F2100.000
G1 Z0.400 F10800.000
G1 X111.827 Y112.848
G1 Z0.200
G1 E1.40000 F2100.000
;TYPE:Gap fill
;WIDTH:0.118449
G1 F1200.000
G1 X111.702 Y112.687 E0.00128
G1 X111.480 Y112.624 E0.00145
;WIPE_START
G1 F8640.000
G1 X111.702 Y112.687 E-0.05322
G1 X111.827 Y112.848 E-0.04701
;WIPE_END
G1 E-1.29977 F2100.000
G1 Z0.400 F10800.000
G1 X110.397 Y112.635
G1 Z0.200
G1 E1.40000 F2100.000
;WIDTH:0.142267
G1 F1200.000
G1 X110.193 Y112.693 E0.00175
G1 X110.131 Y112.773 E0.00084
;WIDTH:0.118434
G1 X110.073 Y112.848 E0.00059
;WIPE_START
G1 F8640.000
G1 X110.131 Y112.773 E-0.02175
;WIPE_END
G1 E-1.37825 F2100.000
G1 Z0.400 F10800.000
G1 X110.397 Y91.015
G1 Z0.200
