; generated by PrusaSlicer 2.3.0+win64 on 2021-05-06 at 00:12:14 UTC

; 

; external perimeters extrusion width = 0.45mm
; perimeters extrusion width = 0.45mm
; infill extrusion width = 0.45mm
; solid infill extrusion width = 0.45mm
; top infill extrusion width = 0.40mm
; first layer extrusion width = 0.42mm

M73 P0 R57
M73 Q0 S57
M201 X1000 Y1000 Z200 E5000 ; sets maximum accelerations, mm/sec^2
M203 X200 Y200 Z12 E120 ; sets maximum feedrates, mm/sec
M204 P1250 R1250 T1250 ; sets acceleration (P, T) and retract acceleration (R), mm/sec^2
M205 X8.00 Y8.00 Z0.40 E4.50 ; sets the jerk limits, mm/sec
M205 S0 T0 ; sets the minimum extruding and travel feed rate, mm/sec
M107
;TYPE:Custom
M862.3 P "MK3S" ; printer model check
M862.1 P0.4 ; nozzle diameter check
M115 U3.9.1 ; tell printer latest fw version
G90 ; use absolute coordinates
M83 ; extruder relative mode
M104 S240 ; set extruder temp
M140 S85 ; set bed temp
M190 S85 ; wait for bed temp
M109 S240 ; wait for extruder temp
G28 W ; home all without mesh bed level
G80 ; mesh bed leveling
G1 Y-3.0 F1000.0 ; go outside print area
G92 E0.0
G1 X60.0 E9.0 F1000.0 ; intro line
G1 X100.0 E12.5 F1000.0 ; intro line
G92 E0.0
M221 S95

; Don't change E values below. Excessive value can damage the printer.
M907 E430 ; set extruder motor current
G21 ; set units to millimeters
G90 ; use absolute coordinates
M83 ; use relative distances for extrusion
M900 K0.08 ; Filament gcode LA 1.5
M900 K45 ; Filament gcode LA 1.0
;LAYER_CHANGE
;Z:0.2
;HEIGHT:0.2
;BEFORE_LAYER_CHANGE
G92 E0.0
;0.2


G1 E-1.40000 F2100.000
G1 Z0.200 F10800.000
;AFTER_LAYER_CHANGE
;0.2
G1 Z0.400
G1 X104.267 Y86.635
G1 Z0.200
G1 E1.40000 F2100.000
M204 S1000
;TYPE:Skirt
;WIDTH:0.42
G1 F1200.000
G1 X104.740 Y85.903 E0.02731
G1 X106.647 Y84.034 E0.08375
G1 X107.243 Y83.715 E0.02119
G1 X107.905 Y83.578 E0.02119
G1 X141.950 Y83.573 E1.06745
G1 X142.827 Y83.742 E0.02802
G1 X143.583 Y84.226 E0.02813
G1 X145.436 Y86.113 E0.08292
G1 X145.752 Y86.684 E0.02048
G1 X145.901 Y87.320 E0.02048
G1 X145.910 Y117.871 E0.95789
G1 X145.733 Y118.727 E0.02743
G1 X145.260 Y119.459 E0.02731
G1 X143.513 Y121.200 E0.07733
G1 X142.760 Y121.646 E0.02743
G1 X131.231 Y125.501 E0.38117
G1 X128.792 Y126.089 E0.07864
G1 X126.232 Y126.391 E0.08083
G1 X124.929 Y126.426 E0.04086
G1 X122.527 Y126.283 E0.07546
G1 X119.907 Y125.813 E0.08345
G1 X118.684 Y125.475 E0.03978
G1 X107.275 Y121.658 E0.37723
G1 X106.821 Y121.445 E0.01574
G1 X106.421 Y121.140 E0.01574
G1 X104.546 Y119.225 E0.08405
G1 X104.225 Y118.618 E0.02154
G1 X104.092 Y117.940 E0.02166
G1 X104.090 Y87.488 E0.95479
G1 X104.255 Y86.694 E0.02543
;WIPE_START
G1 F8640.000
G1 X104.740 Y85.903 E-0.21413
G1 X106.647 Y84.034 E-0.61673
G1 X107.243 Y83.715 E-0.15602
G1 X107.905 Y83.578 E-0.15602
G1 X108.715 Y83.577 E-0.18710
;WIPE_END
G1 E-0.07000 F2100.000
G1 Z0.400 F10800.000
G1 X138.053 Y112.937
G1 Z0.200
G1 E1.40000 F2100.000
;TYPE:External perimeter
G1 F1200.000
G1 X138.513 Y112.631 E0.01734
G1 X138.769 Y112.525 E0.00867
G1 X139.000 Y112.495 E0.00732
G1 X139.327 Y112.523 E0.01029
G1 X139.587 Y112.631 E0.00882
G1 X140.047 Y112.937 E0.01733
G1 X140.233 Y113.227 E0.01080
G1 X140.312 Y113.557 E0.01064
G1 X140.290 Y113.898 E0.01072
G1 X140.165 Y114.215 E0.01069
G1 X139.962 Y114.485 E0.01058
G1 X139.694 Y114.691 E0.01057
G1 X139.384 Y114.820 E0.01055
G1 X139.050 Y114.864 E0.01055
G1 X138.716 Y114.820 E0.01055
G1 X138.406 Y114.691 E0.01055
G1 X138.138 Y114.485 E0.01057
G1 X137.935 Y114.215 E0.01058
G1 X137.810 Y113.898 E0.01069
G1 X137.787 Y113.557 E0.01073
G1 X137.867 Y113.227 E0.01065
G1 X138.020 Y112.988 E0.00891
G1 X137.951 Y112.550 F10800.000
;WIPE_START
G1 F8640.000
G1 X138.513 Y112.631 E-0.14046
G1 X138.769 Y112.525 E-0.06384
G1 X139.000 Y112.495 E-0.05390
G1 X139.327 Y112.523 E-0.07576
G1 X139.587 Y112.631 E-0.06492
G1 X140.047 Y112.937 E-0.12766
G1 X140.233 Y113.227 E-0.07952
G1 X140.312 Y113.557 E-0.07835
G1 X140.290 Y113.898 E-0.07898
G1 X140.165 Y114.215 E-0.07876
G1 X139.962 Y114.485 E-0.07794
G1 X139.694 Y114.691 E-0.07788
G1 X139.384 Y114.820 E-0.07769
G1 X139.050 Y114.864 E-0.07768
G1 X138.716 Y114.820 E-0.07768
G1 X138.406 Y114.691 E-0.07769
G1 X138.333 Y114.635 E-0.02130
;WIPE_END
G1 E-0.07000 F2100.000
G1 Z0.400 F10800.000
G1 X140.052 Y90.716
G1 Z0.200
G1 E1.40000 F2100.000
G1 F1200.000
G1 X139.586 Y91.019 E0.01745
G1 X139.331 Y91.125 E0.00863
G1 X139.050 Y91.162 E0.00890
G1 X138.769 Y91.125 E0.00890
G1 X138.514 Y91.019 E0.00863
G1 X138.048 Y90.716 E0.01744
G1 X137.863 Y90.423 E0.01088
G1 X137.785 Y90.092 E0.01066
G1 X137.810 Y89.751 E0.01072
G1 X137.935 Y89.434 E0.01068
G1 X138.138 Y89.165 E0.01058
G1 X138.406 Y88.959 E0.01057
G1 X138.716 Y88.830 E0.01055
G1 X139.050 Y88.786 E0.01055
G1 X139.384 Y88.830 E0.01055
G1 X139.694 Y88.959 E0.01055
G1 X139.962 Y89.165 E0.01057
G1 X140.165 Y89.434 E0.01058
G1 X140.290 Y89.751 E0.01067
G1 X140.316 Y90.092 E0.01073
G1 X140.237 Y90.423 E0.01067
G1 X140.084 Y90.666 E0.00899
G1 X140.152 Y91.104 F10800.000
;WIPE_START
G1 F8640.000
G1 X139.586 Y91.019 E-0.14119
G1 X139.331 Y91.125 E-0.06358
G1 X139.050 Y91.162 E-0.06551
G1 X138.769 Y91.125 E-0.06551
G1 X138.514 Y91.019 E-0.06359
G1 X138.048 Y90.716 E-0.12846
G1 X137.863 Y90.423 E-0.08016
G1 X137.785 Y90.092 E-0.07847
G1 X137.810 Y89.751 E-0.07892
G1 X137.935 Y89.434 E-0.07865
G1 X138.138 Y89.165 E-0.07793
G1 X138.406 Y88.959 E-0.07785
G1 X138.716 Y88.830 E-0.07769
G1 X139.050 Y88.786 E-0.07768
G1 X139.384 Y88.830 E-0.07768
G1 X139.694 Y88.959 E-0.07769
G1 X139.761 Y89.011 E-0.01944
;WIPE_END
G1 E-0.07000 F2100.000
G1 Z0.400 F10800.000
G1 X127.115 Y103.337
G1 Z0.200
G1 E1.40000 F2100.000
;TYPE:Perimeter
G1 F1200.000
G1 X127.392 Y103.767 E0.01604
G1 X127.582 Y104.242 E0.01604
G1 X127.678 Y104.744 E0.01604
G1 X127.678 Y105.256 E0.01604
G1 X127.582 Y105.758 E0.01604
G1 X127.392 Y106.233 E0.01604
G1 X127.115 Y106.663 E0.01604
G1 X126.762 Y107.033 E0.01604
G1 X126.345 Y107.330 E0.01604
G1 X125.880 Y107.543 E0.01604
G1 X125.383 Y107.663 E0.01604
G1 X124.872 Y107.688 E0.01604
G1 X124.366 Y107.615 E0.01604
G1 X123.882 Y107.448 E0.01604
G1 X123.439 Y107.192 E0.01604
G1 X123.053 Y106.857 E0.01604
G1 X122.736 Y106.455 E0.01604
G1 X122.502 Y106.000 E0.01604
G1 X122.358 Y105.509 E0.01604
G1 X122.309 Y105.000 E0.01604
G1 X122.358 Y104.491 E0.01604
G1 X122.502 Y104.000 E0.01604
G1 X122.736 Y103.545 E0.01604
G1 X123.053 Y103.143 E0.01604
G1 X123.439 Y102.808 E0.01604
G1 X123.882 Y102.552 E0.01604
G1 X124.366 Y102.385 E0.01604
G1 X124.843 Y102.317 E0.01512
G1 X125.380 Y102.336 E0.01683
G1 X125.880 Y102.457 E0.01615
G1 X126.345 Y102.670 E0.01604
G1 X126.762 Y102.967 E0.01604
G1 X127.074 Y103.293 E0.01416
G1 X126.801 Y103.554 F10800.000
;TYPE:External perimeter
G1 F1200.000
G1 X127.055 Y103.941 E0.01452
G1 X127.218 Y104.349 E0.01378
G1 X127.301 Y104.780 E0.01378
G1 X127.301 Y105.220 E0.01378
G1 X127.218 Y105.651 E0.01378
G1 X127.055 Y106.059 E0.01378
G1 X126.817 Y106.429 E0.01378
G1 X126.514 Y106.747 E0.01378
G1 X126.156 Y107.002 E0.01378
G1 X125.756 Y107.185 E0.01378
G1 X125.329 Y107.288 E0.01378
G1 X124.890 Y107.309 E0.01378
G1 X124.455 Y107.247 E0.01378
G1 X124.040 Y107.103 E0.01378
G1 X123.659 Y106.883 E0.01378
G1 X123.327 Y106.595 E0.01378
G1 X123.055 Y106.250 E0.01378
G1 X122.854 Y105.859 E0.01378
G1 X122.730 Y105.438 E0.01378
G1 X122.688 Y105.000 E0.01378
G1 X122.730 Y104.562 E0.01378
G1 X122.854 Y104.141 E0.01378
G1 X123.055 Y103.750 E0.01378
G1 X123.327 Y103.405 E0.01378
G1 X123.659 Y103.117 E0.01378
G1 X124.040 Y102.897 E0.01378
G1 X124.455 Y102.753 E0.01378
G1 X124.863 Y102.695 E0.01293
G1 X125.328 Y102.711 E0.01458
G1 X125.756 Y102.815 E0.01382
G1 X126.156 Y102.998 E0.01378
G1 X126.514 Y103.253 E0.01378
G1 X126.759 Y103.510 E0.01115
G1 X127.196 Y103.494 F10800.000
;WIPE_START
G1 F8640.000
G1 X127.055 Y103.941 E-0.12058
G1 X127.218 Y104.349 E-0.10148
G1 X127.301 Y104.780 E-0.10148
G1 X127.301 Y105.220 E-0.10149
G1 X127.218 Y105.651 E-0.10148
G1 X127.055 Y106.059 E-0.10148
G1 X126.817 Y106.429 E-0.10148
G1 X126.514 Y106.747 E-0.10148
G1 X126.156 Y107.002 E-0.10148
G1 X125.756 Y107.185 E-0.10149
G1 X125.329 Y107.288 E-0.10149
G1 X124.890 Y107.309 E-0.10148
G1 X124.491 Y107.252 E-0.09308
;WIPE_END
G1 E-0.07000 F2100.000
G1 Z0.400 F10800.000
G1 X134.159 Y90.762
G1 Z0.200
G1 E1.40000 F2100.000
;TYPE:Perimeter
G1 F1200.000
G1 X134.159 Y112.913 E0.69455
G1 X136.870 Y112.908 E0.08500
G1 X137.388 Y112.881 E0.01627
G1 X137.666 Y112.841 E0.00881
G1 X137.515 Y113.077 E0.00877
G1 X137.407 Y113.524 E0.01444
G1 X137.438 Y113.982 E0.01438
G1 X137.603 Y114.402 E0.01414
G1 X137.868 Y114.753 E0.01379
G1 X138.215 Y115.020 E0.01374
G1 X138.618 Y115.187 E0.01367
G1 X139.050 Y115.244 E0.01366
G1 X139.482 Y115.187 E0.01366
G1 X139.885 Y115.020 E0.01367
G1 X140.232 Y114.753 E0.01374
G1 X140.497 Y114.401 E0.01379
G1 X140.663 Y113.982 E0.01415
G1 X140.692 Y113.524 E0.01437
G1 X140.585 Y113.077 E0.01443
G1 X140.435 Y112.844 E0.00868
G1 X140.603 Y112.873 E0.00532
G1 X141.129 Y112.906 E0.01653
G1 X142.746 Y112.911 E0.05072
G1 X142.746 Y117.499 E0.14387
G1 X141.620 Y118.625 E0.04995
G1 X137.177 Y118.625 E0.13929
G1 X136.101 Y119.501 E0.04351
G1 X135.221 Y120.135 E0.03401
G1 X134.304 Y120.715 E0.03401
G1 X133.355 Y121.239 E0.03401
G1 X132.376 Y121.707 E0.03401
G1 X131.371 Y122.115 E0.03401
G1 X130.344 Y122.463 E0.03401
G1 X129.298 Y122.750 E0.03401
G1 X128.237 Y122.973 E0.03401
G1 X127.164 Y123.134 E0.03401
G1 X126.084 Y123.230 E0.03401
G1 X125.000 Y123.263 E0.03401
G1 X123.916 Y123.230 E0.03401
G1 X122.836 Y123.134 E0.03401
G1 X121.763 Y122.973 E0.03401
G1 X120.702 Y122.750 E0.03401
G1 X119.656 Y122.463 E0.03401
G1 X118.629 Y122.115 E0.03401
G1 X117.624 Y121.707 E0.03401
G1 X116.645 Y121.239 E0.03401
G1 X115.696 Y120.715 E0.03401
G1 X114.779 Y120.135 E0.03401
G1 X113.899 Y119.501 E0.03401
G1 X112.823 Y118.625 E0.04351
G1 X108.380 Y118.625 E0.13929
G1 X107.254 Y117.499 E0.04995
G1 X107.254 Y112.911 E0.14387
G1 X108.871 Y112.906 E0.05072
G1 X109.397 Y112.873 E0.01653
G1 X109.564 Y112.844 E0.00531
G1 X109.415 Y113.077 E0.00867
G1 X109.307 Y113.524 E0.01444
G1 X109.338 Y113.982 E0.01438
G1 X109.503 Y114.402 E0.01414
G1 X109.768 Y114.753 E0.01379
G1 X110.115 Y115.020 E0.01374
G1 X110.518 Y115.187 E0.01367
G1 X110.950 Y115.244 E0.01366
G1 X111.382 Y115.187 E0.01366
G1 X111.785 Y115.020 E0.01367
G1 X112.132 Y114.753 E0.01374
G1 X112.397 Y114.401 E0.01379
G1 X112.563 Y113.982 E0.01415
G1 X112.592 Y113.524 E0.01437
G1 X112.485 Y113.077 E0.01443
G1 X112.334 Y112.841 E0.00878
G1 X112.612 Y112.881 E0.00881
G1 X113.130 Y112.908 E0.01627
G1 X115.841 Y112.913 E0.08500
G1 X115.841 Y90.737 E0.69533
G1 X113.130 Y90.742 E0.08500
G1 X112.612 Y90.769 E0.01627
G1 X112.334 Y90.809 E0.00881
G1 X112.485 Y90.573 E0.00878
G1 X112.592 Y90.126 E0.01443
G1 X112.563 Y89.668 E0.01437
G1 X112.397 Y89.249 E0.01415
G1 X112.132 Y88.897 E0.01379
G1 X111.785 Y88.630 E0.01374
G1 X111.382 Y88.463 E0.01367
G1 X110.950 Y88.406 E0.01366
G1 X110.518 Y88.463 E0.01366
G1 X110.115 Y88.630 E0.01367
G1 X109.768 Y88.897 E0.01374
G1 X109.503 Y89.249 E0.01379
G1 X109.337 Y89.668 E0.01415
G1 X109.308 Y90.126 E0.01437
G1 X109.415 Y90.573 E0.01443
G1 X109.565 Y90.806 E0.00868
G1 X109.397 Y90.777 E0.00532
G1 X108.871 Y90.744 E0.01653
G1 X107.254 Y90.739 E0.05072
G1 X107.254 Y87.864 E0.09017
G1 X108.380 Y86.737 E0.04995
G1 X141.620 Y86.737 E1.04222
G1 X142.746 Y87.864 E0.04995
G1 X142.746 Y90.764 E0.09094
G1 X141.130 Y90.768 E0.05068
G1 X140.603 Y90.799 E0.01655
G1 X140.427 Y90.830 E0.00562
G1 X140.590 Y90.571 E0.00959
G1 X140.696 Y90.122 E0.01447
G1 X140.662 Y89.665 E0.01436
G1 X140.497 Y89.248 E0.01408
G1 X140.232 Y88.897 E0.01379
G1 X139.885 Y88.630 E0.01373
G1 X139.482 Y88.463 E0.01367
G1 X139.050 Y88.406 E0.01366
G1 X138.618 Y88.463 E0.01366
G1 X138.215 Y88.630 E0.01367
G1 X137.868 Y88.897 E0.01373
G1 X137.603 Y89.248 E0.01378
G1 X137.438 Y89.666 E0.01410
G1 X137.405 Y90.122 E0.01433
G1 X137.510 Y90.570 E0.01444
G1 X137.675 Y90.832 E0.00969
G1 X137.386 Y90.791 E0.00913
G1 X136.869 Y90.767 E0.01624
G1 X134.219 Y90.762 E0.08309
;WIPE_START
G1 F8640.000
G1 X134.203 Y96.522 E-1.33000
;WIPE_END
G1 E-0.07000 F2100.000
G1 Z0.400 F10800.000
G1 X111.947 Y90.713
G1 Z0.200
G1 E1.40000 F2100.000
;TYPE:External perimeter
G1 F1200.000
G1 X111.487 Y91.019 E0.01733
G1 X111.231 Y91.125 E0.00867
G1 X110.950 Y91.162 E0.00890
G1 X110.669 Y91.125 E0.00890
G1 X110.413 Y91.019 E0.00867
G1 X109.953 Y90.713 E0.01733
G1 X109.767 Y90.423 E0.01080
G1 X109.688 Y90.093 E0.01064
G1 X109.710 Y89.752 E0.01072
G1 X109.835 Y89.435 E0.01069
G1 X110.038 Y89.165 E0.01058
G1 X110.306 Y88.959 E0.01057
G1 X110.616 Y88.830 E0.01055
G1 X110.950 Y88.786 E0.01055
G1 X111.284 Y88.830 E0.01055
G1 X111.594 Y88.959 E0.01055
G1 X111.862 Y89.165 E0.01057
G1 X112.065 Y89.435 E0.01058
G1 X112.190 Y89.752 E0.01069
G1 X112.212 Y90.093 E0.01072
G1 X112.133 Y90.423 E0.01064
G1 X111.980 Y90.662 E0.00892
G1 X112.049 Y91.100 F10800.000
;WIPE_START
G1 F8640.000
G1 X111.487 Y91.019 E-0.14045
G1 X111.231 Y91.125 E-0.06385
G1 X110.950 Y91.162 E-0.06551
G1 X110.669 Y91.125 E-0.06551
G1 X110.413 Y91.019 E-0.06385
G1 X109.953 Y90.713 E-0.12766
G1 X109.767 Y90.423 E-0.07952
G1 X109.688 Y90.093 E-0.07835
G1 X109.710 Y89.752 E-0.07898
G1 X109.835 Y89.435 E-0.07876
G1 X110.038 Y89.165 E-0.07794
G1 X110.306 Y88.959 E-0.07788
G1 X110.616 Y88.830 E-0.07769
G1 X110.950 Y88.786 E-0.07768
G1 X111.284 Y88.830 E-0.07768
G1 X111.594 Y88.959 E-0.07769
G1 X111.666 Y89.015 E-0.02102
;WIPE_END
G1 E-0.07000 F2100.000
G1 Z0.400 F10800.000
G1 X109.953 Y112.937
G1 Z0.200
G1 E1.40000 F2100.000
G1 F1200.000
G1 X110.413 Y112.631 E0.01734
G1 X110.669 Y112.525 E0.00867
G1 X110.900 Y112.495 E0.00732
G1 X111.227 Y112.523 E0.01029
G1 X111.487 Y112.631 E0.00882
G1 X111.947 Y112.937 E0.01733
G1 X112.133 Y113.227 E0.01080
G1 X112.212 Y113.557 E0.01064
G1 X112.190 Y113.898 E0.01072
G1 X112.065 Y114.215 E0.01069
G1 X111.862 Y114.485 E0.01058
G1 X111.594 Y114.691 E0.01057
G1 X111.284 Y114.820 E0.01055
G1 X110.950 Y114.864 E0.01055
G1 X110.616 Y114.820 E0.01055
G1 X110.306 Y114.691 E0.01055
G1 X110.038 Y114.485 E0.01057
G1 X109.835 Y114.215 E0.01059
G1 X109.710 Y113.898 E0.01069
G1 X109.687 Y113.557 E0.01073
G1 X109.767 Y113.227 E0.01065
G1 X109.920 Y112.988 E0.00891
G1 X109.851 Y112.550 F10800.000
;WIPE_START
G1 F8640.000
G1 X110.413 Y112.631 E-0.14046
G1 X110.669 Y112.525 E-0.06384
G1 X110.900 Y112.495 E-0.05390
G1 X111.227 Y112.523 E-0.07576
G1 X111.487 Y112.631 E-0.06492
G1 X111.947 Y112.937 E-0.12766
G1 X112.133 Y113.227 E-0.07952
G1 X112.212 Y113.557 E-0.07834
G1 X112.190 Y113.898 E-0.07898
G1 X112.065 Y114.215 E-0.07876
G1 X111.862 Y114.485 E-0.07794
G1 X111.594 Y114.691 E-0.07788
G1 X111.284 Y114.820 E-0.07769
G1 X110.950 Y114.864 E-0.07768
G1 X110.616 Y114.820 E-0.07768
G1 X110.306 Y114.691 E-0.07769
G1 X110.233 Y114.635 E-0.02130
;WIPE_END
G1 E-0.07000 F2100.000
G1 Z0.400 F10800.000
G1 X134.536 Y91.139
G1 Z0.200
G1 E1.40000 F2100.000
G1 F1200.000
G1 X134.536 Y112.535 E0.67086
M73 P0 R56
G1 X136.860 Y112.531 E0.07286
G1 X137.352 Y112.505 E0.01544
G1 X137.846 Y112.435 E0.01564
G1 X138.308 Y112.335 E0.01483
G1 X139.699 Y112.335 E0.04361
G1 X140.647 Y112.498 E0.03015
G1 X141.141 Y112.529 E0.01554
G1 X143.124 Y112.534 E0.06216
G1 X143.124 Y117.655 E0.16056
M73 Q1 S57
G1 X141.776 Y119.002 E0.05974
G1 X137.311 Y119.002 E0.13999
G1 X136.330 Y119.801 E0.03966
M73 P1 R56
G1 X135.432 Y120.447 E0.03471
G1 X134.496 Y121.039 E0.03471
G1 X133.528 Y121.575 E0.03471
G1 X132.529 Y122.052 E0.03471
G1 X131.503 Y122.469 E0.03471
G1 X130.455 Y122.824 E0.03471
G1 X129.387 Y123.116 E0.03471
G1 X128.304 Y123.345 E0.03471
G1 X127.209 Y123.508 E0.03471
G1 X126.106 Y123.607 E0.03471
G1 X125.000 Y123.640 E0.03471
G1 X123.894 Y123.607 E0.03471
G1 X122.791 Y123.508 E0.03471
G1 X121.696 Y123.345 E0.03471
G1 X120.613 Y123.116 E0.03471
G1 X119.545 Y122.824 E0.03471
G1 X118.497 Y122.469 E0.03471
G1 X117.471 Y122.052 E0.03471
G1 X116.472 Y121.575 E0.03471
G1 X115.504 Y121.039 E0.03471
G1 X114.568 Y120.447 E0.03471
G1 X113.670 Y119.801 E0.03471
G1 X112.689 Y119.002 E0.03966
