; generated by PrusaSlicer 2.3.0+win64 on 2021-07-04 at 00:24:21 UTC

; 

; external perimeters extrusion width = 0.25mm
; perimeters extrusion width = 0.25mm
; infill extrusion width = 0.25mm
; solid infill extrusion width = 0.25mm
; top infill extrusion width = 0.25mm
; support material extrusion width = 0.20mm
; first layer extrusion width = 0.30mm

M73 P0 R134
M73 Q0 S135
M201 X1000 Y1000 Z200 E5000 ; sets maximum accelerations, mm/sec^2
M203 X200 Y200 Z12 E120 ; sets maximum feedrates, mm/sec
M204 P1250 R1250 T1250 ; sets acceleration (P, T) and retract acceleration (R), mm/sec^2
M205 X8.00 Y8.00 Z0.40 E4.50 ; sets the jerk limits, mm/sec
M205 S0 T0 ; sets the minimum extruding and travel feed rate, mm/sec
M107
;TYPE:Custom
M862.3 P "MK3S" ; printer model check
M862.1 P0.25 ; nozzle diameter check
M115 U3.9.1 ; tell printer latest fw version
G90 ; use absolute coordinates
M83 ; extruder relative mode
M104 S215 ; set extruder temp
M140 S60 ; set bed temp
M190 S60 ; wait for bed temp
M109 S215 ; wait for extruder temp
G28 W ; home all without mesh bed level
G80 ; mesh bed leveling
G1 Y-3.0 F1000.0 ; go outside print area
G92 E0.0
G1 X60.0 E8.0 F700.0 ; intro line
G1 X100.0 E12.5 F700.0 ; intro line
G92 E0.0
M221 S95

; Don't change E value below. Excessive value can damage the printer.
M907 E430 ; set extruder motor current
G21 ; set units to millimeters
G90 ; use absolute coordinates
M83 ; use relative distances for extrusion
M900 K0.05 ; Filament gcode LA 1.5
M900 K30 ; Filament gcode LA 1.0
;LAYER_CHANGE
;Z:0.2
;HEIGHT:0.2
;BEFORE_LAYER_CHANGE
G92 E0.0
;0.2


G1 E-0.80000 F2100.000
G1 Z0.150 F10800.000
G1 Z0.200
;AFTER_LAYER_CHANGE
;0.2
G1 Z0.350
G1 X88.833 Y80.777
G1 Z0.200
G1 E0.80000 F2100.000
M204 S500
;TYPE:Skirt
;WIDTH:0.3
G1 F1200.000
G1 X89.237 Y80.169 E0.01561
G1 X113.396 Y53.536 E0.76864
G1 X114.017 Y53.028 E0.01716
G1 X114.772 Y52.694 E0.01763
G1 X115.552 Y52.578 E0.01685
G1 X134.402 Y52.578 E0.40295
G1 X135.091 Y52.659 E0.01483
G1 X135.667 Y52.862 E0.01306
G1 X136.087 Y53.097 E0.01029
G1 X136.578 Y53.508 E0.01369
G1 X160.758 Y80.164 E0.76930
G1 X161.267 Y81.015 E0.02119
G1 X161.447 Y81.985 E0.02111
G1 X161.397 Y128.534 E0.99503
G1 X161.167 Y129.223 E0.01553
G1 X160.763 Y129.831 E0.01561
G1 X136.604 Y156.464 E0.76864
G1 X135.970 Y156.980 E0.01747
G1 X135.221 Y157.308 E0.01748
G1 X134.437 Y157.422 E0.01693
G1 X115.595 Y157.422 E0.40279
M73 Q0 S134
G1 X114.993 Y157.358 E0.01293
G1 X90.240 Y148.237 E0.56391
G1 X89.687 Y147.923 E0.01358
G1 X89.256 Y147.532 E0.01245
G1 X88.902 Y147.033 E0.01308
G1 X88.691 Y146.545 E0.01134
G1 X88.553 Y145.695 E0.01843
G1 X88.553 Y81.990 E1.36176
G1 X88.603 Y81.466 E0.01125
G1 X88.821 Y80.812 E0.01473
M204 S1000
;WIPE_START
G1 F8640.000
G1 X89.237 Y80.169 E-0.17695
G1 X90.934 Y78.299 E-0.58305
;WIPE_END
G1 E-0.04000 F2100.000
G1 Z0.350 F10800.000
G1 X145.511 Y118.444
G1 Z0.200
G1 E0.80000 F2100.000
M204 S500
;TYPE:Perimeter
G1 F1200.000
G1 X154.839 Y118.444 E0.19940
G1 X154.839 Y126.916 E0.18111
G1 X145.511 Y126.916 E0.19940
G1 X145.511 Y118.481 E0.18030
M204 S1000
G1 X145.768 Y118.701 F10800.000
M204 S500
G1 F1200.000
G1 X154.582 Y118.701 E0.18841
G1 X154.582 Y126.659 E0.17012
G1 X145.768 Y126.659 E0.18841
G1 X145.768 Y118.738 E0.16931
M204 S1000
G1 X146.025 Y118.958 F10800.000
M204 S500
;TYPE:External perimeter
G1 F1200.000
G1 X154.325 Y118.958 E0.17742
G1 X154.325 Y126.402 E0.15912
G1 X146.025 Y126.402 E0.17742
G1 X146.025 Y118.996 E0.15832
M204 S1000
G1 X145.956 Y118.718 F10800.000
;WIPE_START
G1 F8640.000
G1 X149.316 Y118.981 E-0.76000
;WIPE_END
G1 E-0.04000 F2100.000
G1 Z0.350 F10800.000
G1 X141.824 Y117.504
G1 Z0.200
G1 E0.80000 F2100.000
M204 S500
;TYPE:Perimeter
G1 F1200.000
G1 X158.526 Y117.505 E0.35702
G1 X158.526 Y127.856 E0.22126
G1 X141.824 Y127.856 E0.35702
G1 X141.824 Y117.542 E0.22048
M204 S1000
G1 X141.572 Y117.328 F10800.000
M204 S500
G1 F1200.000
G1 X141.607 Y117.272 E0.00142
G1 X141.693 Y117.247 E0.00190
G1 X158.641 Y117.248 E0.36228
G1 X158.743 Y117.272 E0.00224
G1 X158.770 Y117.306 E0.00095
G1 X158.783 Y117.373 E0.00144
G1 X158.770 Y128.054 E0.22831
G1 X158.724 Y128.100 E0.00142
G1 X158.657 Y128.113 E0.00144
G1 X141.626 Y128.100 E0.36405
G1 X141.580 Y128.054 E0.00142
G1 X141.567 Y127.987 E0.00144
G1 X141.568 Y117.365 E0.22706
M204 S1000
G1 X141.514 Y117.027 F10800.000
M204 S500
;TYPE:External perimeter
G1 F1200.000
G1 X141.678 Y116.990 E0.00360
G1 X158.670 Y116.991 E0.36322
G1 X158.843 Y117.031 E0.00379
G1 X158.904 Y117.069 E0.00154
G1 X159.003 Y117.194 E0.00342
G1 X159.040 Y117.358 E0.00360
G1 X159.040 Y128.002 E0.22751
G1 X159.030 Y128.090 E0.00190
G1 X158.961 Y128.234 E0.00342
G1 X158.836 Y128.333 E0.00342
G1 X158.672 Y128.370 E0.00360
G1 X141.678 Y128.370 E0.36325
G1 X141.590 Y128.360 E0.00190
G1 X141.446 Y128.291 E0.00342
G1 X141.347 Y128.166 E0.00342
G1 X141.310 Y128.002 E0.00360
G1 X141.310 Y117.358 E0.22751
G1 X141.347 Y117.194 E0.00360
G1 X141.389 Y117.126 E0.00172
G1 X141.482 Y117.046 E0.00262
M204 S1000
G1 X141.649 Y117.127 F10800.000
;WIPE_START
G1 F8640.000
G1 X141.678 Y116.990 E-0.04709
G1 X144.766 Y116.990 E-0.71291
;WIPE_END
G1 E-0.04000 F2100.000
G1 Z0.350 F10800.000
G1 X157.924 Y117.582
G1 Z0.200
G1 E0.80000 F2100.000
M204 S500
;TYPE:Solid infill
;WIDTH:0.302472
G1 F1200.000
G1 X158.333 Y117.991 E0.01249
G1 X158.333 Y118.358 E0.00792
G1 X157.672 Y117.698 E0.02016
G1 X157.305 Y117.698 E0.00792
G1 X158.333 Y118.725 E0.03137
G1 X158.333 Y119.093 E0.00792
G1 X156.938 Y117.698 E0.04257
G1 X156.571 Y117.698 E0.00792
G1 X158.333 Y119.460 E0.05378
M73 P0 R133
G1 X158.333 Y119.827 E0.00792
G1 X156.204 Y117.698 E0.06498
G1 X155.837 Y117.698 E0.00792
G1 X158.333 Y120.194 E0.07618
G1 X158.333 Y120.561 E0.00792
G1 X155.470 Y117.698 E0.08739
G1 X155.103 Y117.698 E0.00792
G1 X158.333 Y120.928 E0.09859
G1 X158.333 Y121.295 E0.00792
G1 X154.736 Y117.698 E0.10979
G1 X154.369 Y117.698 E0.00792
G1 X158.333 Y121.662 E0.12100
G1 X158.333 Y122.029 E0.00792
G1 X155.032 Y118.728 E0.10075
G1 X155.032 Y119.095 E0.00792
G1 X158.333 Y122.396 E0.10075
G1 X158.333 Y122.763 E0.00792
G1 X155.032 Y119.462 E0.10075
G1 X155.032 Y119.829 E0.00792
G1 X158.333 Y123.130 E0.10075
G1 X158.333 Y123.497 E0.00792
G1 X155.032 Y120.196 E0.10075
G1 X155.032 Y120.563 E0.00792
G1 X158.333 Y123.864 E0.10075
G1 X158.333 Y124.231 E0.00792
G1 X155.032 Y120.930 E0.10075
G1 X155.032 Y121.297 E0.00792
G1 X158.333 Y124.598 E0.10075
G1 X158.333 Y124.966 E0.00792
G1 X155.032 Y121.664 E0.10075
G1 X155.032 Y122.031 E0.00792
G1 X158.333 Y125.333 E0.10075
G1 X158.333 Y125.700 E0.00792
G1 X155.032 Y122.399 E0.10075
G1 X155.032 Y122.766 E0.00792
G1 X158.333 Y126.067 E0.10075
G1 X158.333 Y126.434 E0.00792
G1 X155.032 Y123.133 E0.10075
G1 X155.032 Y123.500 E0.00792
G1 X158.333 Y126.801 E0.10075
G1 X158.333 Y127.168 E0.00792
G1 X155.032 Y123.867 E0.10075
G1 X155.032 Y124.234 E0.00792
G1 X158.333 Y127.535 E0.10075
G1 X158.333 Y127.663 E0.00276
G1 X158.094 Y127.663 E0.00516
G1 X155.032 Y124.601 E0.09346
G1 X155.032 Y124.968 E0.00792
G1 X157.727 Y127.663 E0.08226
G1 X157.360 Y127.663 E0.00792
G1 X155.032 Y125.335 E0.07105
G1 X155.032 Y125.702 E0.00792
G1 X156.993 Y127.663 E0.05985
G1 X156.626 Y127.663 E0.00792
G1 X155.032 Y126.069 E0.04865
G1 X155.032 Y126.436 E0.00792
G1 X156.259 Y127.663 E0.03744
G1 X155.892 Y127.663 E0.00792
G1 X155.032 Y126.803 E0.02624
G1 X155.032 Y127.109 E0.00660
G1 X154.971 Y127.109 E0.00133
G1 X155.525 Y127.663 E0.01691
G1 X155.158 Y127.663 E0.00792
G1 X154.603 Y127.109 E0.01691
G1 X154.236 Y127.109 E0.00792
G1 X154.791 Y127.663 E0.01691
G1 X154.423 Y127.663 E0.00792
G1 X153.869 Y127.109 E0.01691
G1 X153.502 Y127.109 E0.00792
G1 X154.056 Y127.663 E0.01691
G1 X153.689 Y127.663 E0.00792
G1 X153.135 Y127.109 E0.01691
G1 X152.768 Y127.109 E0.00792
G1 X153.322 Y127.663 E0.01691
G1 X152.955 Y127.663 E0.00792
G1 X152.401 Y127.109 E0.01691
G1 X152.034 Y127.109 E0.00792
G1 X152.588 Y127.663 E0.01691
G1 X152.221 Y127.663 E0.00792
G1 X151.667 Y127.109 E0.01691
G1 X151.300 Y127.109 E0.00792
G1 X151.854 Y127.663 E0.01691
G1 X151.487 Y127.663 E0.00792
G1 X150.933 Y127.109 E0.01691
G1 X150.566 Y127.109 E0.00792
G1 X151.120 Y127.663 E0.01691
G1 X150.753 Y127.663 E0.00792
G1 X150.199 Y127.109 E0.01691
G1 X149.832 Y127.109 E0.00792
G1 X150.386 Y127.663 E0.01691
G1 X150.019 Y127.663 E0.00792
G1 X149.465 Y127.109 E0.01691
G1 X149.098 Y127.109 E0.00792
G1 X149.652 Y127.663 E0.01691
G1 X149.285 Y127.663 E0.00792
G1 X148.730 Y127.109 E0.01691
G1 X148.363 Y127.109 E0.00792
G1 X148.918 Y127.663 E0.01691
G1 X148.550 Y127.663 E0.00792
G1 X147.996 Y127.109 E0.01691
G1 X147.629 Y127.109 E0.00792
G1 X148.183 Y127.663 E0.01691
G1 X147.816 Y127.663 E0.00792
G1 X147.262 Y127.109 E0.01691
G1 X146.895 Y127.109 E0.00792
G1 X147.449 Y127.663 E0.01691
G1 X147.082 Y127.663 E0.00792
G1 X146.528 Y127.109 E0.01691
G1 X146.161 Y127.109 E0.00792
G1 X146.715 Y127.663 E0.01691
G1 X146.348 Y127.663 E0.00792
G1 X145.678 Y126.993 E0.02044
M204 S1000
;WIPE_START
G1 F8640.000
G1 X146.348 Y127.663 E-0.21871
G1 X146.715 Y127.663 E-0.08476
G1 X146.161 Y127.109 E-0.18093
G1 X146.528 Y127.109 E-0.08476
G1 X147.082 Y127.663 E-0.18093
G1 X147.125 Y127.663 E-0.00991
;WIPE_END
G1 E-0.04000 F2100.000
G1 Z0.350 F10800.000
G1 X154.671 Y118.367
G1 Z0.200
G1 E0.80000 F2100.000
M204 S500
G1 F1200.000
G1 X154.002 Y117.698 E0.02042
G1 X153.634 Y117.698 E0.00792
G1 X154.188 Y118.251 E0.01689
G1 X153.821 Y118.251 E0.00792
G1 X153.267 Y117.698 E0.01689
G1 X152.900 Y117.697 E0.00792
G1 X153.454 Y118.251 E0.01690
G1 X153.087 Y118.251 E0.00792
G1 X152.533 Y117.697 E0.01690
G1 X152.166 Y117.697 E0.00792
G1 X152.720 Y118.251 E0.01690
G1 X152.353 Y118.251 E0.00792
G1 X151.799 Y117.697 E0.01690
G1 X151.432 Y117.697 E0.00792
G1 X151.986 Y118.251 E0.01690
G1 X151.619 Y118.251 E0.00792
G1 X151.065 Y117.697 E0.01690
G1 X150.698 Y117.697 E0.00792
G1 X151.252 Y118.251 E0.01690
G1 X150.884 Y118.251 E0.00792
G1 X150.331 Y117.697 E0.01690
G1 X149.964 Y117.697 E0.00792
G1 X150.517 Y118.251 E0.01690
G1 X150.150 Y118.251 E0.00792
G1 X149.597 Y117.697 E0.01690
G1 X149.230 Y117.697 E0.00792
G1 X149.783 Y118.251 E0.01690
G1 X149.416 Y118.251 E0.00792
G1 X148.862 Y117.697 E0.01690
G1 X148.495 Y117.697 E0.00792
G1 X149.049 Y118.251 E0.01690
G1 X148.682 Y118.251 E0.00792
G1 X148.128 Y117.697 E0.01690
G1 X147.761 Y117.697 E0.00792
G1 X148.315 Y118.251 E0.01690
G1 X147.948 Y118.251 E0.00792
G1 X147.394 Y117.697 E0.01690
G1 X147.027 Y117.697 E0.00792
G1 X147.581 Y118.251 E0.01690
G1 X147.214 Y118.251 E0.00792
G1 X146.660 Y117.697 E0.01690
G1 X146.293 Y117.697 E0.00792
G1 X146.847 Y118.251 E0.01690
G1 X146.480 Y118.251 E0.00792
G1 X145.926 Y117.697 E0.01691
G1 X145.559 Y117.697 E0.00792
G1 X146.113 Y118.251 E0.01691
G1 X145.746 Y118.251 E0.00792
G1 X145.192 Y117.697 E0.01691
G1 X144.825 Y117.697 E0.00792
G1 X145.379 Y118.251 E0.01691
G1 X145.318 Y118.251 E0.00131
G1 X145.318 Y118.558 E0.00662
G1 X144.457 Y117.697 E0.02626
G1 X144.090 Y117.697 E0.00792
G1 X145.318 Y118.925 E0.03747
G1 X145.318 Y119.292 E0.00792
G1 X143.723 Y117.697 E0.04867
G1 X143.356 Y117.697 E0.00792
G1 X145.318 Y119.659 E0.05988
G1 X145.318 Y120.026 E0.00792
G1 X142.989 Y117.697 E0.07108
G1 X142.622 Y117.697 E0.00792
G1 X145.318 Y120.393 E0.08228
G1 X145.318 Y120.760 E0.00792
G1 X142.255 Y117.697 E0.09349
G1 X142.017 Y117.697 E0.00514
G1 X142.017 Y117.826 E0.00278
G1 X145.318 Y121.127 E0.10075
G1 X145.318 Y121.494 E0.00792
G1 X142.017 Y118.193 E0.10075
G1 X142.017 Y118.560 E0.00792
G1 X145.318 Y121.861 E0.10075
G1 X145.318 Y122.228 E0.00792
G1 X142.017 Y118.927 E0.10075
G1 X142.017 Y119.294 E0.00792
G1 X145.318 Y122.595 E0.10075
G1 X145.318 Y122.962 E0.00792
G1 X142.017 Y119.661 E0.10075
G1 X142.017 Y120.028 E0.00792
G1 X145.318 Y123.329 E0.10075
G1 X145.318 Y123.696 E0.00792
G1 X142.017 Y120.395 E0.10075
G1 X142.017 Y120.762 E0.00792
G1 X145.318 Y124.064 E0.10075
G1 X145.318 Y124.431 E0.00792
G1 X142.017 Y121.130 E0.10075
G1 X142.017 Y121.497 E0.00792
G1 X145.318 Y124.798 E0.10075
G1 X145.318 Y125.165 E0.00792
G1 X142.017 Y121.864 E0.10075
G1 X142.017 Y122.231 E0.00792
G1 X145.318 Y125.532 E0.10075
G1 X145.318 Y125.899 E0.00792
G1 X142.017 Y122.598 E0.10075
G1 X142.017 Y122.965 E0.00792
G1 X145.318 Y126.266 E0.10075
G1 X145.318 Y126.633 E0.00792
G1 X142.017 Y123.332 E0.10075
G1 X142.017 Y123.699 E0.00792
G1 X145.981 Y127.663 E0.12099
G1 X145.614 Y127.663 E0.00792
G1 X142.017 Y124.066 E0.10979
G1 X142.017 Y124.433 E0.00792
G1 X145.247 Y127.663 E0.09858
G1 X144.880 Y127.663 E0.00792
G1 X142.017 Y124.800 E0.08738
G1 X142.017 Y125.167 E0.00792
G1 X144.513 Y127.663 E0.07618
G1 X144.146 Y127.663 E0.00792
G1 X142.017 Y125.534 E0.06497
G1 X142.017 Y125.901 E0.00792
G1 X143.779 Y127.663 E0.05377
G1 X143.412 Y127.663 E0.00792
G1 X142.017 Y126.268 E0.04257
G1 X142.017 Y126.635 E0.00792
G1 X143.045 Y127.663 E0.03136
G1 X142.677 Y127.663 E0.00792
G1 X142.017 Y127.003 E0.02016
G1 X142.017 Y127.370 E0.00792
G1 X142.426 Y127.779 E0.01249
M204 S1000
;WIPE_START
G1 F8640.000
G1 X142.017 Y127.370 E-0.13360
G1 X142.017 Y127.003 E-0.08476
G1 X142.677 Y127.663 E-0.21569
G1 X143.045 Y127.663 E-0.08476
G1 X142.306 Y126.924 E-0.24120
;WIPE_END
G1 E-0.04000 F2100.000
G1 Z0.350 F10800.000
G1 X145.511 Y109.236
G1 Z0.200
G1 E0.80000 F2100.000
M204 S500
;TYPE:Perimeter
;WIDTH:0.3
G1 F1200.000
G1 X145.511 Y100.764 E0.18111
G1 X154.839 Y100.764 E0.19940
G1 X154.839 Y109.236 E0.18111
G1 X145.548 Y109.236 E0.19860
M204 S1000
G1 X145.768 Y108.979 F10800.000
M204 S500
G1 F1200.000
G1 X145.768 Y101.021 E0.17012
G1 X154.582 Y101.021 E0.18841
G1 X154.582 Y108.979 E0.17012
G1 X145.805 Y108.979 E0.18761
M204 S1000
G1 X146.025 Y108.722 F10800.000
M204 S500
;TYPE:External perimeter
G1 F1200.000
G1 X146.025 Y101.278 E0.15912
G1 X154.325 Y101.278 E0.17742
G1 X154.325 Y108.722 E0.15912
G1 X146.062 Y108.722 E0.17662
M204 S1000
G1 X145.782 Y108.782 F10800.000
;WIPE_START
G1 F8640.000
G1 X146.046 Y105.431 E-0.76000
;WIPE_END
G1 E-0.04000 F2100.000
G1 Z0.350 F10800.000
G1 X141.824 Y110.176
G1 Z0.200
G1 E0.80000 F2100.000
M204 S500
;TYPE:Perimeter
G1 F1200.000
G1 X141.824 Y99.824 E0.22128
G1 X158.526 Y99.825 E0.35702
G1 X158.526 Y110.176 E0.22126
G1 X141.862 Y110.176 E0.35622
M204 S1000
G1 X141.648 Y110.428 F10800.000
M204 S500
G1 F1200.000
G1 X141.592 Y110.393 E0.00142
G1 X141.567 Y110.307 E0.00190
G1 X141.567 Y99.693 E0.22689
G1 X141.580 Y99.626 E0.00144
G1 X141.607 Y99.592 E0.00095
G1 X141.693 Y99.567 E0.00190
G1 X158.641 Y99.568 E0.36228
G1 X158.758 Y99.607 E0.00266
G1 X158.783 Y99.693 E0.00190
G1 X158.783 Y110.307 E0.22689
G1 X158.770 Y110.374 E0.00144
G1 X158.743 Y110.408 E0.00095
G1 X158.657 Y110.433 E0.00190
G1 X141.685 Y110.432 E0.36280
M204 S1000
G1 X141.347 Y110.486 F10800.000
M204 S500
;TYPE:External perimeter
G1 F1200.000
G1 X141.310 Y110.322 E0.00360
G1 X141.310 Y99.678 E0.22751
G1 X141.347 Y99.514 E0.00360
G1 X141.446 Y99.389 E0.00342
G1 X141.514 Y99.347 E0.00172
G1 X141.678 Y99.310 E0.00360
G1 X158.670 Y99.311 E0.36322
G1 X158.843 Y99.351 E0.00379
G1 X158.961 Y99.446 E0.00324
G1 X159.003 Y99.514 E0.00172
G1 X159.040 Y99.678 E0.00360
G1 X159.040 Y110.322 E0.22751
G1 X159.003 Y110.486 E0.00360
G1 X158.904 Y110.611 E0.00342
G1 X158.836 Y110.653 E0.00172
G1 X158.672 Y110.690 E0.00360
G1 X141.678 Y110.690 E0.36325
G1 X141.514 Y110.653 E0.00360
G1 X141.446 Y110.611 E0.00172
G1 X141.366 Y110.518 E0.00262
M204 S1000
G1 X141.447 Y110.351 F10800.000
;WIPE_START
G1 F8640.000
G1 X141.310 Y110.322 E-0.04709
G1 X141.310 Y107.234 E-0.71291
;WIPE_END
G1 E-0.04000 F2100.000
G1 Z0.350 F10800.000
G1 X157.924 Y99.902
G1 Z0.200
G1 E0.80000 F2100.000
M204 S500
;TYPE:Solid infill
;WIDTH:0.302472
G1 F1200.000
G1 X158.333 Y100.311 E0.01249
G1 X158.333 Y100.678 E0.00792
G1 X157.672 Y100.018 E0.02016
G1 X157.305 Y100.018 E0.00792
G1 X158.333 Y101.045 E0.03137
G1 X158.333 Y101.413 E0.00792
G1 X156.938 Y100.018 E0.04257
G1 X156.571 Y100.018 E0.00792
G1 X158.333 Y101.780 E0.05378
G1 X158.333 Y102.147 E0.00792
G1 X156.204 Y100.018 E0.06498
G1 X155.837 Y100.018 E0.00792
G1 X158.333 Y102.514 E0.07618
G1 X158.333 Y102.881 E0.00792
