; generated by PrusaSlicer 2.3.0+win64 on 2021-07-28 at 06:02:39 UTC

; 

; external perimeters extrusion width = 0.45mm
; perimeters extrusion width = 0.45mm
; infill extrusion width = 0.45mm
; solid infill extrusion width = 0.45mm
; top infill extrusion width = 0.40mm
; first layer extrusion width = 0.42mm

M73 P0 R110
M73 Q0 S111
M201 X1000 Y1000 Z200 E5000 ; sets maximum accelerations, mm/sec^2
M203 X200 Y200 Z12 E120 ; sets maximum feedrates, mm/sec
M204 P1250 R1250 T1250 ; sets acceleration (P, T) and retract acceleration (R), mm/sec^2
M205 X8.00 Y8.00 Z0.40 E4.50 ; sets the jerk limits, mm/sec
M205 S0 T0 ; sets the minimum extruding and travel feed rate, mm/sec
M107
;TYPE:Custom
M862.3 P "MK3S" ; printer model check
M862.1 P0.4 ; nozzle diameter check
M115 U3.9.1 ; tell printer latest fw version
G90 ; use absolute coordinates
M83 ; extruder relative mode
M104 S240 ; set extruder temp
M140 S85 ; set bed temp
M190 S85 ; wait for bed temp
M109 S240 ; wait for extruder temp
G28 W ; home all without mesh bed level
G80 ; mesh bed leveling
G1 Y-3.0 F1000.0 ; go outside print area
G92 E0.0
G1 X60.0 E9.0 F1000.0 ; intro line
G1 X100.0 E12.5 F1000.0 ; intro line
G92 E0.0
M221 S95

; Don't change E values below. Excessive value can damage the printer.

M907 E538 ; set extruder motor current
G21 ; set units to millimeters
G90 ; use absolute coordinates
M83 ; use relative distances for extrusion
M900 K0.08 ; Filament gcode LA 1.5
M900 K45 ; Filament gcode LA 1.0
;LAYER_CHANGE
;Z:0.2
;HEIGHT:0.2
;BEFORE_LAYER_CHANGE
G92 E0.0
;0.2


M73 Q0 S110
G1 E-1.40000 F2100.000
G1 Z0.200 F10800.000
;AFTER_LAYER_CHANGE
;0.2
G1 Z0.400
G1 X53.358 Y87.696
G1 Z0.200
G1 E1.40000 F2100.000
M204 S1000
;TYPE:Skirt
;WIDTH:0.42
G1 F1200.000
G1 X53.912 Y86.901 E0.03036
G1 X81.175 Y61.341 E1.17176
G1 X81.645 Y60.999 E0.01823
G1 X82.199 Y60.777 E0.01870
G1 X82.790 Y60.700 E0.01870
G1 X172.971 Y60.675 E2.82756
G1 X173.802 Y60.826 E0.02649
G1 X174.525 Y61.256 E0.02637
G1 X195.971 Y79.904 E0.89108
G1 X196.456 Y80.512 E0.02437
G1 X196.719 Y81.243 E0.02437
G1 X196.818 Y92.454 E0.35150
G1 X190.258 Y147.196 E1.72870
G1 X190.120 Y147.730 E0.01728
G1 X189.863 Y148.217 E0.01728
G1 X189.500 Y148.632 E0.01728
G1 X189.055 Y148.951 E0.01716
G1 X188.502 Y149.172 E0.01870
G1 X187.910 Y149.249 E0.01870
G1 X73.145 Y149.294 E3.59837
G1 X72.375 Y149.028 E0.02555
G1 X71.741 Y148.517 E0.02555
G1 X53.464 Y126.865 E0.88840
G1 X53.243 Y126.311 E0.01870
G1 X53.167 Y125.720 E0.01870
G1 X53.167 Y88.618 E1.16328
G1 X53.346 Y87.754 E0.02766
;WIPE_START
G1 F8640.000
G1 X53.912 Y86.901 E-0.23638
G1 X57.367 Y83.662 E-1.09362
;WIPE_END
G1 E-0.07000 F2100.000
G1 Z0.400 F10800.000
G1 X131.097 Y100.180
G1 Z0.200
G1 E1.40000 F2100.000
;TYPE:Perimeter
G1 F1200.000
G1 X131.244 Y99.846 E0.01147
G1 X131.417 Y99.619 E0.00894
G1 X131.721 Y99.394 E0.01187
G1 X131.961 Y99.298 E0.00809
G1 X132.324 Y99.248 E0.01152
G1 X132.762 Y99.331 E0.01396
G1 X133.126 Y99.556 E0.01342
G1 X133.391 Y99.884 E0.01321
G1 X133.523 Y100.257 E0.01241
G1 X133.545 Y100.517 E0.00818
G1 X133.478 Y100.907 E0.01241
G1 X133.274 Y101.272 E0.01312
G1 X133.002 Y101.516 E0.01147
G1 X132.751 Y101.652 E0.00894
G1 X132.356 Y101.737 E0.01267
G1 X131.938 Y101.683 E0.01321
G1 X131.562 Y101.494 E0.01321
G1 X131.272 Y101.191 E0.01312
G1 X131.118 Y100.860 E0.01147
G1 X131.062 Y100.580 E0.00894
G1 X131.091 Y100.240 E0.01070
G1 X131.443 Y100.559 F10800.000
;TYPE:External perimeter
G1 F1200.000
G1 X131.467 Y100.275 E0.00893
G1 X131.571 Y100.039 E0.00809
G1 X131.684 Y99.890 E0.00585
G1 X131.907 Y99.726 E0.00868
G1 X132.058 Y99.665 E0.00512
G1 X132.314 Y99.630 E0.00811
G1 X132.623 Y99.689 E0.00985
G1 X132.874 Y99.843 E0.00923
G1 X133.057 Y100.070 E0.00915
G1 X133.151 Y100.337 E0.00887
G1 X133.165 Y100.500 E0.00515
G1 X133.117 Y100.779 E0.00887
G1 X132.975 Y101.033 E0.00912
G1 X132.783 Y101.206 E0.00809
G1 X132.619 Y101.294 E0.00585
G1 X132.340 Y101.355 E0.00896
G1 X132.050 Y101.317 E0.00915
G1 X131.789 Y101.186 E0.00915
G1 X131.588 Y100.976 E0.00912
G1 X131.479 Y100.742 E0.00809
G1 X131.455 Y100.617 E0.00397
G1 X131.189 Y100.430 F10800.000
;WIPE_START
G1 F8640.000
G1 X131.467 Y100.275 E-0.07917
G1 X131.571 Y100.039 E-0.05961
G1 X131.684 Y99.890 E-0.04310
G1 X131.907 Y99.726 E-0.06389
G1 X132.058 Y99.665 E-0.03767
G1 X132.314 Y99.630 E-0.05974
G1 X132.623 Y99.689 E-0.07253
G1 X132.874 Y99.843 E-0.06798
G1 X133.057 Y100.070 E-0.06742
G1 X133.151 Y100.337 E-0.06530
G1 X133.165 Y100.500 E-0.03791
G1 X133.117 Y100.779 E-0.06531
G1 X132.975 Y101.033 E-0.06718
G1 X132.783 Y101.206 E-0.05961
G1 X132.619 Y101.294 E-0.04311
G1 X132.340 Y101.355 E-0.06600
G1 X132.050 Y101.317 E-0.06742
G1 X131.789 Y101.186 E-0.06741
G1 X131.588 Y100.976 E-0.06718
G1 X131.479 Y100.742 E-0.05961
G1 X131.455 Y100.617 E-0.02925
;WIPE_END
G1 E-0.15360 F2100.000
G1 Z0.400 F10800.000
G1 X131.938 Y99.143
G1 Z0.200
G1 E1.40000 F2100.000
;TYPE:Perimeter
G1 F1200.000
G1 X131.562 Y98.954 E0.01321
G1 X131.288 Y98.668 E0.01241
G1 X131.161 Y98.440 E0.00817
G1 X131.061 Y98.057 E0.01241
G1 X131.097 Y97.640 E0.01312
G1 X131.244 Y97.306 E0.01147
G1 X131.417 Y97.079 E0.00894
G1 X131.721 Y96.854 E0.01187
G1 X131.961 Y96.758 E0.00809
G1 X132.324 Y96.708 E0.01152
G1 X132.762 Y96.791 E0.01396
G1 X133.126 Y97.016 E0.01342
G1 X133.391 Y97.344 E0.01321
G1 X133.523 Y97.717 E0.01241
G1 X133.545 Y97.977 E0.00818
G1 X133.478 Y98.367 E0.01241
G1 X133.273 Y98.734 E0.01321
G1 X132.956 Y99.013 E0.01321
G1 X132.589 Y99.160 E0.01241
G1 X132.331 Y99.194 E0.00818
G1 X131.997 Y99.151 E0.01053
G1 X132.331 Y98.813 F10800.000
;TYPE:External perimeter
G1 F1200.000
G1 X132.050 Y98.777 E0.00887
G1 X131.789 Y98.646 E0.00915
G1 X131.594 Y98.442 E0.00887
G1 X131.514 Y98.298 E0.00515
G1 X131.442 Y98.025 E0.00887
G1 X131.467 Y97.735 E0.00912
G1 X131.571 Y97.499 E0.00809
G1 X131.684 Y97.350 E0.00585
G1 X131.907 Y97.186 E0.00868
G1 X132.058 Y97.125 E0.00512
G1 X132.314 Y97.090 E0.00811
G1 X132.623 Y97.149 E0.00985
G1 X132.874 Y97.303 E0.00923
G1 X133.057 Y97.530 E0.00915
G1 X133.151 Y97.797 E0.00887
G1 X133.165 Y97.960 E0.00515
G1 X133.117 Y98.239 E0.00887
G1 X132.975 Y98.494 E0.00915
G1 X132.756 Y98.687 E0.00915
G1 X132.493 Y98.793 E0.00887
G1 X132.390 Y98.806 E0.00327
G1 X132.192 Y99.060 F10800.000
;WIPE_START
G1 F8640.000
G1 X132.050 Y98.777 E-0.07879
G1 X131.789 Y98.646 E-0.06742
G1 X131.594 Y98.442 E-0.06531
G1 X131.514 Y98.298 E-0.03790
G1 X131.442 Y98.025 E-0.06531
G1 X131.467 Y97.735 E-0.06719
G1 X131.571 Y97.499 E-0.05961
G1 X131.684 Y97.350 E-0.04310
G1 X131.907 Y97.186 E-0.06389
G1 X132.058 Y97.125 E-0.03767
G1 X132.314 Y97.090 E-0.05974
G1 X132.623 Y97.149 E-0.07253
G1 X132.874 Y97.303 E-0.06798
G1 X133.057 Y97.530 E-0.06742
G1 X133.151 Y97.797 E-0.06531
G1 X133.165 Y97.960 E-0.03791
G1 X133.117 Y98.239 E-0.06531
G1 X132.975 Y98.494 E-0.06742
G1 X132.756 Y98.687 E-0.06741
G1 X132.493 Y98.793 E-0.06531
G1 X132.390 Y98.806 E-0.02405
;WIPE_END
G1 E-0.15343 F2100.000
G1 Z0.400 F10800.000
G1 X131.483 Y94.895
M73 P0 R109
G1 Z0.200
G1 E1.40000 F2100.000
;TYPE:Perimeter
G1 F1200.000
G1 X131.232 Y94.927 E0.00792
G1 X130.980 Y94.917 E0.00792
G1 X130.733 Y94.864 E0.00792
G1 X130.477 Y94.761 E0.00865
G1 X130.134 Y94.511 E0.01328
G1 X129.938 Y94.279 E0.00954
G1 X129.811 Y94.053 E0.00814
G1 X129.727 Y93.814 E0.00792
G1 X129.684 Y93.565 E0.00792
G1 X129.684 Y93.313 E0.00792
G1 X129.727 Y93.063 E0.00792
G1 X129.811 Y92.825 E0.00792
G1 X129.934 Y92.605 E0.00792
G1 X130.093 Y92.408 E0.00792
G1 X130.283 Y92.241 E0.00792
G1 X130.498 Y92.109 E0.00792
G1 X130.754 Y92.006 E0.00865
G1 X131.174 Y91.949 E0.01328
G1 X131.476 Y91.980 E0.00954
G1 X131.724 Y92.056 E0.00814
G1 X131.950 Y92.170 E0.00792
G1 X132.153 Y92.320 E0.00792
G1 X132.328 Y92.503 E0.00792
G1 X132.470 Y92.712 E0.00792
G1 X132.574 Y92.943 E0.00792
G1 X132.637 Y93.187 E0.00792
G1 X132.659 Y93.439 E0.00792
G1 X132.637 Y93.691 E0.00792
G1 X132.574 Y93.935 E0.00792
G1 X132.470 Y94.166 E0.00792
G1 X132.328 Y94.375 E0.00792
G1 X132.153 Y94.557 E0.00792
G1 X131.950 Y94.708 E0.00792
G1 X131.724 Y94.821 E0.00792
G1 X131.540 Y94.878 E0.00604
G1 X130.843 Y94.502 F10800.000
;TYPE:External perimeter
G1 F1200.000
G1 X130.661 Y94.428 E0.00617
G1 X130.393 Y94.233 E0.01039
G1 X130.249 Y94.063 E0.00697
G1 X130.156 Y93.897 E0.00599
G1 X130.093 Y93.719 E0.00591
G1 X130.061 Y93.533 E0.00591
G1 X130.061 Y93.345 E0.00591
G1 X130.093 Y93.159 E0.00591
G1 X130.156 Y92.981 E0.00591
G1 X130.248 Y92.816 E0.00591
G1 X130.366 Y92.670 E0.00591
G1 X130.508 Y92.545 E0.00591
G1 X130.669 Y92.446 E0.00591
G1 X130.851 Y92.373 E0.00617
G1 X131.179 Y92.329 E0.01039
G1 X131.401 Y92.352 E0.00697
G1 X131.583 Y92.408 E0.00599
G1 X131.752 Y92.492 E0.00591
G1 X131.903 Y92.605 E0.00591
G1 X132.034 Y92.741 E0.00591
G1 X132.139 Y92.897 E0.00591
G1 X132.217 Y93.069 E0.00591
G1 X132.264 Y93.251 E0.00591
G1 X132.280 Y93.439 E0.00591
G1 X132.264 Y93.627 E0.00591
G1 X132.217 Y93.809 E0.00591
G1 X132.139 Y93.981 E0.00591
G1 X132.034 Y94.137 E0.00591
G1 X131.903 Y94.273 E0.00591
G1 X131.752 Y94.385 E0.00591
G1 X131.583 Y94.470 E0.00591
G1 X131.403 Y94.525 E0.00591
G1 X131.216 Y94.549 E0.00591
G1 X131.028 Y94.541 E0.00591
G1 X130.902 Y94.514 E0.00403
G1 X130.699 Y94.636 F10800.000
;WIPE_START
G1 F8640.000
G1 X130.661 Y94.428 E-0.05913
G1 X130.393 Y94.233 E-0.07652
G1 X130.249 Y94.063 E-0.05136
G1 X130.156 Y93.897 E-0.04410
G1 X130.093 Y93.719 E-0.04353
G1 X130.061 Y93.533 E-0.04353
G1 X130.061 Y93.345 E-0.04353
G1 X130.093 Y93.159 E-0.04353
G1 X130.156 Y92.981 E-0.04353
G1 X130.248 Y92.816 E-0.04353
G1 X130.366 Y92.670 E-0.04353
G1 X130.508 Y92.545 E-0.04353
G1 X130.669 Y92.446 E-0.04353
G1 X130.851 Y92.373 E-0.04543
G1 X131.179 Y92.329 E-0.07652
G1 X131.401 Y92.352 E-0.05136
G1 X131.583 Y92.408 E-0.04410
G1 X131.752 Y92.492 E-0.04353
G1 X131.903 Y92.605 E-0.04353
G1 X132.034 Y92.741 E-0.04353
G1 X132.139 Y92.897 E-0.04353
G1 X132.217 Y93.069 E-0.04353
G1 X132.264 Y93.251 E-0.04353
G1 X132.280 Y93.439 E-0.04353
G1 X132.264 Y93.627 E-0.04353
G1 X132.217 Y93.809 E-0.04353
G1 X132.139 Y93.981 E-0.04353
G1 X132.034 Y94.137 E-0.04353
G1 X132.001 Y94.171 E-0.01087
;WIPE_END
G1 E-0.07000 F2100.000
G1 Z0.400 F10800.000
G1 X131.063 Y90.720
G1 Z0.200
G1 E1.40000 F2100.000
;TYPE:Perimeter
G1 F1200.000
G1 X130.733 Y90.664 E0.01052
G1 X130.477 Y90.561 E0.00864
G1 X130.134 Y90.311 E0.01328
G1 X129.938 Y90.079 E0.00954
G1 X129.811 Y89.853 E0.00814
G1 X129.727 Y89.614 E0.00792
G1 X129.684 Y89.365 E0.00792
G1 X129.684 Y89.113 E0.00792
G1 X129.727 Y88.863 E0.00792
G1 X129.811 Y88.625 E0.00792
G1 X129.934 Y88.405 E0.00792
G1 X130.093 Y88.208 E0.00792
G1 X130.283 Y88.041 E0.00792
G1 X130.498 Y87.909 E0.00792
G1 X130.754 Y87.806 E0.00865
G1 X131.174 Y87.749 E0.01328
G1 X131.476 Y87.780 E0.00954
G1 X131.724 Y87.856 E0.00814
G1 X131.950 Y87.970 E0.00792
G1 X132.153 Y88.120 E0.00792
G1 X132.328 Y88.303 E0.00792
G1 X132.470 Y88.512 E0.00792
G1 X132.574 Y88.743 E0.00792
G1 X132.637 Y88.987 E0.00792
G1 X132.659 Y89.239 E0.00792
G1 X132.637 Y89.491 E0.00792
G1 X132.574 Y89.735 E0.00792
G1 X132.460 Y89.986 E0.00864
G1 X132.197 Y90.318 E0.01328
G1 X131.956 Y90.505 E0.00954
G1 X131.724 Y90.621 E0.00814
G1 X131.483 Y90.695 E0.00792
G1 X131.232 Y90.727 E0.00792
G1 X131.123 Y90.723 E0.00342
G1 X130.843 Y90.302 F10800.000
;TYPE:External perimeter
G1 F1200.000
G1 X130.661 Y90.228 E0.00617
G1 X130.393 Y90.033 E0.01039
G1 X130.249 Y89.863 E0.00697
G1 X130.156 Y89.697 E0.00599
G1 X130.093 Y89.519 E0.00591
G1 X130.061 Y89.333 E0.00591
G1 X130.061 Y89.145 E0.00591
G1 X130.093 Y88.959 E0.00591
G1 X130.156 Y88.781 E0.00591
G1 X130.248 Y88.616 E0.00591
G1 X130.366 Y88.470 E0.00591
G1 X130.508 Y88.345 E0.00591
G1 X130.669 Y88.246 E0.00591
G1 X130.851 Y88.173 E0.00617
G1 X131.179 Y88.129 E0.01039
G1 X131.401 Y88.152 E0.00697
G1 X131.583 Y88.208 E0.00599
G1 X131.752 Y88.292 E0.00591
G1 X131.903 Y88.405 E0.00591
G1 X132.034 Y88.541 E0.00591
G1 X132.139 Y88.697 E0.00591
G1 X132.217 Y88.869 E0.00591
G1 X132.264 Y89.051 E0.00591
G1 X132.280 Y89.239 E0.00591
G1 X132.264 Y89.427 E0.00591
G1 X132.217 Y89.609 E0.00591
G1 X132.136 Y89.788 E0.00617
G1 X131.930 Y90.048 E0.01039
G1 X131.754 Y90.184 E0.00697
G1 X131.583 Y90.270 E0.00599
G1 X131.403 Y90.325 E0.00591
G1 X131.216 Y90.349 E0.00591
G1 X131.028 Y90.341 E0.00591
G1 X130.902 Y90.314 E0.00403
G1 X130.699 Y90.436 F10800.000
;WIPE_START
G1 F8640.000
G1 X130.661 Y90.228 E-0.05913
G1 X130.393 Y90.033 E-0.07652
G1 X130.249 Y89.863 E-0.05136
G1 X130.156 Y89.697 E-0.04410
G1 X130.093 Y89.519 E-0.04353
G1 X130.061 Y89.333 E-0.04353
G1 X130.061 Y89.145 E-0.04353
G1 X130.093 Y88.959 E-0.04353
G1 X130.156 Y88.781 E-0.04353
G1 X130.248 Y88.616 E-0.04353
G1 X130.366 Y88.470 E-0.04353
G1 X130.508 Y88.345 E-0.04353
G1 X130.669 Y88.246 E-0.04353
G1 X130.851 Y88.173 E-0.04543
G1 X131.179 Y88.129 E-0.07652
G1 X131.401 Y88.152 E-0.05137
G1 X131.583 Y88.208 E-0.04410
G1 X131.752 Y88.292 E-0.04353
G1 X131.903 Y88.405 E-0.04353
G1 X132.034 Y88.541 E-0.04353
G1 X132.139 Y88.697 E-0.04353
G1 X132.217 Y88.869 E-0.04353
G1 X132.264 Y89.051 E-0.04353
G1 X132.280 Y89.239 E-0.04353
G1 X132.264 Y89.427 E-0.04353
G1 X132.217 Y89.609 E-0.04353
G1 X132.136 Y89.788 E-0.04543
G1 X131.994 Y89.966 E-0.05250
;WIPE_END
G1 E-0.07000 F2100.000
G1 Z0.400 F10800.000
G1 X126.960 Y89.986
G1 Z0.200
G1 E1.40000 F2100.000
;TYPE:Perimeter
G1 F1200.000
G1 X126.697 Y90.318 E0.01328
G1 X126.456 Y90.505 E0.00954
G1 X126.224 Y90.621 E0.00814
G1 X125.983 Y90.695 E0.00792
G1 X125.732 Y90.727 E0.00792
G1 X125.480 Y90.717 E0.00792
G1 X125.233 Y90.664 E0.00792
G1 X124.977 Y90.561 E0.00864
G1 X124.634 Y90.311 E0.01328
G1 X124.438 Y90.079 E0.00954
G1 X124.311 Y89.853 E0.00814
G1 X124.227 Y89.614 E0.00792
G1 X124.184 Y89.365 E0.00792
G1 X124.184 Y89.113 E0.00792
G1 X124.227 Y88.863 E0.00792
G1 X124.311 Y88.625 E0.00792
G1 X124.434 Y88.405 E0.00792
G1 X124.593 Y88.208 E0.00792
G1 X124.783 Y88.041 E0.00792
G1 X124.998 Y87.909 E0.00792
G1 X125.254 Y87.806 E0.00865
G1 X125.674 Y87.749 E0.01328
G1 X125.976 Y87.780 E0.00954
G1 X126.224 Y87.856 E0.00814
G1 X126.450 Y87.970 E0.00792
G1 X126.653 Y88.120 E0.00792
G1 X126.828 Y88.303 E0.00792
G1 X126.970 Y88.512 E0.00792
G1 X127.074 Y88.743 E0.00792
G1 X127.137 Y88.987 E0.00792
G1 X127.159 Y89.239 E0.00792
G1 X127.137 Y89.491 E0.00792
G1 X127.074 Y89.735 E0.00792
G1 X126.985 Y89.932 E0.00676
G1 X126.717 Y89.609 F10800.000
;TYPE:External perimeter
G1 F1200.000
G1 X126.636 Y89.788 E0.00617
G1 X126.430 Y90.048 E0.01039
G1 X126.254 Y90.184 E0.00697
G1 X126.083 Y90.270 E0.00599
G1 X125.903 Y90.325 E0.00591
G1 X125.716 Y90.349 E0.00591
G1 X125.528 Y90.341 E0.00591
G1 X125.343 Y90.302 E0.00591
G1 X125.161 Y90.228 E0.00617
G1 X124.893 Y90.033 E0.01039
G1 X124.749 Y89.863 E0.00697
G1 X124.656 Y89.697 E0.00599
G1 X124.593 Y89.519 E0.00591
G1 X124.561 Y89.333 E0.00591
G1 X124.561 Y89.145 E0.00591
G1 X124.593 Y88.959 E0.00591
G1 X124.656 Y88.781 E0.00591
G1 X124.748 Y88.616 E0.00591
G1 X124.866 Y88.470 E0.00591
G1 X125.008 Y88.345 E0.00591
G1 X125.169 Y88.246 E0.00591
G1 X125.351 Y88.173 E0.00617
G1 X125.679 Y88.129 E0.01039
G1 X125.901 Y88.152 E0.00697
G1 X126.083 Y88.208 E0.00599
G1 X126.252 Y88.292 E0.00591
G1 X126.403 Y88.405 E0.00591
G1 X126.534 Y88.541 E0.00591
G1 X126.639 Y88.697 E0.00591
G1 X126.717 Y88.869 E0.00591
G1 X126.764 Y89.051 E0.00591
G1 X126.780 Y89.239 E0.00591
G1 X126.764 Y89.427 E0.00591
G1 X126.732 Y89.551 E0.00403
G1 X126.845 Y89.759 F10800.000
;WIPE_START
G1 F8640.000
G1 X126.636 Y89.788 E-0.05913
G1 X126.430 Y90.048 E-0.07652
G1 X126.254 Y90.184 E-0.05136
G1 X126.083 Y90.270 E-0.04410
G1 X125.903 Y90.325 E-0.04353
G1 X125.716 Y90.349 E-0.04353
G1 X125.528 Y90.341 E-0.04353
G1 X125.343 Y90.302 E-0.04353
G1 X125.161 Y90.228 E-0.04543
G1 X124.893 Y90.033 E-0.07652
G1 X124.749 Y89.863 E-0.05136
G1 X124.656 Y89.697 E-0.04410
G1 X124.593 Y89.519 E-0.04353
G1 X124.561 Y89.333 E-0.04353
G1 X124.561 Y89.145 E-0.04353
G1 X124.593 Y88.959 E-0.04353
G1 X124.656 Y88.781 E-0.04353
G1 X124.748 Y88.616 E-0.04353
G1 X124.866 Y88.470 E-0.04353
G1 X125.008 Y88.345 E-0.04353
G1 X125.169 Y88.246 E-0.04353
