; generated by PrusaSlicer 2.3.0+win64 on 2021-04-22 at 05:59:41 UTC

; 

; external perimeters extrusion width = 0.45mm
; perimeters extrusion width = 0.45mm
; infill extrusion width = 0.45mm
; solid infill extrusion width = 0.45mm
; top infill extrusion width = 0.40mm
; support material extrusion width = 0.35mm
; first layer extrusion width = 0.42mm

M73 P0 R33
M73 Q0 S33
M201 X1000 Y1000 Z200 E5000 ; sets maximum accelerations, mm/sec^2
M203 X200 Y200 Z12 E120 ; sets maximum feedrates, mm/sec
M204 P1250 R1250 T1250 ; sets acceleration (P, T) and retract acceleration (R), mm/sec^2
M205 X8.00 Y8.00 Z0.40 E4.50 ; sets the jerk limits, mm/sec
M205 S0 T0 ; sets the minimum extruding and travel feed rate, mm/sec
M107
;TYPE:Custom
M862.3 P "MK3S" ; printer model check
M862.1 P0.4 ; nozzle diameter check
M115 U3.9.1 ; tell printer latest fw version
G90 ; use absolute coordinates
M83 ; extruder relative mode
M104 S240 ; set extruder temp
M140 S85 ; set bed temp
M190 S85 ; wait for bed temp
M109 S240 ; wait for extruder temp
G28 W ; home all without mesh bed level
G80 ; mesh bed leveling
G1 Y-3.0 F1000.0 ; go outside print area
G92 E0.0
G1 X60.0 E9.0 F1000.0 ; intro line
G1 X100.0 E12.5 F1000.0 ; intro line
G92 E0.0
M221 S95

; Don't change E values below. Excessive value can damage the printer.
M907 E430 ; set extruder motor current
G21 ; set units to millimeters
G90 ; use absolute coordinates
M83 ; use relative distances for extrusion
M900 K0.08 ; Filament gcode LA 1.5
M900 K45 ; Filament gcode LA 1.0
;LAYER_CHANGE
;Z:0.2
;HEIGHT:0.2
;BEFORE_LAYER_CHANGE
G92 E0.0
;0.2


M73 P0 R32
G1 E-1.40000 F2100.000
G1 Z0.200 F10800.000
;AFTER_LAYER_CHANGE
;0.2
G1 Z0.400
G1 X112.641 Y98.700
G1 Z0.200
G1 E1.40000 F2100.000
M204 S1000
;TYPE:Skirt
;WIDTH:0.42
G1 F1200.000
G1 X113.126 Y97.911 E0.02904
G1 X115.461 Y95.486 E0.10556
G1 X117.882 Y93.070 E0.10720
G1 X118.698 Y92.560 E0.03018
G1 X119.627 Y92.362 E0.02980
G1 X128.777 Y92.190 E0.28692
G1 X131.000 Y92.458 E0.07021
G1 X153.992 Y98.856 E0.74830
G1 X154.512 Y99.066 E0.01758
G1 X154.976 Y99.373 E0.01745
G1 X155.389 Y99.793 E0.01848
G1 X155.703 Y100.292 E0.01848
G1 X155.904 Y100.846 E0.01848
G1 X155.983 Y101.430 E0.01848
G1 X155.981 Y112.352 E0.34245
G1 X155.800 Y113.207 E0.02739
G1 X155.360 Y113.962 E0.02739
G1 X154.580 Y114.617 E0.03195
G1 X153.619 Y114.943 E0.03183
G1 X141.994 Y116.477 E0.36766
G1 X129.767 Y117.630 E0.38506
G1 X120.367 Y117.808 E0.29479
G1 X119.499 Y117.631 E0.02777
G1 X118.732 Y117.188 E0.02777
G1 X115.645 Y114.652 E0.12526
G1 X113.293 Y112.432 E0.10141
G1 X112.868 Y111.913 E0.02103
G1 X112.580 Y111.303 E0.02116
G1 X112.442 Y110.473 E0.02638
G1 X112.442 Y99.716 E0.33729
G1 X112.629 Y98.759 E0.03058
G1 X112.991 Y98.840 F10800.000
G1 F1200.000
G1 X113.418 Y98.150 E0.02543
G1 X115.728 Y95.752 E0.10442
G1 X118.127 Y93.357 E0.10628
G1 X118.850 Y92.905 E0.02673
G1 X119.647 Y92.738 E0.02555
G1 X128.776 Y92.567 E0.28626
G1 X130.898 Y92.821 E0.06701
G1 X153.885 Y99.218 E0.74816
M73 Q0 S32
G1 X154.719 Y99.650 E0.02942
G1 X155.082 Y100.013 E0.01609
G1 X155.360 Y100.448 E0.01621
G1 X155.537 Y100.930 E0.01609
G1 X155.606 Y101.442 E0.01621
G1 X155.605 Y112.320 E0.34104
G1 X155.455 Y113.052 E0.02343
G1 X155.084 Y113.704 E0.02355
G1 X154.404 Y114.284 E0.02802
G1 X153.561 Y114.571 E0.02790
G1 X141.951 Y116.103 E0.36717
G1 X129.737 Y117.254 E0.38469
G1 X120.398 Y117.432 E0.29286
G1 X119.650 Y117.285 E0.02390
G1 X118.986 Y116.909 E0.02390
G1 X115.895 Y114.369 E0.12545
G1 X113.564 Y112.170 E0.10050
G1 X113.191 Y111.719 E0.01835
G1 X112.940 Y111.190 E0.01835
G1 X112.819 Y110.468 E0.02296
G1 X112.819 Y99.717 E0.33710
G1 X112.979 Y98.899 E0.02614
;WIPE_START
G1 F8640.000
G1 X113.418 Y98.150 E-0.20032
G1 X115.728 Y95.752 E-0.76896
G1 X116.834 Y94.648 E-0.36073
;WIPE_END
G1 E-0.07000 F2100.000
G1 Z0.400 F10800.000
M73 Q1 S32
G1 X129.097 Y101.333
G1 Z0.200
G1 E1.40000 F2100.000
;TYPE:Support material
M73 P1 R32
G1 F1200.000
G1 X129.097 Y112.047 E0.33592
G1 X129.851 Y112.047 E0.02365
G1 X129.851 Y101.503 E0.33060
G1 X130.605 Y101.503 E0.02365
G1 X130.605 Y112.047 E0.33060
G1 X131.359 Y112.047 E0.02365
G1 X131.359 Y101.503 E0.33060
G1 X132.113 Y101.503 E0.02365
G1 X132.113 Y112.047 E0.33060
G1 X132.868 Y112.047 E0.02365
G1 X132.868 Y101.503 E0.33060
G1 X133.622 Y101.503 E0.02365
G1 X133.622 Y112.217 E0.33592
G1 X135.884 Y112.217 F10800.000
G1 F1200.000
G1 X135.884 Y111.952 E0.00830
G1 X135.384 Y111.394 E0.02351
G1 X135.130 Y111.051 E0.01337
G1 X135.130 Y112.047 E0.03122
G1 X134.376 Y112.047 E0.02365
G1 X134.376 Y109.707 E0.07336
G1 X134.098 Y108.969 E0.02472
G1 X133.948 Y108.410 E0.01815
G1 X133.847 Y107.879 E0.01697
G1 X133.788 Y107.352 E0.01662
G1 X133.765 Y106.779 E0.01799
G1 X133.788 Y106.198 E0.01823
G1 X133.847 Y105.671 E0.01662
G1 X133.948 Y105.140 E0.01697
G1 X134.098 Y104.581 E0.01815
G1 X134.376 Y103.843 E0.02472
G1 X134.376 Y101.503 E0.07336
G1 X135.130 Y101.503 E0.02365
G1 X135.130 Y102.499 E0.03122
G1 X135.384 Y102.156 E0.01337
G1 X135.884 Y101.598 E0.02350
G1 X135.884 Y101.333 E0.00830
;WIPE_START
G1 F8640.000
G1 X135.884 Y101.598 E-0.06110
G1 X135.384 Y102.156 E-0.17310
G1 X135.130 Y102.499 E-0.09846
G1 X135.130 Y101.503 E-0.22994
G1 X134.376 Y101.503 E-0.17414
G1 X134.376 Y103.843 E-0.54025
G1 X134.295 Y104.058 E-0.05301
;WIPE_END
G1 E-0.07000 F2100.000
G1 Z0.400 F10800.000
G1 X139.655 Y105.405
G1 Z0.200
G1 E1.40000 F2100.000
G1 F1200.000
G1 X139.655 Y107.879 E0.07759
G1 X139.840 Y108.098 E0.00898
G1 X140.024 Y108.260 E0.00768
G1 X140.330 Y108.460 E0.01147
G1 X140.409 Y108.603 E0.00512
G1 X140.409 Y104.947 E0.11464
G1 X140.434 Y104.902 E0.00160
G1 X140.448 Y104.355 E0.01716
G1 X140.545 Y104.106 E0.00838
G1 X140.725 Y103.908 E0.00838
G1 X140.964 Y103.789 E0.00839
G1 X141.163 Y103.764 E0.00629
G1 X141.163 Y109.786 E0.18879
G1 X141.362 Y109.761 E0.00629
G1 X141.602 Y109.642 E0.00838
G1 X141.782 Y109.444 E0.00838
G1 X141.879 Y109.195 E0.00838
G1 X141.893 Y108.648 E0.01716
G1 X141.917 Y108.603 E0.00160
G1 X141.917 Y104.947 E0.11464
G1 X141.997 Y105.090 E0.00512
G1 X142.303 Y105.290 E0.01147
G1 X142.487 Y105.452 E0.00768
G1 X142.672 Y105.671 E0.00898
G1 X142.672 Y108.145 E0.07759
;WIPE_START
G1 F8640.000
G1 X142.672 Y105.671 E-0.57137
G1 X142.487 Y105.452 E-0.06614
G1 X142.303 Y105.290 E-0.05659
G1 X141.997 Y105.090 E-0.08444
G1 X141.917 Y104.947 E-0.03772
G1 X141.917 Y107.172 E-0.51375
;WIPE_END
G1 E-0.07000 F2100.000
G1 Z0.400 F10800.000
G1 X146.442 Y111.712
G1 Z0.200
G1 E1.40000 F2100.000
G1 F1200.000
G1 X146.442 Y112.047 E0.01050
G1 X147.197 Y112.047 E0.02365
G1 X147.197 Y111.051 E0.03122
G1 X147.574 Y110.468 E0.02180
G1 X147.825 Y109.993 E0.01684
G1 X147.951 Y109.707 E0.00977
G1 X147.951 Y112.217 E0.07868
G1 X153.230 Y112.217 F10800.000
G1 F1200.000
G1 X153.230 Y101.503 E0.33592
G1 X152.476 Y101.503 E0.02365
G1 X152.476 Y112.047 E0.33060
G1 X151.721 Y112.047 E0.02365
G1 X151.721 Y101.503 E0.33060
G1 X150.967 Y101.503 E0.02365
G1 X150.967 Y112.047 E0.33060
G1 X150.213 Y112.047 E0.02365
G1 X150.213 Y101.503 E0.33060
G1 X149.459 Y101.503 E0.02365
G1 X149.459 Y112.047 E0.33060
G1 X148.705 Y112.047 E0.02365
G1 X148.705 Y101.503 E0.33060
G1 X147.951 Y101.503 E0.02365
G1 X147.951 Y103.843 E0.07336
G1 X147.825 Y103.557 E0.00977
G1 X147.574 Y103.082 E0.01684
G1 X147.197 Y102.499 E0.02180
G1 X147.197 Y101.503 E0.03122
G1 X146.442 Y101.503 E0.02365
G1 X146.442 Y101.838 E0.01050
;WIPE_START
G1 F8640.000
G1 X146.442 Y101.503 E-0.07733
G1 X147.197 Y101.503 E-0.17414
G1 X147.197 Y102.499 E-0.22994
G1 X147.574 Y103.082 E-0.16055
G1 X147.825 Y103.557 E-0.12403
G1 X147.951 Y103.843 E-0.07195
G1 X147.951 Y101.712 E-0.49206
;WIPE_END
G1 E-0.07000 F2100.000
G1 Z0.400 F10800.000
G1 X143.079 Y104.375
G1 Z0.200
G1 E1.40000 F2100.000
;TYPE:Perimeter
G1 F1200.000
G1 X143.329 Y104.593 E0.01043
G1 X143.594 Y104.893 E0.01255
G1 X143.829 Y105.244 E0.01324
G1 X144.001 Y105.593 E0.01219
G1 X144.138 Y106.000 E0.01346
G1 X144.213 Y106.386 E0.01232
G1 X144.238 Y106.775 E0.01223
G1 X144.213 Y107.164 E0.01223
G1 X144.138 Y107.550 E0.01232
G1 X144.001 Y107.957 E0.01346
G1 X143.829 Y108.306 E0.01219
G1 X143.594 Y108.657 E0.01326
G1 X143.325 Y108.961 E0.01271
G1 X143.079 Y109.175 E0.01025
G1 X143.067 Y109.404 E0.00717
G1 X142.966 Y109.759 E0.01159
G1 X142.807 Y110.079 E0.01119
G1 X142.592 Y110.364 E0.01119
G1 X142.328 Y110.604 E0.01119
G1 X142.025 Y110.792 E0.01119
G1 X141.692 Y110.921 E0.01119
G1 X141.342 Y110.986 E0.01119
G1 X140.985 Y110.986 E0.01119
G1 X140.634 Y110.921 E0.01119
G1 X140.301 Y110.792 E0.01119
G1 X139.998 Y110.604 E0.01119
G1 X139.734 Y110.364 E0.01119
G1 X139.519 Y110.079 E0.01119
G1 X139.360 Y109.759 E0.01119
G1 X139.259 Y109.404 E0.01159
G1 X139.248 Y109.175 E0.00717
G1 X138.997 Y108.957 E0.01043
G1 X138.732 Y108.657 E0.01255
G1 X138.497 Y108.306 E0.01324
G1 X138.325 Y107.957 E0.01220
G1 X138.189 Y107.550 E0.01346
G1 X138.114 Y107.164 E0.01232
G1 X138.089 Y106.775 E0.01223
G1 X138.114 Y106.386 E0.01223
G1 X138.189 Y106.000 E0.01232
G1 X138.325 Y105.593 E0.01346
G1 X138.497 Y105.244 E0.01219
G1 X138.733 Y104.893 E0.01326
G1 X139.002 Y104.589 E0.01271
G1 X139.248 Y104.375 E0.01025
G1 X139.259 Y104.146 E0.00717
G1 X139.360 Y103.791 E0.01159
G1 X139.519 Y103.471 E0.01119
G1 X139.734 Y103.186 E0.01119
G1 X139.998 Y102.946 E0.01119
G1 X140.301 Y102.758 E0.01119
G1 X140.634 Y102.629 E0.01119
G1 X140.985 Y102.564 E0.01119
G1 X141.342 Y102.564 E0.01119
G1 X141.692 Y102.629 E0.01119
G1 X142.025 Y102.758 E0.01119
G1 X142.328 Y102.946 E0.01119
G1 X142.592 Y103.186 E0.01119
G1 X142.807 Y103.471 E0.01119
G1 X142.966 Y103.791 E0.01119
G1 X143.067 Y104.146 E0.01159
G1 X143.076 Y104.315 E0.00529
G1 X142.711 Y104.572 F10800.000
;TYPE:External perimeter
G1 F1200.000
G1 X143.063 Y104.861 E0.01428
G1 X143.295 Y105.124 E0.01099
G1 X143.502 Y105.433 E0.01167
G1 X143.652 Y105.737 E0.01061
G1 X143.772 Y106.096 E0.01189
G1 X143.838 Y106.434 E0.01079
G1 X143.860 Y106.775 E0.01072
G1 X143.838 Y107.116 E0.01072
G1 X143.772 Y107.454 E0.01079
G1 X143.652 Y107.813 E0.01189
G1 X143.502 Y108.117 E0.01061
G1 X143.295 Y108.426 E0.01167
G1 X143.059 Y108.692 E0.01116
G1 X142.711 Y108.978 E0.01411
G1 X142.693 Y109.342 E0.01145
G1 X142.613 Y109.623 E0.00914
G1 X142.485 Y109.879 E0.00900
G1 X142.312 Y110.108 E0.00900
G1 X142.100 Y110.302 E0.00900
G1 X141.856 Y110.453 E0.00900
G1 X141.589 Y110.556 E0.00900
G1 X141.307 Y110.609 E0.00900
G1 X141.020 Y110.609 E0.00900
G1 X140.738 Y110.556 E0.00900
G1 X140.470 Y110.453 E0.00900
G1 X140.226 Y110.302 E0.00900
G1 X140.014 Y110.108 E0.00900
G1 X139.841 Y109.879 E0.00900
G1 X139.713 Y109.623 E0.00900
G1 X139.634 Y109.342 E0.00914
G1 X139.616 Y108.978 E0.01145
G1 X139.264 Y108.689 E0.01428
G1 X139.032 Y108.426 E0.01099
G1 X138.824 Y108.117 E0.01167
G1 X138.675 Y107.813 E0.01061
G1 X138.554 Y107.454 E0.01189
G1 X138.489 Y107.116 E0.01079
G1 X138.467 Y106.775 E0.01072
G1 X138.489 Y106.434 E0.01072
G1 X138.554 Y106.096 E0.01079
G1 X138.675 Y105.737 E0.01189
G1 X138.824 Y105.433 E0.01061
G1 X139.032 Y105.124 E0.01167
G1 X139.268 Y104.858 E0.01116
G1 X139.616 Y104.572 E0.01411
G1 X139.634 Y104.208 E0.01145
G1 X139.713 Y103.927 E0.00914
G1 X139.841 Y103.671 E0.00900
G1 X140.014 Y103.442 E0.00900
G1 X140.226 Y103.248 E0.00900
G1 X140.470 Y103.097 E0.00900
G1 X140.738 Y102.994 E0.00900
G1 X141.020 Y102.941 E0.00900
G1 X141.307 Y102.941 E0.00900
G1 X141.589 Y102.994 E0.00900
G1 X141.856 Y103.097 E0.00900
G1 X142.100 Y103.248 E0.00900
G1 X142.312 Y103.442 E0.00900
G1 X142.485 Y103.671 E0.00900
G1 X142.613 Y103.927 E0.00900
G1 X142.693 Y104.208 E0.00914
G1 X142.708 Y104.512 E0.00957
G1 X143.108 Y104.526 F10800.000
;WIPE_START
G1 F8640.000
G1 X143.063 Y104.861 E-0.11495
G1 X143.295 Y105.124 E-0.08095
G1 X143.502 Y105.433 E-0.08592
G1 X143.652 Y105.737 E-0.07815
G1 X143.772 Y106.096 E-0.08753
G1 X143.838 Y106.434 E-0.07945
G1 X143.860 Y106.775 E-0.07892
G1 X143.838 Y107.116 E-0.07892
G1 X143.772 Y107.454 E-0.07945
G1 X143.652 Y107.813 E-0.08753
G1 X143.502 Y108.117 E-0.07815
G1 X143.295 Y108.426 E-0.08597
G1 X143.059 Y108.692 E-0.08218
G1 X142.711 Y108.978 E-0.10389
G1 X142.693 Y109.342 E-0.08430
G1 X142.641 Y109.525 E-0.04376
;WIPE_END
G1 E-0.07000 F2100.000
G1 Z0.400 F10800.000
G1 X144.760 Y101.732
G1 Z0.200
G1 E1.40000 F2100.000
;TYPE:Perimeter
G1 F1200.000
G1 X145.027 Y101.930 E0.01043
G1 X145.379 Y102.232 E0.01453
G1 X145.706 Y102.560 E0.01453
G1 X146.009 Y102.911 E0.01453
G1 X146.284 Y103.284 E0.01453
G1 X146.530 Y103.676 E0.01453
G1 X146.747 Y104.086 E0.01453
G1 X146.933 Y104.511 E0.01455
G1 X147.086 Y104.950 E0.01456
G1 X147.206 Y105.397 E0.01451
G1 X147.291 Y105.848 E0.01440
G1 X147.343 Y106.312 E0.01465
G1 X147.361 Y106.775 E0.01452
G1 X147.343 Y107.238 E0.01452
G1 X147.291 Y107.702 E0.01465
G1 X147.206 Y108.153 E0.01440
G1 X147.086 Y108.600 E0.01451
G1 X146.933 Y109.039 E0.01456
G1 X146.747 Y109.464 E0.01455
G1 X146.530 Y109.874 E0.01453
G1 X146.284 Y110.266 E0.01453
G1 X146.009 Y110.639 E0.01453
G1 X145.706 Y110.990 E0.01453
G1 X145.379 Y111.318 E0.01453
G1 X145.027 Y111.620 E0.01453
G1 X144.654 Y111.896 E0.01453
G1 X144.262 Y112.142 E0.01453
G1 X143.852 Y112.359 E0.01453
G1 X143.427 Y112.544 E0.01453
G1 X142.990 Y112.697 E0.01453
G1 X142.542 Y112.817 E0.01453
G1 X142.087 Y112.903 E0.01453
G1 X141.626 Y112.955 E0.01453
G1 X141.163 Y112.972 E0.01453
G1 X140.700 Y112.955 E0.01453
G1 X140.240 Y112.903 E0.01453
G1 X139.784 Y112.817 E0.01453
G1 X139.337 Y112.697 E0.01453
G1 X138.899 Y112.544 E0.01453
G1 X138.474 Y112.359 E0.01453
G1 X138.065 Y112.142 E0.01453
G1 X137.672 Y111.896 E0.01453
G1 X137.299 Y111.620 E0.01453
G1 X136.948 Y111.318 E0.01453
G1 X136.620 Y110.990 E0.01453
G1 X136.318 Y110.639 E0.01453
G1 X136.043 Y110.266 E0.01453
G1 X135.796 Y109.874 E0.01453
G1 X135.580 Y109.464 E0.01453
G1 X135.394 Y109.039 E0.01455
G1 X135.241 Y108.600 E0.01456
G1 X135.121 Y108.153 E0.01451
G1 X135.036 Y107.702 E0.01440
G1 X134.983 Y107.238 E0.01465
G1 X134.966 Y106.775 E0.01452
G1 X134.983 Y106.312 E0.01452
G1 X135.036 Y105.848 E0.01465
G1 X135.121 Y105.397 E0.01440
G1 X135.241 Y104.950 E0.01451
G1 X135.394 Y104.511 E0.01456
G1 X135.580 Y104.086 E0.01455
G1 X135.796 Y103.676 E0.01453
G1 X136.043 Y103.284 E0.01453
G1 X136.318 Y102.911 E0.01453
G1 X136.620 Y102.560 E0.01453
G1 X136.948 Y102.232 E0.01453
G1 X137.299 Y101.930 E0.01453
G1 X137.672 Y101.655 E0.01453
G1 X138.065 Y101.408 E0.01453
G1 X138.474 Y101.191 E0.01453
G1 X138.899 Y101.006 E0.01453
G1 X139.337 Y100.853 E0.01453
G1 X139.784 Y100.733 E0.01453
G1 X140.240 Y100.647 E0.01453
G1 X140.700 Y100.595 E0.01453
G1 X141.163 Y100.578 E0.01453
G1 X141.626 Y100.595 E0.01453
G1 X142.087 Y100.647 E0.01453
G1 X142.542 Y100.733 E0.01453
G1 X142.990 Y100.853 E0.01453
G1 X143.427 Y101.006 E0.01453
G1 X143.852 Y101.191 E0.01453
G1 X144.262 Y101.408 E0.01453
G1 X144.711 Y101.697 E0.01675
G1 X144.935 Y101.393 F10800.000
;TYPE:External perimeter
G1 F1200.000
G1 X145.263 Y101.635 E0.01275
G1 X145.635 Y101.955 E0.01542
G1 X145.983 Y102.303 E0.01542
G1 X146.304 Y102.676 E0.01542
G1 X146.596 Y103.071 E0.01542
G1 X146.857 Y103.488 E0.01542
G1 X147.087 Y103.922 E0.01542
G1 X147.284 Y104.374 E0.01543
G1 X147.446 Y104.839 E0.01545
G1 X147.573 Y105.313 E0.01539
G1 X147.664 Y105.791 E0.01528
G1 X147.720 Y106.284 E0.01554
G1 X147.738 Y106.775 E0.01541
G1 X147.720 Y107.266 E0.01541
G1 X147.664 Y107.759 E0.01554
G1 X147.573 Y108.237 E0.01528
G1 X147.446 Y108.711 E0.01539
G1 X147.284 Y109.176 E0.01544
G1 X147.087 Y109.628 E0.01544
G1 X146.857 Y110.062 E0.01542
G1 X146.596 Y110.479 E0.01542
G1 X146.304 Y110.874 E0.01542
G1 X145.983 Y111.247 E0.01542
G1 X145.635 Y111.595 E0.01542
G1 X145.263 Y111.915 E0.01542
G1 X144.867 Y112.207 E0.01542
G1 X144.451 Y112.469 E0.01542
G1 X144.016 Y112.699 E0.01542
G1 X143.565 Y112.895 E0.01542
G1 X143.101 Y113.058 E0.01542
G1 X142.626 Y113.185 E0.01542
G1 X142.143 Y113.276 E0.01542
G1 X141.655 Y113.331 E0.01542
G1 X141.163 Y113.350 E0.01542
G1 X140.672 Y113.331 E0.01542
G1 X140.183 Y113.276 E0.01542
G1 X139.700 Y113.185 E0.01542
G1 X139.225 Y113.058 E0.01542
G1 X138.761 Y112.895 E0.01542
G1 X138.311 Y112.699 E0.01542
