; generated by PrusaSlicer 2.3.0+win64 on 2021-04-22 at 05:21:35 UTC

; 

; external perimeters extrusion width = 0.45mm
; perimeters extrusion width = 0.45mm
; infill extrusion width = 0.45mm
; solid infill extrusion width = 0.45mm
; top infill extrusion width = 0.40mm
; first layer extrusion width = 0.42mm

M73 P0 R24
M73 Q0 S25
M201 X1000 Y1000 Z200 E5000 ; sets maximum accelerations, mm/sec^2
M203 X200 Y200 Z12 E120 ; sets maximum feedrates, mm/sec
M204 P1250 R1250 T1250 ; sets acceleration (P, T) and retract acceleration (R), mm/sec^2
M205 X8.00 Y8.00 Z0.40 E4.50 ; sets the jerk limits, mm/sec
M205 S0 T0 ; sets the minimum extruding and travel feed rate, mm/sec
M107
;TYPE:Custom
M862.3 P "MK3S" ; printer model check
M862.1 P0.4 ; nozzle diameter check
M115 U3.9.1 ; tell printer latest fw version
G90 ; use absolute coordinates
M83 ; extruder relative mode
M104 S240 ; set extruder temp
M140 S85 ; set bed temp
M190 S85 ; wait for bed temp
M109 S240 ; wait for extruder temp
G28 W ; home all without mesh bed level
G80 ; mesh bed leveling
G1 Y-3.0 F1000.0 ; go outside print area
G92 E0.0
G1 X60.0 E9.0 F1000.0 ; intro line
G1 X100.0 E12.5 F1000.0 ; intro line
G92 E0.0
M221 S95

; Don't change E values below. Excessive value can damage the printer.
M907 E430 ; set extruder motor current
G21 ; set units to millimeters
G90 ; use absolute coordinates
M83 ; use relative distances for extrusion
M900 K0.08 ; Filament gcode LA 1.5
M900 K45 ; Filament gcode LA 1.0
;LAYER_CHANGE
;Z:0.2
;HEIGHT:0.2
;BEFORE_LAYER_CHANGE
G92 E0.0
;0.2


M73 Q0 S24
G1 E-1.40000 F2100.000
G1 Z0.200 F10800.000
;AFTER_LAYER_CHANGE
;0.2
G1 Z0.400
G1 X120.249 Y100.522
G1 Z0.200
G1 E1.40000 F2100.000
M204 S1000
;TYPE:Skirt
;WIDTH:0.42
G1 F1200.000
G1 X121.205 Y99.687 E0.03981
G1 X122.227 Y99.089 E0.03712
G1 X123.360 Y98.680 E0.03776
G1 X137.206 Y95.102 E0.44838
G1 X138.472 Y94.858 E0.04043
G1 X139.795 Y94.786 E0.04155
G1 X141.209 Y94.908 E0.04450
G1 X142.632 Y95.248 E0.04589
G1 X144.362 Y95.992 E0.05905
G1 X145.575 Y96.782 E0.04539
G1 X146.623 Y97.708 E0.04385
G1 X147.555 Y98.814 E0.04534
G1 X148.507 Y100.440 E0.05910
G1 X149.012 Y101.781 E0.04493
G1 X149.311 Y103.165 E0.04439
G1 X149.403 Y104.674 E0.04738
G1 X149.213 Y106.448 E0.05594
G1 X148.811 Y107.876 E0.04653
G1 X148.236 Y109.151 E0.04386
G1 X147.455 Y110.370 E0.04538
G1 X146.187 Y111.757 E0.05892
G1 X145.084 Y112.616 E0.04384
G1 X143.751 Y113.364 E0.04790
G1 X141.881 Y114.008 E0.06204
G1 X139.926 Y114.259 E0.06180
G1 X138.396 Y114.179 E0.04802
G1 X123.298 Y111.303 E0.48193
G1 X122.217 Y110.906 E0.03610
G1 X121.209 Y110.316 E0.03661
G1 X120.468 Y109.699 E0.03022
G1 X119.687 Y108.795 E0.03748
G1 X119.080 Y107.754 E0.03776
G1 X118.657 Y106.544 E0.04019
G1 X118.472 Y105.082 E0.04621
G1 X118.575 Y103.842 E0.03904
G1 X118.923 Y102.612 E0.04007
G1 X119.485 Y101.505 E0.03891
G1 X120.212 Y100.569 E0.03716
G1 X119.982 Y101.442 F10800.000
G1 F1200.000
G1 X120.773 Y100.530 E0.03785
G1 X121.670 Y99.828 E0.03571
G1 X122.434 Y99.409 E0.02732
G1 X123.420 Y99.055 E0.03285
G1 X137.248 Y95.480 E0.44782
G1 X138.513 Y95.233 E0.04041
G1 X139.794 Y95.163 E0.04022
G1 X141.148 Y95.280 E0.04260
G1 X142.510 Y95.605 E0.04391
G1 X144.185 Y96.325 E0.05718
G1 X145.349 Y97.083 E0.04355
G1 X146.350 Y97.968 E0.04189
G1 X147.246 Y99.030 E0.04356
G1 X148.169 Y100.607 E0.05729
G1 X148.655 Y101.906 E0.04350
G1 X148.937 Y103.219 E0.04211
G1 X149.026 Y104.668 E0.04550
G1 X148.842 Y106.380 E0.05401
G1 X148.452 Y107.759 E0.04492
G1 X147.903 Y108.974 E0.04182
G1 X147.151 Y110.147 E0.04368
G1 X145.919 Y111.491 E0.05717
G1 X144.817 Y112.342 E0.04367
G1 X143.127 Y113.222 E0.05973
G1 X141.725 Y113.656 E0.04599
G1 X139.834 Y113.884 E0.05974
G1 X137.949 Y113.726 E0.05932
G1 X123.156 Y110.869 E0.47240
M73 P1 R24
M73 Q1 S24
G1 X122.314 Y110.534 E0.02842
G1 X121.340 Y109.944 E0.03568
G1 X120.514 Y109.210 E0.03464
G1 X119.828 Y108.330 E0.03500
G1 X119.282 Y107.270 E0.03738
G1 X118.957 Y106.151 E0.03654
G1 X118.848 Y104.987 E0.03666
G1 X118.969 Y103.790 E0.03773
G1 X119.309 Y102.666 E0.03680
G1 X119.953 Y101.494 E0.04194
;WIPE_START
G1 F8640.000
G1 X120.773 Y100.530 E-0.29229
G1 X121.670 Y99.828 E-0.26298
G1 X122.434 Y99.409 E-0.20120
G1 X123.420 Y99.055 E-0.24195
G1 X124.810 Y98.695 E-0.33158
;WIPE_END
G1 E-0.07000 F2100.000
G1 Z0.400 F10800.000
G1 X123.108 Y103.710
G1 Z0.200
G1 E1.40000 F2100.000
;TYPE:Perimeter
G1 F1200.000
G1 X123.401 Y103.360 E0.01430
G1 X123.757 Y103.076 E0.01430
G1 X124.163 Y102.868 E0.01430
G1 X124.602 Y102.745 E0.01428
G1 X125.023 Y102.712 E0.01326
G1 X125.297 Y102.730 E0.00859
G1 X125.729 Y102.829 E0.01392
G1 X126.145 Y103.017 E0.01430
G1 X126.515 Y103.283 E0.01430
G1 X126.826 Y103.617 E0.01430
G1 X127.063 Y104.006 E0.01430
G1 X127.219 Y104.435 E0.01430
G1 X127.287 Y104.886 E0.01430
G1 X127.265 Y105.341 E0.01430
G1 X127.152 Y105.783 E0.01430
G1 X126.954 Y106.194 E0.01430
G1 X126.679 Y106.558 E0.01430
G1 X126.337 Y106.860 E0.01430
G1 X125.942 Y107.088 E0.01430
G1 X125.510 Y107.233 E0.01430
G1 X125.057 Y107.290 E0.01430
G1 X124.602 Y107.255 E0.01430
G1 X124.163 Y107.132 E0.01430
G1 X123.757 Y106.924 E0.01430
G1 X123.401 Y106.640 E0.01430
G1 X123.108 Y106.290 E0.01430
G1 X122.890 Y105.890 E0.01430
G1 X122.755 Y105.454 E0.01430
G1 X122.710 Y105.000 E0.01430
G1 X122.755 Y104.546 E0.01430
G1 X122.890 Y104.110 E0.01430
G1 X123.079 Y103.763 E0.01242
G1 X123.410 Y103.943 F10800.000
;TYPE:External perimeter
G1 F1200.000
G1 X123.665 Y103.632 E0.01262
G1 X123.963 Y103.394 E0.01193
G1 X124.302 Y103.221 E0.01193
G1 X124.668 Y103.118 E0.01193
G1 X125.025 Y103.090 E0.01124
G1 X125.242 Y103.105 E0.00681
G1 X125.609 Y103.188 E0.01180
G1 X125.956 Y103.345 E0.01193
G1 X126.265 Y103.567 E0.01193
G1 X126.524 Y103.846 E0.01193
G1 X126.722 Y104.171 E0.01193
G1 X126.852 Y104.528 E0.01193
G1 X126.909 Y104.905 E0.01193
G1 X126.890 Y105.285 E0.01193
G1 X126.796 Y105.654 E0.01193
G1 X126.631 Y105.997 E0.01193
G1 X126.401 Y106.300 E0.01193
G1 X126.116 Y106.552 E0.01193
G1 X125.786 Y106.742 E0.01193
G1 X125.425 Y106.863 E0.01193
G1 X125.048 Y106.911 E0.01193
G1 X124.668 Y106.882 E0.01193
G1 X124.302 Y106.779 E0.01193
G1 X123.963 Y106.606 E0.01193
G1 X123.665 Y106.368 E0.01193
G1 X123.421 Y106.077 E0.01193
G1 X123.239 Y105.742 E0.01193
G1 X123.127 Y105.379 E0.01193
G1 X123.089 Y105.000 E0.01193
G1 X123.127 Y104.621 E0.01193
G1 X123.239 Y104.258 E0.01193
G1 X123.381 Y103.996 E0.00935
G1 X123.234 Y103.584 F10800.000
;WIPE_START
G1 F8640.000
G1 X123.665 Y103.632 E-0.10657
G1 X123.963 Y103.394 E-0.08788
G1 X124.302 Y103.221 E-0.08788
G1 X124.668 Y103.118 E-0.08782
G1 X125.025 Y103.090 E-0.08278
G1 X125.242 Y103.105 E-0.05013
G1 X125.609 Y103.188 E-0.08687
G1 X125.956 Y103.345 E-0.08788
G1 X126.265 Y103.567 E-0.08788
G1 X126.524 Y103.846 E-0.08788
G1 X126.722 Y104.171 E-0.08788
G1 X126.852 Y104.528 E-0.08788
G1 X126.909 Y104.905 E-0.08788
G1 X126.890 Y105.285 E-0.08788
G1 X126.796 Y105.654 E-0.08788
G1 X126.727 Y105.798 E-0.03699
;WIPE_END
G1 E-0.07000 F2100.000
G1 Z0.400 F10800.000
G1 X122.473 Y103.407
G1 Z0.200
G1 E1.40000 F2100.000
;TYPE:Perimeter
G1 F1200.000
G1 X122.699 Y103.096 E0.01205
G1 X123.090 Y102.703 E0.01740
G1 X123.553 Y102.387 E0.01756
G1 X124.070 Y102.161 E0.01769
G1 X124.440 Y102.066 E0.01198
G1 X124.821 Y102.018 E0.01205
G1 X125.374 Y102.037 E0.01734
G1 X125.743 Y102.107 E0.01176
G1 X126.108 Y102.226 E0.01205
G1 X126.431 Y102.378 E0.01118
G1 X126.897 Y102.692 E0.01763
G1 X127.177 Y102.955 E0.01205
G1 X127.422 Y103.252 E0.01205
G1 X127.613 Y103.553 E0.01118
G1 X127.777 Y103.901 E0.01205
G1 X127.896 Y104.266 E0.01205
G1 X127.963 Y104.616 E0.01118
G1 X127.987 Y105.009 E0.01234
G1 X127.933 Y105.569 E0.01762
G1 X127.774 Y106.108 E0.01763
G1 X127.522 Y106.600 E0.01734
G1 X127.184 Y107.038 E0.01734
G1 X126.904 Y107.301 E0.01205
G1 X126.593 Y107.527 E0.01205
G1 X126.099 Y107.777 E0.01734
G1 X125.560 Y107.935 E0.01763
G1 X124.991 Y107.987 E0.01792
G1 X124.431 Y107.933 E0.01762
G1 X123.892 Y107.774 E0.01763
G1 X123.392 Y107.517 E0.01763
G1 X122.956 Y107.177 E0.01735
G1 X122.699 Y106.904 E0.01176
G1 X122.473 Y106.593 E0.01205
G1 X122.219 Y106.091 E0.01763
G1 X122.066 Y105.560 E0.01734
G1 X122.013 Y105.009 E0.01734
G1 X122.064 Y104.449 E0.01763
G1 X122.219 Y103.909 E0.01763
G1 X122.442 Y103.459 E0.01575
G1 X122.118 Y103.267 F10800.000
;TYPE:External perimeter
G1 F1200.000
G1 X122.408 Y102.855 E0.01578
G1 X122.699 Y102.545 E0.01335
G1 X122.855 Y102.408 E0.00649
G1 X123.200 Y102.157 E0.01338
G1 X123.376 Y102.053 E0.00642
G1 X123.764 Y101.870 E0.01345
G1 X123.959 Y101.800 E0.00649
G1 X124.370 Y101.695 E0.01328
G1 X124.792 Y101.642 E0.01335
G1 X124.999 Y101.635 E0.00649
G1 X125.422 Y101.662 E0.01328
G1 X125.837 Y101.741 E0.01325
G1 X126.242 Y101.873 E0.01335
G1 X126.618 Y102.050 E0.01304
G1 X126.980 Y102.280 E0.01346
G1 X127.142 Y102.405 E0.00642
G1 X127.453 Y102.697 E0.01335
G1 X127.724 Y103.025 E0.01335
G1 X127.947 Y103.376 E0.01304
G1 X128.128 Y103.761 E0.01335
G1 X128.260 Y104.166 E0.01335
G1 X128.338 Y104.575 E0.01304
G1 X128.365 Y105.003 E0.01346
G1 X128.358 Y105.208 E0.00642
G1 X128.304 Y105.634 E0.01345
G1 X128.259 Y105.836 E0.00649
G1 X128.127 Y106.242 E0.01338
G1 X128.045 Y106.432 E0.00649
G1 X127.841 Y106.803 E0.01328
G1 X127.590 Y107.147 E0.01335
G1 X127.455 Y107.301 E0.00642
G1 X127.145 Y107.592 E0.01335
G1 X126.800 Y107.843 E0.01335
G1 X126.624 Y107.947 E0.00642
G1 X126.239 Y108.128 E0.01335
G1 X125.834 Y108.260 E0.01335
G1 X125.630 Y108.305 E0.00652
G1 X125.425 Y108.338 E0.00652
G1 X124.997 Y108.365 E0.01346
G1 X124.792 Y108.358 E0.00642
G1 X124.366 Y108.304 E0.01345
G1 X124.164 Y108.259 E0.00649
G1 X123.758 Y108.127 E0.01338
G1 X123.568 Y108.045 E0.00649
G1 X123.194 Y107.839 E0.01338
G1 X123.023 Y107.723 E0.00649
G1 X122.697 Y107.453 E0.01328
G1 X122.408 Y107.145 E0.01325
G1 X122.157 Y106.800 E0.01335
G1 X122.053 Y106.624 E0.00642
G1 X121.870 Y106.236 E0.01346
G1 X121.801 Y106.043 E0.00642
G1 X121.695 Y105.630 E0.01335
G1 X121.642 Y105.208 E0.01335
G1 X121.635 Y105.003 E0.00642
G1 X121.662 Y104.575 E0.01346
G1 X121.694 Y104.373 E0.00642
G1 X121.801 Y103.957 E0.01346
G1 X121.870 Y103.764 E0.00642
G1 X122.087 Y103.318 E0.01555
G1 X122.518 Y103.278 F10800.000
G1 X122.564 Y103.990
;TYPE:Gap fill
;WIDTH:0.362219
G1 F1200.000
G1 X122.813 Y103.528 E0.01394
G1 X123.170 Y103.101 E0.01477
G1 X123.582 Y102.775 E0.01395
G1 X124.042 Y102.541 E0.01370
G1 X124.525 Y102.405 E0.01333
G1 X125.010 Y102.363 E0.01291
G1 X125.359 Y102.388 E0.00931
G1 X125.655 Y102.450 E0.00801
G1 X125.983 Y102.556 E0.00917
G1 X126.332 Y102.725 E0.01027
G1 X126.756 Y103.034 E0.01394
G1 X127.112 Y103.420 E0.01394
G1 X127.381 Y103.871 E0.01393
G1 X127.560 Y104.358 E0.01378
G1 X127.633 Y104.884 E0.01411
G1 X127.604 Y105.408 E0.01394
G1 X127.472 Y105.917 E0.01394
G1 X127.242 Y106.389 E0.01394
G1 X126.934 Y106.796 E0.01356
G1 X126.526 Y107.149 E0.01433
G1 X126.070 Y107.409 E0.01394
G1 X125.572 Y107.576 E0.01395
G1 X125.050 Y107.636 E0.01394
G1 X124.526 Y107.595 E0.01394
G1 X124.021 Y107.450 E0.01395
G1 X123.574 Y107.220 E0.01335
G1 X123.170 Y106.899 E0.01371
G1 X122.813 Y106.472 E0.01477
G1 X122.564 Y106.010 E0.01394
G1 X122.411 Y105.507 E0.01395
G1 X122.361 Y105.015 E0.01314
G1 X122.411 Y104.493 E0.01392
G1 X122.542 Y104.046 E0.01236
;WIPE_START
G1 F8640.000
G1 X122.813 Y103.528 E-0.13501
G1 X123.170 Y103.101 E-0.12847
G1 X123.582 Y102.775 E-0.12130
G1 X124.042 Y102.541 E-0.11918
G1 X124.525 Y102.405 E-0.11597
G1 X125.010 Y102.363 E-0.11224
G1 X125.359 Y102.388 E-0.08095
G1 X125.655 Y102.450 E-0.06966
G1 X125.983 Y102.556 E-0.07977
G1 X126.332 Y102.725 E-0.08933
G1 X126.756 Y103.034 E-0.12121
G1 X127.112 Y103.420 E-0.12126
G1 X127.191 Y103.553 E-0.03566
;WIPE_END
G1 E-0.07000 F2100.000
G1 Z0.400 F10800.000
G1 X137.750 Y102.125
G1 Z0.200
G1 E1.40000 F2100.000
;TYPE:Perimeter
;WIDTH:0.42
G1 F1200.000
G1 X137.760 Y101.914 E0.00663
G1 X137.850 Y101.577 E0.01095
G1 X137.993 Y101.271 E0.01057
G1 X138.186 Y100.995 E0.01057
G1 X138.424 Y100.757 E0.01057
G1 X138.700 Y100.564 E0.01057
G1 X139.006 Y100.421 E0.01057
G1 X139.331 Y100.334 E0.01057
G1 X139.638 Y100.307 E0.00967
G1 X139.998 Y100.333 E0.01130
G1 X140.328 Y100.421 E0.01071
G1 X140.633 Y100.564 E0.01057
G1 X140.909 Y100.757 E0.01057
G1 X141.148 Y100.995 E0.01057
G1 X141.341 Y101.271 E0.01057
G1 X141.483 Y101.577 E0.01057
G1 X141.574 Y101.914 E0.01095
G1 X141.583 Y102.125 E0.00663
G1 X141.801 Y102.311 E0.00899
G1 X142.056 Y102.590 E0.01183
G1 X142.277 Y102.900 E0.01196
G1 X142.461 Y103.242 E0.01218
G1 X142.594 Y103.584 E0.01148
G1 X142.685 Y103.944 E0.01164
G1 X142.736 Y104.348 E0.01277
G1 X142.735 Y104.720 E0.01167
G1 X142.690 Y105.085 E0.01151
G1 X142.594 Y105.463 E0.01224
G1 X142.461 Y105.805 E0.01150
G1 X142.277 Y106.147 E0.01218
G1 X142.056 Y106.458 E0.01195
G1 X141.801 Y106.736 E0.01184
G1 X141.583 Y106.922 E0.00899
G1 X141.574 Y107.133 E0.00663
G1 X141.483 Y107.471 E0.01095
G1 X141.341 Y107.776 E0.01057
G1 X141.148 Y108.052 E0.01057
G1 X140.909 Y108.291 E0.01057
G1 X140.633 Y108.484 E0.01057
G1 X140.328 Y108.626 E0.01057
G1 X140.002 Y108.713 E0.01056
G1 X139.667 Y108.743 E0.01057
G1 X139.331 Y108.713 E0.01057
G1 X139.006 Y108.626 E0.01056
G1 X138.700 Y108.484 E0.01057
G1 X138.424 Y108.291 E0.01057
G1 X138.186 Y108.052 E0.01057
G1 X137.993 Y107.776 E0.01057
G1 X137.850 Y107.471 E0.01057
G1 X137.760 Y107.133 E0.01095
G1 X137.750 Y106.922 E0.00663
G1 X137.532 Y106.736 E0.00899
G1 X137.277 Y106.458 E0.01183
G1 X137.056 Y106.147 E0.01196
G1 X136.872 Y105.805 E0.01218
G1 X136.740 Y105.464 E0.01148
G1 X136.648 Y105.104 E0.01164
G1 X136.598 Y104.700 E0.01277
G1 X136.599 Y104.327 E0.01167
G1 X136.644 Y103.963 E0.01151
G1 X136.740 Y103.585 E0.01224
G1 X136.872 Y103.242 E0.01150
G1 X137.056 Y102.900 E0.01218
G1 X137.277 Y102.590 E0.01195
G1 X137.532 Y102.311 E0.01184
G1 X137.705 Y102.164 E0.00711
G1 X138.119 Y102.320 F10800.000
;TYPE:External perimeter
G1 F1200.000
G1 X138.135 Y101.972 E0.01093
G1 X138.206 Y101.706 E0.00864
G1 X138.320 Y101.460 E0.00850
G1 X138.476 Y101.239 E0.00850
G1 X138.668 Y101.047 E0.00850
G1 X138.889 Y100.891 E0.00850
G1 X139.135 Y100.777 E0.00850
G1 X139.397 Y100.707 E0.00850
G1 X139.641 Y100.685 E0.00770
G1 X139.935 Y100.706 E0.00923
G1 X140.198 Y100.777 E0.00855
G1 X140.444 Y100.891 E0.00850
G1 X140.666 Y101.047 E0.00850
G1 X140.858 Y101.239 E0.00850
G1 X141.013 Y101.460 E0.00850
G1 X141.128 Y101.706 E0.00850
G1 X141.199 Y101.972 E0.00864
G1 X141.215 Y102.320 E0.01093
G1 X141.539 Y102.583 E0.01308
G1 X141.763 Y102.827 E0.01038
G1 X141.957 Y103.100 E0.01049
G1 X142.118 Y103.400 E0.01071
G1 X142.234 Y103.699 E0.01004
G1 X142.314 Y104.014 E0.01019
G1 X142.359 Y104.371 E0.01128
G1 X142.358 Y104.696 E0.01021
G1 X142.318 Y105.015 E0.01006
G1 X142.234 Y105.348 E0.01078
G1 X142.118 Y105.647 E0.01005
G1 X141.957 Y105.948 E0.01071
G1 X141.763 Y106.220 E0.01048
G1 X141.539 Y106.464 E0.01039
G1 X141.215 Y106.727 E0.01308
G1 X141.199 Y107.075 E0.01093
G1 X141.128 Y107.341 E0.00864
G1 X141.013 Y107.587 E0.00850
G1 X140.858 Y107.809 E0.00850
G1 X140.666 Y108.001 E0.00850
G1 X140.444 Y108.156 E0.00850
G1 X140.198 Y108.271 E0.00850
G1 X139.937 Y108.341 E0.00850
G1 X139.667 Y108.364 E0.00850
G1 X139.397 Y108.341 E0.00850
G1 X139.135 Y108.271 E0.00850
G1 X138.889 Y108.156 E0.00850
G1 X138.668 Y108.001 E0.00850
G1 X138.476 Y107.809 E0.00850
G1 X138.320 Y107.587 E0.00850
G1 X138.206 Y107.341 E0.00850
G1 X138.135 Y107.075 E0.00864
G1 X138.119 Y106.727 E0.01093
G1 X137.795 Y106.464 E0.01308
G1 X137.571 Y106.220 E0.01038
G1 X137.377 Y105.948 E0.01049
G1 X137.215 Y105.647 E0.01071
G1 X137.100 Y105.349 E0.01004
G1 X137.019 Y105.034 E0.01019
G1 X136.975 Y104.677 E0.01128
G1 X136.976 Y104.351 E0.01021
G1 X137.015 Y104.033 E0.01006
G1 X137.099 Y103.699 E0.01078
G1 X137.215 Y103.400 E0.01005
G1 X137.377 Y103.100 E0.01071
G1 X137.571 Y102.827 E0.01048
G1 X137.795 Y102.583 E0.01039
G1 X138.069 Y102.354 E0.01121
G1 X137.883 Y102.063 F10800.000
;WIPE_START
G1 F8640.000
G1 X138.135 Y101.972 E-0.08938
G1 X138.206 Y101.706 E-0.06359
G1 X138.320 Y101.460 E-0.06257
G1 X138.476 Y101.239 E-0.06257
G1 X138.668 Y101.047 E-0.06257
