; generated by PrusaSlicer 2.3.0+win64 on 2021-09-14 at 07:00:18 UTC

; 

; external perimeters extrusion width = 0.60mm
; perimeters extrusion width = 0.50mm
; infill extrusion width = 0.50mm
; solid infill extrusion width = 0.50mm
; top infill extrusion width = 0.45mm
; first layer extrusion width = 0.42mm

M73 P0 R67
M73 Q0 S67
M201 X1000 Y1000 Z200 E5000 ; sets maximum accelerations, mm/sec^2
M203 X200 Y200 Z12 E120 ; sets maximum feedrates, mm/sec
M204 P1250 R1250 T1250 ; sets acceleration (P, T) and retract acceleration (R), mm/sec^2
M205 X8.00 Y8.00 Z0.40 E4.50 ; sets the jerk limits, mm/sec
M205 S0 T0 ; sets the minimum extruding and travel feed rate, mm/sec
M107
;TYPE:Custom
M862.3 P "MK3S" ; printer model check
M862.1 P0.4 ; nozzle diameter check
M115 U3.9.1 ; tell printer latest fw version
G90 ; use absolute coordinates
M83 ; extruder relative mode
M104 S240 ; set extruder temp
M140 S85 ; set bed temp
M190 S85 ; wait for bed temp
M109 S240 ; wait for extruder temp
G28 W ; home all without mesh bed level
G80 ; mesh bed leveling
G1 Y-3.0 F1000.0 ; go outside print area
G92 E0.0
G1 X60.0 E9.0 F1000.0 ; intro line
G1 X100.0 E12.5 F1000.0 ; intro line
G92 E0.0
M221 S95

; Don't change E values below. Excessive value can damage the printer.

M907 E538 ; set extruder motor current
G21 ; set units to millimeters
G90 ; use absolute coordinates
M83 ; use relative distances for extrusion
M900 K0.08 ; Filament gcode LA 1.5
M900 K45 ; Filament gcode LA 1.0
;LAYER_CHANGE
;Z:0.2
;HEIGHT:0.2
;BEFORE_LAYER_CHANGE
G92 E0.0
;0.2


G1 E-1.40000 F2100.000
G1 Z0.200 F10800.000
;AFTER_LAYER_CHANGE
;0.2
G1 Z0.400
G1 X74.265 Y67.740
G1 Z0.200
G1 E1.40000 F2100.000
M204 S1000
;TYPE:Skirt
;WIDTH:0.42
G1 F1200.000
G1 X74.991 Y67.623 E0.02308
G1 X175.004 Y67.623 E3.13582
G1 X175.902 Y67.801 E0.02872
G1 X176.667 Y68.305 E0.02872
G1 X177.184 Y69.062 E0.02872
G1 X177.377 Y69.957 E0.02872
G1 X177.377 Y140.030 E2.19710
G1 X177.306 Y140.577 E0.01728
G1 X177.111 Y141.092 E0.01728
G1 X176.803 Y141.549 E0.01728
G1 X176.395 Y141.925 E0.01740
G1 X175.735 Y142.260 E0.02319
G1 X175.009 Y142.377 E0.02308
G1 X74.989 Y142.377 E3.13606
M73 P0 R66
G1 X74.434 Y142.309 E0.01752
G1 X73.914 Y142.115 E0.01740
G1 X73.451 Y141.803 E0.01752
G1 X73.075 Y141.395 E0.01740
G1 X72.742 Y140.743 E0.02296
G1 X72.623 Y140.016 E0.02308
G1 X72.623 Y69.981 E2.19591
G1 X72.692 Y69.430 E0.01740
G1 X72.887 Y68.911 E0.01740
G1 X73.197 Y68.451 E0.01740
G1 X73.605 Y68.075 E0.01740
G1 X74.211 Y67.767 E0.02131
;WIPE_START
G1 F8640.000
G1 X74.991 Y67.623 E-0.18317
G1 X79.958 Y67.623 E-1.14683
;WIPE_END
G1 E-0.07000 F2100.000
G1 Z0.400 F10800.000
G1 X90.102 Y132.745
G1 Z0.200
G1 E1.40000 F2100.000
;TYPE:Perimeter
G1 F1200.000
G1 X90.472 Y132.712 E0.01164
G1 X90.894 Y132.744 E0.01326
G1 X91.283 Y132.848 E0.01264
G1 X91.645 Y133.017 E0.01252
G1 X91.972 Y133.246 E0.01252
G1 X92.254 Y133.528 E0.01252
G1 X92.483 Y133.855 E0.01252
G1 X92.652 Y134.217 E0.01252
G1 X92.755 Y134.602 E0.01252
G1 X92.790 Y135.000 E0.01252
G1 X92.755 Y135.398 E0.01252
G1 X92.652 Y135.783 E0.01252
G1 X92.495 Y136.120 E0.01164
G1 X92.257 Y136.469 E0.01326
G1 X91.972 Y136.754 E0.01264
G1 X91.645 Y136.983 E0.01252
G1 X91.283 Y137.152 E0.01252
G1 X90.898 Y137.255 E0.01252
G1 X90.500 Y137.290 E0.01252
G1 X90.102 Y137.255 E0.01252
G1 X89.717 Y137.152 E0.01252
G1 X89.380 Y136.995 E0.01164
G1 X89.031 Y136.757 E0.01326
G1 X88.746 Y136.472 E0.01264
G1 X88.517 Y136.145 E0.01252
G1 X88.348 Y135.783 E0.01252
G1 X88.245 Y135.398 E0.01252
G1 X88.210 Y135.000 E0.01252
G1 X88.245 Y134.602 E0.01252
G1 X88.348 Y134.217 E0.01252
G1 X88.517 Y133.855 E0.01252
G1 X88.746 Y133.528 E0.01252
G1 X89.028 Y133.246 E0.01252
G1 X89.355 Y133.017 E0.01252
G1 X89.717 Y132.848 E0.01252
G1 X90.044 Y132.760 E0.01064
G1 X90.142 Y133.124 F10800.000
;TYPE:External perimeter
G1 F1200.000
G1 X90.475 Y133.091 E0.01049
G1 X90.831 Y133.117 E0.01119
G1 X91.154 Y133.204 E0.01049
G1 X91.456 Y133.345 E0.01045
G1 X91.729 Y133.536 E0.01045
G1 X91.964 Y133.771 E0.01045
G1 X92.155 Y134.044 E0.01045
G1 X92.296 Y134.346 E0.01045
G1 X92.383 Y134.668 E0.01045
G1 X92.412 Y135.000 E0.01045
G1 X92.383 Y135.332 E0.01045
G1 X92.296 Y135.654 E0.01045
G1 X92.166 Y135.933 E0.00965
G1 X91.965 Y136.228 E0.01119
G1 X91.729 Y136.464 E0.01049
G1 X91.456 Y136.655 E0.01045
G1 X91.154 Y136.796 E0.01045
G1 X90.832 Y136.883 E0.01045
G1 X90.500 Y136.912 E0.01045
G1 X90.168 Y136.883 E0.01045
G1 X89.846 Y136.796 E0.01045
G1 X89.567 Y136.666 E0.00965
G1 X89.272 Y136.465 E0.01119
G1 X89.036 Y136.229 E0.01049
G1 X88.845 Y135.956 E0.01045
G1 X88.704 Y135.654 E0.01045
G1 X88.617 Y135.332 E0.01045
G1 X88.588 Y135.000 E0.01045
G1 X88.617 Y134.668 E0.01045
G1 X88.704 Y134.346 E0.01045
G1 X88.845 Y134.044 E0.01045
G1 X89.036 Y133.771 E0.01045
G1 X89.271 Y133.536 E0.01045
G1 X89.544 Y133.345 E0.01045
G1 X89.846 Y133.204 E0.01045
G1 X90.084 Y133.140 E0.00772
G1 X90.253 Y132.809 F10800.000
;WIPE_START
G1 F8640.000
G1 X90.475 Y133.091 E-0.09092
G1 X90.831 Y133.117 E-0.08241
G1 X91.154 Y133.204 E-0.07726
G1 X91.456 Y133.345 E-0.07694
G1 X91.729 Y133.536 E-0.07694
G1 X91.964 Y133.771 E-0.07694
G1 X92.155 Y134.044 E-0.07694
G1 X92.296 Y134.346 E-0.07694
G1 X92.383 Y134.668 E-0.07694
G1 X92.412 Y135.000 E-0.07694
G1 X92.383 Y135.332 E-0.07694
G1 X92.296 Y135.654 E-0.07694
G1 X92.166 Y135.933 E-0.07107
G1 X91.965 Y136.228 E-0.08241
G1 X91.729 Y136.464 E-0.07726
G1 X91.456 Y136.655 E-0.07694
G1 X91.154 Y136.796 E-0.07694
G1 X91.144 Y136.799 E-0.00235
;WIPE_END
G1 E-0.07000 F2100.000
G1 Z0.400 F10800.000
G1 X82.902 Y77.255
G1 Z0.200
G1 E1.40000 F2100.000
;TYPE:Perimeter
G1 F1200.000
G1 X82.500 Y77.290 E0.01264
G1 X82.102 Y77.255 E0.01252
G1 X81.717 Y77.152 E0.01252
G1 X81.380 Y76.995 E0.01164
G1 X81.031 Y76.757 E0.01326
G1 X80.746 Y76.472 E0.01264
G1 X80.517 Y76.145 E0.01252
G1 X80.348 Y75.783 E0.01252
G1 X80.245 Y75.398 E0.01252
G1 X80.210 Y75.000 E0.01252
G1 X80.245 Y74.602 E0.01252
G1 X80.348 Y74.217 E0.01252
G1 X80.517 Y73.855 E0.01252
G1 X80.746 Y73.528 E0.01252
G1 X81.028 Y73.246 E0.01252
G1 X81.355 Y73.017 E0.01252
G1 X81.717 Y72.848 E0.01252
G1 X82.102 Y72.745 E0.01252
G1 X82.472 Y72.712 E0.01164
G1 X82.894 Y72.744 E0.01326
G1 X83.283 Y72.848 E0.01264
G1 X83.645 Y73.017 E0.01252
G1 X83.972 Y73.246 E0.01252
G1 X84.254 Y73.528 E0.01252
G1 X84.483 Y73.855 E0.01252
G1 X84.652 Y74.217 E0.01252
G1 X84.755 Y74.602 E0.01252
G1 X84.790 Y75.000 E0.01252
G1 X84.755 Y75.398 E0.01252
G1 X84.652 Y75.783 E0.01252
G1 X84.483 Y76.145 E0.01252
G1 X84.254 Y76.472 E0.01252
G1 X83.972 Y76.754 E0.01252
G1 X83.645 Y76.983 E0.01252
G1 X83.309 Y77.140 E0.01164
G1 X82.959 Y77.239 E0.01138
G1 X82.857 Y76.876 F10800.000
;TYPE:External perimeter
G1 F1200.000
G1 X82.500 Y76.912 E0.01125
G1 X82.168 Y76.883 E0.01045
G1 X81.846 Y76.796 E0.01045
G1 X81.567 Y76.666 E0.00965
G1 X81.272 Y76.465 E0.01119
G1 X81.036 Y76.229 E0.01049
G1 X80.845 Y75.956 E0.01045
G1 X80.704 Y75.654 E0.01045
G1 X80.617 Y75.332 E0.01045
G1 X80.588 Y75.000 E0.01045
G1 X80.617 Y74.668 E0.01045
G1 X80.704 Y74.346 E0.01045
G1 X80.845 Y74.044 E0.01045
G1 X81.036 Y73.771 E0.01045
G1 X81.271 Y73.536 E0.01045
G1 X81.544 Y73.345 E0.01045
G1 X81.846 Y73.204 E0.01045
G1 X82.168 Y73.117 E0.01045
G1 X82.475 Y73.091 E0.00965
G1 X82.831 Y73.117 E0.01119
G1 X83.154 Y73.204 E0.01049
G1 X83.456 Y73.345 E0.01045
G1 X83.729 Y73.536 E0.01045
G1 X83.964 Y73.771 E0.01045
G1 X84.155 Y74.044 E0.01045
G1 X84.296 Y74.346 E0.01045
G1 X84.383 Y74.668 E0.01045
G1 X84.412 Y75.000 E0.01045
G1 X84.383 Y75.332 E0.01045
G1 X84.296 Y75.654 E0.01045
G1 X84.155 Y75.956 E0.01045
G1 X83.964 Y76.229 E0.01045
G1 X83.729 Y76.464 E0.01045
G1 X83.456 Y76.655 E0.01045
G1 X83.177 Y76.786 E0.00965
G1 X82.915 Y76.859 E0.00854
G1 X82.737 Y77.214 F10800.000
;WIPE_START
G1 F8640.000
G1 X82.500 Y76.912 E-0.09650
G1 X82.168 Y76.883 E-0.07694
G1 X81.846 Y76.796 E-0.07694
G1 X81.567 Y76.666 E-0.07107
G1 X81.272 Y76.465 E-0.08241
G1 X81.036 Y76.229 E-0.07726
G1 X80.845 Y75.956 E-0.07694
G1 X80.704 Y75.654 E-0.07694
G1 X80.617 Y75.332 E-0.07694
G1 X80.588 Y75.000 E-0.07694
G1 X80.617 Y74.668 E-0.07694
G1 X80.704 Y74.346 E-0.07694
G1 X80.845 Y74.044 E-0.07694
G1 X81.036 Y73.771 E-0.07694
G1 X81.271 Y73.536 E-0.07694
G1 X81.544 Y73.345 E-0.07694
G1 X81.846 Y73.204 E-0.07694
G1 X81.857 Y73.201 E-0.00256
;WIPE_END
G1 E-0.07000 F2100.000
G1 Z0.400 F10800.000
G1 X165.210 Y75.000
G1 Z0.200
G1 E1.40000 F2100.000
;TYPE:Perimeter
G1 F1200.000
G1 X165.245 Y74.602 E0.01252
G1 X165.348 Y74.217 E0.01252
G1 X165.517 Y73.855 E0.01252
G1 X165.746 Y73.528 E0.01252
G1 X166.028 Y73.246 E0.01252
G1 X166.355 Y73.017 E0.01252
G1 X166.717 Y72.848 E0.01252
G1 X167.102 Y72.745 E0.01252
G1 X167.472 Y72.712 E0.01164
G1 X167.894 Y72.744 E0.01326
G1 X168.283 Y72.848 E0.01264
G1 X168.645 Y73.017 E0.01252
G1 X168.972 Y73.246 E0.01252
G1 X169.254 Y73.528 E0.01252
G1 X169.483 Y73.855 E0.01252
G1 X169.640 Y74.191 E0.01164
G1 X169.755 Y74.598 E0.01326
G1 X169.790 Y75.000 E0.01264
G1 X169.755 Y75.398 E0.01252
G1 X169.652 Y75.783 E0.01252
G1 X169.483 Y76.145 E0.01252
G1 X169.254 Y76.472 E0.01252
G1 X168.972 Y76.754 E0.01252
G1 X168.645 Y76.983 E0.01252
G1 X168.309 Y77.140 E0.01164
G1 X167.902 Y77.255 E0.01326
G1 X167.500 Y77.290 E0.01264
G1 X167.102 Y77.255 E0.01252
G1 X166.717 Y77.152 E0.01252
G1 X166.380 Y76.995 E0.01164
G1 X166.031 Y76.757 E0.01326
G1 X165.746 Y76.472 E0.01264
G1 X165.517 Y76.145 E0.01252
G1 X165.348 Y75.783 E0.01252
G1 X165.245 Y75.398 E0.01252
G1 X165.215 Y75.060 E0.01063
G1 X165.591 Y75.027 F10800.000
;TYPE:External perimeter
G1 F1200.000
G1 X165.617 Y74.668 E0.01128
G1 X165.704 Y74.346 E0.01045
G1 X165.845 Y74.044 E0.01045
G1 X166.036 Y73.771 E0.01045
G1 X166.271 Y73.536 E0.01045
G1 X166.544 Y73.345 E0.01045
G1 X166.846 Y73.204 E0.01045
G1 X167.168 Y73.117 E0.01045
G1 X167.475 Y73.091 E0.00965
G1 X167.831 Y73.117 E0.01119
G1 X168.154 Y73.204 E0.01049
G1 X168.456 Y73.345 E0.01045
G1 X168.729 Y73.536 E0.01045
G1 X168.964 Y73.771 E0.01045
G1 X169.155 Y74.044 E0.01045
G1 X169.286 Y74.323 E0.00965
G1 X169.382 Y74.667 E0.01119
G1 X169.412 Y75.000 E0.01049
G1 X169.383 Y75.332 E0.01045
G1 X169.296 Y75.654 E0.01045
G1 X169.155 Y75.956 E0.01045
G1 X168.964 Y76.229 E0.01045
G1 X168.729 Y76.464 E0.01045
G1 X168.456 Y76.655 E0.01045
G1 X168.177 Y76.786 E0.00965
G1 X167.833 Y76.882 E0.01119
G1 X167.500 Y76.912 E0.01049
G1 X167.168 Y76.883 E0.01045
G1 X166.846 Y76.796 E0.01045
G1 X166.567 Y76.666 E0.00965
G1 X166.272 Y76.465 E0.01119
G1 X166.036 Y76.229 E0.01049
G1 X165.845 Y75.956 E0.01045
G1 X165.704 Y75.654 E0.01045
G1 X165.617 Y75.332 E0.01045
G1 X165.596 Y75.087 E0.00772
G1 X165.277 Y74.850 F10800.000
;WIPE_START
G1 F8640.000
G1 X165.617 Y74.668 E-0.09679
G1 X165.704 Y74.346 E-0.07694
G1 X165.845 Y74.044 E-0.07694
G1 X166.036 Y73.771 E-0.07694
G1 X166.271 Y73.536 E-0.07694
G1 X166.544 Y73.345 E-0.07694
G1 X166.846 Y73.204 E-0.07694
G1 X167.168 Y73.117 E-0.07694
G1 X167.475 Y73.091 E-0.07107
G1 X167.831 Y73.117 E-0.08241
G1 X168.154 Y73.204 E-0.07726
G1 X168.456 Y73.345 E-0.07694
G1 X168.729 Y73.536 E-0.07694
G1 X168.964 Y73.771 E-0.07694
G1 X169.155 Y74.044 E-0.07694
G1 X169.286 Y74.323 E-0.07107
G1 X169.382 Y74.667 E-0.08241
G1 X169.383 Y74.678 E-0.00267
;WIPE_END
G1 E-0.07000 F2100.000
G1 Z0.400 F10800.000
G1 X167.472 Y132.712
G1 Z0.200
G1 E1.40000 F2100.000
;TYPE:Perimeter
G1 F1200.000
G1 X167.894 Y132.744 E0.01326
G1 X168.283 Y132.848 E0.01264
G1 X168.645 Y133.017 E0.01252
G1 X168.972 Y133.246 E0.01252
G1 X169.254 Y133.528 E0.01252
G1 X169.483 Y133.855 E0.01252
G1 X169.652 Y134.217 E0.01252
G1 X169.755 Y134.602 E0.01252
G1 X169.790 Y135.000 E0.01252
G1 X169.755 Y135.398 E0.01252
G1 X169.652 Y135.783 E0.01252
G1 X169.483 Y136.145 E0.01252
G1 X169.254 Y136.472 E0.01252
G1 X168.972 Y136.754 E0.01252
G1 X168.645 Y136.983 E0.01252
G1 X168.283 Y137.152 E0.01252
G1 X167.898 Y137.255 E0.01252
G1 X167.500 Y137.290 E0.01252
G1 X167.102 Y137.255 E0.01252
G1 X166.717 Y137.152 E0.01252
G1 X166.380 Y136.995 E0.01164
G1 X166.031 Y136.757 E0.01326
G1 X165.746 Y136.472 E0.01264
G1 X165.517 Y136.145 E0.01252
G1 X165.348 Y135.783 E0.01252
G1 X165.245 Y135.398 E0.01252
G1 X165.210 Y135.000 E0.01252
G1 X165.245 Y134.602 E0.01252
G1 X165.348 Y134.217 E0.01252
G1 X165.517 Y133.855 E0.01252
G1 X165.746 Y133.528 E0.01252
G1 X166.028 Y133.246 E0.01252
G1 X166.355 Y133.017 E0.01252
G1 X166.717 Y132.848 E0.01252
G1 X167.102 Y132.745 E0.01252
G1 X167.412 Y132.718 E0.00976
G1 X167.831 Y133.117 F10800.000
;TYPE:External perimeter
G1 F1200.000
G1 X168.154 Y133.204 E0.01049
G1 X168.456 Y133.345 E0.01045
G1 X168.729 Y133.536 E0.01045
G1 X168.964 Y133.771 E0.01045
G1 X169.155 Y134.044 E0.01045
G1 X169.296 Y134.346 E0.01045
G1 X169.383 Y134.668 E0.01045
G1 X169.412 Y135.000 E0.01045
G1 X169.383 Y135.332 E0.01045
G1 X169.296 Y135.654 E0.01045
G1 X169.155 Y135.956 E0.01045
G1 X168.964 Y136.229 E0.01045
G1 X168.729 Y136.464 E0.01045
G1 X168.456 Y136.655 E0.01045
G1 X168.154 Y136.796 E0.01045
G1 X167.832 Y136.883 E0.01045
G1 X167.500 Y136.912 E0.01045
G1 X167.168 Y136.883 E0.01045
G1 X166.846 Y136.796 E0.01045
G1 X166.567 Y136.666 E0.00965
G1 X166.272 Y136.465 E0.01119
G1 X166.036 Y136.229 E0.01049
G1 X165.845 Y135.956 E0.01045
G1 X165.704 Y135.654 E0.01045
G1 X165.617 Y135.332 E0.01045
G1 X165.588 Y135.000 E0.01045
G1 X165.617 Y134.668 E0.01045
G1 X165.704 Y134.346 E0.01045
G1 X165.845 Y134.044 E0.01045
G1 X166.036 Y133.771 E0.01045
G1 X166.271 Y133.536 E0.01045
G1 X166.544 Y133.345 E0.01045
G1 X166.846 Y133.204 E0.01045
G1 X167.168 Y133.117 E0.01045
G1 X167.475 Y133.091 E0.00965
G1 X167.771 Y133.113 E0.00931
G1 X168.046 Y132.861 F10800.000
;WIPE_START
G1 F8640.000
G1 X168.154 Y133.204 E-0.09091
G1 X168.456 Y133.345 E-0.07694
G1 X168.729 Y133.536 E-0.07694
G1 X168.964 Y133.771 E-0.07694
G1 X169.155 Y134.044 E-0.07694
G1 X169.296 Y134.346 E-0.07694
G1 X169.383 Y134.668 E-0.07694
G1 X169.412 Y135.000 E-0.07694
G1 X169.383 Y135.332 E-0.07694
G1 X169.296 Y135.654 E-0.07694
G1 X169.155 Y135.956 E-0.07694
G1 X168.964 Y136.229 E-0.07694
G1 X168.729 Y136.464 E-0.07694
G1 X168.456 Y136.655 E-0.07694
G1 X168.154 Y136.796 E-0.07694
G1 X167.832 Y136.883 E-0.07694
G1 X167.500 Y136.912 E-0.07694
G1 X167.465 Y136.909 E-0.00808
;WIPE_END
G1 E-0.07000 F2100.000
G1 Z0.400 F10800.000
G1 X159.473 Y96.295
G1 Z0.200
G1 E1.40000 F2100.000
;TYPE:Perimeter
G1 F1200.000
G1 X159.473 Y130.787 E1.08147
G1 X174.213 Y130.787 E0.46216
G1 X174.213 Y139.213 E0.26419
G1 X75.787 Y139.213 E3.08607
M73 P1 R66
M73 Q1 S67
G1 X75.787 Y70.787 E2.14544
M73 Q1 S66
G1 X174.213 Y70.787 E3.08607
G1 X174.213 Y96.295 E0.79979
G1 X159.533 Y96.295 E0.46028
G1 X159.850 Y96.672 F10800.000
;TYPE:External perimeter
G1 F1200.000
G1 X159.850 Y130.410 E1.05782
G1 X174.590 Y130.410 E0.46216
G1 X174.590 Y139.590 E0.28783
G1 X75.410 Y139.590 E3.10972
G1 X75.410 Y70.410 E2.16909
G1 X174.590 Y70.410 E3.10972
G1 X174.590 Y96.672 E0.82343
G1 X159.910 Y96.672 E0.46028
G1 X159.475 Y96.811 F10800.000
;WIPE_START
G1 F8640.000
G1 X159.900 Y102.432 E-1.33000
;WIPE_END
G1 E-0.07000 F2100.000
G1 Z0.400 F10800.000
G1 X174.100 Y71.663
G1 Z0.200
G1 E1.40000 F2100.000
;TYPE:Solid infill
;WIDTH:0.420212
G1 F1200.000
G1 X173.507 Y71.070 E0.02631
G1 X172.973 Y71.070 E0.01674
G1 X173.930 Y72.027 E0.04246
G1 X173.930 Y72.560 E0.01674
G1 X172.440 Y71.070 E0.06613
G1 X171.906 Y71.070 E0.01674
G1 X173.930 Y73.094 E0.08980
G1 X173.930 Y73.628 E0.01674
G1 X171.372 Y71.070 E0.11347
G1 X170.839 Y71.070 E0.01674
G1 X173.930 Y74.161 E0.13715
G1 X173.930 Y74.695 E0.01674
G1 X170.305 Y71.070 E0.16082
G1 X169.772 Y71.070 E0.01674
G1 X173.930 Y75.228 E0.18449
G1 X173.930 Y75.762 E0.01674
G1 X169.238 Y71.070 E0.20816
G1 X168.705 Y71.070 E0.01674
G1 X173.930 Y76.295 E0.23184
G1 X173.930 Y76.829 E0.01674
G1 X168.171 Y71.070 E0.25551
G1 X167.637 Y71.070 E0.01674
G1 X173.930 Y77.363 E0.27918
G1 X173.930 Y77.896 E0.01674
G1 X167.104 Y71.070 E0.30286
G1 X166.570 Y71.070 E0.01674
G1 X167.972 Y72.472 E0.06221
G1 X167.402 Y72.435 E0.01795
G1 X166.037 Y71.070 E0.06055
G1 X165.503 Y71.070 E0.01674
G1 X166.931 Y72.498 E0.06335
