; generated by PrusaSlicer 2.3.0+win64 on 2021-07-28 at 20:24:15 UTC

; 

; external perimeters extrusion width = 0.45mm
; perimeters extrusion width = 0.45mm
; infill extrusion width = 0.45mm
; solid infill extrusion width = 0.45mm
; top infill extrusion width = 0.40mm
; first layer extrusion width = 0.42mm

M73 P0 R48
M73 Q0 S48
M201 X1000 Y1000 Z200 E5000 ; sets maximum accelerations, mm/sec^2
M203 X200 Y200 Z12 E120 ; sets maximum feedrates, mm/sec
M204 P1250 R1250 T1250 ; sets acceleration (P, T) and retract acceleration (R), mm/sec^2
M205 X8.00 Y8.00 Z0.40 E4.50 ; sets the jerk limits, mm/sec
M205 S0 T0 ; sets the minimum extruding and travel feed rate, mm/sec
M107
;TYPE:Custom
M862.3 P "MK3S" ; printer model check
M862.1 P0.4 ; nozzle diameter check
M115 U3.9.1 ; tell printer latest fw version
G90 ; use absolute coordinates
M83 ; extruder relative mode
M104 S240 ; set extruder temp
M140 S85 ; set bed temp
M190 S85 ; wait for bed temp
M109 S240 ; wait for extruder temp
G28 W ; home all without mesh bed level
G80 ; mesh bed leveling
G1 Y-3.0 F1000.0 ; go outside print area
G92 E0.0
G1 X60.0 E9.0 F1000.0 ; intro line
M73 P0 R47
G1 X100.0 E12.5 F1000.0 ; intro line
G92 E0.0
M221 S95

; Don't change E values below. Excessive value can damage the printer.

M907 E538 ; set extruder motor current
G21 ; set units to millimeters
G90 ; use absolute coordinates
M83 ; use relative distances for extrusion
M900 K0.08 ; Filament gcode LA 1.5
M900 K45 ; Filament gcode LA 1.0
;LAYER_CHANGE
;Z:0.2
;HEIGHT:0.2
;BEFORE_LAYER_CHANGE
G92 E0.0
;0.2


G1 E-1.40000 F2100.000
G1 Z0.200 F10800.000
;AFTER_LAYER_CHANGE
;0.2
G1 Z0.400
G1 X96.500 Y77.914
G1 Z0.200
G1 E1.40000 F2100.000
M204 S1000
;TYPE:Skirt
;WIDTH:0.42
G1 F1200.000
G1 X97.437 Y77.705 E0.03013
G1 X127.184 Y77.533 E0.93271
G1 X152.194 Y77.533 E0.78417
G1 X153.043 Y77.691 E0.02708
G1 X153.783 Y78.145 E0.02720
G1 X154.310 Y78.833 E0.02720
G1 X154.555 Y79.661 E0.02708
G1 X155.376 Y91.433 E0.36999
G1 X155.357 Y107.811 E0.51353
G1 X155.181 Y108.444 E0.02060
G1 X145.556 Y130.456 E0.75325
G1 X145.136 Y131.101 E0.02414
G1 X144.770 Y131.428 E0.01538
G1 X144.345 Y131.672 E0.01538
G1 X143.879 Y131.824 E0.01538
G1 X143.387 Y131.877 E0.01550
G1 X104.842 Y131.877 E1.20858
G1 X104.002 Y131.709 E0.02684
G1 X103.279 Y131.257 E0.02673
G1 X102.909 Y130.829 E0.01775
G1 X102.649 Y130.322 E0.01787
G1 X94.647 Y107.836 E0.74833
G1 X94.625 Y91.412 E0.51497
G1 X95.108 Y79.880 E0.36192
G1 X95.298 Y79.130 E0.02426
G1 X95.719 Y78.481 E0.02426
G1 X96.451 Y77.949 E0.02836
;WIPE_START
G1 F8640.000
G1 X97.437 Y77.705 E-0.23464
G1 X102.181 Y77.677 E-1.09536
;WIPE_END
G1 E-0.07000 F2100.000
G1 Z0.400 F10800.000
G1 X105.776 Y80.829
G1 Z0.200
G1 E1.40000 F2100.000
;TYPE:Perimeter
G1 F1200.000
G1 X106.466 Y80.866 E0.02168
G1 X113.487 Y80.866 E0.22013
G1 X114.177 Y80.829 E0.02168
G1 X113.905 Y81.147 E0.01314
G1 X113.748 Y81.420 E0.00988
G1 X113.632 Y81.702 E0.00956
G1 X113.550 Y81.991 E0.00942
G1 X113.502 Y82.285 E0.00934
G1 X113.485 Y82.581 E0.00931
G1 X113.502 Y82.878 E0.00931
G1 X113.550 Y83.172 E0.00934
G1 X113.632 Y83.461 E0.00942
G1 X113.748 Y83.743 E0.00956
G1 X113.905 Y84.016 E0.00988
G1 X114.177 Y84.334 E0.01314
G1 X113.487 Y84.297 E0.02168
G1 X106.466 Y84.297 E0.22013
G1 X105.776 Y84.334 E0.02168
G1 X106.048 Y84.016 E0.01313
G1 X106.205 Y83.743 E0.00988
G1 X106.321 Y83.461 E0.00956
G1 X106.403 Y83.172 E0.00942
G1 X106.451 Y82.878 E0.00934
G1 X106.467 Y82.581 E0.00931
G1 X106.451 Y82.285 E0.00931
G1 X106.403 Y81.991 E0.00934
G1 X106.321 Y81.702 E0.00942
G1 X106.205 Y81.420 E0.00956
G1 X106.048 Y81.147 E0.00987
G1 X105.820 Y80.869 E0.01127
;WIPE_START
G1 F8640.000
G1 X106.466 Y80.866 E-0.14925
G1 X111.580 Y80.866 E-1.18075
;WIPE_END
G1 E-0.07000 F2100.000
G1 Z0.400 F10800.000
G1 X113.898 Y82.200
G1 Z0.200
G1 E1.40000 F2100.000
;TYPE:External perimeter
G1 F1200.000
G1 X113.989 Y81.825 E0.01210
G1 X114.087 Y81.586 E0.00811
G1 X114.218 Y81.359 E0.00821
G1 X114.382 Y81.153 E0.00827
G1 X114.577 Y80.973 E0.00831
G1 X114.800 Y80.831 E0.00830
G1 X115.649 Y80.496 E0.02861
G1 X116.109 Y80.421 E0.01463
G1 X116.571 Y80.446 E0.01449
G1 X116.810 Y80.498 E0.00769
G1 X117.650 Y80.830 E0.02831
G1 X117.876 Y80.973 E0.00839
G1 X118.071 Y81.153 E0.00831
G1 X118.235 Y81.359 E0.00827
G1 X118.365 Y81.586 E0.00821
G1 X118.464 Y81.825 E0.00811
G1 X118.534 Y82.073 E0.00806
G1 X118.576 Y82.326 E0.00804
G1 X118.590 Y82.581 E0.00803
G1 X118.576 Y82.837 E0.00803
G1 X118.534 Y83.090 E0.00804
G1 X118.464 Y83.337 E0.00806
G1 X118.365 Y83.576 E0.00811
G1 X118.235 Y83.804 E0.00821
G1 X118.071 Y84.010 E0.00827
G1 X117.876 Y84.189 E0.00831
G1 X117.653 Y84.331 E0.00830
G1 X116.804 Y84.667 E0.02861
G1 X116.344 Y84.742 E0.01463
G1 X115.882 Y84.717 E0.01449
G1 X115.643 Y84.664 E0.00769
G1 X114.803 Y84.333 E0.02831
G1 X114.577 Y84.189 E0.00839
G1 X114.382 Y84.010 E0.00831
G1 X114.218 Y83.804 E0.00827
G1 X114.087 Y83.576 E0.00821
G1 X113.989 Y83.337 E0.00811
G1 X113.919 Y83.090 E0.00806
G1 X113.877 Y82.837 E0.00804
G1 X113.863 Y82.581 E0.00803
G1 X113.888 Y82.260 E0.01012
G1 X113.601 Y81.954 F10800.000
;WIPE_START
G1 F8640.000
G1 X113.989 Y81.825 E-0.10293
G1 X114.087 Y81.586 E-0.05971
G1 X114.218 Y81.359 E-0.06048
G1 X114.382 Y81.153 E-0.06092
G1 X114.577 Y80.973 E-0.06118
G1 X114.800 Y80.831 E-0.06109
G1 X115.649 Y80.496 E-0.21070
G1 X116.109 Y80.421 E-0.10773
G1 X116.571 Y80.446 E-0.10672
G1 X116.810 Y80.498 E-0.05664
G1 X117.650 Y80.830 E-0.20849
G1 X117.876 Y80.973 E-0.06176
G1 X118.071 Y81.153 E-0.06118
G1 X118.235 Y81.359 E-0.06092
G1 X118.342 Y81.545 E-0.04954
;WIPE_END
G1 E-0.07000 F2100.000
G1 Z0.400 F10800.000
G1 X118.275 Y80.829
G1 Z0.200
G1 E1.40000 F2100.000
;TYPE:Perimeter
G1 F1200.000
G1 X118.437 Y80.847 E0.00510
G1 X119.470 Y80.868 E0.03241
G1 X121.689 Y80.868 E0.06957
G1 X121.689 Y84.294 E0.10742
G1 X119.470 Y84.294 E0.06957
G1 X118.437 Y84.316 E0.03241
G1 X118.275 Y84.334 E0.00510
G1 X118.548 Y84.016 E0.01314
G1 X118.705 Y83.743 E0.00988
G1 X118.821 Y83.461 E0.00956
G1 X118.903 Y83.172 E0.00942
G1 X118.951 Y82.878 E0.00934
G1 X118.967 Y82.581 E0.00931
G1 X118.951 Y82.285 E0.00931
G1 X118.903 Y81.991 E0.00934
G1 X118.821 Y81.702 E0.00942
G1 X118.705 Y81.420 E0.00956
G1 X118.548 Y81.147 E0.00988
G1 X118.320 Y80.869 E0.01127
;WIPE_START
G1 F8640.000
G1 X118.437 Y80.847 E-0.02761
G1 X119.470 Y80.868 E-0.23865
G1 X121.689 Y80.868 E-0.51236
G1 X121.689 Y83.256 E-0.55138
;WIPE_END
G1 E-0.07000 F2100.000
G1 Z0.400 F10800.000
G1 X106.076 Y82.326
G1 Z0.200
G1 E1.40000 F2100.000
;TYPE:External perimeter
G1 F1200.000
G1 X106.090 Y82.581 E0.00803
G1 X106.076 Y82.837 E0.00803
G1 X106.034 Y83.090 E0.00804
G1 X105.964 Y83.337 E0.00806
G1 X105.865 Y83.576 E0.00811
G1 X105.735 Y83.804 E0.00821
G1 X105.571 Y84.010 E0.00827
G1 X105.376 Y84.189 E0.00831
G1 X105.153 Y84.331 E0.00830
G1 X104.925 Y84.428 E0.00774
G1 X104.304 Y84.667 E0.02087
G1 X103.844 Y84.742 E0.01463
G1 X103.382 Y84.717 E0.01449
G1 X103.143 Y84.664 E0.00769
G1 X102.303 Y84.333 E0.02831
G1 X102.077 Y84.189 E0.00839
G1 X101.882 Y84.010 E0.00831
G1 X101.718 Y83.804 E0.00827
G1 X101.587 Y83.576 E0.00821
G1 X101.489 Y83.337 E0.00811
G1 X101.419 Y83.090 E0.00806
G1 X101.377 Y82.837 E0.00804
G1 X101.363 Y82.581 E0.00803
G1 X101.377 Y82.326 E0.00803
G1 X101.419 Y82.073 E0.00804
G1 X101.489 Y81.825 E0.00806
G1 X101.587 Y81.586 E0.00811
G1 X101.718 Y81.359 E0.00821
G1 X101.882 Y81.153 E0.00827
G1 X102.077 Y80.973 E0.00831
G1 X102.300 Y80.831 E0.00830
G1 X102.527 Y80.734 E0.00774
G1 X103.149 Y80.496 E0.02087
G1 X103.609 Y80.421 E0.01463
G1 X104.071 Y80.446 E0.01449
G1 X104.310 Y80.498 E0.00769
G1 X105.150 Y80.830 E0.02831
G1 X105.376 Y80.973 E0.00839
G1 X105.571 Y81.153 E0.00831
G1 X105.735 Y81.359 E0.00827
G1 X105.865 Y81.586 E0.00821
G1 X105.964 Y81.825 E0.00811
G1 X106.066 Y82.267 E0.01420
G1 X106.312 Y82.424 F10800.000
;WIPE_START
G1 F8640.000
G1 X106.090 Y82.581 E-0.07290
G1 X106.076 Y82.837 E-0.05911
G1 X106.034 Y83.090 E-0.05918
G1 X105.964 Y83.337 E-0.05937
G1 X105.865 Y83.576 E-0.05971
G1 X105.735 Y83.804 E-0.06048
G1 X105.571 Y84.010 E-0.06091
G1 X105.376 Y84.189 E-0.06119
G1 X105.153 Y84.331 E-0.06112
G1 X104.925 Y84.428 E-0.05702
G1 X104.304 Y84.667 E-0.15370
G1 X103.844 Y84.742 E-0.10773
G1 X103.382 Y84.717 E-0.10672
G1 X103.143 Y84.664 E-0.05664
G1 X102.303 Y84.333 E-0.20849
G1 X102.077 Y84.189 E-0.06176
G1 X102.001 Y84.119 E-0.02398
;WIPE_END
G1 E-0.07000 F2100.000
G1 Z0.400 F10800.000
G1 X101.677 Y80.829
G1 Z0.200
G1 E1.40000 F2100.000
;TYPE:Perimeter
G1 F1200.000
G1 X101.405 Y81.147 E0.01314
G1 X101.248 Y81.420 E0.00988
G1 X101.132 Y81.702 E0.00956
G1 X101.050 Y81.991 E0.00942
G1 X101.002 Y82.285 E0.00934
G1 X100.985 Y82.581 E0.00931
G1 X101.002 Y82.878 E0.00931
G1 X101.050 Y83.172 E0.00934
G1 X101.132 Y83.461 E0.00942
G1 X101.248 Y83.743 E0.00956
G1 X101.405 Y84.016 E0.00988
G1 X101.677 Y84.334 E0.01314
G1 X101.516 Y84.316 E0.00510
G1 X100.482 Y84.294 E0.03241
G1 X98.264 Y84.294 E0.06957
G1 X98.264 Y80.868 E0.10743
G1 X100.987 Y80.866 E0.08540
G1 X101.618 Y80.835 E0.01980
;WIPE_START
G1 F8640.000
G1 X101.405 Y81.147 E-0.08709
G1 X101.248 Y81.420 E-0.07272
G1 X101.132 Y81.702 E-0.07038
G1 X101.050 Y81.991 E-0.06936
G1 X101.002 Y82.285 E-0.06879
G1 X100.985 Y82.581 E-0.06860
G1 X101.002 Y82.878 E-0.06860
G1 X101.050 Y83.172 E-0.06879
G1 X101.132 Y83.461 E-0.06936
G1 X101.248 Y83.743 E-0.07037
G1 X101.405 Y84.016 E-0.07273
G1 X101.677 Y84.334 E-0.09673
G1 X101.516 Y84.316 E-0.03756
G1 X100.482 Y84.294 E-0.23865
G1 X99.745 Y84.294 E-0.17026
;WIPE_END
G1 E-0.07000 F2100.000
G1 Z0.400 F10800.000
G1 X97.886 Y80.491
G1 Z0.200
G1 E1.40000 F2100.000
;TYPE:External perimeter
G1 F1200.000
G1 X100.980 Y80.488 E0.09700
G1 X101.492 Y80.470 E0.01606
G1 X102.009 Y80.411 E0.01631
G1 X102.502 Y80.314 E0.01576
G1 X102.981 Y80.291 E0.01505
G1 X104.472 Y80.291 E0.04672
G1 X104.951 Y80.314 E0.01505
G1 X105.444 Y80.411 E0.01576
G1 X105.961 Y80.470 E0.01631
G1 X106.473 Y80.488 E0.01606
G1 X113.480 Y80.488 E0.21971
G1 X113.992 Y80.470 E0.01606
G1 X114.509 Y80.411 E0.01631
G1 X115.002 Y80.314 E0.01576
G1 X115.481 Y80.291 E0.01505
G1 X116.972 Y80.291 E0.04672
G1 X117.451 Y80.314 E0.01505
G1 X117.944 Y80.411 E0.01576
G1 X118.462 Y80.470 E0.01635
G1 X119.474 Y80.491 E0.03173
G1 X122.066 Y80.491 E0.08128
G1 X122.066 Y84.671 E0.13106
G1 X119.474 Y84.671 E0.08128
G1 X118.462 Y84.692 E0.03173
G1 X117.944 Y84.751 E0.01635
G1 X117.451 Y84.849 E0.01576
G1 X116.972 Y84.871 E0.01505
G1 X115.481 Y84.871 E0.04672
G1 X115.002 Y84.849 E0.01505
G1 X114.509 Y84.751 E0.01576
G1 X113.992 Y84.692 E0.01631
G1 X113.480 Y84.674 E0.01606
G1 X106.473 Y84.674 E0.21971
G1 X105.961 Y84.692 E0.01606
G1 X105.444 Y84.751 E0.01631
G1 X104.951 Y84.849 E0.01576
G1 X104.472 Y84.871 E0.01505
G1 X102.981 Y84.871 E0.04672
G1 X102.502 Y84.849 E0.01505
G1 X102.009 Y84.751 E0.01576
G1 X101.491 Y84.692 E0.01635
G1 X100.479 Y84.671 E0.03173
G1 X97.886 Y84.671 E0.08128
G1 X97.886 Y80.551 E0.12919
G1 X98.264 Y80.624 F10800.000
;WIPE_START
G1 F8640.000
G1 X100.980 Y80.488 E-0.71452
G1 X101.492 Y80.470 E-0.11826
G1 X102.009 Y80.411 E-0.12008
G1 X102.502 Y80.314 E-0.11607
G1 X102.981 Y80.291 E-0.11084
G1 X103.632 Y80.291 E-0.15025
;WIPE_END
G1 E-0.07000 F2100.000
G1 Z0.400 F10800.000
G1 X101.100 Y81.483
G1 Z0.200
G1 E1.40000 F2100.000
;TYPE:Solid infill
;WIDTH:0.449264
G1 F1200.000
G1 X100.765 Y81.148 E0.01598
G1 X100.191 Y81.149 E0.01940
G1 X100.817 Y81.775 E0.02991
G1 X100.720 Y82.253 E0.01647
G1 X99.617 Y81.149 E0.05271
G1 X99.043 Y81.150 E0.01940
G1 X100.715 Y82.822 E0.07992
G1 X100.774 Y83.234 E0.01403
G1 X100.861 Y83.543 E0.01085
G1 X98.546 Y81.228 E0.11059
M73 Q1 S48
G1 X98.546 Y81.803 E0.01942
G1 X100.761 Y84.017 E0.10582
M73 P1 R47
M73 Q1 S47
G1 X100.181 Y84.012 E0.01961
G1 X98.546 Y82.377 E0.07809
G1 X98.546 Y82.952 E0.01942
G1 X99.606 Y84.012 E0.05063
G1 X99.031 Y84.012 E0.01942
G1 X98.377 Y83.357 E0.03128
;WIPE_START
G1 F8640.000
G1 X99.031 Y84.012 E-0.21375
G1 X99.606 Y84.012 E-0.13270
G1 X98.546 Y82.952 E-0.34600
G1 X98.546 Y82.377 E-0.13269
G1 X100.092 Y83.923 E-0.50486
;WIPE_END
G1 E-0.07000 F2100.000
G1 Z0.400 F10800.000
G1 X101.849 Y84.412
G1 Z0.200
G1 E1.40000 F2100.000
;TYPE:Gap fill
;WIDTH:0.140518
G1 F1200.000
G1 X102.199 Y84.547 E0.00304
G1 X102.474 Y84.628 E0.00233
;WIPE_START
G1 F8640.000
G1 X102.199 Y84.547 E-0.06623
G1 X101.849 Y84.412 E-0.08655
;WIPE_END
G1 E-1.24722 F2100.000
G1 Z0.400 F10800.000
G1 X105.009 Y84.622
G1 Z0.200
G1 E1.40000 F2100.000
;WIDTH:0.145145
G1 F1200.000
G1 X105.268 Y84.542 E0.00231
;WIDTH:0.171316
G1 X105.334 Y84.515 E0.00076
;WIDTH:0.200147
G1 X105.604 Y84.412 E0.00378
;WIPE_START
G1 F8640.000
G1 X105.334 Y84.515 E-0.06672
;WIPE_END
G1 E-1.33328 F2100.000
G1 Z0.400 F10800.000
G1 X105.604 Y80.750
G1 Z0.200
G1 E1.40000 F2100.000
;WIDTH:0.200224
G1 F1200.000
G1 X105.332 Y80.646 E0.00381
;WIDTH:0.170345
G1 X105.263 Y80.619 E0.00078
;WIDTH:0.143129
G1 X104.979 Y80.535 E0.00247
;WIPE_START
G1 F8640.000
G1 X105.263 Y80.619 E-0.06841
;WIPE_END
G1 E-1.33159 F2100.000
G1 Z0.400 F10800.000
G1 X102.444 Y80.540
G1 Z0.200
G1 E1.40000 F2100.000
;WIDTH:0.142783
G1 F1200.000
G1 X101.849 Y80.750 E0.00524
;WIPE_START
G1 F8640.000
G1 X102.444 Y80.540 E-0.14576
;WIPE_END
G1 E-1.25424 F2100.000
G1 Z0.400 F10800.000
G1 X113.120 Y80.979
G1 Z0.200
G1 E1.40000 F2100.000
;TYPE:Solid infill
;WIDTH:0.437758
G1 F1200.000
G1 X113.477 Y81.336 E0.01658
G1 X113.326 Y81.743 E0.01427
G1 X112.731 Y81.148 E0.02762
G1 X112.173 Y81.148 E0.01833
G1 X113.228 Y82.204 E0.04901
G1 X113.202 Y82.581 E0.01242
G1 X113.211 Y82.745 E0.00538
G1 X111.614 Y81.148 E0.07414
G1 X111.056 Y81.148 E0.01833
G1 X113.326 Y83.418 E0.10537
G1 X113.494 Y83.867 E0.01576
G1 X113.581 Y84.019 E0.00573
G1 X113.364 Y84.014 E0.00712
G1 X110.498 Y81.148 E0.13307
G1 X109.939 Y81.148 E0.01833
G1 X112.805 Y84.014 E0.13307
G1 X112.247 Y84.014 E0.01833
G1 X109.381 Y81.148 E0.13307
G1 X108.823 Y81.148 E0.01833
G1 X111.689 Y84.014 E0.13307
G1 X111.130 Y84.014 E0.01833
G1 X108.264 Y81.148 E0.13307
G1 X107.706 Y81.148 E0.01833
G1 X110.572 Y84.014 E0.13307
G1 X110.013 Y84.014 E0.01833
G1 X107.147 Y81.148 E0.13307
G1 X106.589 Y81.148 E0.01833
G1 X109.455 Y84.014 E0.13307
G1 X108.897 Y84.014 E0.01833
G1 X106.627 Y81.745 E0.10537
G1 X106.679 Y81.929 E0.00628
G1 X106.742 Y82.418 E0.01617
G1 X108.338 Y84.014 E0.07413
G1 X107.780 Y84.014 E0.01833
G1 X106.725 Y82.959 E0.04900
G1 X106.679 Y83.234 E0.00914
G1 X106.627 Y83.420 E0.00635
G1 X107.222 Y84.014 E0.02761
G1 X106.663 Y84.014 E0.01833
G1 X106.346 Y83.697 E0.01473
;WIPE_START
G1 F8640.000
G1 X106.663 Y84.014 E-0.10358
G1 X107.222 Y84.014 E-0.12893
G1 X106.627 Y83.420 E-0.19422
G1 X106.679 Y83.234 E-0.04465
G1 X106.725 Y82.959 E-0.06425
G1 X107.780 Y84.014 E-0.34464
G1 X108.338 Y84.014 E-0.12893
G1 X107.356 Y83.032 E-0.32081
;WIPE_END
G1 E-0.07000 F2100.000
G1 Z0.400 F10800.000
G1 X114.349 Y84.412
G1 Z0.200
G1 E1.40000 F2100.000
;TYPE:Gap fill
;WIDTH:0.140518
G1 F1200.000
G1 X114.699 Y84.547 E0.00304
G1 X114.974 Y84.628 E0.00233
;WIPE_START
G1 F8640.000
G1 X114.699 Y84.547 E-0.06623
G1 X114.349 Y84.412 E-0.08655
;WIPE_END
G1 E-1.24722 F2100.000
G1 Z0.400 F10800.000
G1 X117.509 Y84.622
G1 Z0.200
G1 E1.40000 F2100.000
;WIDTH:0.145186
G1 F1200.000
G1 X117.768 Y84.542 E0.00231
;WIDTH:0.171373
G1 X117.834 Y84.515 E0.00076
;WIDTH:0.200225
G1 X118.104 Y84.412 E0.00378
;WIPE_START
G1 F8640.000
G1 X117.834 Y84.515 E-0.06668
;WIPE_END
G1 E-1.33332 F2100.000
G1 Z0.400 F10800.000
G1 X118.104 Y80.750
G1 Z0.200
G1 E1.40000 F2100.000
;WIDTH:0.200224
G1 F1200.000
G1 X117.832 Y80.646 E0.00381
;WIDTH:0.170345
G1 X117.763 Y80.619 E0.00078
;WIDTH:0.143133
G1 X117.479 Y80.535 E0.00247
;WIPE_START
G1 F8640.000
G1 X117.763 Y80.619 E-0.06841
;WIPE_END
G1 E-1.33159 F2100.000
G1 Z0.400 F10800.000
G1 X114.944 Y80.540
G1 Z0.200
G1 E1.40000 F2100.000
;WIDTH:0.142783
G1 F1200.000
G1 X114.349 Y80.750 E0.00524
;WIPE_START
G1 F8640.000
G1 X114.944 Y80.540 E-0.14576
;WIPE_END
G1 E-1.25424 F2100.000
G1 Z0.400 F10800.000
G1 X121.576 Y81.804
G1 Z0.200
G1 E1.40000 F2100.000
;TYPE:Solid infill
;WIDTH:0.448609
G1 F1200.000
