; generated by PrusaSlicer 2.3.0+win64 on 2021-07-09 at 22:50:19 UTC

; 

; external perimeters extrusion width = 0.45mm
; perimeters extrusion width = 0.45mm
; infill extrusion width = 0.45mm
; solid infill extrusion width = 0.45mm
; top infill extrusion width = 0.40mm
; first layer extrusion width = 0.42mm

M73 P0 R49
M73 Q0 S49
M201 X1000 Y1000 Z200 E5000 ; sets maximum accelerations, mm/sec^2
M203 X200 Y200 Z12 E120 ; sets maximum feedrates, mm/sec
M204 P1250 R1250 T1250 ; sets acceleration (P, T) and retract acceleration (R), mm/sec^2
M205 X8.00 Y8.00 Z0.40 E4.50 ; sets the jerk limits, mm/sec
M205 S0 T0 ; sets the minimum extruding and travel feed rate, mm/sec
M107
;TYPE:Custom
M862.3 P "MK3S" ; printer model check
M862.1 P0.4 ; nozzle diameter check
M115 U3.9.1 ; tell printer latest fw version
G90 ; use absolute coordinates
M83 ; extruder relative mode
M104 S240 ; set extruder temp
M140 S85 ; set bed temp
M190 S85 ; wait for bed temp
M109 S240 ; wait for extruder temp
G28 W ; home all without mesh bed level
G80 ; mesh bed leveling
G1 Y-3.0 F1000.0 ; go outside print area
G92 E0.0
G1 X60.0 E9.0 F1000.0 ; intro line
G1 X100.0 E12.5 F1000.0 ; intro line
G92 E0.0
M221 S95

; Don't change E values below. Excessive value can damage the printer.
M907 E430 ; set extruder motor current
G21 ; set units to millimeters
G90 ; use absolute coordinates
M83 ; use relative distances for extrusion
M900 K0.08 ; Filament gcode LA 1.5
M900 K45 ; Filament gcode LA 1.0
;LAYER_CHANGE
;Z:0.2
;HEIGHT:0.2
;BEFORE_LAYER_CHANGE
G92 E0.0
;0.2


M73 P0 R48
G1 E-1.40000 F2100.000
G1 Z0.200 F10800.000
;AFTER_LAYER_CHANGE
;0.2
G1 Z0.400
G1 X81.985 Y84.168
G1 Z0.200
G1 E1.40000 F2100.000
M204 S1000
;TYPE:Skirt
;WIDTH:0.42
G1 F1200.000
G1 X82.597 Y83.801 E0.02237
G1 X83.290 Y83.632 E0.02237
G1 X166.504 Y83.623 E2.60912
G1 X167.349 Y83.780 E0.02696
G1 X168.081 Y84.225 E0.02684
G1 X168.607 Y84.900 E0.02684
G1 X168.861 Y85.722 E0.02696
G1 X168.877 Y102.011 E0.51076
G1 X168.770 Y102.705 E0.02201
G1 X168.529 Y103.238 E0.01835
G1 X154.985 Y125.308 E0.81188
G1 X154.645 Y125.716 E0.01668
G1 X154.218 Y126.041 E0.01680
G1 X153.734 Y126.261 E0.01668
G1 X153.212 Y126.368 E0.01668
G1 X96.989 Y126.377 E1.76285
G1 X96.460 Y126.315 E0.01668
G1 X95.959 Y126.137 E0.01668
G1 X95.274 Y125.635 E0.02661
G1 X94.812 Y124.928 E0.02649
G1 X81.297 Y91.893 E1.11911
G1 X81.132 Y91.211 E0.02201
G1 X81.123 Y85.966 E0.16445
G1 X81.214 Y85.349 E0.01953
G1 X81.510 Y84.700 E0.02237
G1 X81.945 Y84.213 E0.02049
;WIPE_START
G1 F8640.000
G1 X82.597 Y83.801 E-0.17800
G1 X83.290 Y83.632 E-0.16472
G1 X87.565 Y83.632 E-0.98728
;WIPE_END
G1 E-0.07000 F2100.000
G1 Z0.400 F10800.000
G1 X149.329 Y86.760
G1 Z0.200
G1 E1.40000 F2100.000
;TYPE:Perimeter
G1 F1200.000
G1 X149.989 Y86.784 E0.02073
G1 X154.006 Y86.786 E0.12593
G1 X154.765 Y86.756 E0.02383
G1 X154.438 Y87.246 E0.01849
G1 X154.285 Y87.594 E0.01192
G1 X154.185 Y87.951 E0.01162
G1 X154.135 Y88.316 E0.01155
G1 X154.135 Y88.684 E0.01151
G1 X154.185 Y89.049 E0.01155
G1 X154.285 Y89.405 E0.01162
G1 X154.438 Y89.754 E0.01193
G1 X154.765 Y90.245 E0.01850
G1 X154.006 Y90.214 E0.02384
G1 X149.989 Y90.216 E0.12593
G1 X149.329 Y90.240 E0.02073
G1 X149.585 Y89.920 E0.01285
G1 X149.770 Y89.583 E0.01206
G1 X149.896 Y89.229 E0.01178
G1 X149.971 Y88.867 E0.01158
G1 X149.996 Y88.500 E0.01153
G1 X149.971 Y88.133 E0.01153
G1 X149.896 Y87.771 E0.01158
G1 X149.770 Y87.417 E0.01178
G1 X149.585 Y87.080 E0.01206
G1 X149.366 Y86.807 E0.01097
;WIPE_START
G1 F8640.000
G1 X149.989 Y86.784 E-0.14400
G1 X154.006 Y86.786 E-0.92738
G1 X154.765 Y86.756 E-0.17548
G1 X154.565 Y87.055 E-0.08314
;WIPE_END
G1 E-0.07000 F2100.000
G1 Z0.400 F10800.000
G1 X147.787 Y86.402
G1 Z0.200
G1 E1.40000 F2100.000
;TYPE:External perimeter
G1 F1200.000
G1 X147.816 Y86.210 E0.00610
G1 X148.475 Y86.231 E0.02066
G1 X148.967 Y86.329 E0.01575
G1 X149.484 Y86.389 E0.01631
G1 X149.996 Y86.407 E0.01606
G1 X154.002 Y86.409 E0.12560
G1 X154.511 Y86.399 E0.01597
G1 X155.029 Y86.354 E0.01628
G1 X155.530 Y86.260 E0.01601
G1 X156.011 Y86.210 E0.01515
G1 X156.288 Y86.210 E0.00869
G1 X156.323 Y86.394 E0.00586
G1 X155.449 Y86.742 E0.02951
G1 X155.176 Y86.923 E0.01028
G1 X154.949 Y87.159 E0.01025
G1 X154.770 Y87.428 E0.01014
G1 X154.641 Y87.722 E0.01006
G1 X154.555 Y88.028 E0.00996
G1 X154.512 Y88.342 E0.00993
G1 X154.512 Y88.658 E0.00992
G1 X154.555 Y88.972 E0.00994
G1 X154.640 Y89.278 E0.00996
G1 X154.770 Y89.572 E0.01006
G1 X154.949 Y89.841 E0.01015
G1 X155.175 Y90.077 E0.01024
G1 X155.449 Y90.258 E0.01029
G1 X156.323 Y90.606 E0.02951
G1 X156.288 Y90.790 E0.00586
G1 X156.011 Y90.790 E0.00869
G1 X155.530 Y90.740 E0.01515
G1 X155.029 Y90.646 E0.01601
G1 X154.511 Y90.601 E0.01629
G1 X154.002 Y90.591 E0.01597
G1 X149.996 Y90.593 E0.12560
G1 X149.484 Y90.611 E0.01606
G1 X148.967 Y90.671 E0.01631
G1 X148.475 Y90.769 E0.01575
G1 X147.816 Y90.790 E0.02066
G1 X147.787 Y90.598 E0.00610
G1 X148.029 Y90.523 E0.00794
G1 X148.269 Y90.411 E0.00830
G1 X148.533 Y90.320 E0.00875
G1 X148.813 Y90.171 E0.00995
G1 X149.066 Y89.964 E0.01025
G1 X149.270 Y89.709 E0.01023
G1 X149.425 Y89.427 E0.01010
G1 X149.532 Y89.127 E0.01001
G1 X149.597 Y88.816 E0.00995
G1 X149.618 Y88.500 E0.00993
G1 X149.597 Y88.184 E0.00993
G1 X149.532 Y87.873 E0.00995
G1 X149.425 Y87.573 E0.01001
G1 X149.270 Y87.291 E0.01010
G1 X149.066 Y87.036 E0.01023
G1 X148.813 Y86.829 E0.01025
G1 X148.533 Y86.680 E0.00995
G1 X147.844 Y86.420 E0.02307
G1 X147.920 Y86.261 F10800.000
;WIPE_START
G1 F8640.000
G1 X147.816 Y86.210 E-0.04895
G1 X148.475 Y86.231 E-0.15214
G1 X148.967 Y86.329 E-0.11598
G1 X149.484 Y86.389 E-0.12009
G1 X149.996 Y86.407 E-0.11830
G1 X153.351 Y86.409 E-0.77454
;WIPE_END
G1 E-0.07000 F2100.000
G1 Z0.400 F10800.000
G1 X145.135 Y86.764
G1 Z0.200
G1 E1.40000 F2100.000
;TYPE:Perimeter
G1 F1200.000
G1 X144.813 Y87.246 E0.01819
G1 X144.660 Y87.594 E0.01192
G1 X144.560 Y87.951 E0.01162
G1 X144.510 Y88.316 E0.01155
G1 X144.510 Y88.684 E0.01151
G1 X144.560 Y89.049 E0.01155
G1 X144.660 Y89.405 E0.01162
G1 X144.813 Y89.754 E0.01193
G1 X145.136 Y90.238 E0.01826
G1 X144.511 Y90.216 E0.01962
G1 X140.494 Y90.214 E0.12594
G1 X139.696 Y90.249 E0.02504
G1 X139.960 Y89.920 E0.01322
G1 X140.145 Y89.583 E0.01206
G1 X140.271 Y89.229 E0.01178
G1 X140.346 Y88.867 E0.01158
G1 X140.371 Y88.500 E0.01153
G1 X140.346 Y88.133 E0.01153
G1 X140.271 Y87.771 E0.01158
G1 X140.145 Y87.417 E0.01178
G1 X139.960 Y87.080 E0.01206
G1 X139.696 Y86.751 E0.01322
G1 X139.973 Y86.776 E0.00872
G1 X144.005 Y86.787 E0.12642
G1 X145.075 Y86.765 E0.03354
;WIPE_START
G1 F8640.000
G1 X144.813 Y87.246 E-0.12655
G1 X144.660 Y87.594 E-0.08780
G1 X144.560 Y87.951 E-0.08560
G1 X144.510 Y88.316 E-0.08506
G1 X144.510 Y88.684 E-0.08479
G1 X144.560 Y89.049 E-0.08506
G1 X144.660 Y89.405 E-0.08554
G1 X144.813 Y89.754 E-0.08787
G1 X145.136 Y90.238 E-0.13450
G1 X144.511 Y90.216 E-0.14450
G1 X143.113 Y90.215 E-0.32273
;WIPE_END
G1 E-0.07000 F2100.000
G1 Z0.400 F10800.000
G1 X146.505 Y86.210
G1 Z0.200
G1 E1.40000 F2100.000
;TYPE:External perimeter
G1 F1200.000
G1 X146.663 Y86.210 E0.00497
G1 X146.698 Y86.394 E0.00586
G1 X145.824 Y86.742 E0.02951
G1 X145.551 Y86.923 E0.01028
G1 X145.324 Y87.159 E0.01025
G1 X145.145 Y87.428 E0.01014
G1 X145.016 Y87.722 E0.01006
G1 X144.930 Y88.028 E0.00996
G1 X144.887 Y88.342 E0.00993
G1 X144.887 Y88.658 E0.00992
G1 X144.930 Y88.972 E0.00994
G1 X145.015 Y89.278 E0.00996
G1 X145.145 Y89.572 E0.01006
G1 X145.324 Y89.841 E0.01015
G1 X145.550 Y90.077 E0.01024
G1 X145.824 Y90.258 E0.01029
G1 X146.698 Y90.606 E0.02951
G1 X146.663 Y90.790 E0.00586
G1 X146.025 Y90.769 E0.02001
G1 X145.533 Y90.671 E0.01575
G1 X145.016 Y90.611 E0.01631
G1 X144.504 Y90.593 E0.01606
G1 X140.498 Y90.591 E0.12560
G1 X139.989 Y90.602 E0.01597
G1 X139.471 Y90.647 E0.01629
G1 X138.970 Y90.742 E0.01599
G1 X138.490 Y90.790 E0.01514
G1 X138.191 Y90.790 E0.00935
G1 X138.162 Y90.598 E0.00610
G1 X138.404 Y90.523 E0.00794
G1 X138.644 Y90.411 E0.00830
G1 X138.908 Y90.320 E0.00875
G1 X139.188 Y90.171 E0.00995
G1 X139.441 Y89.964 E0.01025
G1 X139.645 Y89.709 E0.01023
G1 X139.800 Y89.427 E0.01010
G1 X139.907 Y89.127 E0.01001
G1 X139.972 Y88.816 E0.00995
G1 X139.993 Y88.500 E0.00993
G1 X139.972 Y88.184 E0.00993
G1 X139.907 Y87.873 E0.00995
G1 X139.800 Y87.573 E0.01001
G1 X139.645 Y87.291 E0.01010
G1 X139.441 Y87.036 E0.01023
G1 X139.188 Y86.829 E0.01025
G1 X138.908 Y86.680 E0.00995
G1 X138.644 Y86.589 E0.00875
G1 X138.404 Y86.477 E0.00830
G1 X138.162 Y86.402 E0.00794
G1 X138.191 Y86.210 E0.00610
G1 X138.490 Y86.210 E0.00935
G1 X138.970 Y86.258 E0.01514
G1 X139.471 Y86.353 E0.01599
G1 X139.990 Y86.399 E0.01635
G1 X144.002 Y86.410 E0.12578
G1 X145.014 Y86.389 E0.03175
G1 X145.533 Y86.329 E0.01636
G1 X146.025 Y86.231 E0.01575
G1 X146.445 Y86.213 E0.01316
G1 X146.589 Y86.344 F10800.000
;WIPE_START
G1 F8640.000
G1 X146.663 Y86.210 E-0.05045
G1 X146.698 Y86.394 E-0.04317
G1 X145.824 Y86.742 E-0.21732
G1 X145.551 Y86.923 E-0.07574
G1 X145.324 Y87.159 E-0.07548
G1 X145.145 Y87.428 E-0.07470
G1 X145.016 Y87.722 E-0.07407
G1 X144.930 Y88.028 E-0.07334
G1 X144.887 Y88.342 E-0.07316
G1 X144.887 Y88.658 E-0.07307
G1 X144.930 Y88.972 E-0.07317
G1 X145.015 Y89.278 E-0.07332
G1 X145.145 Y89.572 E-0.07410
G1 X145.324 Y89.841 E-0.07473
G1 X145.550 Y90.077 E-0.07544
G1 X145.824 Y90.258 E-0.07574
G1 X146.037 Y90.343 E-0.05299
;WIPE_END
G1 E-0.07000 F2100.000
G1 Z0.400 F10800.000
G1 X135.514 Y86.757
G1 Z0.200
G1 E1.40000 F2100.000
;TYPE:Perimeter
G1 F1200.000
G1 X135.188 Y87.246 E0.01842
G1 X135.029 Y87.605 E0.01231
G1 X134.917 Y88.081 E0.01535
G1 X134.885 Y88.316 E0.00745
G1 X134.885 Y88.695 E0.01187
G1 X134.969 Y89.175 E0.01527
G1 X135.035 Y89.406 E0.00754
G1 X135.188 Y89.754 E0.01190
G1 X135.514 Y90.243 E0.01845
G1 X135.015 Y90.218 E0.01566
G1 X128.787 Y90.213 E0.19528
G1 X128.787 Y86.787 E0.10744
G1 X135.015 Y86.782 E0.19528
G1 X135.454 Y86.760 E0.01378
;WIPE_START
G1 F8640.000
G1 X135.188 Y87.246 E-0.12790
G1 X135.029 Y87.605 E-0.09066
G1 X134.917 Y88.081 E-0.11301
G1 X134.885 Y88.316 E-0.05483
G1 X134.885 Y88.695 E-0.08744
G1 X134.969 Y89.175 E-0.11248
G1 X135.035 Y89.406 E-0.05554
G1 X135.188 Y89.754 E-0.08760
G1 X135.514 Y90.243 E-0.13584
G1 X135.015 Y90.218 E-0.11535
G1 X133.502 Y90.217 E-0.34935
;WIPE_END
G1 E-0.07000 F2100.000
G1 Z0.400 F10800.000
G1 X137.038 Y86.210
G1 Z0.200
G1 E1.40000 F2100.000
;TYPE:External perimeter
G1 F1200.000
G1 X137.073 Y86.394 E0.00586
G1 X136.199 Y86.742 E0.02950
G1 X135.925 Y86.923 E0.01030
G1 X135.699 Y87.159 E0.01026
G1 X135.520 Y87.428 E0.01013
G1 X135.388 Y87.725 E0.01020
G1 X135.288 Y88.150 E0.01366
G1 X135.262 Y88.342 E0.00608
G1 X135.262 Y88.662 E0.01005
G1 X135.338 Y89.091 E0.01364
G1 X135.391 Y89.278 E0.00611
G1 X135.520 Y89.572 E0.01005
G1 X135.699 Y89.841 E0.01014
G1 X135.926 Y90.077 E0.01025
G1 X136.199 Y90.258 E0.01028
G1 X137.073 Y90.606 E0.02951
G1 X137.038 Y90.790 E0.00586
G1 X136.521 Y90.790 E0.01622
G1 X136.035 Y90.693 E0.01553
G1 X135.520 Y90.621 E0.01631
M73 Q1 S49
G1 X135.005 Y90.595 E0.01615
G1 X128.410 Y90.590 E0.20680
G1 X128.410 Y86.410 E0.13107
M73 P1 R48
G1 X135.005 Y86.405 E0.20680
G1 X135.520 Y86.379 E0.01615
G1 X136.035 Y86.307 E0.01631
G1 X136.521 Y86.210 E0.01553
G1 X136.978 Y86.210 E0.01434
G1 X136.971 Y86.385 F10800.000
;WIPE_START
G1 F8640.000
G1 X137.073 Y86.394 E-0.04776
G1 X136.199 Y86.742 E-0.21728
G1 X135.925 Y86.923 E-0.07582
G1 X135.699 Y87.159 E-0.07552
G1 X135.520 Y87.428 E-0.07460
G1 X135.388 Y87.725 E-0.07511
G1 X135.288 Y88.150 E-0.10063
G1 X135.262 Y88.342 E-0.04476
G1 X135.262 Y88.662 E-0.07402
G1 X135.338 Y89.091 E-0.10046
G1 X135.391 Y89.278 E-0.04500
G1 X135.520 Y89.572 E-0.07400
G1 X135.699 Y89.841 E-0.07470
G1 X135.926 Y90.077 E-0.07547
G1 X136.199 Y90.258 E-0.07574
G1 X136.598 Y90.417 E-0.09913
;WIPE_END
G1 E-0.07000 F2100.000
G1 Z0.400 F10800.000
G1 X158.950 Y86.755
G1 Z0.200
G1 E1.40000 F2100.000
;TYPE:Perimeter
G1 F1200.000
G1 X159.485 Y86.782 E0.01680
G1 X165.713 Y86.787 E0.19527
G1 X165.713 Y90.213 E0.10744
G1 X159.485 Y90.218 E0.19527
G1 X158.950 Y90.245 E0.01680
G1 X159.210 Y89.920 E0.01305
G1 X159.395 Y89.583 E0.01206
G1 X159.521 Y89.229 E0.01178
G1 X159.596 Y88.867 E0.01158
G1 X159.621 Y88.500 E0.01153
G1 X159.596 Y88.133 E0.01153
G1 X159.521 Y87.771 E0.01158
G1 X159.395 Y87.417 E0.01178
G1 X159.210 Y87.080 E0.01206
G1 X158.987 Y86.802 E0.01117
;WIPE_START
G1 F8640.000
G1 X159.485 Y86.782 E-0.11503
G1 X164.747 Y86.786 E-1.21497
;WIPE_END
G1 E-0.07000 F2100.000
G1 Z0.400 F10800.000
G1 X157.412 Y86.402
G1 Z0.200
G1 E1.40000 F2100.000
;TYPE:External perimeter
G1 F1200.000
G1 X157.441 Y86.210 E0.00610
G1 X157.979 Y86.210 E0.01686
G1 X158.465 Y86.308 E0.01554
G1 X158.980 Y86.379 E0.01632
G1 X159.495 Y86.405 E0.01615
G1 X166.090 Y86.410 E0.20679
G1 X166.090 Y90.590 E0.13107
G1 X159.495 Y90.595 E0.20679
G1 X158.980 Y90.621 E0.01615
G1 X158.465 Y90.692 E0.01632
G1 X157.979 Y90.790 E0.01554
G1 X157.441 Y90.790 E0.01686
G1 X157.412 Y90.598 E0.00610
G1 X157.654 Y90.523 E0.00794
G1 X157.894 Y90.411 E0.00830
G1 X158.158 Y90.320 E0.00875
G1 X158.438 Y90.171 E0.00995
G1 X158.691 Y89.964 E0.01025
G1 X158.895 Y89.709 E0.01023
G1 X159.050 Y89.427 E0.01010
G1 X159.157 Y89.127 E0.01001
G1 X159.222 Y88.816 E0.00995
G1 X159.243 Y88.500 E0.00993
G1 X159.222 Y88.184 E0.00993
G1 X159.157 Y87.873 E0.00995
G1 X159.050 Y87.573 E0.01001
G1 X158.895 Y87.291 E0.01010
G1 X158.691 Y87.036 E0.01023
G1 X158.438 Y86.829 E0.01025
G1 X158.158 Y86.680 E0.00995
G1 X157.469 Y86.420 E0.02307
G1 X157.545 Y86.261 F10800.000
G1 X158.205 Y86.472
;TYPE:Gap fill
;WIDTH:0.0959681
G1 F1200.000
G1 X158.246 Y86.483 E0.00019
;WIDTH:0.123103
G1 X158.334 Y86.515 E0.00063
;WIDTH:0.151307
G1 X158.426 Y86.548 E0.00088
;WIDTH:0.169027
G1 X158.583 Y86.599 E0.00173
G1 X158.676 Y86.751 F10800.000
;WIDTH:0.120533
G1 F1200.000
G1 X158.399 Y86.487 E0.00247
;WIPE_START
G1 F8640.000
G1 X158.676 Y86.751 E-0.08829
;WIPE_END
G1 E-1.31171 F2100.000
G1 Z0.400 F10800.000
G1 X155.566 Y86.468
G1 Z0.200
G1 E1.40000 F2100.000
;WIDTH:0.132915
G1 F1200.000
G1 X155.078 Y86.625 E0.00383
G1 X155.257 Y86.503 F10800.000
;WIDTH:0.10982
G1 F1200.000
G1 X154.964 Y86.838 E0.00248
G1 X154.262 Y87.365 F10800.000
;TYPE:Solid infill
;WIDTH:0.433754
G1 F1200.000
G1 X153.967 Y87.069 E0.01360
G1 X153.414 Y87.069 E0.01797
G1 X153.980 Y87.635 E0.02602
G1 X153.907 Y87.894 E0.00875
G1 X153.881 Y88.088 E0.00638
G1 X152.861 Y87.068 E0.04689
G1 X152.308 Y87.068 E0.01797
G1 X153.853 Y88.613 E0.07100
M73 Q1 S48
G1 X153.907 Y89.106 E0.01612
G1 X153.951 Y89.265 E0.00535
G1 X151.755 Y87.068 E0.10096
G1 X151.202 Y87.067 E0.01797
G1 X154.068 Y89.933 E0.13172
G1 X153.513 Y89.931 E0.01803
G1 X150.649 Y87.067 E0.13164
G1 X150.096 Y87.067 E0.01797
G1 X152.960 Y89.932 E0.13166
G1 X152.408 Y89.932 E0.01795
G1 X150.169 Y87.693 E0.10292
G1 X150.252 Y88.095 E0.01335
G1 X150.269 Y88.345 E0.00817
G1 X151.856 Y89.932 E0.07292
G1 X151.303 Y89.932 E0.01795
G1 X150.253 Y88.883 E0.04824
G1 X150.157 Y89.339 E0.01516
G1 X150.751 Y89.933 E0.02727
G1 X150.198 Y89.933 E0.01795
G1 X149.879 Y89.614 E0.01468
;WIPE_START
G1 F8640.000
G1 X150.198 Y89.933 E-0.10428
G1 X150.751 Y89.933 E-0.12756
G1 X150.157 Y89.339 E-0.19379
G1 X150.253 Y88.883 E-0.10771
G1 X151.303 Y89.932 E-0.34275
G1 X151.856 Y89.932 E-0.12756
G1 X150.856 Y88.933 E-0.32634
;WIPE_END
G1 E-0.07000 F2100.000
G1 Z0.400 F10800.000
G1 X149.051 Y90.249
G1 Z0.200
G1 E1.40000 F2100.000
;TYPE:Gap fill
;WIDTH:0.120566
G1 F1200.000
G1 X148.768 Y90.518 E0.00252
G1 X148.555 Y90.537 F10800.000
;WIDTH:0.0988004
G1 F1200.000
G1 X148.850 Y90.437 E0.00145
G1 X149.050 Y90.249 E0.00128
;WIPE_START
G1 F8640.000
G1 X148.850 Y90.437 E-0.06343
G1 X148.555 Y90.537 E-0.07207
;WIPE_END
G1 E-1.26450 F2100.000
G1 Z0.400 F10800.000
G1 X145.963 Y90.541
G1 Z0.200
G1 E1.40000 F2100.000
;WIDTH:0.135076
G1 F1200.000
G1 X145.446 Y90.363 E0.00420
G1 X145.340 Y90.163 F10800.000
;WIDTH:0.109373
G1 F1200.000
G1 X145.634 Y90.499 E0.00247
;WIPE_START
G1 F8640.000
G1 X145.340 Y90.163 E-0.10301
;WIPE_END
G1 E-1.29699 F2100.000
G1 Z0.400 F10800.000
G1 X144.635 Y87.370
G1 Z0.200
G1 E1.40000 F2100.000
;TYPE:Solid infill
