; generated by PrusaSlicer 2.3.0+win64 on 2021-07-09 at 20:10:46 UTC

; 

; external perimeters extrusion width = 0.45mm
; perimeters extrusion width = 0.45mm
; infill extrusion width = 0.45mm
; solid infill extrusion width = 0.45mm
; top infill extrusion width = 0.40mm
; first layer extrusion width = 0.42mm

M73 P0 R28
M73 Q0 S29
M201 X1000 Y1000 Z200 E5000 ; sets maximum accelerations, mm/sec^2
M203 X200 Y200 Z12 E120 ; sets maximum feedrates, mm/sec
M204 P1250 R1250 T1250 ; sets acceleration (P, T) and retract acceleration (R), mm/sec^2
M205 X8.00 Y8.00 Z0.40 E4.50 ; sets the jerk limits, mm/sec
M205 S0 T0 ; sets the minimum extruding and travel feed rate, mm/sec
M107
;TYPE:Custom
M862.3 P "MK3S" ; printer model check
M862.1 P0.4 ; nozzle diameter check
M115 U3.9.1 ; tell printer latest fw version
G90 ; use absolute coordinates
M83 ; extruder relative mode
M104 S240 ; set extruder temp
M140 S85 ; set bed temp
M190 S85 ; wait for bed temp
M109 S240 ; wait for extruder temp
G28 W ; home all without mesh bed level
G80 ; mesh bed leveling
G1 Y-3.0 F1000.0 ; go outside print area
G92 E0.0
G1 X60.0 E9.0 F1000.0 ; intro line
M73 Q0 S28
G1 X100.0 E12.5 F1000.0 ; intro line
G92 E0.0
M221 S95

; Don't change E values below. Excessive value can damage the printer.

M907 E538 ; set extruder motor current
G21 ; set units to millimeters
G90 ; use absolute coordinates
M83 ; use relative distances for extrusion
M900 K0.08 ; Filament gcode LA 1.5
M900 K45 ; Filament gcode LA 1.0
;LAYER_CHANGE
;Z:0.2
;HEIGHT:0.2
;BEFORE_LAYER_CHANGE
G92 E0.0
;0.2


G1 E-1.40000 F2100.000
G1 Z0.200 F10800.000
;AFTER_LAYER_CHANGE
;0.2
G1 Z0.400
G1 X95.122 Y95.542
G1 Z0.200
G1 E1.40000 F2100.000
M204 S1000
;TYPE:Skirt
;WIDTH:0.42
G1 F1200.000
G1 X95.615 Y95.068 E0.02142
G1 X111.127 Y84.059 E0.59643
G1 X111.856 Y83.712 E0.02532
G1 X112.492 Y83.623 E0.02012
G1 X137.504 Y83.623 E0.78424
G1 X138.198 Y83.728 E0.02201
G1 X138.835 Y84.033 E0.02213
G1 X154.391 Y95.073 E0.59811
G1 X154.988 Y95.697 E0.02708
G1 X155.323 Y96.497 E0.02720
G1 X155.377 Y102.019 E0.17315
G1 X155.276 Y102.687 E0.02119
G1 X146.904 Y124.851 E0.74285
G1 X146.563 Y125.456 E0.02178
G1 X146.189 Y125.840 E0.01680
G1 X145.742 Y126.129 E0.01669
G1 X145.239 Y126.312 E0.01680
G1 X144.711 Y126.377 E0.01668
G1 X106.154 Y126.377 E1.20890
G1 X105.400 Y126.244 E0.02402
G1 X104.727 Y125.878 E0.02402
G1 X104.305 Y125.456 E0.01870
G1 X104.002 Y124.942 E0.01870
G1 X94.734 Y102.719 E0.75495
G1 X94.623 Y102.045 E0.02142
G1 X94.626 Y96.871 E0.16224
G1 X94.773 Y96.169 E0.02249
G1 X95.093 Y95.595 E0.02060
;WIPE_START
G1 F8640.000
G1 X95.615 Y95.068 E-0.17106
G1 X99.708 Y92.164 E-1.15894
;WIPE_END
G1 E-0.07000 F2100.000
G1 Z0.400 F10800.000
G1 X105.002 Y97.768
G1 Z0.200
G1 E1.40000 F2100.000
;TYPE:Perimeter
G1 F1200.000
G1 X105.994 Y97.787 E0.03112
G1 X113.510 Y97.784 E0.23564
M73 Q1 S28
G1 X113.996 Y97.768 E0.01526
G1 X113.753 Y98.020 E0.01099
G1 X113.588 Y98.270 E0.00938
G1 X113.457 Y98.527 E0.00903
G1 X113.360 Y98.797 E0.00902
G1 X113.292 Y99.091 E0.00946
G1 X113.260 Y99.642 E0.01731
G1 X113.355 Y100.187 E0.01731
G1 X113.457 Y100.473 E0.00955
G1 X113.588 Y100.730 E0.00903
G1 X113.753 Y100.980 E0.00938
M73 P1 R28
G1 X113.996 Y101.232 E0.01099
G1 X113.510 Y101.216 E0.01527
G1 X105.490 Y101.216 E0.25144
G1 X105.003 Y101.232 E0.01530
G1 X105.149 Y101.092 E0.00635
G1 X105.334 Y100.857 E0.00938
G1 X105.481 Y100.604 E0.00919
G1 X105.595 Y100.339 E0.00903
G1 X105.681 Y100.049 E0.00950
G1 X105.744 Y99.500 E0.01731
G1 X105.681 Y98.951 E0.01731
G1 X105.595 Y98.661 E0.00950
G1 X105.481 Y98.396 E0.00903
G1 X105.334 Y98.143 E0.00919
G1 X105.149 Y97.908 E0.00938
G1 X105.046 Y97.809 E0.00448
G1 X104.786 Y98.082 F10800.000
;TYPE:External perimeter
G1 F1200.000
G1 X105.021 Y98.355 E0.01131
G1 X105.144 Y98.566 E0.00766
G1 X105.240 Y98.789 E0.00760
G1 X105.310 Y99.027 E0.00777
G1 X105.364 Y99.500 E0.01493
G1 X105.310 Y99.973 E0.01493
G1 X105.240 Y100.211 E0.00777
G1 X105.144 Y100.434 E0.00760
G1 X105.021 Y100.645 E0.00766
G1 X104.869 Y100.838 E0.00771
G1 X104.690 Y101.009 E0.00775
G1 X104.487 Y101.149 E0.00776
G1 X104.261 Y101.257 E0.00784
G1 X103.823 Y101.367 E0.01418
G1 X103.201 Y101.413 E0.01953
G1 X102.780 Y101.382 E0.01324
G1 X102.305 Y101.280 E0.01522
G1 X101.911 Y101.089 E0.01374
G1 X101.718 Y100.925 E0.00796
G1 X101.550 Y100.745 E0.00770
G1 X101.414 Y100.540 E0.00772
G1 X101.304 Y100.324 E0.00760
G1 X101.220 Y100.090 E0.00779
G1 X101.139 Y99.621 E0.01493
G1 X101.167 Y99.139 E0.01512
G1 X101.303 Y98.676 E0.01515
G1 X101.549 Y98.254 E0.01531
G1 X101.901 Y97.917 E0.01529
G1 X102.124 Y97.795 E0.00797
G1 X102.346 Y97.706 E0.00748
G1 X102.574 Y97.652 E0.00734
G1 X103.023 Y97.595 E0.01422
G1 X103.406 Y97.590 E0.01198
G1 X103.826 Y97.633 E0.01324
G1 X104.261 Y97.743 E0.01408
G1 X104.487 Y97.851 E0.00784
G1 X104.742 Y98.041 E0.00998
G1 X105.132 Y97.981 F10800.000
;WIPE_START
G1 F8640.000
G1 X105.021 Y98.355 E-0.09711
G1 X105.144 Y98.566 E-0.05637
G1 X105.240 Y98.789 E-0.05599
G1 X105.310 Y99.027 E-0.05725
G1 X105.364 Y99.500 E-0.10995
G1 X105.310 Y99.973 E-0.10995
G1 X105.240 Y100.211 E-0.05725
G1 X105.144 Y100.434 E-0.05599
G1 X105.021 Y100.645 E-0.05637
G1 X104.869 Y100.838 E-0.05681
G1 X104.690 Y101.009 E-0.05706
G1 X104.487 Y101.149 E-0.05714
G1 X104.261 Y101.257 E-0.05771
G1 X103.823 Y101.367 E-0.10440
G1 X103.201 Y101.413 E-0.14384
G1 X102.780 Y101.382 E-0.09753
G1 X102.360 Y101.292 E-0.09928
;WIPE_END
G1 E-0.07000 F2100.000
G1 Z0.400 F10800.000
G1 X101.512 Y97.767
G1 Z0.200
G1 E1.40000 F2100.000
;TYPE:Perimeter
G1 F1200.000
G1 X101.249 Y98.018 E0.01137
G1 X100.954 Y98.526 E0.01841
G1 X100.793 Y99.074 E0.01794
G1 X100.760 Y99.643 E0.01784
G1 X100.855 Y100.187 E0.01731
G1 X100.957 Y100.473 E0.00955
G1 X101.088 Y100.730 E0.00903
G1 X101.253 Y100.979 E0.00938
G1 X101.496 Y101.232 E0.01099
G1 X101.010 Y101.216 E0.01526
G1 X97.787 Y101.213 E0.10105
G1 X97.787 Y97.787 E0.10744
G1 X101.010 Y97.784 E0.10105
G1 X101.452 Y97.769 E0.01386
;WIPE_START
G1 F8640.000
G1 X101.249 Y98.018 E-0.07396
G1 X100.954 Y98.526 E-0.13561
G1 X100.793 Y99.074 E-0.13211
G1 X100.760 Y99.643 E-0.13140
G1 X100.855 Y100.187 E-0.12751
G1 X100.957 Y100.473 E-0.07032
G1 X101.088 Y100.730 E-0.06650
G1 X101.253 Y100.979 E-0.06910
G1 X101.496 Y101.232 E-0.08096
G1 X101.010 Y101.216 E-0.11236
G1 X99.580 Y101.215 E-0.33017
;WIPE_END
G1 E-0.07000 F2100.000
G1 Z0.400 F10800.000
G1 X113.639 Y99.621
G1 Z0.200
G1 E1.40000 F2100.000
;TYPE:External perimeter
G1 F1200.000
G1 X113.666 Y99.145 E0.01493
G1 X113.723 Y98.904 E0.00776
G1 X113.804 Y98.676 E0.00760
G1 X113.914 Y98.460 E0.00760
G1 X114.050 Y98.255 E0.00772
G1 X114.218 Y98.075 E0.00770
G1 X114.407 Y97.914 E0.00779
G1 X114.624 Y97.795 E0.00778
G1 X114.846 Y97.706 E0.00748
G1 X115.074 Y97.652 E0.00734
G1 X115.523 Y97.595 E0.01422
G1 X115.906 Y97.590 E0.01198
G1 X116.326 Y97.633 E0.01324
G1 X116.761 Y97.743 E0.01408
G1 X116.987 Y97.851 E0.00784
G1 X117.190 Y97.991 E0.00776
G1 X117.369 Y98.162 E0.00775
G1 X117.521 Y98.355 E0.00771
G1 X117.644 Y98.566 E0.00766
G1 X117.740 Y98.789 E0.00760
G1 X117.810 Y99.027 E0.00777
G1 X117.864 Y99.500 E0.01493
G1 X117.810 Y99.973 E0.01493
G1 X117.740 Y100.211 E0.00777
G1 X117.644 Y100.434 E0.00760
G1 X117.521 Y100.645 E0.00766
G1 X117.369 Y100.838 E0.00771
G1 X117.190 Y101.009 E0.00775
G1 X116.987 Y101.149 E0.00776
G1 X116.761 Y101.257 E0.00784
G1 X116.326 Y101.367 E0.01408
G1 X115.902 Y101.410 E0.01335
G1 X115.284 Y101.383 E0.01939
G1 X114.849 Y101.295 E0.01393
G1 X114.624 Y101.205 E0.00759
G1 X114.407 Y101.086 E0.00778
G1 X114.218 Y100.925 E0.00779
G1 X114.050 Y100.745 E0.00770
G1 X113.914 Y100.540 E0.00772
G1 X113.804 Y100.324 E0.00760
G1 X113.720 Y100.090 E0.00779
G1 X113.649 Y99.680 E0.01305
G1 X113.285 Y99.434 F10800.000
;WIPE_START
G1 F8640.000
G1 X113.666 Y99.145 E-0.12347
G1 X113.723 Y98.904 E-0.05715
G1 X113.804 Y98.676 E-0.05597
G1 X113.914 Y98.460 E-0.05598
G1 X114.050 Y98.255 E-0.05687
G1 X114.218 Y98.075 E-0.05674
G1 X114.407 Y97.914 E-0.05733
G1 X114.624 Y97.795 E-0.05727
G1 X114.846 Y97.706 E-0.05511
G1 X115.074 Y97.652 E-0.05404
G1 X115.523 Y97.595 E-0.10471
G1 X115.906 Y97.590 E-0.08825
G1 X116.326 Y97.633 E-0.09753
G1 X116.761 Y97.743 E-0.10369
G1 X116.987 Y97.851 E-0.05771
G1 X117.190 Y97.991 E-0.05714
G1 X117.369 Y98.162 E-0.05706
G1 X117.521 Y98.355 E-0.05681
G1 X117.644 Y98.566 E-0.05637
G1 X117.680 Y98.649 E-0.02079
;WIPE_END
G1 E-0.07000 F2100.000
G1 Z0.400 F10800.000
G1 X117.502 Y101.232
G1 Z0.200
G1 E1.40000 F2100.000
;TYPE:Perimeter
G1 F1200.000
G1 X117.649 Y101.092 E0.00636
G1 X117.834 Y100.857 E0.00938
G1 X117.981 Y100.604 E0.00919
G1 X118.095 Y100.339 E0.00903
G1 X118.181 Y100.049 E0.00950
G1 X118.244 Y99.500 E0.01731
G1 X118.181 Y98.951 E0.01731
G1 X118.095 Y98.661 E0.00950
G1 X117.981 Y98.396 E0.00903
G1 X117.834 Y98.143 E0.00919
G1 X117.649 Y97.908 E0.00938
G1 X117.503 Y97.768 E0.00635
G1 X117.990 Y97.784 E0.01530
G1 X121.213 Y97.787 E0.10105
G1 X121.213 Y101.213 E0.10743
G1 X118.494 Y101.213 E0.08524
G1 X117.562 Y101.231 E0.02923
;WIPE_START
G1 F8640.000
G1 X117.649 Y101.092 E-0.03781
G1 X117.834 Y100.857 E-0.06909
G1 X117.981 Y100.604 E-0.06766
G1 X118.095 Y100.339 E-0.06649
G1 X118.181 Y100.049 E-0.06998
G1 X118.244 Y99.500 E-0.12749
G1 X118.181 Y98.951 E-0.12749
G1 X118.095 Y98.661 E-0.06998
G1 X117.981 Y98.396 E-0.06649
G1 X117.834 Y98.143 E-0.06766
G1 X117.649 Y97.908 E-0.06909
G1 X117.503 Y97.768 E-0.04675
G1 X117.990 Y97.784 E-0.11264
G1 X119.425 Y97.785 E-0.33140
;WIPE_END
G1 E-0.07000 F2100.000
G1 Z0.400 F10800.000
G1 X121.590 Y101.590
G1 Z0.200
G1 E1.40000 F2100.000
;TYPE:External perimeter
G1 F1200.000
G1 X118.498 Y101.590 E0.09695
G1 X117.486 Y101.610 E0.03174
G1 X115.988 Y101.783 E0.04728
G1 X115.512 Y101.782 E0.01492
G1 X114.016 Y101.610 E0.04724
G1 X113.503 Y101.593 E0.01606
G1 X105.497 Y101.593 E0.25105
G1 X104.984 Y101.610 E0.01607
G1 X103.488 Y101.783 E0.04723
G1 X103.012 Y101.782 E0.01492
G1 X101.516 Y101.610 E0.04724
G1 X101.004 Y101.593 E0.01606
G1 X97.410 Y101.590 E0.11267
G1 X97.410 Y97.410 E0.13107
G1 X101.004 Y97.407 E0.11267
G1 X101.516 Y97.390 E0.01606
G1 X103.012 Y97.218 E0.04724
G1 X103.488 Y97.217 E0.01492
G1 X104.986 Y97.390 E0.04728
G1 X105.998 Y97.410 E0.03174
G1 X113.504 Y97.407 E0.23533
G1 X114.016 Y97.390 E0.01606
G1 X115.512 Y97.218 E0.04724
G1 X115.990 Y97.217 E0.01498
G1 X117.486 Y97.390 E0.04724
G1 X117.996 Y97.407 E0.01600
G1 X121.590 Y97.410 E0.11267
G1 X121.590 Y101.530 E0.12919
G1 X121.206 Y101.477 F10800.000
;WIPE_START
G1 F8640.000
G1 X118.498 Y101.590 E-0.71409
G1 X117.486 Y101.610 E-0.23375
G1 X115.988 Y101.783 E-0.34816
G1 X115.841 Y101.783 E-0.03400
;WIPE_END
G1 E-0.07000 F2100.000
G1 Z0.400 F10800.000
G1 X120.307 Y97.899
G1 Z0.200
G1 E1.40000 F2100.000
;TYPE:Solid infill
;WIDTH:0.433872
G1 F1200.000
G1 X120.930 Y98.522 E0.02862
G1 X120.930 Y99.075 E0.01797
G1 X119.924 Y98.068 E0.04625
G1 X119.371 Y98.068 E0.01799
G1 X120.930 Y99.627 E0.07169
G1 X120.930 Y100.180 E0.01797
G1 X118.817 Y98.068 E0.09713
G1 X118.264 Y98.067 E0.01799
G1 X120.930 Y100.733 E0.12257
G1 X120.930 Y100.930 E0.00640
G1 X120.574 Y100.930 E0.01157
G1 X118.426 Y98.782 E0.09878
G1 X118.459 Y98.895 E0.00384
G1 X118.521 Y99.429 E0.01749
G1 X120.021 Y100.930 E0.06900
G1 X119.468 Y100.930 E0.01797
G1 X118.478 Y99.940 E0.04553
G1 X118.459 Y100.105 E0.00541
G1 X118.375 Y100.390 E0.00965
G1 X118.916 Y100.930 E0.02485
G1 X118.365 Y100.933 E0.01789
G1 X118.084 Y100.651 E0.01293
;WIPE_START
G1 F8640.000
G1 X118.365 Y100.933 E-0.09185
G1 X118.916 Y100.930 E-0.12710
G1 X118.375 Y100.390 E-0.17652
G1 X118.459 Y100.105 E-0.06852
G1 X118.478 Y99.940 E-0.03841
G1 X119.468 Y100.930 E-0.32342
G1 X120.021 Y100.930 E-0.12766
G1 X118.868 Y99.777 E-0.37652
;WIPE_END
G1 E-0.07000 F2100.000
G1 Z0.400 F10800.000
G1 X117.096 Y101.330
G1 Z0.200
G1 E1.40000 F2100.000
;TYPE:Gap fill
;WIDTH:0.142445
G1 F1200.000
G1 X116.947 Y101.432 E0.00150
G1 X116.839 Y101.463 E0.00093
;WIDTH:0.105606
G1 X116.727 Y101.484 E0.00059
;WIPE_START
G1 F8640.000
G1 X116.839 Y101.463 E-0.02636
;WIPE_END
G1 E-1.37364 F2100.000
G1 Z0.400 F10800.000
G1 X114.752 Y101.483
G1 Z0.200
G1 E1.40000 F2100.000
;WIDTH:0.121245
G1 F1200.000
G1 X114.434 Y101.397 E0.00214
;WIDTH:0.218559
G1 X114.267 Y101.344 E0.00255
G1 X114.217 Y101.185 E0.00243
;WIPE_START
G1 F8640.000
G1 X114.267 Y101.344 E-0.03850
G1 X114.434 Y101.397 E-0.04040
;WIPE_END
G1 E-1.32111 F2100.000
G1 Z0.400 F10800.000
G1 X114.217 Y97.815
G1 Z0.200
G1 E1.40000 F2100.000
;WIDTH:0.218559
G1 F1200.000
G1 X114.267 Y97.656 E0.00243
G1 X114.434 Y97.603 E0.00255
;WIDTH:0.121245
G1 X114.752 Y97.517 E0.00214
;WIPE_START
G1 F8640.000
G1 X114.434 Y97.603 E-0.07605
;WIPE_END
G1 E-1.32395 F2100.000
G1 Z0.400 F10800.000
G1 X112.964 Y97.897
G1 Z0.200
G1 E1.40000 F2100.000
;TYPE:Solid infill
;WIDTH:0.420864
G1 F1200.000
G1 X113.293 Y98.226 E0.01461
G1 X113.197 Y98.415 E0.00664
G1 X113.131 Y98.599 E0.00615
G1 X112.599 Y98.067 E0.02363
G1 X112.065 Y98.067 E0.01679
G1 X113.018 Y99.020 E0.04234
G1 X112.984 Y99.521 E0.01576
G1 X111.531 Y98.068 E0.06458
G1 X110.997 Y98.068 E0.01679
G1 X113.057 Y100.129 E0.09160
G1 X113.080 Y100.259 E0.00416
G1 X113.197 Y100.585 E0.01089
G1 X113.383 Y100.933 E0.01239
G1 X113.327 Y100.933 E0.00175
G1 X110.462 Y98.068 E0.12733
G1 X109.928 Y98.068 E0.01679
G1 X112.793 Y100.933 E0.12732
G1 X112.258 Y100.933 E0.01680
G1 X109.394 Y98.068 E0.12731
G1 X108.859 Y98.069 E0.01679
G1 X111.724 Y100.933 E0.12730
G1 X111.189 Y100.933 E0.01680
G1 X108.325 Y98.069 E0.12730
G1 X107.791 Y98.069 E0.01679
G1 X110.655 Y100.933 E0.12729
G1 X110.120 Y100.933 E0.01680
G1 X107.256 Y98.069 E0.12728
G1 X106.722 Y98.069 E0.01679
G1 X109.586 Y100.933 E0.12727
G1 X109.051 Y100.933 E0.01680
G1 X106.188 Y98.070 E0.12726
G1 X105.647 Y98.063 E0.01700
G1 X108.517 Y100.933 E0.12755
G1 X107.982 Y100.933 E0.01680
G1 X105.961 Y98.912 E0.08983
G1 X106.027 Y99.512 E0.01899
G1 X107.448 Y100.933 E0.06313
G1 X106.913 Y100.933 E0.01680
G1 X105.972 Y99.992 E0.04183
G1 X105.959 Y100.105 E0.00358
G1 X105.866 Y100.420 E0.01033
G1 X106.379 Y100.933 E0.02279
G1 X105.844 Y100.933 E0.01680
G1 X105.576 Y100.665 E0.01191
;WIPE_START
G1 F8640.000
G1 X105.844 Y100.933 E-0.08747
G1 X106.379 Y100.933 E-0.12342
G1 X105.866 Y100.420 E-0.16744
G1 X105.959 Y100.105 E-0.07588
G1 X105.972 Y99.992 E-0.02632
G1 X106.913 Y100.933 E-0.30734
G1 X107.448 Y100.933 E-0.12342
G1 X106.166 Y99.651 E-0.41871
;WIPE_END
G1 E-0.07000 F2100.000
G1 Z0.400 F10800.000
G1 X104.596 Y101.330
G1 Z0.200
G1 E1.40000 F2100.000
;TYPE:Gap fill
;WIDTH:0.142443
G1 F1200.000
G1 X104.447 Y101.432 E0.00150
G1 X104.339 Y101.463 E0.00093
;WIDTH:0.105606
G1 X104.227 Y101.484 E0.00059
;WIPE_START
G1 F8640.000
G1 X104.339 Y101.463 E-0.02636
;WIPE_END
G1 E-1.37364 F2100.000
G1 Z0.400 F10800.000
G1 X102.243 Y101.483
G1 Z0.200
G1 E1.40000 F2100.000
;WIDTH:0.132693
G1 F1200.000
G1 X101.886 Y101.379 E0.00278
;WIDTH:0.250813
G1 X101.764 Y101.338 E0.00222
;WIDTH:0.24148
G1 X101.715 Y101.189 E0.00259
;WIPE_START
G1 F8640.000
G1 X101.764 Y101.338 E-0.03626
;WIPE_END
G1 E-1.36374 F2100.000
G1 Z0.400 F10800.000
G1 X100.909 Y98.379
G1 Z0.200
G1 E1.40000 F2100.000
;TYPE:Solid infill
;WIDTH:0.431366
G1 F1200.000
G1 X100.597 Y98.067 E0.01423
G1 X100.049 Y98.068 E0.01773
G1 X100.625 Y98.644 E0.02632
G1 X100.509 Y99.078 E0.01450
G1 X99.500 Y98.068 E0.04612
M73 Q2 S28
G1 X98.951 Y98.069 E0.01773
G1 X100.479 Y99.597 E0.06983
G1 X100.476 Y99.659 E0.00199
G1 X100.578 Y100.245 E0.01921
G1 X98.402 Y98.069 E0.09939
M73 P2 R28
G1 X98.070 Y98.069 E0.01072
G1 X98.070 Y98.286 E0.00702
G1 X100.716 Y100.933 E0.12089
G1 X100.167 Y100.932 E0.01776
G1 X98.070 Y98.836 E0.09577
G1 X98.070 Y99.385 E0.01774
G1 X99.617 Y100.932 E0.07066
G1 X99.067 Y100.932 E0.01776
G1 X98.070 Y99.934 E0.04555
G1 X98.070 Y100.484 E0.01774
G1 X98.687 Y101.101 E0.02819
;WIPE_START
G1 F8640.000
G1 X98.070 Y100.484 E-0.20154
G1 X98.070 Y99.934 E-0.12685
G1 X99.067 Y100.932 E-0.32561
G1 X99.617 Y100.932 E-0.12694
G1 X98.070 Y99.385 E-0.50514
G1 X98.070 Y99.195 E-0.04393
;WIPE_END
G1 E-0.07000 F2100.000
G1 Z0.400 F10800.000
G1 X101.925 Y97.664
G1 Z0.200
