; generated by PrusaSlicer 2.3.0+win64 on 2021-07-08 at 23:04:34 UTC

; 

; external perimeters extrusion width = 0.60mm
; perimeters extrusion width = 0.50mm
; infill extrusion width = 0.50mm
; solid infill extrusion width = 0.50mm
; top infill extrusion width = 0.45mm
; support material extrusion width = 0.38mm
; first layer extrusion width = 0.42mm

M73 P0 R213
M73 Q0 S215
M201 X1000 Y1000 Z200 E5000 ; sets maximum accelerations, mm/sec^2
M203 X200 Y200 Z12 E120 ; sets maximum feedrates, mm/sec
M204 P1250 R1250 T1250 ; sets acceleration (P, T) and retract acceleration (R), mm/sec^2
M205 X8.00 Y8.00 Z0.40 E4.50 ; sets the jerk limits, mm/sec
M205 S0 T0 ; sets the minimum extruding and travel feed rate, mm/sec
M107
;TYPE:Custom
M862.3 P "MK3S" ; printer model check
M862.1 P0.4 ; nozzle diameter check
M115 U3.9.1 ; tell printer latest fw version
G90 ; use absolute coordinates
M83 ; extruder relative mode
M104 S240 ; set extruder temp
M140 S85 ; set bed temp
M190 S85 ; wait for bed temp
M109 S240 ; wait for extruder temp
G28 W ; home all without mesh bed level
G80 ; mesh bed leveling
G1 Y-3.0 F1000.0 ; go outside print area
G92 E0.0
G1 X60.0 E9.0 F1000.0 ; intro line
G1 X100.0 E12.5 F1000.0 ; intro line
G92 E0.0
M221 S95

; Don't change E values below. Excessive value can damage the printer.

M907 E538 ; set extruder motor current
G21 ; set units to millimeters
G90 ; use absolute coordinates
M83 ; use relative distances for extrusion
M900 K0.08 ; Filament gcode LA 1.5
M900 K45 ; Filament gcode LA 1.0
;LAYER_CHANGE
;Z:0.2
;HEIGHT:0.2
;BEFORE_LAYER_CHANGE
G92 E0.0
;0.2


G1 E-1.40000 F2100.000
G1 Z0.200 F10800.000
;AFTER_LAYER_CHANGE
;0.2
G1 Z0.400
G1 X179.054 Y30.655
M73 Q0 S214
G1 Z0.200
G1 E1.40000 F2100.000
M204 S1000
;TYPE:Skirt
;WIDTH:0.42
G1 F1200.000
G1 X179.957 Y30.478 E0.02884
G1 X180.534 Y30.550 E0.01823
G1 X181.076 Y30.760 E0.01823
G1 X181.551 Y31.095 E0.01823
G1 X181.931 Y31.536 E0.01823
G1 X211.934 Y78.366 E1.74383
G1 X212.093 Y78.837 E0.01562
G1 X212.151 Y79.332 E0.01562
G1 X212.151 Y98.432 E0.59887
M73 P0 R212
G1 X212.046 Y99.111 E0.02154
G1 X211.750 Y99.735 E0.02166
G1 X207.101 Y104.421 E0.20695
G1 X132.013 Y163.103 E2.98803
G1 X85.306 Y188.021 E1.65984
G1 X73.372 Y192.977 E0.40515
G1 X72.844 Y193.089 E0.01692
G1 X72.304 Y193.078 E0.01692
G1 X71.778 Y192.945 E0.01704
G1 X71.298 Y192.697 E0.01692
G1 X70.791 Y192.239 E0.02142
G1 X70.436 Y191.660 E0.02130
G1 X57.556 Y160.661 E1.05250
G1 X57.411 Y160.106 E0.01799
G1 X57.404 Y159.532 E0.01799
G1 X57.534 Y158.973 E0.01799
G1 X57.792 Y158.465 E0.01787
G1 X94.930 Y113.982 E1.81691
G1 X178.286 Y31.161 E3.68432
G1 X179.004 Y30.688 E0.02696
;WIPE_START
G1 F8640.000
G1 X179.957 Y30.478 E-0.22525
G1 X180.534 Y30.550 E-0.13423
G1 X181.076 Y30.760 E-0.13423
G1 X181.551 Y31.095 E-0.13423
G1 X181.931 Y31.536 E-0.13423
G1 X183.257 Y33.606 E-0.56783
;WIPE_END
G1 E-0.07000 F2100.000
G1 Z0.400 F10800.000
G1 X198.462 Y76.820
G1 Z0.200
G1 E1.40000 F2100.000
;TYPE:Support material
G1 F1200.000
G1 X198.462 Y75.043 E0.05574
G1 X199.216 Y75.043 E0.02365
G1 X199.216 Y78.635 E0.11265
G1 X209.774 Y98.413 F10800.000
G1 F1200.000
G1 X209.774 Y79.358 E0.59745
G1 X209.020 Y79.358 E0.02365
G1 X209.020 Y98.243 E0.59213
G1 X208.266 Y98.243 E0.02365
G1 X208.266 Y79.358 E0.59213
G1 X207.512 Y79.358 E0.02365
G1 X207.512 Y98.243 E0.59213
G1 X206.757 Y98.243 E0.02365
G1 X206.757 Y79.358 E0.59213
G1 X206.003 Y79.358 E0.02365
G1 X206.003 Y98.243 E0.59213
G1 X205.623 Y98.243 E0.01192
G1 X205.623 Y102.559 E0.13531
G1 X205.249 Y102.559 E0.01173
G1 X205.249 Y75.043 E0.86276
G1 X204.495 Y75.043 E0.02365
G1 X204.495 Y102.559 E0.86276
G1 X203.741 Y102.559 E0.02365
G1 X203.741 Y75.043 E0.86276
G1 X202.987 Y75.043 E0.02365
G1 X202.987 Y102.559 E0.86276
G1 X202.233 Y102.559 E0.02365
G1 X202.233 Y75.043 E0.86276
G1 X201.478 Y75.043 E0.02365
G1 X201.478 Y102.559 E0.86276
G1 X200.724 Y102.559 E0.02365
G1 X200.724 Y75.043 E0.86276
G1 X199.970 Y75.043 E0.02365
G1 X199.970 Y102.559 E0.86276
G1 X199.216 Y102.559 E0.02365
G1 X199.216 Y80.029 E0.70642
G1 X198.462 Y80.344 E0.02562
G1 X198.462 Y102.559 E0.69655
G1 X197.708 Y102.559 E0.02365
G1 X197.708 Y80.659 E0.68668
G1 X196.953 Y80.973 E0.02562
G1 X196.953 Y106.875 E0.81212
G1 X196.199 Y106.875 E0.02365
G1 X196.199 Y81.248 E0.80351
G1 X195.875 Y81.116 E0.01097
G1 X195.445 Y80.108 E0.03438
G1 X195.445 Y106.875 E0.83926
G1 X194.691 Y106.875 E0.02365
G1 X194.691 Y78.339 E0.89472
G1 X193.937 Y76.570 E0.06029
G1 X193.937 Y106.875 E0.95018
G1 X193.183 Y106.875 E0.02365
G1 X193.183 Y74.802 E1.00563
G1 X192.428 Y73.033 E0.06029
G1 X192.428 Y106.875 E1.06109
G1 X191.674 Y106.875 E0.02365
G1 X191.674 Y71.264 E1.11654
G1 X190.920 Y69.495 E0.06029
G1 X190.920 Y106.875 E1.17200
M73 Q0 S213
G1 X190.166 Y106.875 E0.02365
G1 X190.166 Y67.727 E1.22746
G1 X189.412 Y65.958 E0.06029
G1 X189.412 Y106.875 E1.28291
M73 P0 R211
G1 X188.658 Y106.875 E0.02365
G1 X188.658 Y64.189 E1.33837
G1 X187.904 Y62.421 E0.06029
G1 X187.904 Y106.875 E1.39383
G1 X187.149 Y106.875 E0.02365
G1 X187.149 Y60.652 E1.44928
G1 X186.904 Y60.076 E0.01964
G1 X186.395 Y59.933 E0.01656
G1 X186.395 Y76.665 E0.52463
G1 X185.641 Y76.665 E0.02365
G1 X185.641 Y59.722 E0.53126
G1 X184.887 Y59.510 E0.02456
G1 X184.887 Y76.665 E0.53789
G1 X184.133 Y76.665 E0.02365
G1 X184.133 Y59.299 E0.54452
G1 X183.379 Y59.087 E0.02456
G1 X183.379 Y76.665 E0.55115
G1 X182.624 Y76.665 E0.02365
G1 X182.624 Y58.876 E0.55778
G1 X181.870 Y58.664 E0.02456
G1 X181.870 Y68.034 E0.29379
G1 X181.116 Y68.034 E0.02365
G1 X181.116 Y58.453 E0.30042
G1 X180.362 Y58.241 E0.02456
G1 X180.362 Y68.034 E0.30705
G1 X179.608 Y68.034 E0.02365
G1 X179.608 Y58.030 E0.31368
G1 X178.854 Y57.818 E0.02456
G1 X178.854 Y68.034 E0.32031
G1 X178.099 Y68.034 E0.02365
G1 X178.099 Y57.607 E0.32694
G1 X177.345 Y57.395 E0.02456
G1 X177.345 Y68.034 E0.33357
G1 X176.591 Y68.034 E0.02365
G1 X176.591 Y57.184 E0.34021
G1 X175.837 Y56.972 E0.02456
G1 X175.837 Y68.034 E0.34684
G1 X175.083 Y68.034 E0.02365
G1 X175.083 Y56.761 E0.35347
G1 X174.329 Y56.549 E0.02456
G1 X174.329 Y68.034 E0.36010
G1 X173.575 Y68.034 E0.02365
G1 X173.575 Y56.338 E0.36673
G1 X172.820 Y56.126 E0.02456
G1 X172.820 Y68.034 E0.37336
G1 X172.066 Y68.034 E0.02365
G1 X172.066 Y55.915 E0.37999
G1 X171.312 Y55.703 E0.02456
G1 X171.312 Y68.034 E0.38662
G1 X171.098 Y68.034 E0.00670
G1 X171.098 Y72.350 E0.13531
G1 X170.558 Y72.350 E0.01694
G1 X170.558 Y55.492 E0.52857
G1 X169.804 Y55.280 E0.02456
G1 X169.804 Y72.350 E0.53520
G1 X169.050 Y72.350 E0.02365
G1 X169.050 Y55.589 E0.52553
G1 X168.295 Y55.905 E0.02565
G1 X168.295 Y72.350 E0.51560
G1 X167.541 Y72.350 E0.02365
G1 X167.541 Y56.222 E0.50567
G1 X166.787 Y56.539 E0.02565
G1 X166.787 Y72.350 E0.49574
G1 X166.033 Y72.350 E0.02365
G1 X166.033 Y56.855 E0.48582
G1 X165.279 Y57.172 E0.02565
G1 X165.279 Y72.350 E0.47589
G1 X164.525 Y72.350 E0.02365
G1 X164.525 Y57.489 E0.46596
G1 X163.770 Y57.805 E0.02565
G1 X163.770 Y72.350 E0.45603
G1 X163.016 Y72.350 E0.02365
G1 X163.016 Y58.122 E0.44610
G1 X162.262 Y58.439 E0.02565
G1 X162.262 Y76.665 E0.57149
G1 X161.508 Y76.665 E0.02365
G1 X161.508 Y58.806 E0.55996
G1 X160.754 Y59.678 E0.03614
G1 X160.754 Y76.665 E0.53264
G1 X160.000 Y76.665 E0.02365
G1 X160.000 Y60.549 E0.50531
G1 X159.245 Y61.421 E0.03614
G1 X159.245 Y76.665 E0.47799
G1 X158.491 Y76.665 E0.02365
G1 X158.491 Y62.292 E0.45066
G1 X157.737 Y63.164 E0.03614
G1 X157.737 Y76.665 E0.42334
G1 X156.983 Y76.665 E0.02365
G1 X156.983 Y64.035 E0.39601
G1 X156.229 Y64.907 E0.03614
G1 X156.229 Y76.665 E0.36869
G1 X155.475 Y76.665 E0.02365
G1 X155.475 Y65.778 E0.34136
G1 X154.721 Y66.650 E0.03614
G1 X154.721 Y76.835 E0.31936
;WIPE_START
G1 F8640.000
G1 X154.721 Y71.075 E-1.33000
;WIPE_END
G1 E-0.07000 F2100.000
G1 Z0.400 F10800.000
G1 X141.146 Y83.458
G1 Z0.200
G1 E1.40000 F2100.000
G1 F1200.000
G1 X141.146 Y82.336 E0.03518
G1 X141.900 Y81.465 E0.03614
G1 X141.900 Y84.794 E0.10440
G1 X142.654 Y86.563 E0.06029
G1 X142.654 Y80.593 E0.18718
G1 X143.408 Y79.722 E0.03614
G1 X143.408 Y88.332 E0.26996
G1 X144.162 Y90.100 E0.06029
G1 X144.162 Y78.850 E0.35274
G1 X144.916 Y77.979 E0.03614
G1 X144.916 Y91.869 E0.43552
G1 X145.671 Y93.638 E0.06029
G1 X145.671 Y77.107 E0.51830
G1 X146.425 Y76.236 E0.03614
G1 X146.425 Y95.407 E0.60108
G1 X147.179 Y97.175 E0.06029
G1 X147.179 Y75.364 E0.68387
G1 X147.933 Y74.493 E0.03614
G1 X147.933 Y99.377 E0.78021
G1 X154.721 Y92.135 F10800.000
G1 F1200.000
G1 X154.721 Y119.822 E0.86808
G1 X155.475 Y119.822 E0.02365
G1 X155.475 Y92.305 E0.86276
G1 X156.229 Y92.305 E0.02365
G1 X156.229 Y119.822 E0.86276
G1 X156.983 Y119.822 E0.02365
G1 X156.983 Y92.305 E0.86276
G1 X157.737 Y92.305 E0.02365
G1 X157.737 Y119.822 E0.86276
G1 X158.491 Y119.822 E0.02365
G1 X158.491 Y92.305 E0.86276
M73 Q0 S212
G1 X159.245 Y92.305 E0.02365
G1 X159.245 Y119.822 E0.86276
M73 P1 R211
M73 Q1 S212
G1 X160.000 Y119.822 E0.02365
G1 X160.000 Y92.305 E0.86276
G1 X160.754 Y92.305 E0.02365
G1 X160.754 Y119.822 E0.86276
M73 P1 R210
G1 X161.508 Y119.822 E0.02365
G1 X161.508 Y87.989 E0.99807
G1 X162.262 Y87.989 E0.02365
G1 X162.262 Y119.822 E0.99807
G1 X162.467 Y119.822 E0.00642
G1 X162.467 Y115.506 E0.13531
G1 X163.016 Y115.506 E0.01722
G1 X163.016 Y87.989 E0.86276
G1 X163.770 Y87.989 E0.02365
G1 X163.770 Y115.506 E0.86276
G1 X164.525 Y115.506 E0.02365
G1 X164.525 Y87.989 E0.86276
G1 X165.279 Y87.989 E0.02365
G1 X165.279 Y115.506 E0.86276
G1 X166.033 Y115.506 E0.02365
G1 X166.033 Y87.989 E0.86276
G1 X166.787 Y87.989 E0.02365
G1 X166.787 Y115.506 E0.86276
G1 X167.541 Y115.506 E0.02365
G1 X167.541 Y87.989 E0.86276
G1 X168.295 Y87.989 E0.02365
G1 X168.295 Y115.506 E0.86276
G1 X169.050 Y115.506 E0.02365
G1 X169.050 Y87.989 E0.86276
G1 X169.475 Y87.989 E0.01335
G1 X169.475 Y83.674 E0.13531
G1 X169.804 Y83.674 E0.01029
G1 X169.804 Y115.506 E0.99807
G1 X170.558 Y115.506 E0.02365
G1 X170.558 Y83.674 E0.99807
G1 X171.312 Y83.674 E0.02365
G1 X171.312 Y115.506 E0.99807
G1 X172.066 Y115.506 E0.02365
G1 X172.066 Y83.674 E0.99807
G1 X172.820 Y83.674 E0.02365
G1 X172.820 Y115.506 E0.99807
G1 X173.574 Y115.506 E0.02365
G1 X173.575 Y83.674 E0.99807
G1 X174.329 Y83.674 E0.02365
G1 X174.329 Y115.506 E0.99807
G1 X175.083 Y115.506 E0.02365
G1 X175.083 Y83.674 E0.99807
G1 X175.837 Y83.674 E0.02365
G1 X175.837 Y111.190 E0.86276
G1 X176.591 Y111.190 E0.02365
G1 X176.591 Y83.674 E0.86276
G1 X177.345 Y83.674 E0.02365
G1 X177.345 Y111.190 E0.86276
G1 X178.099 Y111.190 E0.02365
G1 X178.099 Y83.674 E0.86276
G1 X178.854 Y83.674 E0.02365
G1 X178.854 Y111.190 E0.86276
G1 X179.608 Y111.190 E0.02365
G1 X179.608 Y83.674 E0.86276
G1 X180.362 Y83.674 E0.02365
G1 X180.362 Y111.190 E0.86276
G1 X181.116 Y111.190 E0.02365
G1 X181.116 Y83.674 E0.86276
G1 X181.870 Y83.674 E0.02365
G1 X181.870 Y111.190 E0.86276
G1 X182.624 Y111.190 E0.02365
G1 X182.624 Y79.358 E0.99807
G1 X183.379 Y79.358 E0.02365
G1 X183.379 Y111.190 E0.99807
G1 X184.045 Y111.190 E0.02090
G1 X184.045 Y106.875 E0.13531
G1 X184.133 Y106.875 E0.00275
G1 X184.133 Y79.358 E0.86276
G1 X184.887 Y79.358 E0.02365
G1 X184.887 Y106.875 E0.86276
G1 X185.641 Y106.875 E0.02365
G1 X185.641 Y79.358 E0.86276
G1 X186.395 Y79.358 E0.02365
G1 X186.395 Y107.044 E0.86808
;WIPE_START
G1 F8640.000
G1 X186.395 Y101.284 E-1.33000
;WIPE_END
G1 E-0.07000 F2100.000
G1 Z0.400 F10800.000
G1 X153.966 Y124.307
G1 Z0.200
G1 E1.40000 F2100.000
G1 F1200.000
G1 X153.966 Y67.521 E1.78048
M73 Q1 S211
G1 X153.212 Y68.393 E0.03614
G1 X153.212 Y124.137 E1.74784
G1 X152.458 Y124.137 E0.02365
G1 X152.458 Y69.264 E1.72051
M73 P1 R209
G1 X151.704 Y70.135 E0.03614
G1 X151.704 Y124.137 E1.69319
G1 X150.950 Y124.137 E0.02365
G1 X150.950 Y71.007 E1.66586
G1 X150.196 Y71.878 E0.03614
G1 X150.196 Y124.137 E1.63854
G1 X149.441 Y124.137 E0.02365
G1 X149.441 Y72.750 E1.61121
G1 X148.687 Y73.621 E0.03614
G1 X148.687 Y124.137 E1.58389
G1 X147.933 Y124.137 E0.02365
G1 X147.933 Y101.469 E0.71073
G1 X147.179 Y101.782 E0.02560
G1 X147.179 Y124.137 E0.70093
G1 X146.425 Y124.137 E0.02365
G1 X146.425 Y102.095 E0.69112
G1 X145.671 Y102.408 E0.02560
G1 X145.671 Y124.137 E0.68132
G1 X145.204 Y124.137 E0.01462
G1 X145.204 Y128.453 E0.13531
G1 X144.916 Y128.453 E0.00903
G1 X144.916 Y102.720 E0.80683
G1 X144.603 Y102.850 E0.01066
G1 X144.194 Y103.276 E0.01850
G1 X144.162 Y103.277 E0.00100
G1 X144.162 Y128.453 E0.78937
G1 X143.408 Y128.453 E0.02365
G1 X143.408 Y103.345 E0.78723
G1 X142.654 Y103.658 E0.02560
G1 X142.654 Y128.453 E0.77743
G1 X141.900 Y128.453 E0.02365
G1 X141.900 Y103.971 E0.76762
G1 X141.146 Y104.283 E0.02560
G1 X141.146 Y128.453 E0.75782
G1 X140.392 Y128.453 E0.02365
G1 X140.392 Y104.596 E0.74801
G1 X139.637 Y104.909 E0.02560
G1 X139.637 Y128.453 E0.73821
G1 X138.883 Y128.453 E0.02365
G1 X138.883 Y105.221 E0.72840
G1 X138.129 Y105.534 E0.02560
G1 X138.129 Y128.453 E0.71860
G1 X137.375 Y128.453 E0.02365
G1 X137.375 Y105.847 E0.70879
G1 X136.621 Y106.160 E0.02560
G1 X136.621 Y128.453 E0.69899
G1 X135.867 Y128.453 E0.02365
G1 X135.867 Y106.472 E0.68919
G1 X135.112 Y106.785 E0.02560
G1 X135.112 Y128.453 E0.67938
G1 X134.358 Y128.453 E0.02365
G1 X134.358 Y107.099 E0.66952
G1 X133.604 Y107.414 E0.02562
G1 X133.604 Y128.453 E0.65965
G1 X132.850 Y128.453 E0.02365
G1 X132.850 Y107.729 E0.64978
G1 X132.096 Y108.044 E0.02562
G1 X132.096 Y132.768 E0.77522
G1 X131.342 Y132.768 E0.02365
G1 X131.342 Y108.359 E0.76535
G1 X130.587 Y108.673 E0.02562
G1 X130.587 Y132.768 E0.75549
G1 X129.833 Y132.768 E0.02365
G1 X129.833 Y108.988 E0.74562
G1 X129.079 Y109.303 E0.02562
G1 X129.079 Y132.768 E0.73575
G1 X128.325 Y132.768 E0.02365
G1 X128.325 Y109.618 E0.72588
G1 X127.571 Y109.932 E0.02562
G1 X127.571 Y132.768 E0.71601
G1 X126.817 Y132.768 E0.02365
G1 X126.817 Y110.247 E0.70614
G1 X126.062 Y110.562 E0.02562
G1 X126.062 Y132.768 E0.69627
G1 X125.308 Y132.768 E0.02365
G1 X125.308 Y110.877 E0.68640
G1 X124.554 Y111.192 E0.02562
G1 X124.554 Y132.768 E0.67653
G1 X123.800 Y132.768 E0.02365
G1 X123.800 Y111.506 E0.66666
G1 X123.046 Y111.821 E0.02562
G1 X123.046 Y137.084 E0.79210
M73 Q1 S210
G1 X122.292 Y137.084 E0.02365
G1 X122.292 Y112.136 E0.78223
G1 X121.538 Y112.451 E0.02562
G1 X121.538 Y137.084 E0.77236
G1 X121.185 Y137.084 E0.01105
G1 X120.783 Y136.123 E0.03266
G1 X120.783 Y112.765 E0.73236
M73 P1 R208
G1 X120.029 Y113.080 E0.02562
G1 X120.029 Y134.318 E0.66590
G1 X119.275 Y132.513 E0.06133
G1 X119.275 Y113.395 E0.59944
G1 X118.521 Y113.710 E0.02562
G1 X118.521 Y130.709 E0.53299
G1 X117.989 Y129.437 E0.04323
G1 X117.767 Y129.345 E0.00754
G1 X117.767 Y114.025 E0.48037
G1 X117.013 Y114.339 E0.02562
G1 X117.013 Y128.799 E0.45339
M73 P2 R208
G1 X116.258 Y126.993 E0.06139
G1 X116.258 Y114.654 E0.38687
G1 X115.504 Y114.969 E0.02562
G1 X115.504 Y125.186 E0.32034
G1 X114.750 Y123.379 E0.06139
M73 Q2 S210
G1 X114.750 Y115.284 E0.25382
G1 X113.996 Y115.598 E0.02562
G1 X113.996 Y121.572 E0.18730
G1 X113.242 Y119.765 E0.06139
G1 X113.242 Y115.913 E0.12078
G1 X112.488 Y116.228 E0.02562
G1 X112.488 Y118.399 E0.06807
;WIPE_START
G1 F8640.000
G1 X112.488 Y116.228 E-0.50125
G1 X113.242 Y115.913 E-0.18870
G1 X113.242 Y118.685 E-0.64005
;WIPE_END
G1 E-0.07000 F2100.000
G1 Z0.400 F10800.000
G1 X98.913 Y118.209
G1 Z0.200
G1 E1.40000 F2100.000
G1 F1200.000
G1 X98.913 Y117.765 E0.01393
G1 X98.159 Y117.051 E0.03256
G1 X98.159 Y118.759 E0.05355
G1 X97.404 Y119.555 E0.03439
G1 X97.404 Y116.337 E0.10092
G1 X96.650 Y115.622 E0.03256
G1 X96.650 Y132.768 E0.53760
G1 X97.404 Y132.768 E0.02365
G1 X97.404 Y120.468 E0.38568
G1 X98.159 Y121.182 E0.03256
G1 X98.159 Y132.768 E0.36329
G1 X98.688 Y132.768 E0.01660
G1 X98.913 Y132.532 E0.01024
G1 X98.913 Y121.896 E0.33348
G1 X99.667 Y122.610 E0.03256
G1 X99.667 Y131.737 E0.28618
G1 X100.421 Y130.943 E0.03434
G1 X100.421 Y123.324 E0.23889
G1 X101.175 Y124.039 E0.03258
G1 X101.175 Y130.148 E0.19157
G1 X101.929 Y129.354 E0.03434
G1 X101.929 Y124.755 E0.14421
G1 X102.684 Y125.471 E0.03261
G1 X102.684 Y128.560 E0.09686
G1 X103.438 Y127.765 E0.03434
G1 X103.438 Y126.187 E0.04950
G1 X104.192 Y126.903 E0.03261
G1 X104.192 Y127.217 E0.00987
;WIPE_START
G1 F8640.000
G1 X104.192 Y126.903 E-0.07269
