; generated by PrusaSlicer 2.3.0+win64 on 2021-07-07 at 19:07:02 UTC

; 

; external perimeters extrusion width = 0.60mm
; perimeters extrusion width = 0.50mm
; infill extrusion width = 0.50mm
; solid infill extrusion width = 0.50mm
; top infill extrusion width = 0.45mm
; support material extrusion width = 0.38mm
; first layer extrusion width = 0.42mm

M73 P0 R203
M73 Q0 S205
M201 X1000 Y1000 Z200 E5000 ; sets maximum accelerations, mm/sec^2
M203 X200 Y200 Z12 E120 ; sets maximum feedrates, mm/sec
M204 P1250 R1250 T1250 ; sets acceleration (P, T) and retract acceleration (R), mm/sec^2
M205 X8.00 Y8.00 Z0.40 E4.50 ; sets the jerk limits, mm/sec
M205 S0 T0 ; sets the minimum extruding and travel feed rate, mm/sec
M107
;TYPE:Custom
M862.3 P "MK3S" ; printer model check
M862.1 P0.4 ; nozzle diameter check
M115 U3.9.1 ; tell printer latest fw version
G90 ; use absolute coordinates
M83 ; extruder relative mode
M104 S215 ; set extruder temp
M140 S60 ; set bed temp
M190 S60 ; wait for bed temp
M109 S215 ; wait for extruder temp
G28 W ; home all without mesh bed level
G80 ; mesh bed leveling
G1 Y-3.0 F1000.0 ; go outside print area
G92 E0.0
G1 X60.0 E9.0 F1000.0 ; intro line
G1 X100.0 E12.5 F1000.0 ; intro line
G92 E0.0
M221 S95

; Don't change E values below. Excessive value can damage the printer.

M907 E538 ; set extruder motor current
G21 ; set units to millimeters
G90 ; use absolute coordinates
M83 ; use relative distances for extrusion
M900 K0.05 ; Filament gcode LA 1.5
M900 K30 ; Filament gcode LA 1.0
;LAYER_CHANGE
;Z:0.2
;HEIGHT:0.2
;BEFORE_LAYER_CHANGE
G92 E0.0
;0.2


G1 E-0.80000 F2100.000
G1 Z0.600 F10800.000
;AFTER_LAYER_CHANGE
;0.2
G1 X63.000 Y132.771
G1 Z0.200
G1 E0.80000 F2100.000
M204 S1000
;TYPE:Skirt
;WIDTH:0.42
G1 F1200.000
G1 X69.306 Y125.803 E0.29466
G1 X86.038 Y109.093 E0.74144
G1 X178.424 Y31.030 E3.79234
G1 X179.141 Y30.618 E0.02590
G1 X179.954 Y30.476 E0.02590
G1 X180.546 Y30.551 E0.01870
G1 X181.100 Y30.772 E0.01870
G1 X181.582 Y31.124 E0.01870
G1 X181.961 Y31.585 E0.01870
G1 X208.040 Y73.185 E1.53946
G1 X211.200 Y80.093 E0.23820
G1 X211.398 Y81.018 E0.02966
G1 X211.398 Y100.436 E0.60884
G1 X211.292 Y101.115 E0.02154
G1 X210.997 Y101.735 E0.02154
G1 X210.480 Y102.290 E0.02378
G1 X132.001 Y163.112 E3.11312
G1 X85.310 Y188.023 E1.65930
G1 X73.377 Y192.980 E0.40515
G1 X72.849 Y193.091 E0.01692
G1 X72.305 Y193.080 E0.01704
G1 X71.782 Y192.947 E0.01692
G1 X71.302 Y192.700 E0.01692
G1 X70.795 Y192.242 E0.02142
G1 X70.438 Y191.655 E0.02154
G1 X57.572 Y160.696 E1.05119
G1 X57.415 Y160.117 E0.01882
G1 X57.437 Y159.332 E0.02461
G1 X62.648 Y133.617 E0.82267
G1 X62.977 Y132.827 E0.02684
;WIPE_START
G1 F8640.000
G1 X65.181 Y130.382 E-0.76000
;WIPE_END
G1 E-0.04000 F2100.000
G1 Z0.800 F10800.000
G1 X64.977 Y146.832
G1 Z0.200
G1 E0.80000 F2100.000
;TYPE:Support material
G1 F1200.000
G1 X64.977 Y134.093 E0.39943
G1 X65.731 Y134.093 E0.02365
G1 X65.731 Y146.662 E0.39411
G1 X66.485 Y146.662 E0.02365
G1 X66.485 Y134.093 E0.39411
G1 X67.239 Y134.093 E0.02365
G1 X67.239 Y146.662 E0.39411
G1 X67.993 Y146.662 E0.02365
G1 X67.993 Y130.777 E0.49807
G1 X68.747 Y130.777 E0.02365
G1 X68.747 Y146.662 E0.49807
G1 X69.501 Y146.662 E0.02365
G1 X69.501 Y130.777 E0.49807
G1 X70.256 Y130.777 E0.02365
G1 X70.256 Y146.662 E0.49807
G1 X71.010 Y146.662 E0.02365
G1 X71.010 Y127.461 E0.60203
G1 X71.764 Y127.461 E0.02365
G1 X71.764 Y146.639 E0.60131
G1 X72.518 Y145.843 E0.03439
G1 X72.518 Y127.461 E0.57633
G1 X73.272 Y127.461 E0.02365
G1 X73.272 Y145.046 E0.55136
M73 P0 R202
G1 X73.361 Y144.952 E0.00407
G1 X73.766 Y144.941 E0.01269
G1 X74.026 Y145.187 E0.01124
G1 X74.026 Y127.461 E0.55578
G1 X74.270 Y127.461 E0.00765
G1 X74.270 Y124.146 E0.10396
G1 X74.781 Y124.146 E0.01600
G1 X74.781 Y145.901 E0.68213
G1 X75.535 Y146.615 E0.03256
G1 X75.535 Y124.146 E0.70451
G1 X76.289 Y124.146 E0.02365
G1 X76.289 Y146.662 E0.70599
M73 Q0 S204
G1 X77.043 Y146.662 E0.02365
G1 X77.043 Y124.146 E0.70599
G1 X77.586 Y124.146 E0.01702
G1 X77.586 Y120.830 E0.10396
G1 X77.797 Y120.830 E0.00663
G1 X77.797 Y146.662 E0.80995
G1 X78.551 Y146.662 E0.02365
G1 X78.551 Y120.830 E0.80995
G1 X79.306 Y120.830 E0.02365
G1 X79.306 Y146.662 E0.80995
G1 X80.060 Y146.662 E0.02365
G1 X80.060 Y120.830 E0.80995
G1 X80.814 Y120.830 E0.02365
G1 X80.814 Y143.347 E0.70599
G1 X81.568 Y143.347 E0.02365
G1 X81.568 Y117.515 E0.80995
G1 X82.322 Y117.515 E0.02365
G1 X82.322 Y143.347 E0.80995
G1 X83.076 Y143.347 E0.02365
G1 X83.076 Y117.515 E0.80995
G1 X83.830 Y117.515 E0.02365
G1 X83.830 Y140.031 E0.70599
G1 X84.585 Y140.031 E0.02365
G1 X84.585 Y114.199 E0.80995
G1 X85.339 Y114.199 E0.02365
G1 X85.339 Y140.031 E0.80995
G1 X86.093 Y140.031 E0.02365
G1 X86.093 Y114.199 E0.80995
G1 X86.847 Y114.199 E0.02365
G1 X86.847 Y133.400 E0.60203
G1 X87.601 Y133.400 E0.02365
G1 X87.601 Y110.883 E0.70599
G1 X88.355 Y110.883 E0.02365
G1 X88.355 Y133.400 E0.70599
G1 X89.110 Y133.400 E0.02365
G1 X89.110 Y110.883 E0.70599
G1 X89.864 Y110.883 E0.02365
G1 X89.864 Y133.400 E0.70599
G1 X90.156 Y133.400 E0.00915
G1 X90.156 Y130.084 E0.10396
G1 X90.618 Y130.084 E0.01450
G1 X90.618 Y110.883 E0.60203
G1 X91.372 Y110.883 E0.02365
G1 X91.372 Y130.084 E0.60203
G1 X92.126 Y130.084 E0.02365
G1 X92.126 Y110.883 E0.60203
G1 X92.880 Y110.883 E0.02365
G1 X92.880 Y130.084 E0.60203
G1 X93.471 Y130.084 E0.01852
G1 X93.471 Y126.769 E0.10396
G1 X93.635 Y126.769 E0.00512
G1 X93.635 Y110.883 E0.49807
G1 X94.389 Y110.883 E0.02365
G1 X94.389 Y126.769 E0.49807
G1 X95.143 Y126.769 E0.02365
G1 X95.143 Y110.883 E0.49807
G1 X95.897 Y110.883 E0.02365
G1 X95.897 Y126.938 E0.50339
;WIPE_START
G1 F8640.000
G1 X95.897 Y123.647 E-0.76000
;WIPE_END
G1 E-0.04000 F2100.000
G1 Z0.800 F10800.000
G1 X99.668 Y123.623
G1 Z0.200
G1 E0.80000 F2100.000
G1 F1200.000
G1 X99.668 Y122.480 E0.03583
G1 X99.534 Y122.484 E0.00421
G1 X98.914 Y121.897 E0.02677
G1 X98.914 Y123.453 E0.04878
G1 X98.160 Y123.453 E0.02365
G1 X98.160 Y121.183 E0.07117
G1 X97.405 Y120.469 E0.03256
G1 X97.405 Y123.453 E0.09355
G1 X96.787 Y123.453 E0.01940
G1 X96.787 Y126.769 E0.10396
G1 X96.651 Y126.769 E0.00425
G1 X96.651 Y110.883 E0.49807
G1 X97.405 Y110.883 E0.02365
G1 X97.405 Y119.556 E0.27193
G1 X98.160 Y118.759 E0.03440
G1 X98.160 Y110.883 E0.24695
G1 X98.914 Y110.883 E0.02365
G1 X98.914 Y117.963 E0.22197
G1 X99.668 Y117.166 E0.03440
G1 X99.668 Y110.714 E0.20231
;WIPE_START
G1 F8640.000
G1 X99.668 Y114.005 E-0.76000
;WIPE_END
G1 E-0.04000 F2100.000
G1 Z0.800 F10800.000
G1 X112.489 Y116.044
G1 Z0.200
G1 E0.80000 F2100.000
G1 F1200.000
G1 X112.489 Y117.960 E0.06005
G1 X113.243 Y119.766 E0.06138
G1 X113.243 Y115.913 E0.12080
G1 X113.997 Y115.599 E0.02562
G1 X113.997 Y121.573 E0.18732
G1 X114.751 Y123.379 E0.06138
G1 X114.751 Y115.284 E0.25383
G1 X115.505 Y114.969 E0.02562
G1 X115.505 Y125.186 E0.32035
G1 X116.259 Y126.993 E0.06138
G1 X116.259 Y114.654 E0.38686
G1 X117.013 Y114.339 E0.02562
G1 X117.013 Y128.799 E0.45338
G1 X117.275 Y129.426 E0.02128
G1 X117.616 Y129.283 E0.01160
G1 X117.768 Y129.345 E0.00513
G1 X117.768 Y114.025 E0.48037
G1 X118.522 Y113.710 E0.02562
G1 X118.522 Y130.708 E0.53297
G1 X119.276 Y132.513 E0.06132
G1 X119.276 Y113.395 E0.59942
G1 X120.030 Y113.080 E0.02562
G1 X120.030 Y133.400 E0.63711
G1 X120.784 Y133.400 E0.02365
G1 X120.784 Y112.765 E0.64698
G1 X121.538 Y112.450 E0.02562
G1 X121.538 Y133.400 E0.65685
G1 X122.293 Y133.400 E0.02365
G1 X122.293 Y112.136 E0.66672
G1 X123.047 Y111.821 E0.02562
G1 X123.047 Y133.400 E0.67659
G1 X123.801 Y133.400 E0.02365
G1 X123.801 Y111.506 E0.68646
G1 X124.555 Y111.191 E0.02562
G1 X124.555 Y133.400 E0.69634
G1 X125.309 Y133.400 E0.02365
G1 X125.309 Y110.876 E0.70621
G1 X126.063 Y110.561 E0.02562
G1 X126.063 Y133.400 E0.71608
G1 X126.818 Y133.400 E0.02365
G1 X126.818 Y110.247 E0.72595
G1 X127.572 Y109.932 E0.02562
G1 X127.572 Y133.400 E0.73582
G1 X128.326 Y133.400 E0.02365
G1 X128.326 Y109.617 E0.74569
G1 X129.080 Y109.302 E0.02562
G1 X129.080 Y133.400 E0.75556
M73 P0 R201
G1 X129.834 Y133.400 E0.02365
G1 X129.834 Y108.987 E0.76543
G1 X130.588 Y108.673 E0.02562
G1 X130.588 Y130.084 E0.67134
G1 X131.343 Y130.084 E0.02365
G1 X131.343 Y108.358 E0.68122
M73 Q0 S203
G1 X132.097 Y108.043 E0.02562
G1 X132.097 Y130.084 E0.69109
G1 X132.851 Y130.084 E0.02365
G1 X132.851 Y107.728 E0.70096
G1 X133.605 Y107.413 E0.02562
G1 X133.605 Y130.084 E0.71083
G1 X134.359 Y130.084 E0.02365
G1 X134.359 Y107.098 E0.72070
G1 X135.113 Y106.784 E0.02562
G1 X135.113 Y130.084 E0.73056
G1 X135.867 Y130.084 E0.02365
G1 X135.867 Y106.471 E0.74037
G1 X136.622 Y106.158 E0.02560
G1 X136.622 Y126.769 E0.64622
G1 X137.376 Y126.769 E0.02365
G1 X137.376 Y105.846 E0.65602
G1 X138.130 Y105.533 E0.02560
G1 X138.130 Y126.769 E0.66583
G1 X138.884 Y126.769 E0.02365
G1 X138.884 Y105.220 E0.67564
G1 X139.638 Y104.907 E0.02560
G1 X139.638 Y126.769 E0.68544
G1 X140.392 Y126.769 E0.02365
G1 X140.392 Y104.595 E0.69525
G1 X141.147 Y104.282 E0.02560
G1 X141.147 Y126.769 E0.70505
G1 X141.901 Y126.769 E0.02365
G1 X141.901 Y103.969 E0.71486
M73 P1 R201
G1 X142.655 Y103.656 E0.02560
G1 X142.655 Y126.938 E0.72998
;WIPE_START
M73 Q1 S203
G1 F8640.000
G1 X142.655 Y123.647 E-0.76000
;WIPE_END
G1 E-0.04000 F2100.000
G1 Z0.800 F10800.000
G1 X149.442 Y123.623
G1 Z0.200
G1 E0.80000 F2100.000
G1 F1200.000
G1 X149.442 Y72.745 E1.59522
G1 X148.688 Y73.617 E0.03614
G1 X148.688 Y123.453 E1.56257
G1 X147.934 Y123.453 E0.02365
G1 X147.934 Y101.468 E0.68934
G1 X147.180 Y101.780 E0.02560
G1 X147.180 Y123.453 E0.67953
G1 X146.426 Y123.453 E0.02365
G1 X146.426 Y110.883 E0.39411
G1 X145.672 Y110.883 E0.02365
G1 X145.672 Y123.453 E0.39411
G1 X144.917 Y123.453 E0.02365
G1 X144.917 Y110.883 E0.39411
G1 X144.163 Y110.883 E0.02365
G1 X144.163 Y123.453 E0.39411
G1 X143.409 Y123.453 E0.02365
G1 X143.409 Y110.883 E0.39411
G1 X143.205 Y110.883 E0.00639
G1 X143.205 Y110.190 E0.02172
G1 X143.409 Y110.190 E0.00639
G1 X143.409 Y103.344 E0.21467
G1 X143.718 Y103.216 E0.01049
G1 X143.790 Y103.284 E0.00311
G1 X144.163 Y103.276 E0.01171
G1 X144.163 Y110.190 E0.21680
G1 X144.917 Y110.190 E0.02365
G1 X144.917 Y102.718 E0.23429
G1 X145.672 Y102.406 E0.02560
G1 X145.672 Y110.190 E0.24409
G1 X146.426 Y110.190 E0.02365
G1 X146.426 Y101.909 E0.25965
;WIPE_START
G1 F8640.000
G1 X146.426 Y105.201 E-0.76000
;WIPE_END
G1 E-0.04000 F2100.000
G1 Z0.800 F10800.000
G1 X147.934 Y99.378
G1 Z0.200
G1 E0.80000 F2100.000
G1 F1200.000
G1 X147.934 Y74.489 E0.78040
G1 X147.180 Y75.360 E0.03614
G1 X147.180 Y97.177 E0.68406
G1 X146.426 Y95.409 E0.06028
G1 X146.426 Y76.232 E0.60129
G1 X145.672 Y77.103 E0.03614
G1 X145.672 Y93.640 E0.51851
G1 X144.917 Y91.872 E0.06028
G1 X144.917 Y77.975 E0.43573
G1 X144.163 Y78.846 E0.03614
G1 X144.163 Y90.103 E0.35296
G1 X143.409 Y88.335 E0.06028
G1 X143.409 Y79.718 E0.27018
G1 X142.655 Y80.590 E0.03614
G1 X142.655 Y86.567 E0.18740
G1 X141.901 Y84.798 E0.06028
G1 X141.901 Y81.461 E0.10463
G1 X141.147 Y82.333 E0.03614
G1 X141.147 Y83.462 E0.03541
G1 X157.738 Y120.307 F10800.000
G1 F1200.000
G1 X157.738 Y90.990 E0.91923
G1 X158.492 Y90.990 E0.02365
G1 X158.492 Y120.137 E0.91391
G1 X159.246 Y120.137 E0.02365
G1 X159.246 Y90.990 E0.91391
G1 X160.001 Y90.990 E0.02365
G1 X160.001 Y103.559 E0.39411
G1 X159.784 Y103.559 E0.00681
G1 X159.784 Y104.252 E0.02172
G1 X160.001 Y104.252 E0.00681
G1 X160.001 Y116.822 E0.39411
G1 X160.755 Y116.822 E0.02365
G1 X160.755 Y104.252 E0.39411
G1 X161.509 Y104.252 E0.02365
G1 X161.509 Y116.822 E0.39411
G1 X162.263 Y116.822 E0.02365
G1 X162.263 Y104.252 E0.39411
G1 X163.017 Y104.252 E0.02365
G1 X163.017 Y116.822 E0.39411
G1 X163.771 Y116.822 E0.02365
G1 X163.771 Y90.990 E0.80995
G1 X163.792 Y90.990 E0.00065
G1 X163.792 Y87.674 E0.10396
G1 X164.526 Y87.674 E0.02300
G1 X164.526 Y116.822 E0.91391
G1 X165.280 Y116.822 E0.02365
G1 X165.280 Y87.674 E0.91391
G1 X166.034 Y87.674 E0.02365
G1 X166.034 Y116.822 E0.91391
G1 X166.788 Y116.822 E0.02365
G1 X166.788 Y87.674 E0.91391
G1 X167.542 Y87.674 E0.02365
G1 X167.542 Y116.822 E0.91391
M73 P1 R200
G1 X168.296 Y116.822 E0.02365
G1 X168.296 Y87.674 E0.91391
G1 X169.050 Y87.674 E0.02365
G1 X169.050 Y116.991 E0.91923
;WIPE_START
G1 F8640.000
G1 X169.050 Y113.700 E-0.76000
;WIPE_END
M73 Q1 S202
G1 E-0.04000 F2100.000
G1 Z0.800 F10800.000
G1 X163.017 Y103.729
G1 Z0.200
G1 E0.80000 F2100.000
G1 F1200.000
G1 X163.017 Y90.990 E0.39943
G1 X162.263 Y90.990 E0.02365
G1 X162.263 Y103.559 E0.39411
G1 X161.509 Y103.559 E0.02365
G1 X161.509 Y90.990 E0.39411
G1 X160.755 Y90.990 E0.02365
G1 X160.755 Y103.729 E0.39943
G1 X153.967 Y94.135 F10800.000
G1 F1200.000
G1 X153.967 Y106.875 E0.39943
G1 X154.721 Y106.875 E0.02365
G1 X154.721 Y94.305 E0.39411
G1 X155.476 Y94.305 E0.02365
G1 X155.476 Y106.875 E0.39411
G1 X156.230 Y106.875 E0.02365
G1 X156.230 Y94.305 E0.39411
G1 X156.984 Y94.305 E0.02365
G1 X156.984 Y106.875 E0.39411
G1 X157.161 Y106.875 E0.00554
G1 X157.161 Y107.568 E0.02172
G1 X156.984 Y107.568 E0.00554
G1 X156.984 Y120.137 E0.39411
G1 X156.230 Y120.137 E0.02365
G1 X156.230 Y107.568 E0.39411
G1 X155.476 Y107.568 E0.02365
G1 X155.476 Y120.137 E0.39411
G1 X154.721 Y120.137 E0.02365
G1 X154.721 Y107.568 E0.39411
G1 X153.967 Y107.568 E0.02365
G1 X153.967 Y120.137 E0.39411
G1 X153.213 Y120.137 E0.02365
G1 X153.213 Y94.305 E0.80995
G1 X153.152 Y94.305 E0.00191
G1 X153.152 Y87.674 E0.20792
G1 X152.459 Y87.674 E0.02174
G1 X152.459 Y123.453 E1.12182
G1 X151.705 Y123.453 E0.02365
G1 X151.705 Y87.674 E1.12182
G1 X150.951 Y87.674 E0.02365
G1 X150.951 Y123.453 E1.12182
G1 X150.196 Y123.453 E0.02365
G1 X150.196 Y87.674 E1.12182
G1 X149.837 Y87.674 E0.01128
G1 X149.837 Y83.665 E0.12568
G1 X150.196 Y83.665 E0.01128
G1 X150.196 Y71.874 E0.36972
G1 X150.951 Y71.002 E0.03614
G1 X150.951 Y83.665 E0.39704
G1 X151.705 Y83.665 E0.02365
G1 X151.705 Y70.131 E0.42437
G1 X152.459 Y69.259 E0.03614
G1 X152.459 Y83.665 E0.45170
G1 X153.152 Y83.665 E0.02174
G1 X153.152 Y77.034 E0.20792
G1 X153.213 Y77.034 E0.00191
G1 X153.213 Y68.388 E0.27111
G1 X153.967 Y67.516 E0.03614
G1 X153.967 Y77.034 E0.29844
G1 X154.721 Y77.034 E0.02365
G1 X154.721 Y66.644 E0.32576
G1 X155.476 Y65.773 E0.03614
G1 X155.476 Y77.034 E0.35309
G1 X156.230 Y77.034 E0.02365
G1 X156.230 Y64.901 E0.38042
G1 X156.984 Y64.030 E0.03614
G1 X156.984 Y73.719 E0.30379
G1 X157.738 Y73.719 E0.02365
G1 X157.738 Y63.158 E0.33112
G1 X158.492 Y62.287 E0.03614
G1 X158.492 Y73.719 E0.35844
G1 X159.246 Y73.719 E0.02365
G1 X159.246 Y61.415 E0.38577
G1 X159.477 Y61.149 E0.01103
G1 X160.001 Y61.149 E0.01643
G1 X160.001 Y73.719 E0.39411
G1 X160.755 Y73.719 E0.02365
G1 X160.755 Y61.149 E0.39411
G1 X161.509 Y61.149 E0.02365
G1 X161.509 Y73.719 E0.39411
G1 X162.263 Y73.719 E0.02365
G1 X162.263 Y61.149 E0.39411
G1 X163.017 Y61.149 E0.02365
G1 X163.017 Y73.719 E0.39411
G1 X163.099 Y73.719 E0.00257
G1 X163.099 Y70.403 E0.10396
G1 X163.771 Y70.403 E0.02108
G1 X163.771 Y61.149 E0.29015
G1 X163.792 Y61.149 E0.00065
G1 X163.792 Y57.833 E0.10396
G1 X164.526 Y57.833 E0.02300
G1 X164.526 Y70.403 E0.39411
G1 X165.280 Y70.403 E0.02365
G1 X165.280 Y57.833 E0.39411
G1 X166.034 Y57.833 E0.02365
G1 X166.034 Y70.403 E0.39411
G1 X166.788 Y70.403 E0.02365
G1 X166.788 Y57.833 E0.39411
G1 X167.108 Y57.833 E0.01002
G1 X167.108 Y56.401 E0.04492
G1 X167.542 Y56.218 E0.01478
G1 X167.542 Y70.403 E0.44475
G1 X168.296 Y70.403 E0.02365
G1 X168.296 Y55.902 E0.45468
G1 X169.050 Y55.585 E0.02565
G1 X169.050 Y70.403 E0.46461
G1 X169.805 Y70.403 E0.02365
G1 X169.805 Y55.279 E0.47420
G1 X170.559 Y55.490 E0.02456
G1 X170.559 Y70.403 E0.46757
G1 X171.313 Y70.403 E0.02365
G1 X171.313 Y55.702 E0.46094
G1 X172.067 Y55.913 E0.02456
G1 X172.067 Y70.403 E0.45431
G1 X172.821 Y70.403 E0.02365
G1 X172.821 Y56.125 E0.44768
G1 X173.575 Y56.336 E0.02456
G1 X173.575 Y67.087 E0.33710
G1 X174.330 Y67.087 E0.02365
G1 X174.330 Y56.548 E0.33047
G1 X175.084 Y56.759 E0.02456
G1 X175.084 Y67.087 E0.32384
G1 X175.838 Y67.087 E0.02365
G1 X175.838 Y56.971 E0.31721
G1 X176.592 Y57.182 E0.02456
G1 X176.592 Y67.087 E0.31058
G1 X177.346 Y67.087 E0.02365
G1 X177.346 Y57.393 E0.30395
G1 X178.100 Y57.605 E0.02456
G1 X178.100 Y67.087 E0.29732
G1 X178.855 Y67.087 E0.02365
