; generated by PrusaSlicer 2.3.0+win64 on 2021-07-19 at 10:01:52 UTC

; 

; external perimeters extrusion width = 0.45mm
; perimeters extrusion width = 0.45mm
; infill extrusion width = 0.45mm
; solid infill extrusion width = 0.45mm
; top infill extrusion width = 0.40mm
; first layer extrusion width = 0.42mm

M73 P0 R9
M73 Q0 S9
M201 X1000 Y1000 Z200 E5000 ; sets maximum accelerations, mm/sec^2
M203 X200 Y200 Z12 E120 ; sets maximum feedrates, mm/sec
M204 P1250 R1250 T1250 ; sets acceleration (P, T) and retract acceleration (R), mm/sec^2
M205 X8.00 Y8.00 Z0.40 E4.50 ; sets the jerk limits, mm/sec
M205 S0 T0 ; sets the minimum extruding and travel feed rate, mm/sec
M107
;TYPE:Custom
M862.3 P "MK3S" ; printer model check
M862.1 P0.4 ; nozzle diameter check
M115 U3.9.1 ; tell printer latest fw version
G90 ; use absolute coordinates
M83 ; extruder relative mode
M104 S240 ; set extruder temp
M140 S85 ; set bed temp
M190 S85 ; wait for bed temp
M109 S240 ; wait for extruder temp
G28 W ; home all without mesh bed level
G80 ; mesh bed leveling
G1 Y-3.0 F1000.0 ; go outside print area
G92 E0.0
G1 X60.0 E9.0 F1000.0 ; intro line
G1 X100.0 E12.5 F1000.0 ; intro line
G92 E0.0
M221 S95

; Don't change E values below. Excessive value can damage the printer.

M907 E538 ; set extruder motor current
G21 ; set units to millimeters
G90 ; use absolute coordinates
M83 ; use relative distances for extrusion
M900 K0.08 ; Filament gcode LA 1.5
M900 K45 ; Filament gcode LA 1.0
;LAYER_CHANGE
;Z:0.2
;HEIGHT:0.2
;BEFORE_LAYER_CHANGE
G92 E0.0
;0.2


M73 P1 R9
M73 Q1 S9
G1 E-1.40000 F2100.000
G1 Z0.200 F10800.000
;AFTER_LAYER_CHANGE
;0.2
G1 Z0.400
G1 X111.261 Y92.439
G1 Z0.200
G1 E1.40000 F2100.000
M204 S1000
;TYPE:Skirt
;WIDTH:0.42
G1 F1200.000
G1 X112.204 Y92.247 E0.03018
G1 X137.729 Y92.246 E0.80032
G1 X138.738 Y92.439 E0.03221
G1 X139.603 Y92.985 E0.03208
G1 X140.209 Y93.810 E0.03208
G1 X140.472 Y94.799 E0.03208
G1 X140.477 Y115.115 E0.63700
G1 X140.399 Y115.662 E0.01733
G1 X140.215 Y116.178 E0.01720
G1 X139.932 Y116.648 E0.01720
G1 X139.561 Y117.053 E0.01720
G1 X138.739 Y117.561 E0.03031
G1 X137.796 Y117.753 E0.03018
G1 X112.254 Y117.754 E0.80083
M73 Q2 S9
G1 X111.685 Y117.690 E0.01796
G1 X111.141 Y117.510 E0.01796
G1 X110.646 Y117.221 E0.01796
G1 X110.222 Y116.836 E0.01796
G1 X109.717 Y116.021 E0.03006
M73 P2 R9
G1 X109.522 Y115.087 E0.02993
G1 X109.521 Y94.975 E0.63058
G1 X109.585 Y94.406 E0.01796
G1 X109.765 Y93.866 E0.01784
G1 X110.054 Y93.371 E0.01796
G1 X110.439 Y92.947 E0.01796
G1 X111.210 Y92.471 E0.02843
G1 X111.404 Y92.789 F10800.000
G1 F1200.000
G1 X112.224 Y92.623 E0.02623
G1 X137.729 Y92.623 E0.79969
G1 X138.603 Y92.791 E0.02790
G1 X139.351 Y93.266 E0.02778
G1 X139.875 Y93.985 E0.02790
G1 X140.097 Y94.847 E0.02790
G1 X140.101 Y115.088 E0.63464
G1 X139.874 Y116.017 E0.03001
G1 X139.295 Y116.785 E0.03013
G1 X138.590 Y117.214 E0.02590
G1 X137.776 Y117.377 E0.02602
G1 X112.256 Y117.377 E0.80017
G1 X111.761 Y117.321 E0.01562
G1 X111.285 Y117.161 E0.01574
G1 X110.856 Y116.908 E0.01562
G1 X110.490 Y116.570 E0.01562
G1 X110.062 Y115.868 E0.02579
G1 X109.899 Y115.066 E0.02567
M73 Q3 S9
G1 X109.898 Y94.977 E0.62987
M73 P3 R9
G1 X109.955 Y94.482 E0.01562
G1 X110.114 Y94.010 E0.01562
G1 X110.367 Y93.582 E0.01562
G1 X110.705 Y93.215 E0.01562
G1 X111.353 Y92.821 E0.02380
;WIPE_START
G1 F8640.000
G1 X112.224 Y92.623 E-0.20627
G1 X117.091 Y92.623 E-1.12374
;WIPE_END
G1 E-0.07000 F2100.000
G1 Z0.400 F10800.000
G1 X122.492 Y102.647
G1 Z0.200
G1 E1.40000 F2100.000
;TYPE:Perimeter
G1 F1200.000
G1 X122.808 Y102.350 E0.01360
G1 X123.139 Y102.110 E0.01282
G1 X123.534 Y101.889 E0.01418
G1 X123.938 Y101.730 E0.01360
G1 X124.333 Y101.628 E0.01281
G1 X124.784 Y101.568 E0.01426
G1 X125.239 Y101.571 E0.01426
G1 X125.644 Y101.622 E0.01281
G1 X126.062 Y101.730 E0.01354
G1 X126.464 Y101.888 E0.01354
G1 X126.844 Y102.097 E0.01360
G1 X127.208 Y102.366 E0.01418
G1 X127.506 Y102.646 E0.01283
G1 X127.782 Y102.978 E0.01353
G1 X128.013 Y103.343 E0.01354
G1 X128.198 Y103.735 E0.01359
G1 X128.334 Y104.163 E0.01410
G1 X128.410 Y104.562 E0.01273
G1 X128.438 Y104.989 E0.01342
G1 X128.410 Y105.437 E0.01408
G1 X128.330 Y105.858 E0.01344
G1 X128.197 Y106.267 E0.01346
G1 X128.013 Y106.657 E0.01353
G1 X127.794 Y107.003 E0.01283
G1 X127.508 Y107.353 E0.01418
G1 X127.192 Y107.650 E0.01360
G1 X126.861 Y107.890 E0.01282
G1 X126.466 Y108.111 E0.01419
G1 X126.062 Y108.270 E0.01360
G1 X125.667 Y108.372 E0.01281
G1 X125.216 Y108.432 E0.01426
G1 X124.761 Y108.429 E0.01426
G1 X124.356 Y108.378 E0.01281
G1 X123.938 Y108.270 E0.01354
G1 X123.536 Y108.112 E0.01354
G1 X123.156 Y107.903 E0.01360
G1 X122.792 Y107.634 E0.01418
G1 X122.494 Y107.354 E0.01283
G1 X122.218 Y107.022 E0.01353
G1 X121.987 Y106.657 E0.01354
G1 X121.802 Y106.265 E0.01359
G1 X121.666 Y105.837 E0.01410
G1 X121.590 Y105.438 E0.01273
G1 X121.562 Y105.011 E0.01342
G1 X121.590 Y104.563 E0.01408
G1 X121.670 Y104.142 E0.01344
G1 X121.803 Y103.733 E0.01346
G1 X121.987 Y103.343 E0.01353
G1 X122.206 Y102.997 E0.01283
G1 X122.454 Y102.693 E0.01230
G1 X122.746 Y102.932 F10800.000
;TYPE:External perimeter
G1 F1200.000
G1 X123.049 Y102.641 E0.01316
G1 X123.343 Y102.428 E0.01138
G1 X123.696 Y102.231 E0.01270
G1 X124.054 Y102.089 E0.01207
G1 X124.405 Y101.999 E0.01137
G1 X124.808 Y101.945 E0.01273
G1 X125.214 Y101.948 E0.01273
G1 X125.573 Y101.993 E0.01136
G1 X125.946 Y102.089 E0.01205
G1 X126.303 Y102.230 E0.01205
G1 X126.640 Y102.416 E0.01207
G1 X126.966 Y102.656 E0.01269
G1 X127.231 Y102.904 E0.01138
G1 X127.476 Y103.200 E0.01205
G1 X127.682 Y103.525 E0.01205
G1 X127.846 Y103.873 E0.01207
G1 X127.968 Y104.256 E0.01261
G1 X128.036 Y104.610 E0.01129
G1 X128.060 Y104.990 E0.01194
G1 X128.036 Y105.390 E0.01257
G1 X127.964 Y105.764 E0.01195
G1 X127.846 Y106.127 E0.01198
G1 X127.682 Y106.475 E0.01205
G1 X127.487 Y106.782 E0.01139
G1 X127.231 Y107.095 E0.01269
G1 X126.951 Y107.359 E0.01207
G1 X126.657 Y107.572 E0.01138
G1 X126.304 Y107.769 E0.01270
G1 X125.946 Y107.911 E0.01207
G1 X125.595 Y108.001 E0.01137
G1 X125.192 Y108.055 E0.01273
G1 X124.786 Y108.052 E0.01273
G1 X124.427 Y108.007 E0.01136
G1 X124.054 Y107.911 E0.01205
G1 X123.697 Y107.770 E0.01205
G1 X123.360 Y107.584 E0.01207
G1 X123.034 Y107.344 E0.01269
G1 X122.769 Y107.096 E0.01138
G1 X122.524 Y106.800 E0.01205
G1 X122.318 Y106.475 E0.01205
G1 X122.154 Y106.127 E0.01207
G1 X122.032 Y105.744 E0.01261
G1 X121.964 Y105.390 E0.01129
G1 X121.940 Y105.010 E0.01194
G1 X121.964 Y104.610 E0.01257
G1 X122.036 Y104.236 E0.01195
G1 X122.154 Y103.873 E0.01198
G1 X122.318 Y103.525 E0.01205
G1 X122.513 Y103.218 E0.01139
G1 X122.709 Y102.978 E0.00971
G1 X122.628 Y102.550 F10800.000
;WIPE_START
G1 F8640.000
G1 X123.049 Y102.641 E-0.11068
G1 X123.343 Y102.428 E-0.08378
G1 X123.696 Y102.231 E-0.09350
G1 X124.054 Y102.089 E-0.08890
G1 X124.405 Y101.999 E-0.08370
G1 X124.808 Y101.945 E-0.09374
G1 X125.214 Y101.948 E-0.09376
G1 X125.573 Y101.993 E-0.08368
G1 X125.946 Y102.089 E-0.08873
G1 X126.303 Y102.230 E-0.08874
G1 X126.640 Y102.416 E-0.08890
G1 X126.966 Y102.656 E-0.09348
G1 X127.231 Y102.904 E-0.08380
G1 X127.476 Y103.200 E-0.08873
G1 X127.629 Y103.441 E-0.06589
;WIPE_END
G1 E-0.07000 F2100.000
G1 Z0.400 F10800.000
G1 X113.062 Y95.787
G1 Z0.200
G1 E1.40000 F2100.000
;TYPE:Perimeter
G1 F1200.000
G1 X136.938 Y95.787 E0.74863
G1 X136.938 Y114.213 E0.57773
M73 P4 R9
M73 Q4 S9
G1 X113.062 Y114.213 E0.74863
G1 X113.062 Y95.847 E0.57585
G1 X112.685 Y95.410 F10800.000
;TYPE:External perimeter
G1 F1200.000
G1 X137.315 Y95.410 E0.77227
G1 X137.315 Y114.590 E0.60138
G1 X112.685 Y114.590 E0.77227
M73 P5 R9
M73 Q5 S9
G1 X112.685 Y95.470 E0.59949
G1 X113.075 Y95.498 F10800.000
;WIPE_START
G1 F8640.000
G1 X118.445 Y95.456 E-1.33000
;WIPE_END
G1 E-0.07000 F2100.000
G1 Z0.400 F10800.000
G1 X136.056 Y95.900
G1 Z0.200
G1 E1.40000 F2100.000
;TYPE:Solid infill
;WIDTH:0.422991
G1 F1200.000
G1 X136.655 Y96.499 E0.02677
G1 X136.655 Y97.037 E0.01699
G1 X135.689 Y96.070 E0.04321
G1 X135.151 Y96.070 E0.01699
G1 X136.655 Y97.574 E0.06723
G1 X136.655 Y98.112 E0.01699
G1 X134.614 Y96.070 E0.09125
G1 X134.076 Y96.070 E0.01699
G1 X136.655 Y98.649 E0.11528
G1 X136.655 Y99.187 E0.01699
G1 X133.539 Y96.070 E0.13930
G1 X133.001 Y96.070 E0.01699
G1 X136.655 Y99.724 E0.16332
G1 X136.655 Y100.262 E0.01699
G1 X132.464 Y96.070 E0.18734
G1 X131.926 Y96.070 E0.01699
G1 X136.655 Y100.799 E0.21137
G1 X136.655 Y101.337 E0.01699
G1 X131.389 Y96.070 E0.23539
G1 X130.851 Y96.070 E0.01699
G1 X136.655 Y101.874 E0.25941
G1 X136.655 Y102.412 E0.01699
G1 X130.314 Y96.070 E0.28344
G1 X129.776 Y96.070 E0.01699
G1 X136.655 Y102.949 E0.30746
M73 P6 R9
M73 Q6 S9
G1 X136.655 Y103.487 E0.01699
G1 X129.239 Y96.070 E0.33148
G1 X128.701 Y96.070 E0.01699
G1 X136.655 Y104.024 E0.35550
G1 X136.655 Y104.562 E0.01699
G1 X128.164 Y96.070 E0.37953
G1 X127.626 Y96.070 E0.01699
G1 X136.655 Y105.099 E0.40355
G1 X136.655 Y105.637 E0.01699
G1 X127.089 Y96.070 E0.42757
G1 X126.551 Y96.070 E0.01699
G1 X136.655 Y106.174 E0.45159
G1 X136.655 Y106.712 E0.01699
G1 X126.014 Y96.070 E0.47562
G1 X125.476 Y96.070 E0.01699
G1 X136.655 Y107.249 E0.49964
M73 Q7 S9
G1 X136.655 Y107.787 E0.01699
M73 P7 R9
G1 X124.939 Y96.070 E0.52366
G1 X124.401 Y96.070 E0.01699
G1 X136.655 Y108.324 E0.54769
G1 X136.655 Y108.862 E0.01699
G1 X123.864 Y96.070 E0.57171
G1 X123.326 Y96.070 E0.01699
G1 X136.655 Y109.399 E0.59573
G1 X136.655 Y109.937 E0.01699
G1 X122.789 Y96.070 E0.61975
G1 X122.251 Y96.070 E0.01699
G1 X136.655 Y110.474 E0.64378
M73 P8 R9
M73 Q8 S9
G1 X136.655 Y111.012 E0.01699
G1 X121.714 Y96.070 E0.66780
G1 X121.176 Y96.070 E0.01699
G1 X136.655 Y111.549 E0.69182
G1 X136.655 Y112.087 E0.01699
G1 X128.584 Y104.015 E0.36075
G1 X128.691 Y104.526 E0.01651
G1 X128.701 Y104.670 E0.00454
G1 X136.655 Y112.624 E0.35552
G1 X136.655 Y113.162 E0.01699
G1 X128.708 Y105.214 E0.35521
G1 X128.692 Y105.473 E0.00820
G1 X128.649 Y105.693 E0.00709
G1 X136.655 Y113.699 E0.35782
G1 X136.655 Y113.930 E0.00730
G1 X136.349 Y113.930 E0.00969
G1 X128.541 Y106.122 E0.34895
G1 X128.394 Y106.512 E0.01318
G1 X135.811 Y113.930 E0.33152
M73 P9 R9
M73 Q9 S9
G1 X135.274 Y113.930 E0.01699
G1 X128.213 Y106.869 E0.31556
G1 X128.002 Y107.195 E0.01228
G1 X134.736 Y113.930 E0.30100
G1 X134.199 Y113.930 E0.01699
G1 X127.760 Y107.491 E0.28778
G1 X127.489 Y107.758 E0.01201
G1 X133.661 Y113.930 E0.27585
G1 X133.124 Y113.930 E0.01699
G1 X127.192 Y107.999 E0.26510
G1 X126.867 Y108.211 E0.01228
G1 X132.586 Y113.930 E0.25562
G1 X132.049 Y113.930 E0.01699
G1 X126.514 Y108.396 E0.24735
G1 X126.127 Y108.546 E0.01313
G1 X131.511 Y113.930 E0.24064
G1 X130.974 Y113.930 E0.01699
G1 X125.697 Y108.653 E0.23584
G1 X125.221 Y108.715 E0.01516
G1 X130.436 Y113.930 E0.23308
G1 X129.899 Y113.930 E0.01699
G1 X124.671 Y108.703 E0.23363
G1 X124.303 Y108.656 E0.01174
G1 X124.013 Y108.582 E0.00946
G1 X129.531 Y114.100 E0.24662
;WIPE_START
M73 Q10 S9
G1 F8640.000
G1 X125.458 Y110.027 E-1.33000
;WIPE_END
M73 P10 R9
G1 E-0.07000 F2100.000
G1 Z0.400 F10800.000
G1 X120.469 Y95.900
G1 Z0.200
G1 E1.40000 F2100.000
G1 F1200.000
G1 X125.987 Y101.418 E0.24662
G1 X125.697 Y101.344 E0.00945
G1 X125.329 Y101.297 E0.01175
G1 X120.101 Y96.070 E0.23363
M73 P10 R8
G1 X119.564 Y96.070 E0.01699
G1 X124.779 Y101.285 E0.23308
G1 X124.303 Y101.347 E0.01516
G1 X119.026 Y96.070 E0.23584
G1 X118.489 Y96.070 E0.01699
G1 X123.873 Y101.454 E0.24065
G1 X123.486 Y101.604 E0.01313
G1 X117.951 Y96.070 E0.24736
M73 Q10 S8
G1 X117.414 Y96.070 E0.01699
G1 X123.133 Y101.789 E0.25563
G1 X122.808 Y102.001 E0.01228
G1 X116.876 Y96.070 E0.26510
G1 X116.339 Y96.070 E0.01699
G1 X122.511 Y102.242 E0.27585
G1 X122.240 Y102.509 E0.01201
G1 X115.801 Y96.070 E0.28778
G1 X115.264 Y96.070 E0.01699
G1 X121.998 Y102.805 E0.30100
G1 X121.787 Y103.131 E0.01228
G1 X114.726 Y96.070 E0.31557
M73 P11 R8
M73 Q11 S8
G1 X114.189 Y96.070 E0.01699
G1 X121.606 Y103.488 E0.33152
G1 X121.459 Y103.878 E0.01318
G1 X113.651 Y96.070 E0.34896
G1 X113.345 Y96.070 E0.00968
G1 X113.345 Y96.301 E0.00730
G1 X121.351 Y104.307 E0.35782
G1 X121.308 Y104.527 E0.00708
G1 X121.292 Y104.786 E0.00820
G1 X113.345 Y96.838 E0.35521
G1 X113.345 Y97.376 E0.01699
G1 X121.299 Y105.331 E0.35552
G1 X121.309 Y105.474 E0.00454
G1 X121.416 Y105.985 E0.01651
G1 X113.345 Y97.913 E0.36075
G1 X113.345 Y98.451 E0.01699
G1 X128.824 Y113.930 E0.69182
G1 X128.286 Y113.930 E0.01699
G1 X113.345 Y98.988 E0.66779
M73 P12 R8
M73 Q12 S8
G1 X113.345 Y99.526 E0.01699
G1 X127.749 Y113.930 E0.64377
G1 X127.211 Y113.930 E0.01699
G1 X113.345 Y100.063 E0.61975
G1 X113.345 Y100.601 E0.01699
G1 X126.674 Y113.930 E0.59573
G1 X126.136 Y113.930 E0.01699
G1 X113.345 Y101.138 E0.57170
G1 X113.345 Y101.676 E0.01699
G1 X125.599 Y113.930 E0.54768
G1 X125.061 Y113.930 E0.01699
G1 X113.345 Y102.213 E0.52366
M73 P13 R8
M73 Q13 S8
G1 X113.345 Y102.751 E0.01699
G1 X124.524 Y113.930 E0.49964
G1 X123.986 Y113.930 E0.01699
G1 X113.345 Y103.288 E0.47561
G1 X113.345 Y103.826 E0.01699
G1 X123.449 Y113.930 E0.45159
G1 X122.911 Y113.930 E0.01699
G1 X113.345 Y104.363 E0.42757
G1 X113.345 Y104.901 E0.01699
G1 X122.374 Y113.930 E0.40354
G1 X121.836 Y113.930 E0.01699
G1 X113.345 Y105.438 E0.37952
G1 X113.345 Y105.976 E0.01699
G1 X121.299 Y113.930 E0.35550
G1 X120.761 Y113.930 E0.01699
G1 X113.345 Y106.513 E0.33148
M73 P14 R8
M73 Q14 S8
G1 X113.345 Y107.051 E0.01699
G1 X120.224 Y113.930 E0.30745
G1 X119.686 Y113.930 E0.01699
G1 X113.345 Y107.588 E0.28343
G1 X113.345 Y108.126 E0.01699
G1 X119.149 Y113.930 E0.25941
G1 X118.611 Y113.930 E0.01699
G1 X113.345 Y108.663 E0.23538
G1 X113.345 Y109.201 E0.01699
G1 X118.074 Y113.930 E0.21136
G1 X117.536 Y113.930 E0.01699
G1 X113.345 Y109.738 E0.18734
G1 X113.345 Y110.276 E0.01699
G1 X116.999 Y113.930 E0.16332
G1 X116.461 Y113.930 E0.01699
G1 X113.345 Y110.813 E0.13929
G1 X113.345 Y111.351 E0.01699
G1 X115.924 Y113.930 E0.11527
G1 X115.386 Y113.930 E0.01699
G1 X113.345 Y111.888 E0.09125
G1 X113.345 Y112.426 E0.01699
G1 X114.849 Y113.930 E0.06723
G1 X114.311 Y113.930 E0.01699
G1 X113.345 Y112.963 E0.04320
G1 X113.345 Y113.501 E0.01699
G1 X113.943 Y114.100 E0.02676
;LAYER_CHANGE
;Z:0.4
;HEIGHT:0.2
;BEFORE_LAYER_CHANGE
G92 E0.0
;0.4


;WIPE_START
G1 F8640.000
G1 X113.345 Y113.501 E-0.19554
G1 X113.345 Y112.963 E-0.12411
G1 X114.311 Y113.930 E-0.31565
G1 X114.849 Y113.930 E-0.12411
G1 X113.345 Y112.426 E-0.49117
G1 X113.345 Y112.082 E-0.07942
;WIPE_END
G1 E-0.07000 F2100.000
G1 Z0.400 F10800.000
;AFTER_LAYER_CHANGE
;0.4
M104 S250 ; set temperature
M140 S90 ; set bed temperature
G1 Z0.600
G1 X109.717 Y116.021
G1 Z0.400
G1 E1.40000 F2100.000
;TYPE:Skirt
;WIDTH:0.42
G1 F3000.000
G1 X109.522 Y115.087 E0.02993
G1 X109.521 Y94.975 E0.63058
G1 X109.585 Y94.406 E0.01796
G1 X109.765 Y93.866 E0.01784
G1 X110.054 Y93.371 E0.01796
G1 X110.439 Y92.947 E0.01796
G1 X111.261 Y92.439 E0.03031
G1 X112.204 Y92.247 E0.03018
G1 X137.729 Y92.246 E0.80032
M73 P15 R8
M73 Q15 S8
G1 X138.738 Y92.439 E0.03221
G1 X139.603 Y92.985 E0.03208
G1 X140.209 Y93.810 E0.03208
G1 X140.472 Y94.799 E0.03208
G1 X140.477 Y115.115 E0.63700
G1 X140.399 Y115.662 E0.01733
G1 X140.215 Y116.178 E0.01720
G1 X139.932 Y116.648 E0.01720
G1 X139.561 Y117.053 E0.01720
G1 X138.739 Y117.561 E0.03031
G1 X137.796 Y117.753 E0.03018
G1 X112.254 Y117.754 E0.80083
G1 X111.685 Y117.690 E0.01796
G1 X111.141 Y117.510 E0.01796
G1 X110.646 Y117.221 E0.01796
G1 X110.222 Y116.836 E0.01796
G1 X109.749 Y116.072 E0.02817
G1 X110.068 Y115.878 F10800.000
G1 F3000.000
G1 X109.899 Y115.066 E0.02600
G1 X109.898 Y94.977 E0.62987
G1 X109.955 Y94.482 E0.01562
G1 X110.114 Y94.010 E0.01562
G1 X110.367 Y93.582 E0.01562
G1 X110.705 Y93.215 E0.01562
G1 X111.410 Y92.786 E0.02590
G1 X112.224 Y92.623 E0.02602
G1 X137.729 Y92.623 E0.79969
G1 X138.603 Y92.791 E0.02790
G1 X139.351 Y93.266 E0.02778
G1 X139.875 Y93.985 E0.02790
G1 X140.097 Y94.847 E0.02790
G1 X140.101 Y115.088 E0.63464
G1 X139.874 Y116.017 E0.03001
G1 X139.295 Y116.785 E0.03013
G1 X138.590 Y117.214 E0.02590
G1 X137.776 Y117.377 E0.02602
G1 X112.256 Y117.377 E0.80017
G1 X111.761 Y117.321 E0.01562
G1 X111.285 Y117.161 E0.01574
G1 X110.856 Y116.908 E0.01562
