; generated by PrusaSlicer 2.3.0+win64 on 2021-07-19 at 09:25:02 UTC

; 

; external perimeters extrusion width = 0.60mm
; perimeters extrusion width = 0.50mm
; infill extrusion width = 0.50mm
; solid infill extrusion width = 0.50mm
; top infill extrusion width = 0.45mm
; first layer extrusion width = 0.42mm

M73 P0 R19
M73 Q0 S19
M201 X1000 Y1000 Z200 E5000 ; sets maximum accelerations, mm/sec^2
M203 X200 Y200 Z12 E120 ; sets maximum feedrates, mm/sec
M204 P1250 R1250 T1250 ; sets acceleration (P, T) and retract acceleration (R), mm/sec^2
M205 X8.00 Y8.00 Z0.40 E4.50 ; sets the jerk limits, mm/sec
M205 S0 T0 ; sets the minimum extruding and travel feed rate, mm/sec
M107
;TYPE:Custom
M862.3 P "MK3S" ; printer model check
M862.1 P0.4 ; nozzle diameter check
M115 U3.9.1 ; tell printer latest fw version
G90 ; use absolute coordinates
M83 ; extruder relative mode
M104 S240 ; set extruder temp
M140 S85 ; set bed temp
M190 S85 ; wait for bed temp
M109 S240 ; wait for extruder temp
G28 W ; home all without mesh bed level
G80 ; mesh bed leveling
G1 Y-3.0 F1000.0 ; go outside print area
G92 E0.0
G1 X60.0 E9.0 F1000.0 ; intro line
G1 X100.0 E12.5 F1000.0 ; intro line
G92 E0.0
M221 S95

; Don't change E values below. Excessive value can damage the printer.

M907 E538 ; set extruder motor current
G21 ; set units to millimeters
G90 ; use absolute coordinates
M83 ; use relative distances for extrusion
M900 K0.08 ; Filament gcode LA 1.5
M900 K45 ; Filament gcode LA 1.0
;LAYER_CHANGE
;Z:0.2
;HEIGHT:0.2
;BEFORE_LAYER_CHANGE
G92 E0.0
;0.2


G1 E-1.40000 F2100.000
G1 Z0.200 F10800.000
;AFTER_LAYER_CHANGE
;0.2
G1 Z0.400
G1 X136.852 Y93.702
G1 Z0.200
G1 E1.40000 F2100.000
M204 S1000
;TYPE:Skirt
;WIDTH:0.42
G1 F1200.000
G1 X137.459 Y94.541 E0.03246
G1 X137.712 Y95.540 E0.03233
G1 X137.718 Y114.469 E0.59348
G1 X137.598 Y115.120 E0.02078
G1 X137.325 Y115.724 E0.02078
G1 X136.916 Y116.246 E0.02078
G1 X136.395 Y116.654 E0.02078
G1 X135.799 Y116.924 E0.02052
G1 X135.155 Y117.045 E0.02052
G1 X134.506 Y117.012 E0.02039
G1 X133.878 Y116.826 E0.02052
G1 X113.819 Y107.473 E0.69397
G1 X113.170 Y107.031 E0.02460
G1 X112.673 Y106.424 E0.02460
G1 X112.442 Y105.940 E0.01681
G1 X112.308 Y105.417 E0.01694
G1 X112.279 Y104.877 E0.01694
G1 X112.356 Y104.342 E0.01694
G1 X112.536 Y103.833 E0.01694
G1 X112.812 Y103.368 E0.01694
G1 X113.173 Y102.967 E0.01694
G1 X113.606 Y102.643 E0.01694
G1 X133.825 Y93.197 E0.69972
M73 Q1 S19
G1 X134.385 Y93.013 E0.01848
G1 X134.966 Y92.951 E0.01835
G1 X135.979 Y93.146 E0.03233
G1 X136.802 Y93.670 E0.03058
G1 X136.599 Y93.981 F10800.000
G1 F1200.000
G1 X137.122 Y94.710 E0.02813
G1 X137.337 Y95.581 E0.02813
M73 P1 R19
G1 X137.343 Y114.430 E0.59098
G1 X137.240 Y115.002 E0.01823
G1 X136.999 Y115.535 E0.01835
G1 X136.635 Y115.994 E0.01835
G1 X136.170 Y116.349 E0.01835
G1 X135.658 Y116.573 E0.01752
G1 X135.108 Y116.671 E0.01752
G1 X134.551 Y116.638 E0.01752
G1 X134.016 Y116.475 E0.01752
G1 X113.988 Y107.136 E0.69288
G1 X113.415 Y106.744 E0.02178
G1 X112.980 Y106.202 E0.02178
G1 X112.676 Y105.326 E0.02907
G1 X112.731 Y104.397 E0.02919
G1 X113.137 Y103.563 E0.02907
G1 X113.831 Y102.948 E0.02907
G1 X133.979 Y93.542 E0.69720
G1 X134.463 Y93.382 E0.01597
G1 X134.965 Y93.328 E0.01585
G1 X135.843 Y93.497 E0.02802
G1 X136.548 Y93.949 E0.02625
;WIPE_START
G1 F8640.000
G1 X137.122 Y94.710 E-0.22012
G1 X137.337 Y95.581 E-0.20719
G1 X137.338 Y99.491 E-0.90269
;WIPE_END
G1 E-0.07000 F2100.000
G1 Z0.400 F10800.000
G1 X134.182 Y96.938
G1 Z0.200
G1 E1.40000 F2100.000
;TYPE:Perimeter
G1 F1200.000
G1 X134.182 Y113.062 E0.50557
G1 X117.569 Y105.318 E0.57473
G1 X116.993 Y105.082 E0.01949
G1 X116.993 Y104.918 E0.00517
G1 X117.569 Y104.682 E0.01949
G1 X134.128 Y96.963 E0.57285
G1 X134.559 Y96.346 F10800.000
;TYPE:External perimeter
G1 F1200.000
G1 X134.559 Y113.654 E0.54269
G1 X117.415 Y105.662 E0.59309
G1 X116.953 Y105.466 E0.01575
G1 X116.463 Y105.308 E0.01613
G1 X115.983 Y105.212 E0.01536
G1 X115.528 Y105.000 E0.01575
G1 X115.983 Y104.788 E0.01575
G1 X116.463 Y104.692 E0.01536
G1 X116.953 Y104.534 E0.01613
G1 X117.415 Y104.338 E0.01575
G1 X134.505 Y96.371 E0.59120
G1 X134.412 Y96.718 F10800.000
;WIPE_START
G1 F8640.000
G1 X134.523 Y102.131 E-1.33000
;WIPE_END
G1 E-0.07000 F2100.000
G1 Z0.400 F10800.000
G1 X134.069 Y97.881
G1 Z0.200
G1 E1.40000 F2100.000
;TYPE:Solid infill
;WIDTH:0.42663
M73 P1 R18
G1 F1200.000
G1 X133.675 Y97.486 E0.01780
G1 X133.305 Y97.659 E0.01303
M73 Q1 S18
G1 X133.900 Y98.254 E0.02684
G1 X133.900 Y98.796 E0.01731
G1 X132.934 Y97.831 E0.04354
G1 X132.564 Y98.004 E0.01303
G1 X133.900 Y99.339 E0.06024
G1 X133.900 Y99.882 E0.01731
G1 X132.194 Y98.177 E0.07694
G1 X131.824 Y98.349 E0.01303
G1 X133.900 Y100.424 E0.09364
M73 Q2 S18
G1 X133.900 Y100.967 E0.01731
G1 X131.454 Y98.522 E0.11034
G1 X131.084 Y98.694 E0.01303
M73 P2 R18
G1 X133.900 Y101.510 E0.12704
G1 X133.900 Y102.052 E0.01731
G1 X130.714 Y98.867 E0.14374
G1 X130.344 Y99.039 E0.01303
G1 X133.900 Y102.595 E0.16044
G1 X133.900 Y103.138 E0.01731
G1 X129.974 Y99.212 E0.17714
G1 X129.603 Y99.384 E0.01303
G1 X133.900 Y103.680 E0.19385
G1 X133.900 Y104.223 E0.01731
G1 X129.233 Y99.557 E0.21055
G1 X128.863 Y99.729 E0.01303
G1 X133.900 Y104.766 E0.22725
G1 X133.900 Y105.308 E0.01731
G1 X128.493 Y99.902 E0.24395
G1 X128.123 Y100.074 E0.01303
G1 X133.900 Y105.851 E0.26065
G1 X133.900 Y106.394 E0.01731
G1 X127.753 Y100.247 E0.27735
G1 X127.383 Y100.419 E0.01303
G1 X133.900 Y106.936 E0.29405
G1 X133.900 Y107.479 E0.01731
G1 X127.013 Y100.592 E0.31075
G1 X126.642 Y100.764 E0.01303
G1 X133.900 Y108.021 E0.32745
G1 X133.900 Y108.564 E0.01731
G1 X126.272 Y100.937 E0.34415
G1 X125.902 Y101.110 E0.01303
G1 X133.900 Y109.107 E0.36085
G1 X133.900 Y109.649 E0.01731
G1 X125.532 Y101.282 E0.37755
G1 X125.162 Y101.455 E0.01303
G1 X133.900 Y110.192 E0.39425
G1 X133.900 Y110.735 E0.01731
G1 X124.792 Y101.627 E0.41095
G1 X124.422 Y101.800 E0.01303
G1 X133.900 Y111.277 E0.42765
G1 X133.900 Y111.820 E0.01731
G1 X124.052 Y101.972 E0.44435
G1 X123.682 Y102.145 E0.01303
G1 X133.900 Y112.363 E0.46105
G1 X133.900 Y112.618 E0.00816
G1 X133.362 Y112.368 E0.01892
G1 X123.311 Y102.317 E0.45350
M73 Q3 S18
G1 X122.941 Y102.490 E0.01303
G1 X132.346 Y111.894 E0.42433
M73 P3 R18
G1 X131.329 Y111.420 E0.03578
G1 X122.571 Y102.662 E0.39517
G1 X122.201 Y102.835 E0.01303
G1 X130.313 Y110.946 E0.36600
G1 X129.296 Y110.473 E0.03578
G1 X121.831 Y103.007 E0.33684
G1 X121.461 Y103.180 E0.01303
G1 X128.280 Y109.999 E0.30767
G1 X127.263 Y109.525 E0.03578
G1 X121.091 Y103.352 E0.27851
G1 X120.721 Y103.525 E0.01303
G1 X126.247 Y109.051 E0.24934
G1 X125.230 Y108.577 E0.03578
G1 X120.351 Y103.698 E0.22018
G1 X119.980 Y103.870 E0.01303
G1 X124.214 Y108.103 E0.19101
G1 X123.197 Y107.629 E0.03578
G1 X119.610 Y104.043 E0.16185
G1 X119.240 Y104.215 E0.01303
G1 X122.181 Y107.156 E0.13268
G1 X121.164 Y106.682 E0.03578
G1 X118.870 Y104.388 E0.10352
G1 X118.500 Y104.560 E0.01303
G1 X120.148 Y106.208 E0.07435
G1 X119.131 Y105.734 E0.03578
G1 X118.130 Y104.733 E0.04518
G1 X117.760 Y104.905 E0.01303
G1 X118.465 Y105.611 E0.03184
;WIPE_START
G1 F8640.000
G1 X117.760 Y104.905 E-0.23045
G1 X118.130 Y104.733 E-0.09429
G1 X119.131 Y105.734 E-0.32701
G1 X120.148 Y106.208 E-0.25896
G1 X118.864 Y104.924 E-0.41929
;WIPE_END
G1 E-0.07000 F2100.000
G1 Z0.400 F10800.000
G1 X116.805 Y105.000
G1 Z0.200
G1 E1.40000 F2100.000
;TYPE:Gap fill
;WIDTH:0.306291
G1 F1200.000
G1 X115.974 Y105.000 E0.01820
;LAYER_CHANGE
;Z:0.5
;HEIGHT:0.3
;BEFORE_LAYER_CHANGE
G92 E0.0
;0.5


;WIPE_START
G1 F8640.000
G1 X116.805 Y105.000 E-0.19187
;WIPE_END
G1 E-1.20813 F2100.000
G1 Z0.400 F10800.000
G1 Z0.500
;AFTER_LAYER_CHANGE
;0.5
M104 S250 ; set temperature
M140 S90 ; set bed temperature
G1 Z0.700
G1 X136.852 Y93.702
G1 Z0.500
G1 E1.40000 F2100.000
;TYPE:Skirt
;WIDTH:0.42
G1 F1885
G1 X137.459 Y94.541 E0.04592
G1 X137.712 Y95.540 E0.04574
G1 X137.718 Y114.469 E0.83956
G1 X137.598 Y115.120 E0.02939
G1 X137.325 Y115.724 E0.02939
G1 X136.916 Y116.246 E0.02939
G1 X136.395 Y116.654 E0.02939
G1 X135.799 Y116.924 E0.02903
G1 X135.155 Y117.045 E0.02903
G1 X134.506 Y117.012 E0.02885
G1 X133.878 Y116.826 E0.02903
G1 X113.819 Y107.473 E0.98172
G1 X113.170 Y107.031 E0.03480
G1 X112.673 Y106.424 E0.03480
G1 X112.442 Y105.940 E0.02379
G1 X112.308 Y105.417 E0.02397
G1 X112.279 Y104.877 E0.02397
G1 X112.356 Y104.342 E0.02397
G1 X112.536 Y103.833 E0.02397
G1 X112.812 Y103.368 E0.02397
G1 X113.173 Y102.967 E0.02397
G1 X113.606 Y102.643 E0.02397
G1 X133.825 Y93.197 E0.98985
G1 X134.385 Y93.013 E0.02614
G1 X134.966 Y92.951 E0.02596
G1 X135.979 Y93.146 E0.04574
G1 X136.802 Y93.670 E0.04326
G1 X136.599 Y93.981 F10800.000
G1 F1885
G1 X137.122 Y94.710 E0.03980
G1 X137.337 Y95.581 E0.03980
G1 X137.343 Y114.430 E0.83602
G1 X137.240 Y115.002 E0.02578
G1 X136.999 Y115.535 E0.02595
G1 X136.635 Y115.994 E0.02595
G1 X136.170 Y116.349 E0.02595
G1 X135.658 Y116.573 E0.02478
G1 X135.108 Y116.671 E0.02478
G1 X134.551 Y116.638 E0.02478
G1 X134.016 Y116.475 E0.02478
G1 X113.988 Y107.136 E0.98017
M73 Q4 S18
G1 X113.415 Y106.744 E0.03081
G1 X112.980 Y106.202 E0.03081
G1 X112.676 Y105.326 E0.04113
G1 X112.731 Y104.397 E0.04129
G1 X113.137 Y103.563 E0.04113
G1 X113.831 Y102.948 E0.04113
G1 X133.979 Y93.542 E0.98628
M73 P4 R18
G1 X134.463 Y93.382 E0.02260
G1 X134.965 Y93.328 E0.02243
G1 X135.843 Y93.497 E0.03963
G1 X136.548 Y93.949 E0.03714
;WIPE_START
G1 F8640.000
G1 X137.122 Y94.710 E-0.22012
G1 X137.337 Y95.581 E-0.20719
G1 X137.338 Y99.491 E-0.90269
;WIPE_END
G1 E-0.07000 F2100.000
G1 Z0.700 F10800.000
G1 X134.184 Y96.936
G1 Z0.500
G1 E1.40000 F2100.000
M204 S800
;TYPE:Perimeter
;WIDTH:0.5
G1 F1885
G1 X134.184 Y113.064 E0.87633
G1 X116.890 Y105.000 E1.03678
G1 X134.129 Y96.961 E1.03352
M204 S1000
G1 X134.669 Y96.173 F10800.000
M204 S800
;TYPE:External perimeter
;WIDTH:0.6
G1 F1885
G1 X134.669 Y113.827 E1.17934
G1 X115.740 Y105.000 E1.39528
G1 X134.615 Y96.199 E1.39127
M204 S1000
G1 X134.323 Y95.973 F10800.000
;WIPE_START
G1 F8640.000
G1 X134.633 Y101.959 E-1.33000
;WIPE_END
G1 E-0.07000 F2100.000
G1 Z0.700 F10800.000
G1 X131.402 Y98.377
G1 Z0.500
G1 E1.40000 F2100.000
;TYPE:Solid infill
;WIDTH:0.504555
G1 F1885
G1 X130.162 Y99.616 E0.09622
G1 X130.364 Y100.038 E0.02563
G1 X132.163 Y98.238 E0.13969
G1 X133.329 Y97.695 E0.07066
G1 X130.565 Y100.459 E0.21462
G1 X130.592 Y100.515 E0.00340
G1 X130.290 Y101.356 E0.04909
G1 X133.857 Y97.789 E0.27697
G1 X133.857 Y98.412 E0.03418
G1 X129.617 Y102.652 E0.32921
;WIPE_START
G1 F8640.000
G1 X133.690 Y98.579 E-1.33000
;WIPE_END
G1 E-0.07000 F2100.000
G1 Z0.700 F10800.000
G1 X126.901 Y104.123
G1 Z0.500
G1 E1.40000 F2100.000
G1 F1885
G1 X125.852 Y105.172 E0.08141
G1 X126.277 Y105.370 E0.02572
G1 X127.662 Y103.985 E0.10754
G1 X128.828 Y103.441 E0.07066
G1 X126.701 Y105.568 E0.16514
G1 X127.126 Y105.766 E0.02572
G1 X133.857 Y99.034 E0.52263
G1 X133.857 Y99.657 E0.03418
G1 X127.550 Y105.964 E0.48967
G1 X127.975 Y106.161 E0.02572
G1 X133.857 Y100.279 E0.45671
G1 X133.857 Y100.902 E0.03418
G1 X128.399 Y106.359 E0.42375
G1 X128.824 Y106.557 E0.02572
G1 X133.857 Y101.524 E0.39079
G1 X133.857 Y102.147 E0.03418
G1 X129.248 Y106.755 E0.35783
G1 X129.673 Y106.953 E0.02572
G1 X133.857 Y102.769 E0.32486
G1 X133.857 Y103.392 E0.03418
G1 X129.851 Y107.397 E0.31102
G1 X130.012 Y107.859 E0.02684
G1 X133.857 Y104.014 E0.29852
G1 X133.857 Y104.637 E0.03418
G1 X130.173 Y108.321 E0.28602
G1 X130.334 Y108.782 E0.02684
G1 X133.857 Y105.259 E0.27352
G1 X133.857 Y105.882 E0.03418
G1 X130.495 Y109.244 E0.26103
G1 X130.596 Y109.532 E0.01675
G1 X130.362 Y109.999 E0.02870
G1 X133.857 Y106.504 E0.27137
G1 X133.857 Y107.127 E0.03418
G1 X130.157 Y110.826 E0.28725
G1 X130.582 Y111.024 E0.02572
G1 X133.857 Y107.749 E0.25429
G1 X133.857 Y108.372 E0.03418
G1 X131.006 Y111.222 E0.22133
G1 X131.431 Y111.420 E0.02572
G1 X133.857 Y108.994 E0.18837
M73 Q5 S18
G1 X133.857 Y109.617 E0.03418
G1 X131.855 Y111.618 E0.15541
G1 X132.280 Y111.816 E0.02572
G1 X133.857 Y110.239 E0.12244
M73 P5 R18
G1 X133.857 Y110.862 E0.03418
G1 X132.705 Y112.014 E0.08948
G1 X133.129 Y112.212 E0.02572
G1 X133.857 Y111.484 E0.05652
G1 X133.857 Y112.107 E0.03418
G1 X133.406 Y112.558 E0.03501
;WIPE_START
G1 F8640.000
G1 X133.857 Y112.107 E-0.14725
G1 X133.857 Y111.484 E-0.14374
G1 X133.129 Y112.212 E-0.23771
G1 X132.705 Y112.014 E-0.10816
G1 X133.857 Y110.862 E-0.37635
G1 X133.857 Y110.239 E-0.14374
G1 X133.327 Y110.769 E-0.17305
;WIPE_END
G1 E-0.07000 F2100.000
G1 Z0.700 F10800.000
G1 X130.299 Y109.401
G1 Z0.500
G1 E1.40000 F2100.000
;TYPE:Top solid infill
;WIDTH:0.461861
G1 F1885
G1 X129.263 Y110.437 E0.07262
G1 X128.880 Y110.258 E0.02097
G1 X130.017 Y109.121 E0.07975
G1 X129.872 Y108.704 E0.02188
G1 X128.497 Y110.080 E0.09644
G1 X128.113 Y109.901 E0.02097
G1 X129.727 Y108.287 E0.11313
G1 X129.581 Y107.870 E0.02188
G1 X127.730 Y109.722 E0.12981
G1 X127.346 Y109.543 E0.02097
G1 X129.436 Y107.454 E0.14650
G1 X129.370 Y107.265 E0.00989
G1 X129.160 Y107.167 E0.01149
G1 X126.963 Y109.364 E0.15404
G1 X126.580 Y109.186 E0.02097
G1 X128.777 Y106.989 E0.15404
G1 X128.394 Y106.810 E0.02097
G1 X126.196 Y109.007 E0.15404
G1 X125.813 Y108.828 E0.02097
G1 X128.010 Y106.631 E0.15404
G1 X127.627 Y106.452 E0.02097
G1 X125.430 Y108.649 E0.15404
G1 X125.046 Y108.471 E0.02097
G1 X127.243 Y106.274 E0.15404
G1 X126.860 Y106.095 E0.02097
G1 X124.663 Y108.292 E0.15404
G1 X124.280 Y108.113 E0.02097
G1 X126.477 Y105.916 E0.15404
G1 X126.093 Y105.737 E0.02097
G1 X123.896 Y107.934 E0.15404
G1 X123.513 Y107.756 E0.02097
G1 X125.710 Y105.558 E0.15404
G1 X125.327 Y105.380 E0.02097
G1 X123.130 Y107.577 E0.15404
G1 X122.746 Y107.398 E0.02097
G1 X125.074 Y105.070 E0.16320
;WIPE_START
G1 F8640.000
G1 X122.746 Y107.398 E-0.76011
G1 X123.130 Y107.577 E-0.09767
G1 X124.576 Y106.131 E-0.47222
;WIPE_END
G1 E-0.07000 F2100.000
G1 Z0.700 F10800.000
G1 X128.497 Y103.333
G1 Z0.500
G1 E1.40000 F2100.000
G1 F1885
G1 X129.507 Y102.324 E0.07076
G1 X129.821 Y101.448 E0.04616
G1 X127.803 Y103.466 E0.14149
G1 X126.750 Y103.957 E0.05761
G1 X130.135 Y100.571 E0.23737
G1 X130.147 Y100.537 E0.00178
G1 X129.973 Y100.172 E0.02009
G1 X125.338 Y104.807 E0.32497
;WIPE_START
G1 F8640.000
G1 X129.410 Y100.734 E-1.33000
;WIPE_END
G1 E-0.07000 F2100.000
G1 Z0.700 F10800.000
G1 X122.232 Y107.350
G1 Z0.500
G1 E1.40000 F2100.000
G1 F1885
G1 X129.791 Y99.791 E0.52995
G1 X129.609 Y99.411 E0.02090
G1 X121.979 Y107.041 E0.53493
G1 X121.596 Y106.862 E0.02097
G1 X128.573 Y99.885 E0.48917
G1 X127.520 Y100.376 E0.05761
G1 X123.049 Y104.846 E0.31342
G1 X122.636 Y104.698 E0.02179
G1 X126.467 Y100.867 E0.26859
G1 X125.413 Y101.358 E0.05761
G1 X122.222 Y104.550 E0.22376
G1 X121.889 Y104.431 E0.01751
G1 X121.854 Y104.356 E0.00411
G1 X124.360 Y101.849 E0.17573
G1 X123.307 Y102.341 E0.05761
G1 X121.672 Y103.976 E0.11464
G1 X121.490 Y103.595 E0.02090
G1 X122.612 Y102.473 E0.07870
;WIPE_START
G1 F8640.000
G1 X121.490 Y103.595 E-0.36655
G1 X121.672 Y103.976 E-0.09732
G1 X123.307 Y102.341 E-0.53393
G1 X124.360 Y101.849 E-0.26834
G1 X124.164 Y102.045 E-0.06386
;WIPE_END
G1 E-0.07000 F2100.000
G1 Z0.700 F10800.000
G1 X122.858 Y105.037
G1 Z0.500
G1 E1.40000 F2100.000
G1 F1885
G1 X121.111 Y106.785 E0.12250
G1 X120.441 Y106.512 F10800.000
;TYPE:Solid infill
;WIDTH:0.508721
G1 F1885
G1 X122.035 Y104.919 E0.12488
G1 X121.592 Y104.760 E0.02607
G1 X121.583 Y104.742 E0.00112
G1 X120.160 Y106.165 E0.11151
G1 X119.732 Y105.965 E0.02621
G1 X121.380 Y104.317 E0.12916
G1 X121.176 Y103.892 E0.02611
G1 X119.303 Y105.765 E0.14681
G1 X118.875 Y105.565 E0.02621
G1 X120.969 Y103.458 E0.16464
G1 X119.816 Y103.996 E0.07052
G1 X118.446 Y105.365 E0.10733
G1 X118.018 Y105.166 E0.02621
G1 X119.043 Y104.140 E0.08040
;LAYER_CHANGE
;Z:0.8
;HEIGHT:0.3
;BEFORE_LAYER_CHANGE
G92 E0.0
;0.8


;WIPE_START
G1 F8640.000
G1 X118.018 Y105.166 E-0.33496
G1 X118.446 Y105.365 E-0.10918
G1 X119.816 Y103.996 E-0.44717
G1 X120.969 Y103.458 E-0.29383
G1 X120.527 Y103.903 E-0.14486
;WIPE_END
G1 E-0.07000 F2100.000
G1 Z0.700 F10800.000
G1 Z0.800
;AFTER_LAYER_CHANGE
;0.8
G1 Z1.000
G1 X136.852 Y93.702
G1 Z0.800
G1 E1.40000 F2100.000
;TYPE:Skirt
;WIDTH:0.42
