; generated by PrusaSlicer 2.3.0+win64 on 2021-03-31 at 20:29:33 UTC

; 

; external perimeters extrusion width = 0.60mm
; perimeters extrusion width = 0.50mm
; infill extrusion width = 0.50mm
; solid infill extrusion width = 0.50mm
; top infill extrusion width = 0.45mm
; support material extrusion width = 0.38mm
; first layer extrusion width = 0.42mm

M73 P0 R170
M73 Q0 S172
M201 X1000 Y1000 Z200 E5000 ; sets maximum accelerations, mm/sec^2
M203 X200 Y200 Z12 E120 ; sets maximum feedrates, mm/sec
M204 P1250 R1250 T1250 ; sets acceleration (P, T) and retract acceleration (R), mm/sec^2
M205 X8.00 Y8.00 Z0.40 E4.50 ; sets the jerk limits, mm/sec
M205 S0 T0 ; sets the minimum extruding and travel feed rate, mm/sec
M107
;TYPE:Custom
M862.3 P "MK3S" ; printer model check
M862.1 P0.4 ; nozzle diameter check
M115 U3.9.1 ; tell printer latest fw version
G90 ; use absolute coordinates
M83 ; extruder relative mode
M104 S230 ; set extruder temp
M140 S85 ; set bed temp
M190 S85 ; wait for bed temp
M109 S230 ; wait for extruder temp
G28 W ; home all without mesh bed level
G80 ; mesh bed leveling
G1 Y-3.0 F1000.0 ; go outside print area
G92 E0.0
G1 X60.0 E9.0 F1000.0 ; intro line
G1 X100.0 E12.5 F1000.0 ; intro line
G92 E0.0
M221 S95

; Don't change E values below. Excessive value can damage the printer.

M907 E538 ; set extruder motor current
G21 ; set units to millimeters
G90 ; use absolute coordinates
M83 ; use relative distances for extrusion
M900 K0.08 ; Filament gcode LA 1.5
M900 K45 ; Filament gcode LA 1.0
;LAYER_CHANGE
;Z:0.2
;HEIGHT:0.2
;BEFORE_LAYER_CHANGE
G92 E0.0
;0.2


G1 E-1.40000 F2100.000
G1 Z0.200 F10800.000
;AFTER_LAYER_CHANGE
;0.2
G1 Z0.400
G1 X48.200 Y37.557
G1 Z0.200
G1 E1.40000 F2100.000
M204 S1000
;TYPE:Skirt
;WIDTH:0.42
G1 F1200.000
G1 X49.289 Y37.155 E0.03641
G1 X50.108 Y37.065 E0.02582
G1 X125.171 Y37.065 E2.35356
G1 X125.994 Y37.156 E0.02595
G1 X126.480 Y37.297 E0.01585
G1 X127.210 Y37.632 E0.02521
G1 X127.950 Y38.205 E0.02933
G1 X226.307 Y135.590 E4.33982
G1 X226.639 Y136.247 E0.02308
G1 X226.755 Y136.974 E0.02308
G1 X226.755 Y176.616 E1.24297
G1 X226.669 Y177.229 E0.01941
G1 X226.426 Y177.803 E0.01953
G1 X226.104 Y178.231 E0.01680
G1 X225.698 Y178.574 E0.01668
G1 X225.221 Y178.820 E0.01680
G1 X224.702 Y178.952 E0.01680
G1 X141.323 Y189.440 E2.63487
M73 Q0 S171
G1 X37.669 Y189.444 E3.24999
G1 X36.646 Y189.306 E0.03237
G1 X35.681 Y188.902 E0.03281
G1 X34.877 Y188.282 E0.03186
G1 X34.252 Y187.470 E0.03210
G1 X33.856 Y186.523 E0.03220
G1 X33.717 Y185.536 E0.03126
G1 X31.922 Y71.913 E3.56300
G1 X31.923 Y55.185 E0.52449
G1 X32.064 Y54.200 E0.03120
G1 X32.464 Y53.253 E0.03221
G1 X33.073 Y52.461 E0.03134
G1 X47.345 Y38.189 E0.63285
G1 X48.151 Y37.592 E0.03145
;WIPE_START
G1 F8640.000
G1 X49.289 Y37.155 E-0.28147
G1 X50.108 Y37.065 E-0.19015
G1 X53.825 Y37.065 E-0.85838
;WIPE_END
G1 E-0.07000 F2100.000
G1 Z0.400 F10800.000
G1 X177.016 Y156.987
G1 Z0.200
G1 E1.40000 F2100.000
;TYPE:External perimeter
G1 F1200.000
G1 X200.337 Y156.987 E0.73122
G1 X200.337 Y166.589 E0.30106
G1 X177.016 Y166.589 E0.73122
G1 X177.016 Y157.047 E0.29917
G1 X176.863 Y156.618 F10800.000
G1 X177.016 Y156.389
G1 F1200.000
G1 X177.016 Y146.987 E0.29478
G1 X200.337 Y146.987 E0.73122
G1 X200.337 Y156.389 E0.29478
G1 X177.076 Y156.389 E0.72934
G1 X176.620 Y156.440 F10800.000
;WIPE_START
G1 F8640.000
G1 X177.039 Y150.629 E-1.33000
;WIPE_END
G1 E-0.07000 F2100.000
G1 Z0.400 F10800.000
G1 X177.076 Y146.389
G1 Z0.200
G1 E1.40000 F2100.000
G1 F1200.000
G1 X177.016 Y146.389 E0.00188
G1 X177.016 Y137.987 E0.26343
G1 X200.337 Y137.987 E0.73122
G1 X200.337 Y146.389 E0.26343
G1 X177.136 Y146.389 E0.72746
G1 X177.052 Y146.444 F10800.000
G1 X176.341 Y146.389
G1 F1200.000
G1 X154.216 Y146.389 E0.69371
G1 X154.216 Y137.987 E0.26343
G1 X176.341 Y137.987 E0.69371
G1 X176.341 Y146.329 E0.26155
G1 X176.498 Y146.757 F10800.000
G1 X176.341 Y146.987
G1 F1200.000
G1 X176.341 Y156.389 E0.29478
G1 X154.216 Y156.389 E0.69371
G1 X154.216 Y146.987 E0.29478
G1 X176.281 Y146.987 E0.69183
G1 X176.738 Y146.934 F10800.000
;WIPE_START
G1 F8640.000
G1 X176.318 Y152.747 E-1.33000
;WIPE_END
G1 E-0.07000 F2100.000
G1 Z0.400 F10800.000
G1 X176.281 Y156.987
G1 Z0.200
G1 E1.40000 F2100.000
G1 F1200.000
G1 X176.341 Y156.987 E0.00188
G1 X176.341 Y166.589 E0.30106
G1 X154.216 Y166.589 E0.69371
G1 X154.216 Y156.987 E0.30106
G1 X176.221 Y156.987 E0.68995
G1 X176.304 Y156.932 F10800.000
;WIPE_START
G1 F8640.000
G1 X176.341 Y156.987 E-0.02771
G1 X176.341 Y162.627 E-1.30229
;WIPE_END
G1 E-0.07000 F2100.000
G1 Z0.400 F10800.000
G1 X176.221 Y167.187
G1 Z0.200
G1 E1.40000 F2100.000
G1 F1200.000
G1 X176.341 Y167.187 E0.00376
G1 X176.341 Y175.589 E0.26343
M73 P0 R169
G1 X154.216 Y175.589 E0.69371
G1 X154.216 Y167.187 E0.26343
G1 X176.161 Y167.187 E0.68807
G1 X176.268 Y167.077 F10800.000
G1 X177.016 Y167.187
G1 F1200.000
G1 X200.337 Y167.187 E0.73122
G1 X200.337 Y175.589 E0.26343
G1 X177.016 Y175.589 E0.73122
G1 X177.016 Y167.247 E0.26155
G1 X176.857 Y166.820 F10800.000
;WIPE_START
G1 F8640.000
G1 X182.776 Y167.232 E-1.33000
;WIPE_END
G1 E-0.07000 F2100.000
G1 Z0.400 F10800.000
G1 X201.195 Y167.247
G1 Z0.200
G1 E1.40000 F2100.000
G1 F1200.000
G1 X201.195 Y167.187 E0.00188
G1 X223.037 Y167.187 E0.68485
G1 X223.037 Y175.589 E0.26343
G1 X201.195 Y175.589 E0.68485
G1 X201.195 Y167.307 E0.25967
G1 X201.136 Y167.240 F10800.000
G1 X201.195 Y166.589
G1 F1200.000
G1 X201.195 Y156.987 E0.30106
G1 X223.037 Y156.987 E0.68485
G1 X223.037 Y166.589 E0.30106
G1 X201.255 Y166.589 E0.68297
G1 X200.799 Y166.644 F10800.000
;WIPE_START
G1 F8640.000
G1 X201.219 Y160.829 E-1.33000
;WIPE_END
G1 E-0.07000 F2100.000
G1 Z0.400 F10800.000
G1 X201.255 Y156.389
G1 Z0.200
G1 E1.40000 F2100.000
G1 F1200.000
G1 X201.195 Y156.389 E0.00188
G1 X201.195 Y146.987 E0.29478
G1 X223.037 Y146.987 E0.68485
G1 X223.037 Y156.389 E0.29478
G1 X201.315 Y156.389 E0.68108
G1 X201.233 Y156.444 F10800.000
;WIPE_START
G1 F8640.000
G1 X201.195 Y156.389 E-0.02771
G1 X201.195 Y150.749 E-1.30229
;WIPE_END
G1 E-0.07000 F2100.000
G1 Z0.400 F10800.000
G1 X201.315 Y146.389
G1 Z0.200
G1 E1.40000 F2100.000
G1 F1200.000
G1 X201.195 Y146.389 E0.00376
G1 X201.195 Y137.987 E0.26343
G1 X223.037 Y137.987 E0.68485
G1 X223.037 Y146.389 E0.26343
G1 X201.375 Y146.389 E0.67920
M73 Q0 S170
G1 X201.268 Y146.499 F10800.000
;WIPE_START
G1 F8640.000
G1 X201.195 Y146.389 E-0.04156
G1 X201.195 Y140.809 E-1.28844
;WIPE_END
G1 E-0.07000 F2100.000
G1 Z0.400 F10800.000
G1 X223.968 Y137.389
G1 Z0.200
G1 E1.40000 F2100.000
G1 F1200.000
G1 X223.968 Y137.987 E0.01876
G1 X223.895 Y137.987 E0.00228
G1 X223.895 Y175.589 E1.17898
G1 X223.968 Y175.589 E0.00228
G1 X223.968 Y176.187 E0.01876
G1 X153.541 Y176.187 E2.20818
G1 X153.541 Y137.389 E1.21649
G1 X223.908 Y137.389 E2.20630
G1 X223.829 Y137.764 F10800.000
G1 X223.447 Y137.799
;TYPE:Gap fill
;WIDTH:0.396933
G1 F1200.000
G1 X223.314 Y137.732 E0.00437
;WIDTH:0.264178
G1 X223.226 Y137.688 E0.00182
G1 X201.007 Y137.688 E0.40878
;WIDTH:0.30843
G1 X200.962 Y137.710 E0.00109
;WIDTH:0.352682
G1 X200.918 Y137.732 E0.00127
;WIDTH:0.396933
G1 X200.874 Y137.754 E0.00146
;WIDTH:0.441185
G1 X200.830 Y137.776 E0.00164
;WIDTH:0.485436
G1 X200.785 Y137.799 E0.00182
;WIDTH:0.523576
G1 X200.766 Y137.818 E0.00108
;WIPE_START
G1 F8640.000
G1 X200.785 Y137.799 E-0.00623
;WIPE_END
G1 E-1.39377 F2100.000
G1 Z0.400 F10800.000
G1 X223.447 Y137.799
G1 Z0.200
G1 E1.40000 F2100.000
;WIDTH:0.523578
G1 F1200.000
G1 X223.466 Y137.818 E0.00108
G1 X223.466 Y146.577 E0.35010
G1 X223.454 Y146.688 E0.00445
G1 X223.416 Y146.688 E0.00152
;WIDTH:0.501564
G1 X223.378 Y146.688 E0.00145
;WIDTH:0.454086
G1 X223.340 Y146.688 E0.00130
;WIDTH:0.406609
G1 X223.302 Y146.688 E0.00115
;WIDTH:0.359131
G1 X223.264 Y146.688 E0.00100
;WIDTH:0.311654
G1 X223.226 Y146.688 E0.00085
;WIDTH:0.264178
G1 X200.938 Y146.688 E0.41005
;WIDTH:0.396127
G1 X200.835 Y146.688 E0.00302
;WIDTH:0.528076
G1 X200.766 Y146.688 E0.00277
G1 X200.766 Y156.688 E0.40341
G1 X200.698 Y156.688 E0.00277
;WIDTH:0.484091
G1 X200.663 Y156.688 E0.00126
;WIDTH:0.440108
G1 X200.629 Y156.688 E0.00113
;WIDTH:0.396125
G1 X200.595 Y156.688 E0.00101
;WIDTH:0.352142
G1 X200.560 Y156.688 E0.00088
;WIDTH:0.308159
G1 X200.526 Y156.688 E0.00076
;WIDTH:0.264178
G1 X176.778 Y156.688 E0.43691
;WIDTH:0.364133
G1 X176.679 Y156.688 E0.00265
G1 X176.679 Y156.799 E0.00295
;WIDTH:0.34096
G1 X176.679 Y166.888 E0.25004
G1 X176.778 Y166.888 E0.00246
;WIDTH:0.314049
G1 X176.828 Y166.888 E0.00112
;WIDTH:0.264054
G1 X200.595 Y166.888 E0.43701
;WIDTH:0.396033
G1 X200.698 Y166.888 E0.00302
;WIDTH:0.528012
G1 X200.766 Y166.888 E0.00277
G1 X200.766 Y156.688 E0.41142
G1 X200.835 Y156.688 E0.00277
;WIDTH:0.484092
G1 X200.869 Y156.688 E0.00126
;WIDTH:0.440109
G1 X200.904 Y156.688 E0.00113
;WIDTH:0.396127
G1 X200.938 Y156.688 E0.00101
;WIDTH:0.352144
G1 X200.972 Y156.688 E0.00088
;WIDTH:0.308161
G1 X201.007 Y156.688 E0.00076
;WIDTH:0.264178
G1 X223.264 Y156.688 E0.40948
;WIDTH:0.359131
G1 X223.340 Y156.688 E0.00199
;WIDTH:0.454086
G1 X223.416 Y156.688 E0.00259
;WIDTH:0.549041
G1 X223.454 Y156.688 E0.00160
G1 X223.466 Y156.577 E0.00469
;WIDTH:0.523578
G1 X223.466 Y146.799 E0.39083
G1 X223.454 Y146.688 E0.00445
;WIPE_START
G1 F8640.000
G1 X223.466 Y146.799 E-0.02571
G1 X223.466 Y152.447 E-1.30429
;WIPE_END
G1 E-0.07000 F2100.000
G1 Z0.400 F10800.000
G1 X223.454 Y156.688
G1 Z0.200
G1 E1.40000 F2100.000
G1 F1200.000
G1 X223.466 Y156.799 E0.00445
G1 X223.466 Y166.777 E0.39882
;WIDTH:0.549012
G1 X223.454 Y166.888 E0.00468
G1 X223.416 Y166.888 E0.00160
;WIDTH:0.454026
G1 X223.340 Y166.888 E0.00259
;WIDTH:0.35904
G1 X223.264 Y166.888 E0.00199
;WIDTH:0.264054
G1 X201.007 Y166.888 E0.40925
;WIDTH:0.308048
M73 P1 R169
G1 X200.972 Y166.888 E0.00076
;WIDTH:0.352041
M73 Q1 S170
G1 X200.938 Y166.888 E0.00088
;WIDTH:0.396034
G1 X200.904 Y166.888 E0.00101
;WIDTH:0.440027
G1 X200.869 Y166.888 E0.00113
;WIDTH:0.48402
G1 X200.835 Y166.888 E0.00126
;WIDTH:0.523578
G1 X200.766 Y166.888 E0.00274
G1 X200.766 Y175.758 E0.35452
G1 X200.747 Y175.777 E0.00108
;WIDTH:0.396735
G1 X200.614 Y175.844 E0.00436
;WIDTH:0.264054
G1 X200.526 Y175.888 E0.00182
G1 X176.828 Y175.888 E0.43575
;WIDTH:0.297529
G1 X176.778 Y175.871 E0.00111
;WIDTH:0.331003
G1 X176.728 Y175.855 E0.00126
;WIDTH:0.364477
G1 X176.679 Y175.838 E0.00140
;WIPE_START
G1 F8640.000
G1 X176.728 Y175.855 E-0.01210
;WIPE_END
G1 E-1.38790 F2100.000
G1 Z0.400 F10800.000
G1 X200.766 Y175.758
G1 Z0.200
G1 E1.40000 F2100.000
;WIDTH:0.523578
G1 F1200.000
G1 X200.786 Y175.777 E0.00108
;WIDTH:0.485188
G1 X200.830 Y175.800 E0.00182
;WIDTH:0.440962
G1 X200.874 Y175.822 E0.00164
;WIDTH:0.396735
G1 X200.918 Y175.844 E0.00145
;WIDTH:0.352508
G1 X200.962 Y175.866 E0.00127
;WIDTH:0.308281
G1 X201.007 Y175.888 E0.00109
;WIDTH:0.264054
G1 X223.226 Y175.888 E0.40855
G1 X223.314 Y175.844 E0.00182
;WIDTH:0.396735
G1 X223.447 Y175.777 E0.00436
;WIDTH:0.523578
G1 X223.466 Y175.758 E0.00108
G1 X223.466 Y166.999 E0.35010
G1 X223.454 Y166.888 E0.00445
;WIPE_START
G1 F8640.000
G1 X223.466 Y166.999 E-0.02570
G1 X223.466 Y172.647 E-1.30430
;WIPE_END
G1 E-0.07000 F2100.000
G1 Z0.400 F10800.000
G1 X176.679 Y137.738
G1 Z0.200
G1 E1.40000 F2100.000
;WIDTH:0.364544
G1 F1200.000
G1 X176.728 Y137.721 E0.00140
;WIDTH:0.264178
G1 X176.828 Y137.688 E0.00193
G1 X200.526 Y137.688 E0.43599
;WIDTH:0.30843
G1 X200.570 Y137.710 E0.00109
;WIDTH:0.352682
G1 X200.615 Y137.732 E0.00127
;WIDTH:0.396933
G1 X200.659 Y137.754 E0.00146
;WIDTH:0.441185
G1 X200.703 Y137.776 E0.00164
;WIDTH:0.485436
G1 X200.747 Y137.799 E0.00182
;WIDTH:0.528073
G1 X200.766 Y137.818 E0.00109
G1 X200.766 Y146.688 E0.35783
G1 X200.698 Y146.688 E0.00277
;WIDTH:0.396125
G1 X200.595 Y146.688 E0.00302
;WIDTH:0.264178
G1 X176.828 Y146.688 E0.43726
;WIDTH:0.314156
G1 X176.778 Y146.688 E0.00112
;WIDTH:0.34096
G1 X176.679 Y146.688 E0.00246
G1 X176.679 Y156.577 E0.24508
;WIDTH:0.364133
G1 X176.679 Y156.688 E0.00295
G1 X176.579 Y156.688 E0.00265
;WIDTH:0.264178
G1 X154.028 Y156.688 E0.41490
;WIDTH:0.30346
G1 X153.985 Y156.688 E0.00093
;WIDTH:0.342741
G1 X153.942 Y156.688 E0.00107
;WIDTH:0.382022
G1 X153.899 Y156.688 E0.00121
;WIPE_START
G1 F8640.000
G1 X153.942 Y156.688 E-0.00989
;WIPE_END
G1 E-1.39011 F2100.000
G1 Z0.400 F10800.000
G1 X153.899 Y146.688
G1 Z0.200
G1 E1.40000 F2100.000
G1 F1200.000
G1 X153.942 Y146.688 E0.00121
;WIDTH:0.342741
G1 X153.985 Y146.688 E0.00107
;WIDTH:0.30346
G1 X154.028 Y146.688 E0.00093
;WIDTH:0.264178
G1 X176.579 Y146.688 E0.41490
;WIDTH:0.364133
G1 X176.679 Y146.688 E0.00265
G1 X176.679 Y146.577 E0.00295
;WIDTH:0.34096
G1 X176.679 Y137.738 E0.21905
G1 X176.629 Y137.721 E0.00130
;WIDTH:0.33109
G1 X176.579 Y137.705 E0.00126
;WIDTH:0.297634
G1 X176.530 Y137.688 E0.00111
;WIDTH:0.264178
G1 X154.028 Y137.688 E0.41398
G1 X153.886 Y137.733 E0.00274
G1 X153.879 Y146.577 E0.16271
;WIDTH:0.382022
G1 X153.899 Y146.688 E0.00317
G1 X153.879 Y146.799 E0.00317
;WIDTH:0.340958
G1 X153.879 Y156.577 E0.24234
G1 X153.899 Y156.688 E0.00279
G1 X153.879 Y156.799 E0.00279
G1 X153.879 Y166.777 E0.24729
G1 X153.899 Y166.888 E0.00279
G1 X153.879 Y166.999 E0.00279
G1 X153.879 Y175.777 E0.21756
G1 X153.886 Y175.842 E0.00162
G1 X153.957 Y175.865 E0.00185
;WIDTH:0.309599
G1 X154.028 Y175.888 E0.00165
;WIDTH:0.264054
G1 X176.530 Y175.888 E0.41375
G1 X176.629 Y175.855 E0.00193
;WIDTH:0.364478
G1 X176.679 Y175.838 E0.00140
G1 X176.679 Y175.777 E0.00161
;WIDTH:0.34096
G1 X176.679 Y166.888 E0.22030
G1 X176.579 Y166.888 E0.00246
;WIDTH:0.314049
G1 X176.530 Y166.888 E0.00112
;WIDTH:0.264054
G1 X153.942 Y166.888 E0.41533
;WIDTH:0.381977
G1 X153.899 Y166.888 E0.00121
;WIPE_START
G1 F8640.000
G1 X153.942 Y166.888 E-0.00989
;WIPE_END
G1 E-1.39011 F2100.000
G1 Z0.400 F10800.000
G1 X77.675 Y160.607
M73 P1 R168
G1 Z0.200
G1 E1.40000 F2100.000
;TYPE:External perimeter
;WIDTH:0.675283
G1 F1200.000
G1 X77.617 Y160.607 E0.00307
;WIDTH:0.723662
G1 X77.558 Y160.607 E0.00331
;WIDTH:0.772041
G1 X77.500 Y160.607 E0.00354
;WIDTH:0.82042
G1 X77.383 Y160.607 E0.00755
G1 X77.383 Y160.723 E0.00755
;WIDTH:0.723662
G1 X77.383 Y160.840 E0.00661
;WIDTH:0.626904
G1 X77.383 Y170.415 E0.46492
;WIDTH:0.675283
G1 X77.383 Y170.473 E0.00307
;WIDTH:0.723662
G1 X77.383 Y170.531 E0.00331
;WIDTH:0.772041
G1 X77.383 Y170.590 E0.00354
;WIDTH:0.820421
G1 X77.383 Y170.707 E0.00755
G1 X77.266 Y170.707 E0.00755
;WIDTH:0.723664
G1 X77.150 Y170.707 E0.00661
;WIDTH:0.626906
G1 X53.949 Y170.707 E1.12657
;WIPE_START
G1 F8640.000
G1 X59.709 Y170.707 E-1.33000
;WIPE_END
G1 E-0.07000 F2100.000
G1 Z0.400 F10800.000
G1 X53.949 Y160.607
G1 Z0.200
G1 E1.40000 F2100.000
;WIDTH:0.626904
G1 F1200.000
G1 X77.150 Y160.607 E1.12657
;WIDTH:0.723662
G1 X77.266 Y160.607 E0.00661
;WIDTH:0.82042
G1 X77.383 Y160.607 E0.00755
G1 X77.383 Y160.490 E0.00755
;WIDTH:0.772041
G1 X77.383 Y160.431 E0.00354
;WIDTH:0.723662
G1 X77.383 Y160.373 E0.00331
;WIDTH:0.675283
G1 X77.383 Y160.315 E0.00307
;WIDTH:0.626904
G1 X77.383 Y150.740 E0.46492
;WIDTH:0.723663
G1 X77.383 Y150.623 E0.00661
;WIDTH:0.820421
G1 X77.383 Y150.507 E0.00755
G1 X77.266 Y150.507 E0.00755
;WIDTH:0.772042
G1 X77.208 Y150.507 E0.00354
;WIDTH:0.723663
G1 X77.150 Y150.507 E0.00331
;WIDTH:0.675283
G1 X77.091 Y150.507 E0.00307
;WIDTH:0.626906
G1 X53.949 Y150.507 E1.12374
;WIPE_START
G1 F8640.000
G1 X59.709 Y150.507 E-1.33000
;WIPE_END
G1 E-0.07000 F2100.000
G1 Z0.400 F10800.000
G1 X101.483 Y180.143
G1 Z0.200
G1 E1.40000 F2100.000
;WIDTH:0.626904
G1 F1200.000
G1 X101.483 Y170.940 E0.44687
;WIDTH:0.723662
G1 X101.483 Y170.823 E0.00661
;WIDTH:0.82042
G1 X101.483 Y170.707 E0.00755
G1 X101.600 Y170.707 E0.00755
;WIDTH:0.772042
G1 X101.659 Y170.707 E0.00354
;WIDTH:0.723663
G1 X101.717 Y170.707 E0.00331
;WIDTH:0.675283
G1 X101.775 Y170.707 E0.00307
;WIDTH:0.626906
G1 X124.917 Y170.707 E1.12374
;WIPE_START
G1 F8640.000
G1 X119.157 Y170.707 E-1.33000
;WIPE_END
G1 E-0.07000 F2100.000
G1 Z0.400 F10800.000
G1 X124.917 Y160.607
G1 Z0.200
G1 E1.40000 F2100.000
;WIDTH:0.626904
G1 F1200.000
G1 X101.775 Y160.607 E1.12373
;WIDTH:0.675283
G1 X101.717 Y160.607 E0.00307
;WIDTH:0.723662
G1 X101.659 Y160.607 E0.00331
