; generated by PrusaSlicer 2.3.0+win64 on 2021-09-08 at 22:39:52 UTC

; 

; external perimeters extrusion width = 0.45mm
; perimeters extrusion width = 0.45mm
; infill extrusion width = 0.45mm
; solid infill extrusion width = 0.45mm
; top infill extrusion width = 0.40mm
; support material extrusion width = 0.35mm
; first layer extrusion width = 0.42mm

M73 P0 R131
M73 Q0 S132
M201 X1000 Y1000 Z200 E5000 ; sets maximum accelerations, mm/sec^2
M203 X200 Y200 Z12 E120 ; sets maximum feedrates, mm/sec
M204 P1250 R1250 T1250 ; sets acceleration (P, T) and retract acceleration (R), mm/sec^2
M205 X8.00 Y8.00 Z0.40 E4.50 ; sets the jerk limits, mm/sec
M205 S0 T0 ; sets the minimum extruding and travel feed rate, mm/sec
M107
;TYPE:Custom
M862.3 P "MK3S" ; printer model check
M862.1 P0.4 ; nozzle diameter check
M115 U3.9.1 ; tell printer latest fw version
G90 ; use absolute coordinates
M83 ; extruder relative mode
M104 S215 ; set extruder temp
M140 S60 ; set bed temp
M190 S60 ; wait for bed temp
M109 S215 ; wait for extruder temp
G28 W ; home all without mesh bed level
G80 ; mesh bed leveling
G1 Y-3.0 F1000.0 ; go outside print area
G92 E0.0
G1 X60.0 E9.0 F1000.0 ; intro line
G1 X100.0 E12.5 F1000.0 ; intro line
G92 E0.0
M221 S95

; Don't change E values below. Excessive value can damage the printer.

M907 E538 ; set extruder motor current
G21 ; set units to millimeters
G90 ; use absolute coordinates
M83 ; use relative distances for extrusion
M900 K0.05 ; Filament gcode LA 1.5
M900 K30 ; Filament gcode LA 1.0
;LAYER_CHANGE
;Z:0.2
;HEIGHT:0.2
;BEFORE_LAYER_CHANGE
G92 E0.0
;0.2


M73 Q0 S131
G1 E-0.80000 F2100.000
G1 Z0.600 F10800.000
;AFTER_LAYER_CHANGE
;0.2
G1 X104.149 Y84.835
G1 Z0.200
G1 E0.80000 F2100.000
M204 S1000
;TYPE:Skirt
;WIDTH:0.42
G1 F1200.000
G1 X104.388 Y84.171 E0.02213
G1 X104.815 Y83.603 E0.02225
G1 X105.390 Y83.188 E0.02225
G1 X106.058 Y82.961 E0.02213
G1 X114.779 Y82.923 E0.27345
G1 X115.470 Y83.027 E0.02190
G1 X131.747 Y88.113 E0.53469
G1 X133.096 Y88.696 E0.04608
G1 X134.421 Y89.404 E0.04709
G1 X136.158 Y90.572 E0.06565
G1 X137.308 Y91.524 E0.04680
G1 X138.847 Y93.094 E0.06892
G1 X140.198 Y94.866 E0.06988
G1 X141.302 Y96.760 E0.06874
G1 X141.887 Y98.044 E0.04424
G1 X142.367 Y99.369 E0.04417
G1 X142.911 Y101.534 E0.06999
G1 X143.179 Y103.708 E0.06868
G1 X143.179 Y105.895 E0.06856
G1 X142.906 Y108.095 E0.06952
G1 X142.383 Y110.183 E0.06749
G1 X141.615 Y112.186 E0.06725
G1 X140.916 Y113.565 E0.04847
G1 X139.752 Y115.371 E0.06737
G1 X138.359 Y117.047 E0.06833
G1 X136.798 Y118.518 E0.06725
G1 X135.041 Y119.813 E0.06844
G1 X133.699 Y120.600 E0.04876
G1 X132.424 Y121.212 E0.04436
G1 X131.063 Y121.735 E0.04573
G1 X115.293 Y126.790 E0.51923
G1 X114.779 Y126.847 E0.01621
G1 X106.014 Y126.801 E0.27482
G1 X105.277 Y126.521 E0.02473
G1 X104.675 Y126.018 E0.02461
G1 X104.270 Y125.345 E0.02461
G1 X104.105 Y124.574 E0.02473
G1 X104.149 Y84.895 E1.24413
;WIPE_START
G1 F8640.000
G1 X104.388 Y84.171 E-0.17608
G1 X104.815 Y83.603 E-0.16385
G1 X105.390 Y83.188 E-0.16385
G1 X106.058 Y82.961 E-0.16298
G1 X106.462 Y82.959 E-0.09322
;WIPE_END
G1 E-0.04000 F2100.000
G1 Z0.800 F10800.000
G1 X114.776 Y89.057
G1 Z0.200
G1 E0.80000 F2100.000
;TYPE:Support material
G1 F1200.000
G1 X114.776 Y85.300 E0.11778
G1 X114.021 Y85.300 E0.02365
G1 X114.021 Y88.887 E0.11246
G1 X113.267 Y88.887 E0.02365
G1 X113.267 Y85.300 E0.11246
G1 X112.513 Y85.300 E0.02365
G1 X112.513 Y88.887 E0.11246
G1 X111.759 Y88.887 E0.02365
G1 X111.759 Y85.300 E0.11246
G1 X111.005 Y85.300 E0.02365
G1 X111.005 Y88.887 E0.11246
G1 X110.251 Y88.887 E0.02365
G1 X110.251 Y85.300 E0.11246
G1 X109.496 Y85.300 E0.02365
G1 X109.496 Y124.301 E1.22284
G1 X108.742 Y124.301 E0.02365
G1 X108.742 Y85.300 E1.22284
G1 X107.988 Y85.300 E0.02365
G1 X107.988 Y124.301 E1.22284
G1 X107.234 Y124.301 E0.02365
G1 X107.234 Y85.300 E1.22284
G1 X106.480 Y85.300 E0.02365
G1 X106.480 Y124.470 E1.22816
G1 X110.251 Y120.544 F10800.000
G1 F1200.000
G1 X110.251 Y124.301 E0.11778
G1 X111.005 Y124.301 E0.02365
G1 X111.005 Y120.714 E0.11246
G1 X111.759 Y120.714 E0.02365
G1 X111.759 Y124.301 E0.11246
G1 X112.513 Y124.301 E0.02365
G1 X112.513 Y120.714 E0.11246
G1 X113.267 Y120.714 E0.02365
G1 X113.267 Y124.301 E0.11246
G1 X114.021 Y124.301 E0.02365
G1 X114.021 Y120.714 E0.11246
G1 X114.776 Y120.714 E0.02365
G1 X114.776 Y124.470 E0.11778
;WIPE_START
G1 F8640.000
G1 X114.776 Y121.179 E-0.76000
;WIPE_END
G1 E-0.04000 F2100.000
G1 Z0.800 F10800.000
G1 X110.622 Y119.513
G1 Z0.200
G1 E0.80000 F2100.000
;TYPE:Perimeter
G1 F1200.000
G1 X110.622 Y90.087 E0.92263
G1 X125.330 Y90.088 E0.46114
G1 X126.535 Y90.137 E0.03781
G1 X127.726 Y90.283 E0.03763
G1 X128.316 Y90.393 E0.01882
G1 X129.480 Y90.684 E0.03763
G1 X130.617 Y91.068 E0.03763
G1 X131.719 Y91.545 E0.03763
G1 X132.778 Y92.109 E0.03763
G1 X133.788 Y92.758 E0.03763
G1 X134.741 Y93.487 E0.03763
G1 X135.632 Y94.291 E0.03763
G1 X136.455 Y95.166 E0.03763
G1 X137.203 Y96.104 E0.03763
G1 X137.548 Y96.595 E0.01882
G1 X138.176 Y97.618 E0.03763
G1 X138.719 Y98.688 E0.03763
G1 X139.172 Y99.800 E0.03763
G1 X139.534 Y100.944 E0.03763
G1 X139.679 Y101.526 E0.01882
G1 X139.801 Y102.114 E0.01882
G1 X139.972 Y103.302 E0.03763
G1 X140.045 Y104.500 E0.03763
G1 X140.021 Y105.700 E0.03763
G1 X139.972 Y106.298 E0.01882
G1 X139.801 Y107.486 E0.03763
G1 X139.534 Y108.657 E0.03763
G1 X139.172 Y109.801 E0.03763
G1 X138.957 Y110.361 E0.01882
G1 X138.458 Y111.453 E0.03763
G1 X138.176 Y111.983 E0.01882
G1 X137.550 Y113.002 E0.03751
G1 X137.020 Y113.735 E0.02835
G1 X136.452 Y114.438 E0.02835
G1 X135.632 Y115.309 E0.03751
G1 X134.741 Y116.114 E0.03763
G1 X133.788 Y116.843 E0.03763
G1 X132.778 Y117.492 E0.03763
G1 X131.719 Y118.056 E0.03763
G1 X130.617 Y118.532 E0.03763
G1 X129.480 Y118.917 E0.03763
G1 X128.316 Y119.208 E0.03763
G1 X127.726 Y119.318 E0.01882
G1 X126.535 Y119.464 E0.03763
G1 X125.327 Y119.513 E0.03788
G1 X110.682 Y119.513 E0.45918
G1 X110.245 Y119.890 F10800.000
;TYPE:External perimeter
G1 F1200.000
G1 X110.245 Y89.710 E0.94627
G1 X125.334 Y89.710 E0.47308
G1 X125.951 Y89.723 E0.01936
G1 X126.565 Y89.761 E0.01930
G1 X127.178 Y89.823 E0.01930
G1 X127.787 Y89.911 E0.01930
G1 X128.392 Y90.023 E0.01930
G1 X128.993 Y90.160 E0.01930
G1 X129.587 Y90.322 E0.01930
G1 X130.174 Y90.507 E0.01930
G1 X130.753 Y90.716 E0.01930
G1 X131.323 Y90.949 E0.01930
G1 X131.883 Y91.205 E0.01930
G1 X132.432 Y91.483 E0.01930
G1 X132.969 Y91.784 E0.01930
G1 X133.494 Y92.106 E0.01930
G1 X134.005 Y92.449 E0.01930
G1 X134.501 Y92.813 E0.01930
G1 X134.982 Y93.197 E0.01930
G1 X135.448 Y93.600 E0.01930
G1 X135.896 Y94.022 E0.01930
G1 X136.327 Y94.462 E0.01930
G1 X136.740 Y94.919 E0.01930
G1 X137.133 Y95.392 E0.01930
G1 X137.507 Y95.881 E0.01930
G1 X137.861 Y96.385 E0.01930
G1 X138.194 Y96.903 E0.01930
G1 X138.505 Y97.434 E0.01930
G1 X138.795 Y97.977 E0.01930
G1 X139.062 Y98.532 E0.01930
G1 X139.306 Y99.097 E0.01930
G1 X139.527 Y99.671 E0.01930
G1 X139.724 Y100.255 E0.01930
G1 X139.898 Y100.845 E0.01930
G1 X140.047 Y101.443 E0.01930
G1 X140.172 Y102.045 E0.01930
G1 X140.272 Y102.653 E0.01930
G1 X140.347 Y103.264 E0.01930
G1 X140.397 Y103.878 E0.01933
G1 X140.422 Y104.493 E0.01927
G1 X140.422 Y105.108 E0.01930
G1 X140.397 Y105.723 E0.01930
G1 X140.347 Y106.337 E0.01930
G1 X140.272 Y106.948 E0.01930
G1 X140.172 Y107.555 E0.01930
G1 X140.047 Y108.158 E0.01930
G1 X139.898 Y108.755 E0.01930
G1 X139.724 Y109.346 E0.01930
G1 X139.527 Y109.929 E0.01930
G1 X139.306 Y110.504 E0.01930
G1 X139.062 Y111.069 E0.01930
G1 X138.795 Y111.624 E0.01930
G1 X138.505 Y112.167 E0.01930
G1 X138.194 Y112.698 E0.01930
G1 X137.862 Y113.215 E0.01926
G1 X137.320 Y113.964 E0.02899
G1 X136.739 Y114.683 E0.02899
G1 X136.327 Y115.139 E0.01926
G1 X135.896 Y115.579 E0.01930
G1 X135.448 Y116.001 E0.01930
G1 X134.982 Y116.404 E0.01930
G1 X134.500 Y116.788 E0.01933
G1 X134.005 Y117.151 E0.01927
G1 X133.494 Y117.495 E0.01930
G1 X132.969 Y117.817 E0.01930
G1 X132.432 Y118.118 E0.01930
G1 X131.883 Y118.396 E0.01930
G1 X131.323 Y118.652 E0.01930
G1 X130.753 Y118.884 E0.01930
G1 X130.174 Y119.094 E0.01930
G1 X129.587 Y119.279 E0.01930
G1 X128.993 Y119.440 E0.01930
G1 X128.392 Y119.577 E0.01930
G1 X127.787 Y119.690 E0.01930
G1 X127.178 Y119.777 E0.01930
G1 X126.565 Y119.840 E0.01930
G1 X125.951 Y119.878 E0.01930
G1 X125.331 Y119.890 E0.01943
G1 X110.305 Y119.890 E0.47112
G1 X110.445 Y119.544 F10800.000
;WIPE_START
G1 F8640.000
G1 X110.299 Y116.599 E-0.76000
;WIPE_END
G1 E-0.04000 F2100.000
G1 Z0.800 F10800.000
G1 X137.116 Y96.177
G1 Z0.200
G1 E0.80000 F2100.000
;TYPE:Solid infill
;WIDTH:0.422399
G1 F1200.000
G1 X135.418 Y94.479 E0.07575
G1 X134.560 Y93.705 E0.03646
G1 X133.625 Y92.990 E0.03714
G1 X132.973 Y92.570 E0.02448
G1 X137.563 Y97.161 E0.20485
G1 X137.929 Y97.756 E0.02205
G1 X138.244 Y98.379 E0.02202
G1 X131.744 Y91.879 E0.29006
G1 X130.773 Y91.444 E0.03359
G1 X138.686 Y99.357 E0.35312
G1 X138.906 Y99.896 E0.01837
G1 X139.007 Y100.214 E0.01053
G1 X129.925 Y91.133 E0.40525
G1 X129.401 Y90.955 E0.01747
G1 X129.148 Y90.892 E0.00823
G1 X139.254 Y100.999 E0.45100
G1 X139.428 Y101.709 E0.02308
G1 X128.432 Y90.713 E0.49068
G1 X127.759 Y90.577 E0.02166
G1 X139.552 Y102.369 E0.52622
G1 X139.642 Y102.996 E0.01998
G1 X127.142 Y90.496 E0.55780
G1 X126.530 Y90.421 E0.01945
G1 X139.706 Y103.597 E0.58798
G1 X139.741 Y104.169 E0.01807
G1 X125.969 Y90.397 E0.61458
M73 P0 R130
G1 X125.410 Y90.374 E0.01767
G1 X139.758 Y104.722 E0.64027
G1 X139.747 Y105.248 E0.01660
G1 X124.869 Y90.370 E0.66389
G1 X124.333 Y90.370 E0.01693
G1 X139.731 Y105.769 E0.68714
G1 X139.691 Y106.265 E0.01571
G1 X123.796 Y90.370 E0.70928
G1 X123.259 Y90.370 E0.01693
G1 X139.623 Y106.734 E0.73022
G1 X139.556 Y107.203 E0.01496
G1 X122.723 Y90.370 E0.75116
G1 X122.186 Y90.370 E0.01693
G1 X139.472 Y107.656 E0.77137
G1 X139.372 Y108.093 E0.01414
G1 X121.649 Y90.370 E0.79086
G1 X121.113 Y90.370 E0.01693
G1 X139.273 Y108.530 E0.81036
G1 X139.147 Y108.941 E0.01357
G1 X120.576 Y90.370 E0.82872
G1 X120.039 Y90.370 E0.01693
G1 X139.018 Y109.349 E0.84691
G1 X138.887 Y109.755 E0.01345
G1 X119.503 Y90.370 E0.86500
G1 X118.966 Y90.370 E0.01693
G1 X138.738 Y110.142 E0.88230
G1 X138.575 Y110.516 E0.01287
G1 X118.429 Y90.370 E0.89898
M73 Q0 S130
G1 X117.893 Y90.370 E0.01693
G1 X138.407 Y110.884 E0.91542
G1 X138.239 Y111.253 E0.01278
G1 X117.356 Y90.370 E0.93186
G1 X116.819 Y90.370 E0.01693
G1 X138.056 Y111.607 E0.94765
G1 X137.863 Y111.951 E0.01245
G1 X116.283 Y90.370 E0.96302
G1 X115.746 Y90.370 E0.01693
G1 X137.659 Y112.284 E0.97785
G1 X137.455 Y112.616 E0.01231
G1 X115.209 Y90.370 E0.99269
G1 X114.673 Y90.370 E0.01693
G1 X137.244 Y112.942 E1.00724
G1 X137.019 Y113.254 E0.01213
G1 X114.136 Y90.370 E1.02114
G1 X113.599 Y90.370 E0.01693
G1 X136.794 Y113.565 E1.03504
M73 P1 R130
M73 Q1 S130
G1 X136.554 Y113.862 E0.01204
G1 X113.063 Y90.370 E1.04828
G1 X112.526 Y90.370 E0.01693
G1 X136.314 Y114.158 E1.06152
G1 X136.061 Y114.441 E0.01199
G1 X111.989 Y90.370 E1.07415
G1 X111.453 Y90.370 E0.01693
G1 X135.800 Y114.718 E1.08649
G1 X135.540 Y114.994 E0.01198
G1 X110.905 Y90.370 E1.09907
G1 X110.905 Y90.896 E0.01659
G1 X135.267 Y115.258 E1.08712
G1 X134.985 Y115.513 E0.01199
G1 X110.905 Y91.433 E1.07454
G1 X110.905 Y91.969 E0.01693
G1 X134.703 Y115.767 E1.06195
G1 X134.410 Y116.011 E0.01202
G1 X110.905 Y92.506 E1.04888
G1 X110.905 Y93.043 E0.01693
G1 X134.106 Y116.244 E1.03531
G1 X133.802 Y116.476 E0.01208
G1 X110.905 Y93.579 E1.02174
G1 X110.905 Y94.116 E0.01693
G1 X133.488 Y116.699 E1.00774
G1 X133.162 Y116.909 E0.01225
G1 X110.905 Y94.653 E0.99317
G1 X110.905 Y95.189 E0.01693
G1 X132.835 Y117.119 E0.97859
G1 X132.499 Y117.320 E0.01235
G1 X110.905 Y95.726 E0.96360
G1 X110.905 Y96.263 E0.01693
G1 X132.149 Y117.507 E0.94798
G1 X131.799 Y117.693 E0.01252
G1 X110.905 Y96.799 E0.93236
M73 P1 R129
G1 X110.905 Y97.336 E0.01693
G1 X131.438 Y117.869 E0.91627
G1 X131.064 Y118.031 E0.01288
G1 X110.905 Y97.873 E0.89955
G1 X110.905 Y98.409 E0.01693
G1 X130.689 Y118.193 E0.88283
G1 X130.300 Y118.341 E0.01313
G1 X110.905 Y98.946 E0.86548
G1 X110.905 Y99.483 E0.01693
G1 X129.899 Y118.477 E0.84759
G1 X129.498 Y118.613 E0.01336
G1 X110.905 Y100.019 E0.82970
G1 X110.905 Y100.556 E0.01693
G1 X129.076 Y118.727 E0.81085
G1 X128.647 Y118.834 E0.01397
G1 X110.905 Y101.093 E0.79168
G1 X110.905 Y101.629 E0.01693
G1 X128.215 Y118.939 E0.77243
G1 X127.762 Y119.023 E0.01453
G1 X110.905 Y102.166 E0.75223
G1 X110.905 Y102.703 E0.01693
G1 X127.289 Y119.086 E0.73111
G1 X126.811 Y119.145 E0.01519
G1 X110.905 Y103.239 E0.70978
G1 X110.905 Y103.776 E0.01693
G1 X126.319 Y119.190 E0.68783
G1 X125.803 Y119.211 E0.01629
G1 X110.905 Y104.313 E0.66482
M73 Q1 S129
G1 X110.905 Y104.849 E0.01693
G1 X125.286 Y119.231 E0.64174
G1 X124.750 Y119.231 E0.01693
G1 X110.905 Y105.386 E0.61779
G1 X110.905 Y105.923 E0.01693
G1 X124.213 Y119.231 E0.59385
G1 X123.676 Y119.231 E0.01693
G1 X110.905 Y106.459 E0.56990
G1 X110.905 Y106.996 E0.01693
G1 X123.140 Y119.231 E0.54595
G1 X122.603 Y119.231 E0.01693
G1 X110.905 Y107.533 E0.52200
G1 X110.905 Y108.069 E0.01693
G1 X122.066 Y119.231 E0.49805
G1 X121.530 Y119.231 E0.01693
G1 X110.905 Y108.606 E0.47411
G1 X110.905 Y109.143 E0.01693
G1 X120.993 Y119.231 E0.45016
G1 X120.456 Y119.231 E0.01693
G1 X110.905 Y109.679 E0.42621
G1 X110.905 Y110.216 E0.01693
G1 X119.920 Y119.231 E0.40226
G1 X119.383 Y119.231 E0.01693
G1 X110.905 Y110.753 E0.37831
G1 X110.905 Y111.289 E0.01693
G1 X118.846 Y119.231 E0.35437
G1 X118.310 Y119.231 E0.01693
G1 X110.905 Y111.826 E0.33042
G1 X110.905 Y112.363 E0.01693
G1 X117.773 Y119.231 E0.30647
G1 X117.236 Y119.231 E0.01693
G1 X110.905 Y112.899 E0.28252
G1 X110.905 Y113.436 E0.01693
G1 X116.700 Y119.231 E0.25857
G1 X116.163 Y119.231 E0.01693
G1 X110.905 Y113.973 E0.23463
G1 X110.905 Y114.509 E0.01693
G1 X115.626 Y119.231 E0.21068
G1 X115.090 Y119.231 E0.01693
G1 X110.905 Y115.046 E0.18673
G1 X110.905 Y115.583 E0.01693
G1 X114.553 Y119.231 E0.16278
G1 X114.016 Y119.231 E0.01693
G1 X110.905 Y116.119 E0.13883
G1 X110.905 Y116.656 E0.01693
G1 X113.480 Y119.231 E0.11489
G1 X112.943 Y119.231 E0.01693
G1 X110.905 Y117.193 E0.09094
G1 X110.905 Y117.729 E0.01693
G1 X112.406 Y119.231 E0.06699
G1 X111.870 Y119.231 E0.01693
G1 X110.905 Y118.266 E0.04304
G1 X110.905 Y118.803 E0.01693
G1 X111.503 Y119.400 E0.02667
M106 S255
;LAYER_CHANGE
;Z:0.4
;HEIGHT:0.2
;BEFORE_LAYER_CHANGE
G92 E0.0
;0.4


;WIPE_START
G1 F8640.000
G1 X110.905 Y118.803 E-0.19513
G1 X110.905 Y118.266 E-0.12392
G1 X111.870 Y119.231 E-0.31497
G1 X112.406 Y119.231 E-0.12392
G1 X112.400 Y119.224 E-0.00207
;WIPE_END
G1 E-0.04000 F2100.000
G1 Z0.800 F10800.000
;AFTER_LAYER_CHANGE
;0.4
G1 X106.014 Y126.801
G1 Z0.400
G1 E0.80000 F2100.000
;TYPE:Skirt
;WIDTH:0.42
G1 F3000.000
G1 X105.277 Y126.521 E0.02473
G1 X104.675 Y126.018 E0.02461
G1 X104.270 Y125.345 E0.02461
G1 X104.105 Y124.574 E0.02473
G1 X104.149 Y84.835 E1.24601
G1 X104.388 Y84.171 E0.02213
G1 X104.815 Y83.603 E0.02225
G1 X105.390 Y83.188 E0.02225
G1 X106.058 Y82.961 E0.02213
G1 X114.779 Y82.923 E0.27345
G1 X115.470 Y83.027 E0.02190
G1 X131.747 Y88.113 E0.53469
G1 X133.096 Y88.696 E0.04608
G1 X134.421 Y89.404 E0.04709
G1 X136.158 Y90.572 E0.06565
G1 X137.308 Y91.524 E0.04680
G1 X138.847 Y93.094 E0.06892
G1 X140.198 Y94.866 E0.06988
G1 X141.302 Y96.760 E0.06874
G1 X141.887 Y98.044 E0.04424
G1 X142.367 Y99.369 E0.04417
G1 X142.911 Y101.534 E0.06999
G1 X143.179 Y103.708 E0.06868
G1 X143.179 Y105.895 E0.06856
G1 X142.906 Y108.095 E0.06952
G1 X142.383 Y110.183 E0.06749
G1 X141.615 Y112.186 E0.06725
G1 X140.916 Y113.565 E0.04847
G1 X139.752 Y115.371 E0.06737
G1 X138.359 Y117.047 E0.06833
G1 X136.798 Y118.518 E0.06725
G1 X135.041 Y119.813 E0.06844
G1 X133.699 Y120.600 E0.04876
G1 X132.424 Y121.212 E0.04436
G1 X131.063 Y121.735 E0.04573
G1 X115.293 Y126.790 E0.51923
G1 X114.779 Y126.847 E0.01621
G1 X106.074 Y126.802 E0.27294
;WIPE_START
G1 F8640.000
G1 X105.277 Y126.521 E-0.19513
G1 X104.675 Y126.018 E-0.18123
G1 X104.270 Y125.345 E-0.18123
G1 X104.105 Y124.574 E-0.18209
G1 X104.105 Y124.486 E-0.02033
;WIPE_END
G1 E-0.04000 F2100.000
G1 Z1.000 F10800.000
G1 X110.467 Y119.668
G1 Z0.400
