; generated by PrusaSlicer 2.3.0+win64 on 2021-09-06 at 21:19:43 UTC

; 

; external perimeters extrusion width = 0.45mm
; perimeters extrusion width = 0.45mm
; infill extrusion width = 0.45mm
; solid infill extrusion width = 0.45mm
; top infill extrusion width = 0.40mm
; support material extrusion width = 0.35mm
; first layer extrusion width = 0.42mm

M73 P0 R143
M73 Q0 S143
M201 X1000 Y1000 Z200 E5000 ; sets maximum accelerations, mm/sec^2
M203 X200 Y200 Z12 E120 ; sets maximum feedrates, mm/sec
M204 P1250 R1250 T1250 ; sets acceleration (P, T) and retract acceleration (R), mm/sec^2
M205 X8.00 Y8.00 Z0.40 E4.50 ; sets the jerk limits, mm/sec
M205 S0 T0 ; sets the minimum extruding and travel feed rate, mm/sec
M107
;TYPE:Custom
M862.3 P "MK3S" ; printer model check
M862.1 P0.4 ; nozzle diameter check
M115 U3.9.1 ; tell printer latest fw version
G90 ; use absolute coordinates
M83 ; extruder relative mode
M104 S215 ; set extruder temp
M140 S60 ; set bed temp
M190 S60 ; wait for bed temp
M109 S215 ; wait for extruder temp
G28 W ; home all without mesh bed level
G80 ; mesh bed leveling
G1 Y-3.0 F1000.0 ; go outside print area
G92 E0.0
G1 X60.0 E9.0 F1000.0 ; intro line
G1 X100.0 E12.5 F1000.0 ; intro line
G92 E0.0
M221 S95

; Don't change E values below. Excessive value can damage the printer.

M907 E538 ; set extruder motor current
G21 ; set units to millimeters
G90 ; use absolute coordinates
M83 ; use relative distances for extrusion
M900 K0.05 ; Filament gcode LA 1.5
M900 K30 ; Filament gcode LA 1.0
;LAYER_CHANGE
;Z:0.2
;HEIGHT:0.2
;BEFORE_LAYER_CHANGE
G92 E0.0
;0.2


G1 E-0.80000 F2100.000
G1 Z0.600 F10800.000
;AFTER_LAYER_CHANGE
;0.2
G1 X103.815 Y85.034
G1 Z0.200
G1 E0.80000 F2100.000
M204 S1000
;TYPE:Skirt
;WIDTH:0.42
G1 F1200.000
G1 X104.054 Y84.370 E0.02213
G1 X104.481 Y83.803 E0.02225
G1 X105.056 Y83.387 E0.02225
G1 X105.724 Y83.160 E0.02213
G1 X114.446 Y83.123 E0.27345
G1 X115.136 Y83.226 E0.02190
G1 X131.413 Y88.312 E0.53469
G1 X132.763 Y88.895 E0.04608
G1 X134.087 Y89.604 E0.04709
G1 X135.825 Y90.772 E0.06565
G1 X136.974 Y91.724 E0.04680
G1 X138.513 Y93.294 E0.06892
G1 X139.864 Y95.066 E0.06988
G1 X140.968 Y96.960 E0.06874
G1 X141.553 Y98.244 E0.04424
G1 X142.033 Y99.569 E0.04417
G1 X142.578 Y101.733 E0.06999
G1 X142.845 Y103.908 E0.06868
G1 X142.845 Y106.094 E0.06856
G1 X142.572 Y108.295 E0.06952
G1 X142.049 Y110.383 E0.06749
G1 X141.281 Y112.386 E0.06725
G1 X140.582 Y113.764 E0.04847
G1 X139.419 Y115.571 E0.06737
G1 X138.025 Y117.246 E0.06833
G1 X136.465 Y118.718 E0.06725
G1 X134.707 Y120.013 E0.06844
G1 X133.366 Y120.799 E0.04876
G1 X132.090 Y121.412 E0.04436
G1 X130.729 Y121.935 E0.04573
G1 X114.959 Y126.990 E0.51923
G1 X114.445 Y127.047 E0.01621
G1 X105.681 Y127.001 E0.27482
G1 X104.944 Y126.720 E0.02473
G1 X104.341 Y126.217 E0.02461
G1 X103.936 Y125.545 E0.02461
G1 X103.771 Y124.774 E0.02473
G1 X103.815 Y85.094 E1.24413
;WIPE_START
G1 F8640.000
G1 X104.054 Y84.370 E-0.17608
G1 X104.481 Y83.803 E-0.16385
G1 X105.056 Y83.387 E-0.16385
G1 X105.724 Y83.160 E-0.16298
G1 X106.128 Y83.159 E-0.09322
;WIPE_END
G1 E-0.04000 F2100.000
G1 Z0.800 F10800.000
G1 X114.442 Y89.256
G1 Z0.200
G1 E0.80000 F2100.000
;TYPE:Support material
G1 F1200.000
G1 X114.442 Y85.500 E0.11778
G1 X113.688 Y85.500 E0.02365
G1 X113.688 Y89.086 E0.11246
G1 X112.933 Y89.086 E0.02365
G1 X112.933 Y85.500 E0.11246
G1 X112.179 Y85.500 E0.02365
G1 X112.179 Y89.086 E0.11246
G1 X111.425 Y89.086 E0.02365
G1 X111.425 Y85.500 E0.11246
G1 X110.671 Y85.500 E0.02365
G1 X110.671 Y89.086 E0.11246
G1 X109.917 Y89.086 E0.02365
G1 X109.917 Y85.500 E0.11246
G1 X109.163 Y85.500 E0.02365
G1 X109.163 Y124.500 E1.22284
G1 X108.409 Y124.500 E0.02365
G1 X108.409 Y85.500 E1.22284
G1 X107.654 Y85.500 E0.02365
G1 X107.654 Y124.500 E1.22284
G1 X106.900 Y124.500 E0.02365
G1 X106.900 Y85.500 E1.22284
G1 X106.146 Y85.500 E0.02365
G1 X106.146 Y124.670 E1.22816
G1 X109.917 Y120.744 F10800.000
G1 F1200.000
G1 X109.917 Y124.500 E0.11778
G1 X110.671 Y124.500 E0.02365
G1 X110.671 Y120.914 E0.11246
G1 X111.425 Y120.914 E0.02365
G1 X111.425 Y124.500 E0.11246
G1 X112.179 Y124.500 E0.02365
G1 X112.179 Y120.914 E0.11246
G1 X112.933 Y120.914 E0.02365
G1 X112.933 Y124.500 E0.11246
G1 X113.688 Y124.500 E0.02365
G1 X113.688 Y120.914 E0.11246
G1 X114.442 Y120.914 E0.02365
G1 X114.442 Y124.670 E0.11778
;WIPE_START
G1 F8640.000
G1 X114.442 Y121.379 E-0.76000
;WIPE_END
G1 E-0.04000 F2100.000
G1 Z0.800 F10800.000
G1 X110.289 Y119.713
G1 Z0.200
G1 E0.80000 F2100.000
;TYPE:Perimeter
G1 F1200.000
G1 X110.289 Y90.287 E0.92263
G1 X124.996 Y90.287 E0.46114
G1 X126.201 Y90.336 E0.03781
G1 X127.392 Y90.483 E0.03763
G1 X127.982 Y90.592 E0.01882
G1 X129.147 Y90.883 E0.03763
G1 X130.284 Y91.268 E0.03763
G1 X131.385 Y91.744 E0.03763
G1 X132.444 Y92.309 E0.03763
G1 X133.454 Y92.958 E0.03763
G1 X134.408 Y93.687 E0.03763
G1 X135.298 Y94.491 E0.03763
G1 X136.121 Y95.365 E0.03763
G1 X136.869 Y96.304 E0.03763
G1 X137.214 Y96.795 E0.01882
G1 X137.842 Y97.818 E0.03763
G1 X138.385 Y98.888 E0.03763
G1 X138.838 Y99.999 E0.03763
G1 X139.200 Y101.144 E0.03763
G1 X139.345 Y101.726 E0.01882
G1 X139.467 Y102.314 E0.01882
G1 X139.638 Y103.502 E0.03763
G1 X139.711 Y104.700 E0.03763
G1 X139.687 Y105.900 E0.03763
G1 X139.638 Y106.498 E0.01882
G1 X139.467 Y107.686 E0.03763
G1 X139.200 Y108.856 E0.03763
G1 X138.838 Y110.001 E0.03763
G1 X138.623 Y110.561 E0.01882
G1 X138.124 Y111.653 E0.03763
G1 X137.842 Y112.182 E0.01882
G1 X137.216 Y113.202 E0.03751
G1 X136.687 Y113.935 E0.02835
G1 X136.118 Y114.638 E0.02835
G1 X135.298 Y115.509 E0.03751
G1 X134.408 Y116.313 E0.03763
G1 X133.454 Y117.042 E0.03763
G1 X132.444 Y117.691 E0.03763
G1 X131.385 Y118.256 E0.03763
G1 X130.284 Y118.732 E0.03763
G1 X129.147 Y119.117 E0.03763
G1 X127.982 Y119.408 E0.03763
G1 X127.392 Y119.517 E0.01882
G1 X126.201 Y119.664 E0.03763
G1 X124.994 Y119.713 E0.03788
G1 X110.349 Y119.713 E0.45918
G1 X109.912 Y120.090 F10800.000
;TYPE:External perimeter
G1 F1200.000
G1 X109.912 Y89.910 E0.94627
M73 P0 R142
G1 X125.000 Y89.910 E0.47308
G1 X125.617 Y89.923 E0.01936
G1 X126.232 Y89.960 E0.01930
G1 X126.844 Y90.023 E0.01930
G1 X127.453 Y90.111 E0.01930
G1 X128.059 Y90.223 E0.01930
G1 X128.659 Y90.360 E0.01930
G1 X129.253 Y90.521 E0.01930
G1 X129.840 Y90.707 E0.01930
G1 X130.419 Y90.916 E0.01930
G1 X130.989 Y91.149 E0.01930
G1 X131.549 Y91.404 E0.01930
G1 X132.098 Y91.683 E0.01930
G1 X132.635 Y91.983 E0.01930
G1 X133.160 Y92.306 E0.01930
G1 X133.671 Y92.649 E0.01930
G1 X134.167 Y93.013 E0.01930
G1 X134.649 Y93.397 E0.01930
G1 X135.114 Y93.800 E0.01930
G1 X135.562 Y94.222 E0.01930
G1 X135.993 Y94.661 E0.01930
G1 X136.406 Y95.118 E0.01930
G1 X136.799 Y95.592 E0.01930
G1 X137.173 Y96.081 E0.01930
G1 X137.527 Y96.585 E0.01930
G1 X137.860 Y97.102 E0.01930
G1 X138.171 Y97.633 E0.01930
G1 X138.461 Y98.177 E0.01930
G1 X138.728 Y98.731 E0.01930
G1 X138.972 Y99.297 E0.01930
G1 X139.193 Y99.871 E0.01930
G1 X139.391 Y100.454 E0.01930
G1 X139.564 Y101.045 E0.01930
G1 X139.713 Y101.642 E0.01930
G1 X139.838 Y102.245 E0.01930
G1 X139.938 Y102.852 E0.01930
G1 X140.013 Y103.463 E0.01930
G1 X140.063 Y104.078 E0.01933
G1 X140.088 Y104.692 E0.01927
G1 X140.088 Y105.308 E0.01930
G1 X140.063 Y105.923 E0.01930
G1 X140.013 Y106.537 E0.01930
G1 X139.938 Y107.148 E0.01930
G1 X139.838 Y107.755 E0.01930
G1 X139.713 Y108.358 E0.01930
G1 X139.564 Y108.955 E0.01930
G1 X139.391 Y109.546 E0.01930
G1 X139.193 Y110.129 E0.01930
G1 X138.972 Y110.703 E0.01930
G1 X138.728 Y111.269 E0.01930
G1 X138.461 Y111.823 E0.01930
G1 X138.171 Y112.367 E0.01930
G1 X137.860 Y112.898 E0.01930
G1 X137.528 Y113.414 E0.01926
G1 X136.986 Y114.164 E0.02899
G1 X136.405 Y114.883 E0.02899
G1 X135.993 Y115.339 E0.01926
G1 X135.562 Y115.778 E0.01930
G1 X135.114 Y116.200 E0.01930
G1 X134.649 Y116.603 E0.01930
G1 X134.167 Y116.988 E0.01933
G1 X133.671 Y117.351 E0.01927
G1 X133.160 Y117.694 E0.01930
G1 X132.635 Y118.017 E0.01930
G1 X132.098 Y118.317 E0.01930
G1 X131.549 Y118.596 E0.01930
G1 X130.989 Y118.851 E0.01930
G1 X130.419 Y119.084 E0.01930
G1 X129.840 Y119.293 E0.01930
G1 X129.253 Y119.479 E0.01930
G1 X128.659 Y119.640 E0.01930
G1 X128.059 Y119.777 E0.01930
G1 X127.453 Y119.889 E0.01930
G1 X126.844 Y119.977 E0.01930
G1 X126.232 Y120.040 E0.01930
G1 X125.617 Y120.077 E0.01930
G1 X124.997 Y120.090 E0.01943
G1 X109.972 Y120.090 E0.47112
G1 X110.112 Y119.744 F10800.000
;WIPE_START
G1 F8640.000
G1 X109.965 Y116.799 E-0.76000
;WIPE_END
G1 E-0.04000 F2100.000
G1 Z0.800 F10800.000
G1 X136.782 Y96.376
G1 Z0.200
G1 E0.80000 F2100.000
;TYPE:Solid infill
;WIDTH:0.422399
G1 F1200.000
G1 X135.084 Y94.679 E0.07575
G1 X134.227 Y93.904 E0.03646
G1 X133.292 Y93.189 E0.03714
G1 X132.639 Y92.770 E0.02448
G1 X137.229 Y97.360 E0.20485
G1 X137.595 Y97.956 E0.02205
G1 X137.911 Y98.578 E0.02202
G1 X131.411 Y92.078 E0.29006
G1 X130.439 Y91.643 E0.03359
G1 X138.352 Y99.557 E0.35312
G1 X138.572 Y100.095 E0.01837
G1 X138.673 Y100.414 E0.01053
G1 X129.591 Y91.332 E0.40525
G1 X129.067 Y91.155 E0.01747
G1 X128.814 Y91.092 E0.00823
G1 X138.921 Y101.198 E0.45100
G1 X139.094 Y101.909 E0.02308
G1 X128.099 Y90.913 E0.49068
G1 X127.426 Y90.777 E0.02166
G1 X139.218 Y102.569 E0.52622
G1 X139.308 Y103.196 E0.01998
G1 X126.808 Y90.696 E0.55780
G1 X126.196 Y90.621 E0.01945
G1 X139.373 Y103.797 E0.58798
G1 X139.408 Y104.369 E0.01807
G1 X125.635 Y90.596 E0.61458
G1 X125.076 Y90.573 E0.01767
G1 X139.424 Y104.922 E0.64027
G1 X139.413 Y105.447 E0.01660
G1 X124.536 Y90.570 E0.66389
G1 X123.999 Y90.570 E0.01693
G1 X139.397 Y105.968 E0.68714
G1 X139.357 Y106.465 E0.01571
G1 X123.462 Y90.570 E0.70928
M73 Q0 S142
G1 X122.926 Y90.570 E0.01693
G1 X139.290 Y106.934 E0.73022
G1 X139.222 Y107.403 E0.01496
G1 X122.389 Y90.570 E0.75116
G1 X121.852 Y90.570 E0.01693
G1 X139.138 Y107.856 E0.77137
G1 X139.039 Y108.293 E0.01414
G1 X121.316 Y90.570 E0.79086
G1 X120.779 Y90.570 E0.01693
G1 X138.939 Y108.730 E0.81036
G1 X138.813 Y109.141 E0.01357
G1 X120.242 Y90.570 E0.82872
G1 X119.706 Y90.570 E0.01693
G1 X138.685 Y109.549 E0.84691
G1 X138.553 Y109.954 E0.01345
G1 X119.169 Y90.570 E0.86500
G1 X118.632 Y90.570 E0.01693
G1 X138.404 Y110.342 E0.88230
G1 X138.241 Y110.716 E0.01287
G1 X118.096 Y90.570 E0.89898
G1 X117.559 Y90.570 E0.01693
G1 X138.073 Y111.084 E0.91542
G1 X137.905 Y111.452 E0.01278
G1 X117.022 Y90.570 E0.93186
G1 X116.486 Y90.570 E0.01693
G1 X137.722 Y111.806 E0.94765
G1 X137.530 Y112.151 E0.01245
G1 X115.949 Y90.570 E0.96302
G1 X115.412 Y90.570 E0.01693
G1 X137.326 Y112.483 E0.97785
G1 X137.121 Y112.816 E0.01231
G1 X114.876 Y90.570 E0.99269
G1 X114.339 Y90.570 E0.01693
G1 X136.911 Y113.142 E1.00724
G1 X136.686 Y113.453 E0.01213
G1 X113.802 Y90.570 E1.02114
G1 X113.266 Y90.570 E0.01693
G1 X136.460 Y113.765 E1.03504
G1 X136.221 Y114.061 E0.01204
G1 X112.729 Y90.570 E1.04828
G1 X112.192 Y90.570 E0.01693
G1 X135.981 Y114.358 E1.06152
G1 X135.727 Y114.641 E0.01199
G1 X111.656 Y90.570 E1.07415
G1 X111.119 Y90.570 E0.01693
G1 X135.467 Y114.918 E1.08649
M73 P1 R142
M73 Q1 S142
G1 X135.207 Y115.194 E0.01198
G1 X110.571 Y90.570 E1.09907
G1 X110.571 Y91.096 E0.01659
G1 X134.933 Y115.458 E1.08712
G1 X134.651 Y115.712 E0.01199
G1 X110.571 Y91.632 E1.07454
G1 X110.571 Y92.169 E0.01693
G1 X134.369 Y115.967 E1.06195
G1 X134.076 Y116.211 E0.01202
G1 X110.571 Y92.706 E1.04888
M73 P1 R141
G1 X110.571 Y93.242 E0.01693
G1 X133.772 Y116.443 E1.03531
G1 X133.468 Y116.676 E0.01208
G1 X110.571 Y93.779 E1.02174
G1 X110.571 Y94.316 E0.01693
G1 X133.155 Y116.899 E1.00774
G1 X132.828 Y117.109 E0.01225
G1 X110.571 Y94.852 E0.99317
G1 X110.571 Y95.389 E0.01693
G1 X132.501 Y117.319 E0.97859
G1 X132.165 Y117.520 E0.01235
G1 X110.571 Y95.926 E0.96360
G1 X110.571 Y96.462 E0.01693
G1 X131.815 Y117.706 E0.94798
G1 X131.465 Y117.893 E0.01252
G1 X110.571 Y96.999 E0.93236
G1 X110.571 Y97.536 E0.01693
G1 X131.105 Y118.069 E0.91627
G1 X130.730 Y118.231 E0.01288
G1 X110.571 Y98.072 E0.89955
G1 X110.571 Y98.609 E0.01693
G1 X130.355 Y118.393 E0.88283
M73 Q1 S141
G1 X129.967 Y118.541 E0.01313
G1 X110.571 Y99.146 E0.86548
G1 X110.571 Y99.682 E0.01693
G1 X129.566 Y118.676 E0.84759
G1 X129.165 Y118.812 E0.01336
G1 X110.571 Y100.219 E0.82970
G1 X110.571 Y100.756 E0.01693
G1 X128.742 Y118.926 E0.81085
G1 X128.313 Y119.034 E0.01397
G1 X110.571 Y101.292 E0.79168
G1 X110.571 Y101.829 E0.01693
G1 X127.881 Y119.139 E0.77243
G1 X127.429 Y119.223 E0.01453
G1 X110.571 Y102.366 E0.75223
G1 X110.571 Y102.902 E0.01693
G1 X126.955 Y119.286 E0.73111
G1 X126.477 Y119.345 E0.01519
G1 X110.571 Y103.439 E0.70978
G1 X110.571 Y103.976 E0.01693
G1 X125.985 Y119.390 E0.68783
G1 X125.470 Y119.411 E0.01629
G1 X110.571 Y104.512 E0.66482
G1 X110.571 Y105.049 E0.01693
G1 X124.953 Y119.430 E0.64174
G1 X124.416 Y119.430 E0.01693
G1 X110.571 Y105.586 E0.61779
G1 X110.571 Y106.122 E0.01693
G1 X123.879 Y119.430 E0.59385
G1 X123.343 Y119.430 E0.01693
G1 X110.571 Y106.659 E0.56990
G1 X110.571 Y107.196 E0.01693
G1 X122.806 Y119.430 E0.54595
G1 X122.269 Y119.430 E0.01693
G1 X110.571 Y107.732 E0.52200
G1 X110.571 Y108.269 E0.01693
G1 X121.733 Y119.430 E0.49805
G1 X121.196 Y119.430 E0.01693
G1 X110.571 Y108.806 E0.47411
G1 X110.571 Y109.342 E0.01693
G1 X120.659 Y119.430 E0.45016
G1 X120.123 Y119.430 E0.01693
G1 X110.571 Y109.879 E0.42621
G1 X110.571 Y110.416 E0.01693
G1 X119.586 Y119.430 E0.40226
G1 X119.049 Y119.430 E0.01693
G1 X110.571 Y110.952 E0.37831
G1 X110.571 Y111.489 E0.01693
G1 X118.513 Y119.430 E0.35437
G1 X117.976 Y119.430 E0.01693
G1 X110.571 Y112.026 E0.33042
G1 X110.571 Y112.562 E0.01693
G1 X117.439 Y119.430 E0.30647
G1 X116.903 Y119.430 E0.01693
G1 X110.571 Y113.099 E0.28252
G1 X110.571 Y113.636 E0.01693
G1 X116.366 Y119.430 E0.25857
G1 X115.829 Y119.430 E0.01693
G1 X110.571 Y114.172 E0.23463
G1 X110.571 Y114.709 E0.01693
G1 X115.293 Y119.430 E0.21068
G1 X114.756 Y119.430 E0.01693
G1 X110.571 Y115.246 E0.18673
G1 X110.571 Y115.782 E0.01693
G1 X114.219 Y119.430 E0.16278
G1 X113.683 Y119.430 E0.01693
G1 X110.571 Y116.319 E0.13883
G1 X110.571 Y116.856 E0.01693
G1 X113.146 Y119.430 E0.11489
G1 X112.609 Y119.430 E0.01693
G1 X110.571 Y117.392 E0.09094
G1 X110.571 Y117.929 E0.01693
G1 X112.073 Y119.430 E0.06699
G1 X111.536 Y119.430 E0.01693
G1 X110.571 Y118.466 E0.04304
G1 X110.571 Y119.002 E0.01693
G1 X111.169 Y119.600 E0.02667
M106 S255
;LAYER_CHANGE
;Z:0.4
;HEIGHT:0.2
;BEFORE_LAYER_CHANGE
G92 E0.0
;0.4


;WIPE_START
G1 F8640.000
G1 X110.571 Y119.002 E-0.19513
G1 X110.571 Y118.466 E-0.12392
G1 X111.536 Y119.430 E-0.31497
G1 X112.073 Y119.430 E-0.12392
G1 X112.066 Y119.424 E-0.00207
;WIPE_END
G1 E-0.04000 F2100.000
G1 Z0.800 F10800.000
;AFTER_LAYER_CHANGE
;0.4
G1 X105.681 Y127.001
G1 Z0.400
G1 E0.80000 F2100.000
;TYPE:Skirt
;WIDTH:0.42
G1 F3000.000
G1 X104.944 Y126.720 E0.02473
G1 X104.341 Y126.217 E0.02461
G1 X103.936 Y125.545 E0.02461
G1 X103.771 Y124.774 E0.02473
G1 X103.815 Y85.034 E1.24601
G1 X104.054 Y84.370 E0.02213
G1 X104.481 Y83.803 E0.02225
G1 X105.056 Y83.387 E0.02225
G1 X105.724 Y83.160 E0.02213
G1 X114.446 Y83.123 E0.27345
G1 X115.136 Y83.226 E0.02190
G1 X131.413 Y88.312 E0.53469
G1 X132.763 Y88.895 E0.04608
G1 X134.087 Y89.604 E0.04709
G1 X135.825 Y90.772 E0.06565
G1 X136.974 Y91.724 E0.04680
G1 X138.513 Y93.294 E0.06892
G1 X139.864 Y95.066 E0.06988
G1 X140.968 Y96.960 E0.06874
G1 X141.553 Y98.244 E0.04424
G1 X142.033 Y99.569 E0.04417
G1 X142.578 Y101.733 E0.06999
G1 X142.845 Y103.908 E0.06868
G1 X142.845 Y106.094 E0.06856
G1 X142.572 Y108.295 E0.06952
G1 X142.049 Y110.383 E0.06749
G1 X141.281 Y112.386 E0.06725
G1 X140.582 Y113.764 E0.04847
G1 X139.419 Y115.571 E0.06737
G1 X138.025 Y117.246 E0.06833
G1 X136.465 Y118.718 E0.06725
G1 X134.707 Y120.013 E0.06844
G1 X133.366 Y120.799 E0.04876
G1 X132.090 Y121.412 E0.04436
G1 X130.729 Y121.935 E0.04573
G1 X114.959 Y126.990 E0.51923
G1 X114.445 Y127.047 E0.01621
G1 X105.741 Y127.001 E0.27294
;WIPE_START
G1 F8640.000
G1 X104.944 Y126.720 E-0.19513
G1 X104.341 Y126.217 E-0.18123
G1 X103.936 Y125.545 E-0.18123
G1 X103.771 Y124.774 E-0.18209
G1 X103.771 Y124.686 E-0.02033
;WIPE_END
G1 E-0.04000 F2100.000
G1 Z1.000 F10800.000
G1 X110.134 Y119.867
G1 Z0.400
