; generated by PrusaSlicer 2.3.0+win64 on 2021-06-26 at 04:31:34 UTC

; 

; external perimeters extrusion width = 0.25mm
; perimeters extrusion width = 0.25mm
; infill extrusion width = 0.25mm
; solid infill extrusion width = 0.25mm
; top infill extrusion width = 0.25mm
; first layer extrusion width = 0.30mm

M73 P0 R21
M73 Q0 S21
M201 X1000 Y1000 Z200 E5000 ; sets maximum accelerations, mm/sec^2
M203 X200 Y200 Z12 E120 ; sets maximum feedrates, mm/sec
M204 P1250 R1250 T1250 ; sets acceleration (P, T) and retract acceleration (R), mm/sec^2
M205 X8.00 Y8.00 Z0.40 E4.50 ; sets the jerk limits, mm/sec
M205 S0 T0 ; sets the minimum extruding and travel feed rate, mm/sec
M107
;TYPE:Custom
M862.3 P "MK3S" ; printer model check
M862.1 P0.25 ; nozzle diameter check
M115 U3.9.1 ; tell printer latest fw version
G90 ; use absolute coordinates
M83 ; extruder relative mode
M104 S240 ; set extruder temp
M140 S85 ; set bed temp
M190 S85 ; wait for bed temp
M109 S240 ; wait for extruder temp
G28 W ; home all without mesh bed level
G80 ; mesh bed leveling
G1 Y-3.0 F1000.0 ; go outside print area
G92 E0.0
G1 X60.0 E8.0 F700.0 ; intro line
G1 X100.0 E12.5 F700.0 ; intro line
G92 E0.0
M221 S100

; Don't change E value below. Excessive value can damage the printer.
M907 E430 ; set extruder motor current
G21 ; set units to millimeters
G90 ; use absolute coordinates
M83 ; use relative distances for extrusion
M900 K0.08 ; Filament gcode LA 1.5
M900 K45 ; Filament gcode LA 1.0
;LAYER_CHANGE
;Z:0.2
;HEIGHT:0.2
;BEFORE_LAYER_CHANGE
G92 E0.0
;0.2


G1 E-1.40000 F2100.000
G1 Z0.200 F10800.000
;AFTER_LAYER_CHANGE
;0.2
G1 Z0.400
G1 X115.078 Y102.917
G1 Z0.200
G1 E1.40000 F2100.000
M204 S500
;TYPE:Skirt
;WIDTH:0.3
G1 F1200.000
G1 X115.510 Y101.502 E0.03162
G1 X117.141 Y98.662 E0.07000
G1 X117.714 Y97.947 E0.01959
G1 X118.506 Y97.242 E0.02265
G1 X121.397 Y95.563 E0.07147
G1 X122.253 Y95.239 E0.01957
G1 X123.349 Y95.028 E0.02386
G1 X126.503 Y95.024 E0.06743
G1 X127.510 Y95.175 E0.02175
G1 X128.647 Y95.587 E0.02586
G1 X131.551 Y97.282 E0.07187
G1 X132.255 Y97.916 E0.02025
G1 X132.750 Y98.495 E0.01629
G1 X134.455 Y101.431 E0.07257
G1 X134.832 Y102.517 E0.02459
G1 X134.975 Y103.439 E0.01993
G1 X134.924 Y107.075 E0.07774
G1 X134.490 Y108.498 E0.03179
G1 X132.852 Y111.349 E0.07028
G1 X132.266 Y112.073 E0.01993
G1 X131.430 Y112.801 E0.02368
G1 X128.561 Y114.458 E0.07083
G1 X127.474 Y114.834 E0.02459
G1 X126.561 Y114.975 E0.01975
G1 X122.925 Y114.924 E0.07774
G1 X121.502 Y114.490 E0.03179
G1 X118.651 Y112.852 E0.07028
M73 Q1 S21
G1 X117.923 Y112.263 E0.02002
G1 X117.197 Y111.427 E0.02368
G1 X115.540 Y108.558 E0.07083
G1 X115.165 Y107.470 E0.02459
M73 P1 R21
G1 X115.025 Y106.557 E0.01975
G1 X115.077 Y102.954 E0.07702
M204 S1000
G1 X115.332 Y102.958 F10800.000
M204 S500
G1 F1200.000
G1 X115.742 Y101.612 E0.03008
G1 X117.360 Y98.797 E0.06941
G1 X117.904 Y98.121 E0.01853
G1 X118.660 Y97.449 E0.02163
G1 X121.514 Y95.792 E0.07055
G1 X122.320 Y95.487 E0.01841
G1 X123.367 Y95.285 E0.02279
G1 X126.503 Y95.282 E0.06704
G1 X127.443 Y95.424 E0.02033
G1 X128.523 Y95.813 E0.02454
G1 X131.369 Y97.468 E0.07037
G1 X132.064 Y98.088 E0.01992
G1 X132.542 Y98.646 E0.01570
G1 X134.225 Y101.547 E0.07169
G1 X134.582 Y102.578 E0.02333
G1 X134.718 Y103.445 E0.01875
G1 X134.670 Y107.036 E0.07678
G1 X134.256 Y108.392 E0.03029
G1 X132.633 Y111.214 E0.06959
G1 X132.080 Y111.895 E0.01876
G1 X131.286 Y112.588 E0.02254
G1 X128.446 Y114.229 E0.07011
G1 X127.414 Y114.584 E0.02333
G1 X126.551 Y114.718 E0.01867
G1 X122.964 Y114.670 E0.07669
G1 X121.608 Y114.256 E0.03029
G1 X118.786 Y112.633 E0.06959
G1 X118.105 Y112.080 E0.01876
G1 X117.412 Y111.286 E0.02253
G1 X115.771 Y108.446 E0.07012
G1 X115.415 Y107.410 E0.02341
G1 X115.282 Y106.551 E0.01858
G1 X115.332 Y102.995 E0.07602
M204 S1000
G1 X115.586 Y102.999 F10800.000
M204 S500
G1 F1200.000
G1 X115.976 Y101.718 E0.02861
G1 X117.582 Y98.927 E0.06883
G1 X118.091 Y98.297 E0.01733
G1 X118.810 Y97.657 E0.02057
G1 X121.636 Y96.019 E0.06983
G1 X122.394 Y95.733 E0.01731
G1 X123.381 Y95.542 E0.02149
G1 X126.503 Y95.539 E0.06674
G1 X127.381 Y95.673 E0.01899
G1 X128.403 Y96.040 E0.02321
G1 X131.217 Y97.676 E0.06958
G1 X131.882 Y98.270 E0.01907
G1 X132.336 Y98.800 E0.01492
G1 X133.996 Y101.663 E0.07075
G1 X134.331 Y102.636 E0.02199
G1 X134.461 Y103.451 E0.01765
G1 X134.416 Y106.997 E0.07581
G1 X134.024 Y108.281 E0.02870
G1 X132.414 Y111.079 E0.06900
G1 X131.895 Y111.717 E0.01758
G1 X131.141 Y112.375 E0.02139
G1 X128.333 Y113.998 E0.06933
G1 X127.360 Y114.332 E0.02199
G1 X126.545 Y114.461 E0.01765
G1 X123.003 Y114.416 E0.07573
G1 X121.719 Y114.024 E0.02870
G1 X118.921 Y112.414 E0.06900
G1 X118.283 Y111.895 E0.01758
G1 X117.625 Y111.141 E0.02139
G1 X116.000 Y108.330 E0.06942
G1 X115.667 Y107.357 E0.02199
G1 X115.539 Y106.545 E0.01756
G1 X115.586 Y103.036 E0.07501
M204 S1000
G1 X115.840 Y103.039 F10800.000
M204 S500
G1 F1200.000
G1 X116.210 Y101.826 E0.02712
G1 X117.801 Y99.061 E0.06817
G1 X118.277 Y98.475 E0.01615
G1 X118.959 Y97.866 E0.01954
G1 X121.754 Y96.247 E0.06905
G1 X122.461 Y95.981 E0.01614
G1 X123.398 Y95.798 E0.02041
G1 X126.503 Y95.796 E0.06635
G1 X127.318 Y95.922 E0.01765
G1 X128.279 Y96.265 E0.02181
G1 X131.063 Y97.882 E0.06881
G1 X132.127 Y98.950 E0.03224
G1 X133.767 Y101.780 E0.06992
G1 X134.082 Y102.697 E0.02071
G1 X134.204 Y103.458 E0.01647
G1 X134.161 Y106.958 E0.07483
G1 X133.790 Y108.174 E0.02718
G1 X132.195 Y110.945 E0.06833
G1 X131.710 Y111.539 E0.01639
G1 X130.997 Y112.162 E0.02025
G1 X128.216 Y113.769 E0.06865
G1 X127.296 Y114.083 E0.02079
G1 X126.542 Y114.204 E0.01632
G1 X123.042 Y114.161 E0.07483
G1 X121.826 Y113.790 E0.02718
G1 X119.055 Y112.195 E0.06833
G1 X118.461 Y111.710 E0.01639
G1 X117.838 Y110.997 E0.02024
G1 X116.231 Y108.216 E0.06865
G1 X115.917 Y107.296 E0.02079
G1 X115.796 Y106.538 E0.01639
G1 X115.840 Y103.077 E0.07400
M204 S1000
;WIPE_START
G1 F8640.000
G1 X116.210 Y101.826 E-0.30129
G1 X117.801 Y99.061 E-0.73640
G1 X118.277 Y98.475 E-0.17450
G1 X118.658 Y98.135 E-0.11781
;WIPE_END
G1 E-0.07000 F2100.000
G1 Z0.400 F10800.000
G1 X122.610 Y108.335
G1 Z0.200
G1 E1.40000 F2100.000
M204 S500
;TYPE:Perimeter
G1 F1200.000
G1 X122.173 Y107.952 E0.01241
G1 X121.924 Y107.692 E0.00769
G1 X121.700 Y107.411 E0.00769
G1 X121.500 Y107.112 E0.00769
G1 X121.332 Y106.803 E0.00752
G1 X121.185 Y106.466 E0.00785
G1 X121.070 Y106.124 E0.00771
G1 X120.987 Y105.774 E0.00769
G1 X120.934 Y105.418 E0.00769
G1 X120.913 Y105.059 E0.00769
G1 X120.924 Y104.699 E0.00769
G1 X120.965 Y104.350 E0.00752
G1 X121.039 Y103.990 E0.00785
G1 X121.144 Y103.645 E0.00771
G1 X121.278 Y103.311 E0.00769
G1 X121.441 Y102.991 E0.00769
G1 X121.631 Y102.685 E0.00769
G1 X121.848 Y102.398 E0.00769
G1 X122.084 Y102.137 E0.00752
G1 X122.352 Y101.886 E0.00785
G1 X122.637 Y101.665 E0.00771
G1 X122.939 Y101.470 E0.00769
G1 X123.258 Y101.302 E0.00769
G1 X123.582 Y101.167 E0.00752
G1 X123.932 Y101.055 E0.00785
G1 X124.284 Y100.976 E0.00771
G1 X124.640 Y100.928 E0.00769
G1 X124.992 Y100.913 E0.00752
G1 X125.359 Y100.928 E0.00785
G1 X125.716 Y100.976 E0.00771
G1 X126.067 Y101.054 E0.00769
G1 X126.410 Y101.164 E0.00769
G1 X126.742 Y101.302 E0.00769
G1 X127.061 Y101.470 E0.00769
G1 X127.363 Y101.665 E0.00769
G1 X127.647 Y101.886 E0.00769
G1 X127.911 Y102.131 E0.00769
G1 X128.152 Y102.398 E0.00769
G1 X128.369 Y102.685 E0.00769
G1 X128.559 Y102.991 E0.00769
G1 X128.722 Y103.311 E0.00769
G1 X128.856 Y103.645 E0.00769
G1 X128.961 Y103.990 E0.00769
G1 X129.034 Y104.342 E0.00769
G1 X129.076 Y104.699 E0.00769
G1 X129.087 Y105.051 E0.00752
G1 X129.066 Y105.418 E0.00785
G1 X129.013 Y105.774 E0.00771
G1 X128.930 Y106.124 E0.00769
G1 X128.816 Y106.466 E0.00769
G1 X128.672 Y106.796 E0.00769
G1 X128.500 Y107.112 E0.00769
G1 X128.305 Y107.405 E0.00752
G1 X128.076 Y107.692 E0.00785
G1 X127.827 Y107.952 E0.00771
G1 X127.390 Y108.335 E0.01241
G1 X122.647 Y108.335 E0.10139
M204 S1000
G1 X122.706 Y108.078 F10800.000
M204 S500
G1 F1200.000
G1 X122.351 Y107.767 E0.01010
G1 X122.118 Y107.523 E0.00721
G1 X121.907 Y107.260 E0.00721
G1 X121.721 Y106.979 E0.00721
G1 X121.563 Y106.689 E0.00705
G1 X121.425 Y106.374 E0.00736
G1 X121.318 Y106.054 E0.00722
G1 X121.239 Y105.726 E0.00721
G1 X121.190 Y105.392 E0.00721
G1 X121.170 Y105.055 E0.00721
G1 X121.180 Y104.718 E0.00721
G1 X121.219 Y104.391 E0.00705
G1 X121.289 Y104.054 E0.00736
G1 X121.386 Y103.731 E0.00722
G1 X121.512 Y103.418 E0.00721
G1 X121.665 Y103.117 E0.00721
G1 X121.843 Y102.831 E0.00721
G1 X122.046 Y102.562 E0.00721
G1 X122.267 Y102.317 E0.00705
G1 X122.519 Y102.082 E0.00736
G1 X122.785 Y101.875 E0.00722
G1 X123.069 Y101.692 E0.00721
G1 X123.367 Y101.535 E0.00721
G1 X123.671 Y101.408 E0.00705
G1 X123.999 Y101.303 E0.00736
G1 X124.329 Y101.229 E0.00722
G1 X124.663 Y101.185 E0.00721
G1 X124.992 Y101.170 E0.00705
G1 X125.336 Y101.185 E0.00736
G1 X125.671 Y101.229 E0.00722
G1 X126.000 Y101.303 E0.00721
G1 X126.322 Y101.405 E0.00721
G1 X126.633 Y101.535 E0.00721
G1 X126.931 Y101.692 E0.00721
G1 X127.215 Y101.875 E0.00721
G1 X127.481 Y102.082 E0.00721
G1 X127.728 Y102.311 E0.00721
G1 X127.954 Y102.562 E0.00721
G1 X128.157 Y102.831 E0.00721
G1 X128.335 Y103.117 E0.00721
G1 X128.488 Y103.418 E0.00721
G1 X128.614 Y103.731 E0.00721
G1 X128.711 Y104.053 E0.00721
G1 X128.780 Y104.384 E0.00721
G1 X128.820 Y104.718 E0.00721
G1 X128.829 Y105.048 E0.00705
G1 X128.810 Y105.392 E0.00736
G1 X128.761 Y105.726 E0.00722
G1 X128.682 Y106.054 E0.00721
G1 X128.575 Y106.373 E0.00721
G1 X128.441 Y106.683 E0.00721
G1 X128.279 Y106.979 E0.00721
G1 X128.097 Y107.253 E0.00705
G1 X127.882 Y107.523 E0.00736
G1 X127.649 Y107.767 E0.00722
G1 X127.294 Y108.078 E0.01010
G1 X122.744 Y108.078 E0.09725
M204 S1000
M73 Q2 S21
G1 X122.803 Y107.821 F10800.000
M204 S500
;TYPE:External perimeter
G1 F1200.000
G1 X122.529 Y107.581 E0.00779
G1 X122.312 Y107.353 E0.00672
G1 X122.115 Y107.108 E0.00672
G1 X121.941 Y106.846 E0.00672
G1 X121.794 Y106.576 E0.00657
G1 X121.665 Y106.281 E0.00688
G1 X121.565 Y105.983 E0.00673
G1 X121.492 Y105.677 E0.00672
G1 X121.446 Y105.366 E0.00672
G1 X121.428 Y105.052 E0.00672
G1 X121.437 Y104.737 E0.00672
G1 X121.473 Y104.432 E0.00657
G1 X121.538 Y104.117 E0.00688
G1 X121.629 Y103.816 E0.00673
G1 X121.746 Y103.524 E0.00672
G1 X121.889 Y103.244 E0.00672
G1 X122.055 Y102.977 E0.00672
G1 X122.245 Y102.726 E0.00672
M73 P2 R21
G1 X122.450 Y102.497 E0.00657
G1 X122.686 Y102.278 E0.00688
G1 X122.934 Y102.085 E0.00673
G1 X123.199 Y101.915 E0.00672
G1 X123.477 Y101.768 E0.00672
G1 X123.760 Y101.649 E0.00657
G1 X124.067 Y101.551 E0.00688
G1 X124.374 Y101.482 E0.00673
G1 X124.686 Y101.441 E0.00672
G1 X124.993 Y101.428 E0.00657
G1 X125.314 Y101.441 E0.00688
G1 X125.626 Y101.482 E0.00673
G1 X125.933 Y101.551 E0.00672
G1 X126.233 Y101.647 E0.00672
G1 X126.523 Y101.768 E0.00672
G1 X126.801 Y101.915 E0.00672
G1 X127.066 Y102.085 E0.00672
G1 X127.314 Y102.278 E0.00672
G1 X127.545 Y102.492 E0.00672
G1 X127.755 Y102.726 E0.00672
G1 X127.945 Y102.977 E0.00672
G1 X128.111 Y103.244 E0.00672
G1 X128.254 Y103.524 E0.00672
G1 X128.371 Y103.816 E0.00672
G1 X128.462 Y104.117 E0.00672
G1 X128.526 Y104.425 E0.00672
G1 X128.563 Y104.737 E0.00672
G1 X128.572 Y105.044 E0.00657
G1 X128.554 Y105.366 E0.00688
G1 X128.508 Y105.677 E0.00673
G1 X128.435 Y105.983 E0.00672
G1 X128.335 Y106.281 E0.00672
G1 X128.210 Y106.570 E0.00672
G1 X128.059 Y106.846 E0.00672
G1 X127.889 Y107.102 E0.00657
G1 X127.688 Y107.353 E0.00688
G1 X127.471 Y107.581 E0.00673
G1 X127.197 Y107.821 E0.00779
G1 X122.841 Y107.821 E0.09312
M204 S1000
G1 X122.595 Y107.959 F10800.000
;WIPE_START
G1 F8640.000
G1 X122.529 Y107.581 E-0.09083
G1 X122.312 Y107.353 E-0.07263
G1 X122.115 Y107.108 E-0.07263
G1 X121.941 Y106.846 E-0.07263
G1 X121.794 Y106.576 E-0.07093
G1 X121.665 Y106.281 E-0.07429
G1 X121.565 Y105.983 E-0.07267
G1 X121.492 Y105.677 E-0.07263
G1 X121.446 Y105.366 E-0.07263
G1 X121.428 Y105.052 E-0.07263
G1 X121.437 Y104.737 E-0.07263
G1 X121.473 Y104.432 E-0.07093
G1 X121.538 Y104.117 E-0.07429
G1 X121.629 Y103.816 E-0.07267
G1 X121.746 Y103.524 E-0.07263
G1 X121.889 Y103.244 E-0.07263
G1 X122.055 Y102.977 E-0.07263
G1 X122.245 Y102.726 E-0.07263
G1 X122.258 Y102.711 E-0.00443
;WIPE_END
G1 E-0.07000 F2100.000
G1 Z0.400 F10800.000
G1 X123.657 Y109.259
G1 Z0.200
G1 E1.40000 F2100.000
M204 S500
;TYPE:Perimeter
G1 F1200.000
G1 X123.397 Y108.885 E0.00974
G1 X123.205 Y108.758 E0.00491
G1 X122.456 Y108.333 E0.01842
G1 X122.027 Y108.296 E0.00921
G1 X121.708 Y108.393 E0.00712
G1 X121.419 Y108.622 E0.00788
G1 X120.908 Y109.286 E0.01791
G1 X120.614 Y109.472 E0.00745
G1 X120.463 Y109.537 E0.00351
G1 X120.641 Y109.188 E0.00837
G1 X120.759 Y109.049 E0.00391
G1 X121.506 Y108.469 E0.02021
G1 X121.707 Y108.017 E0.01059
G1 X121.667 Y107.541 E0.01020
G1 X121.133 Y106.616 E0.02285
G1 X120.777 Y106.368 E0.00926
G1 X120.453 Y106.292 E0.00712
G1 X120.088 Y106.346 E0.00788
G1 X119.368 Y106.649 E0.01669
G1 X119.193 Y106.681 E0.00380
G1 X118.802 Y106.661 E0.00837
G1 X118.934 Y106.563 E0.00351
G1 X119.242 Y106.401 E0.00745
G1 X120.073 Y106.290 E0.01791
G1 X120.457 Y106.138 E0.00882
G1 X120.747 Y105.787 E0.00974
G1 X120.842 Y105.493 E0.00661
G1 X120.848 Y104.633 E0.01839
G1 X120.775 Y104.246 E0.00842
G1 X120.485 Y103.895 E0.00974
G1 X120.196 Y103.737 E0.00704
G1 X119.231 Y103.596 E0.02086
G1 X119.043 Y103.506 E0.00445
G1 X118.811 Y103.344 E0.00605
G1 X118.974 Y103.321 E0.00351
G1 X119.354 Y103.344 E0.00814
G1 X120.249 Y103.708 E0.02066
G1 X120.697 Y103.661 E0.00965
G1 X120.993 Y103.507 E0.00712
G1 X121.221 Y103.242 E0.00748
G1 X121.667 Y102.456 E0.01932
G1 X121.704 Y102.027 E0.00921
G1 X121.607 Y101.708 E0.00712
G1 X121.378 Y101.419 E0.00788
G1 X120.714 Y100.908 E0.01791
G1 X120.528 Y100.614 E0.00745
G1 X120.463 Y100.463 E0.00351
G1 X120.812 Y100.641 E0.00837
G1 X120.951 Y100.759 E0.00391
G1 X121.531 Y101.506 E0.02021
G1 X121.983 Y101.707 E0.01059
G1 X122.459 Y101.667 E0.01020
G1 X123.384 Y101.133 E0.02285
G1 X123.632 Y100.777 E0.00926
G1 X123.708 Y100.453 E0.00712
G1 X123.654 Y100.088 E0.00788
G1 X123.351 Y99.368 E0.01669
G1 X123.319 Y99.193 E0.00380
G1 X123.339 Y98.802 E0.00837
G1 X123.437 Y98.934 E0.00351
G1 X123.599 Y99.242 E0.00745
G1 X123.710 Y100.073 E0.01791
G1 X123.862 Y100.457 E0.00882
G1 X124.213 Y100.747 E0.00974
G1 X124.507 Y100.842 E0.00661
G1 X125.367 Y100.848 E0.01839
G1 X125.754 Y100.775 E0.00842
G1 X126.105 Y100.485 E0.00974
G1 X126.263 Y100.196 E0.00704
G1 X126.404 Y99.231 E0.02086
G1 X126.494 Y99.043 E0.00445
G1 X126.656 Y98.808 E0.00609
G1 X126.679 Y98.974 E0.00357
G1 X126.656 Y99.354 E0.00814
G1 X126.292 Y100.249 E0.02066
G1 X126.339 Y100.697 E0.00965
G1 X126.493 Y100.993 E0.00712
G1 X126.758 Y101.221 E0.00748
G1 X127.544 Y101.667 E0.01932
G1 X127.973 Y101.704 E0.00921
G1 X128.292 Y101.607 E0.00712
G1 X128.581 Y101.378 E0.00788
G1 X129.092 Y100.714 E0.01791
G1 X129.386 Y100.528 E0.00745
G1 X129.537 Y100.463 E0.00351
G1 X129.359 Y100.812 E0.00837
G1 X129.241 Y100.951 E0.00391
G1 X128.494 Y101.531 E0.02021
G1 X128.293 Y101.983 E0.01059
G1 X128.333 Y102.459 E0.01020
G1 X128.867 Y103.384 E0.02285
G1 X129.223 Y103.632 E0.00926
G1 X129.547 Y103.708 E0.00712
G1 X129.912 Y103.654 E0.00788
G1 X130.632 Y103.351 E0.01669
G1 X130.807 Y103.319 E0.00380
G1 X131.198 Y103.339 E0.00837
G1 X131.066 Y103.437 E0.00351
G1 X130.758 Y103.599 E0.00745
G1 X129.927 Y103.710 E0.01791
G1 X129.543 Y103.862 E0.00882
G1 X129.253 Y104.213 E0.00974
G1 X129.158 Y104.507 E0.00661
G1 X129.152 Y105.367 E0.01839
G1 X129.225 Y105.754 E0.00842
G1 X129.515 Y106.105 E0.00974
G1 X129.804 Y106.263 E0.00704
G1 X130.769 Y106.404 E0.02086
G1 X130.957 Y106.494 E0.00445
G1 X131.189 Y106.656 E0.00605
G1 X131.026 Y106.679 E0.00351
G1 X130.646 Y106.656 E0.00814
G1 X129.751 Y106.292 E0.02066
G1 X129.303 Y106.339 E0.00965
G1 X129.007 Y106.493 E0.00712
G1 X128.779 Y106.758 E0.00748
G1 X128.333 Y107.544 E0.01932
G1 X128.296 Y107.973 E0.00921
G1 X128.393 Y108.292 E0.00712
G1 X128.622 Y108.581 E0.00788
G1 X129.286 Y109.092 E0.01791
G1 X129.472 Y109.386 E0.00745
G1 X129.537 Y109.537 E0.00351
G1 X129.188 Y109.359 E0.00837
G1 X129.049 Y109.241 E0.00391
