; generated by PrusaSlicer 2.3.0+win64 on 2021-06-13 at 02:25:27 UTC

; 

; external perimeters extrusion width = 0.45mm
; perimeters extrusion width = 0.45mm
; infill extrusion width = 0.45mm
; solid infill extrusion width = 0.45mm
; top infill extrusion width = 0.40mm
; first layer extrusion width = 0.42mm

M73 P0 R58
M73 Q0 S59
M201 X1000 Y1000 Z200 E5000 ; sets maximum accelerations, mm/sec^2
M203 X200 Y200 Z12 E120 ; sets maximum feedrates, mm/sec
M204 P1250 R1250 T1250 ; sets acceleration (P, T) and retract acceleration (R), mm/sec^2
M205 X8.00 Y8.00 Z0.40 E4.50 ; sets the jerk limits, mm/sec
M205 S0 T0 ; sets the minimum extruding and travel feed rate, mm/sec
M107
;TYPE:Custom
M862.3 P "MK3S" ; printer model check
M862.1 P0.4 ; nozzle diameter check
M115 U3.9.1 ; tell printer latest fw version
G90 ; use absolute coordinates
M83 ; extruder relative mode
M104 S240 ; set extruder temp
M140 S85 ; set bed temp
M190 S85 ; wait for bed temp
M109 S240 ; wait for extruder temp
G28 W ; home all without mesh bed level
G80 ; mesh bed leveling
G1 Y-3.0 F1000.0 ; go outside print area
G92 E0.0
G1 X60.0 E9.0 F1000.0 ; intro line
M73 Q0 S58
G1 X100.0 E12.5 F1000.0 ; intro line
G92 E0.0
M221 S95

; Don't change E values below. Excessive value can damage the printer.

M907 E538 ; set extruder motor current
G21 ; set units to millimeters
G90 ; use absolute coordinates
M83 ; use relative distances for extrusion
M900 K0.08 ; Filament gcode LA 1.5
M900 K45 ; Filament gcode LA 1.0
;LAYER_CHANGE
;Z:0.2
;HEIGHT:0.2
;BEFORE_LAYER_CHANGE
G92 E0.0
;0.2


G1 E-1.40000 F2100.000
G1 Z0.200 F10800.000
;AFTER_LAYER_CHANGE
;0.2
G1 Z0.400
G1 X96.811 Y85.494
G1 Z0.200
G1 E1.40000 F2100.000
M204 S1000
;TYPE:Skirt
;WIDTH:0.42
G1 F1200.000
G1 X97.218 Y84.936 E0.02166
G1 X105.086 Y77.069 E0.34885
G1 X105.635 Y76.676 E0.02119
G1 X106.274 Y76.454 E0.02119
G1 X143.275 Y76.410 E1.16017
G1 X144.124 Y76.568 E0.02708
G1 X144.861 Y77.019 E0.02708
G1 X152.908 Y85.075 E0.35703
G1 X153.337 Y85.838 E0.02743
G1 X154.519 Y89.831 E0.13056
G1 X154.596 Y90.422 E0.01870
G1 X154.595 Y117.874 E0.86072
G1 X154.524 Y118.436 E0.01775
G1 X154.323 Y118.965 E0.01775
G1 X153.820 Y119.615 E0.02579
G1 X153.129 Y120.054 E0.02567
G1 X119.478 Y133.445 E1.13557
G1 X118.630 Y133.588 E0.02695
G1 X116.541 Y133.528 E0.06554
G1 X114.762 Y133.121 E0.05722
G1 X113.660 Y132.662 E0.03744
G1 X112.822 Y132.182 E0.03026
G1 X111.949 Y131.532 E0.03415
G1 X98.221 Y118.676 E0.58968
G1 X97.556 Y117.995 E0.02984
G1 X96.915 Y117.165 E0.03290
G1 X96.386 Y116.277 E0.03242
G1 X95.950 Y115.293 E0.03373
G1 X95.616 Y114.142 E0.03758
G1 X95.465 Y113.287 E0.02724
G1 X95.405 Y112.308 E0.03075
G1 X95.405 Y90.360 E0.68817
G1 X95.497 Y89.770 E0.01870
G1 X96.793 Y85.551 E0.13838
;WIPE_START
G1 F8640.000
G1 X97.218 Y84.936 E-0.17266
G1 X100.762 Y81.392 E-1.15734
;WIPE_END
G1 E-0.07000 F2100.000
G1 Z0.400 F10800.000
G1 X97.992 Y90.915
G1 Z0.200
G1 E1.40000 F2100.000
;TYPE:External perimeter
G1 F1200.000
G1 X98.194 Y91.055 E0.00770
G1 X97.992 Y91.055 E0.00633
G1 X97.992 Y90.975 E0.00250
G1 X97.769 Y91.020 F10800.000
;WIPE_START
G1 F8640.000
G1 X98.194 Y91.055 E-0.05017
G1 X97.992 Y91.055 E-0.04665
G1 X97.992 Y90.975 E-0.01844
;WIPE_END
G1 E-1.28474 F2100.000
G1 Z0.400 F10800.000
G1 X143.973 Y108.648
G1 Z0.200
G1 E1.40000 F2100.000
G1 F1200.000
G1 X144.225 Y108.281 E0.01395
G1 X144.557 Y107.985 E0.01396
G1 X144.951 Y107.776 E0.01398
G1 X145.397 Y107.668 E0.01437
G1 X145.828 Y107.668 E0.01354
G1 X146.261 Y107.774 E0.01396
G1 X146.655 Y107.980 E0.01396
G1 X146.990 Y108.276 E0.01399
G1 X147.248 Y108.654 E0.01436
G1 X147.401 Y109.058 E0.01353
G1 X147.454 Y109.500 E0.01396
G1 X147.401 Y109.942 E0.01396
G1 X147.248 Y110.346 E0.01353
G1 X146.990 Y110.724 E0.01436
G1 X146.656 Y111.020 E0.01398
G1 X146.273 Y111.220 E0.01354
G1 X145.829 Y111.332 E0.01437
G1 X145.383 Y111.331 E0.01398
G1 X144.964 Y111.228 E0.01354
G1 X144.557 Y111.016 E0.01437
G1 X144.225 Y110.719 E0.01398
G1 X143.973 Y110.352 E0.01396
G1 X143.817 Y109.935 E0.01395
G1 X143.765 Y109.506 E0.01354
G1 X143.820 Y109.052 E0.01436
G1 X143.952 Y108.704 E0.01166
G1 X143.758 Y108.311 F10800.000
;WIPE_START
G1 F8640.000
G1 X144.225 Y108.281 E-0.11624
G1 X144.557 Y107.985 E-0.10282
G1 X144.951 Y107.776 E-0.10297
G1 X145.397 Y107.668 E-0.10583
G1 X145.828 Y107.668 E-0.09969
G1 X146.261 Y107.774 E-0.10278
G1 X146.655 Y107.980 E-0.10283
G1 X146.990 Y108.276 E-0.10301
G1 X147.248 Y108.654 E-0.10577
G1 X147.401 Y109.058 E-0.09966
G1 X147.454 Y109.500 E-0.10282
G1 X147.401 Y109.942 E-0.10282
G1 X147.273 Y110.277 E-0.08275
;WIPE_END
G1 E-0.07000 F2100.000
G1 Z0.400 F10800.000
G1 X139.714 Y100.769
G1 Z0.200
G1 E1.40000 F2100.000
;TYPE:Perimeter
G1 F1200.000
G1 X139.285 Y100.994 E0.01519
G1 X138.753 Y101.131 E0.01722
G1 X138.232 Y101.128 E0.01635
G1 X137.761 Y101.012 E0.01521
G1 X137.273 Y100.760 E0.01724
G1 X136.884 Y100.410 E0.01638
G1 X136.593 Y99.981 E0.01626
G1 X136.414 Y99.497 E0.01617
G1 X136.356 Y99.015 E0.01524
G1 X136.422 Y98.471 E0.01717
G1 X136.594 Y98.017 E0.01523
G1 X136.884 Y97.590 E0.01618
G1 X137.270 Y97.243 E0.01626
G1 X137.731 Y96.997 E0.01639
G1 X138.266 Y96.870 E0.01723
G1 X138.750 Y96.870 E0.01520
G1 X139.253 Y96.991 E0.01622
G1 X139.713 Y97.231 E0.01627
G1 X140.106 Y97.577 E0.01642
G1 X140.411 Y98.033 E0.01719
G1 X140.583 Y98.485 E0.01517
G1 X140.645 Y99.000 E0.01626
G1 X140.583 Y99.515 E0.01626
G1 X140.411 Y99.967 E0.01517
G1 X140.106 Y100.423 E0.01719
G1 X139.759 Y100.729 E0.01451
G1 X139.510 Y100.446 F10800.000
;TYPE:External perimeter
G1 F1200.000
G1 X139.149 Y100.639 E0.01285
G1 X138.707 Y100.753 E0.01431
G1 X138.279 Y100.751 E0.01341
G1 X137.895 Y100.657 E0.01241
G1 X137.489 Y100.447 E0.01433
G1 X137.170 Y100.161 E0.01343
G1 X136.931 Y99.807 E0.01338
G1 X136.783 Y99.408 E0.01335
G1 X136.735 Y99.015 E0.01242
G1 X136.791 Y98.562 E0.01430
G1 X136.931 Y98.192 E0.01242
G1 X137.170 Y97.839 E0.01335
G1 X137.488 Y97.554 E0.01338
G1 X137.866 Y97.353 E0.01343
G1 X138.310 Y97.247 E0.01432
G1 X138.705 Y97.247 E0.01240
G1 X139.120 Y97.347 E0.01337
G1 X139.499 Y97.544 E0.01339
G1 X139.820 Y97.827 E0.01344
G1 X140.074 Y98.207 E0.01430
G1 X140.214 Y98.576 E0.01239
G1 X140.266 Y99.000 E0.01338
G1 X140.214 Y99.424 E0.01338
G1 X140.074 Y99.793 E0.01239
G1 X139.820 Y100.173 E0.01430
G1 X139.555 Y100.406 E0.01109
G1 X139.546 Y100.844 F10800.000
;WIPE_START
G1 F8640.000
G1 X139.149 Y100.639 E-0.10816
G1 X138.707 Y100.753 E-0.10542
G1 X138.279 Y100.751 E-0.09879
G1 X137.895 Y100.657 E-0.09137
G1 X137.489 Y100.447 E-0.10550
G1 X137.170 Y100.161 E-0.09887
G1 X136.931 Y99.807 E-0.09855
G1 X136.783 Y99.408 E-0.09830
G1 X136.735 Y99.015 E-0.09145
G1 X136.791 Y98.562 E-0.10533
G1 X136.931 Y98.192 E-0.09143
G1 X137.170 Y97.839 E-0.09833
G1 X137.488 Y97.554 E-0.09855
G1 X137.640 Y97.473 E-0.03996
;WIPE_END
G1 E-0.07000 F2100.000
G1 Z0.400 F10800.000
G1 X144.830 Y88.548
G1 Z0.200
G1 E1.40000 F2100.000
;TYPE:Perimeter
G1 F1200.000
G1 X144.342 Y88.294 E0.01726
G1 X143.939 Y87.935 E0.01689
G1 X143.636 Y87.493 E0.01684
G1 X143.448 Y86.991 E0.01680
G1 X143.385 Y86.472 E0.01639
G1 X143.451 Y85.926 E0.01723
G1 X143.637 Y85.437 E0.01639
G1 X143.939 Y84.995 E0.01680
G1 X144.340 Y84.638 E0.01684
G1 X144.817 Y84.386 E0.01689
G1 X145.352 Y84.256 E0.01726
G1 X145.874 Y84.256 E0.01638
G1 X146.395 Y84.384 E0.01682
G1 X146.871 Y84.633 E0.01684
G1 X147.275 Y84.990 E0.01691
G1 X147.584 Y85.444 E0.01724
G1 X147.769 Y85.932 E0.01636
G1 X147.834 Y86.465 E0.01683
G1 X147.769 Y86.998 E0.01683
G1 X147.584 Y87.486 E0.01636
G1 X147.275 Y87.941 E0.01724
G1 X146.871 Y88.298 E0.01689
G1 X146.409 Y88.540 E0.01637
G1 X145.875 Y88.675 E0.01725
G1 X145.337 Y88.673 E0.01688
G1 X144.888 Y88.563 E0.01450
G1 X144.978 Y88.197 F10800.000
;TYPE:External perimeter
G1 F1200.000
G1 X144.557 Y87.981 E0.01482
G1 X144.225 Y87.684 E0.01398
G1 X143.973 Y87.317 E0.01396
G1 X143.817 Y86.901 E0.01395
G1 X143.765 Y86.472 E0.01354
G1 X143.820 Y86.017 E0.01436
G1 X143.973 Y85.613 E0.01354
G1 X144.225 Y85.246 E0.01395
G1 X144.557 Y84.950 E0.01396
G1 X144.951 Y84.742 E0.01398
G1 X145.397 Y84.634 E0.01437
G1 X145.828 Y84.634 E0.01354
G1 X146.261 Y84.739 E0.01396
G1 X146.655 Y84.946 E0.01396
G1 X146.990 Y85.241 E0.01399
G1 X147.248 Y85.620 E0.01436
G1 X147.401 Y86.023 E0.01353
G1 X147.454 Y86.465 E0.01396
G1 X147.401 Y86.907 E0.01396
G1 X147.248 Y87.311 E0.01353
G1 X146.990 Y87.690 E0.01436
G1 X146.656 Y87.985 E0.01398
G1 X146.273 Y88.186 E0.01354
G1 X145.829 Y88.297 E0.01437
G1 X145.383 Y88.296 E0.01398
G1 X145.036 Y88.211 E0.01119
G1 X144.670 Y88.452 F10800.000
;WIPE_START
G1 F8640.000
G1 X144.557 Y87.981 E-0.12268
G1 X144.225 Y87.684 E-0.10296
G1 X143.973 Y87.317 E-0.10282
G1 X143.817 Y86.901 E-0.10272
G1 X143.765 Y86.472 E-0.09974
G1 X143.820 Y86.017 E-0.10577
G1 X143.973 Y85.613 E-0.09973
G1 X144.225 Y85.246 E-0.10273
G1 X144.557 Y84.950 E-0.10282
G1 X144.951 Y84.742 E-0.10297
G1 X145.397 Y84.634 E-0.10583
G1 X145.828 Y84.634 E-0.09969
G1 X146.163 Y84.715 E-0.07955
;WIPE_END
G1 E-0.07000 F2100.000
G1 Z0.400 F10800.000
G1 X106.616 Y86.465
G1 Z0.200
G1 E1.40000 F2100.000
;TYPE:Perimeter
G1 F1200.000
G1 X106.551 Y86.998 E0.01683
G1 X106.366 Y87.486 E0.01636
G1 X106.056 Y87.941 E0.01724
G1 X105.653 Y88.298 E0.01689
G1 X105.190 Y88.540 E0.01637
G1 X104.657 Y88.675 E0.01725
G1 X104.119 Y88.673 E0.01688
G1 X103.611 Y88.548 E0.01638
G1 X103.123 Y88.294 E0.01726
G1 X102.721 Y87.935 E0.01689
G1 X102.417 Y87.493 E0.01684
G1 X102.229 Y86.991 E0.01680
G1 X102.166 Y86.472 E0.01639
G1 X102.233 Y85.926 E0.01723
G1 X102.418 Y85.437 E0.01639
G1 X102.721 Y84.995 E0.01680
G1 X103.122 Y84.638 E0.01684
G1 X103.598 Y84.386 E0.01689
G1 X104.133 Y84.256 E0.01726
G1 X104.655 Y84.256 E0.01638
G1 X105.176 Y84.384 E0.01682
G1 X105.652 Y84.633 E0.01684
G1 X106.056 Y84.990 E0.01691
G1 X106.366 Y85.444 E0.01724
G1 X106.551 Y85.932 E0.01636
G1 X106.608 Y86.406 E0.01495
G1 X106.234 Y86.451 F10800.000
;TYPE:External perimeter
G1 F1200.000
G1 X106.182 Y86.907 E0.01439
G1 X106.029 Y87.311 E0.01353
G1 X105.771 Y87.690 E0.01436
G1 X105.437 Y87.985 E0.01398
G1 X105.055 Y88.186 E0.01354
G1 X104.610 Y88.297 E0.01437
G1 X104.165 Y88.296 E0.01398
G1 X103.745 Y88.193 E0.01354
G1 X103.339 Y87.981 E0.01437
G1 X103.006 Y87.684 E0.01398
G1 X102.754 Y87.317 E0.01396
G1 X102.598 Y86.901 E0.01395
G1 X102.546 Y86.472 E0.01354
G1 X102.601 Y86.017 E0.01436
G1 X102.755 Y85.613 E0.01354
G1 X103.006 Y85.246 E0.01395
G1 X103.339 Y84.950 E0.01396
G1 X103.733 Y84.742 E0.01398
G1 X104.178 Y84.634 E0.01437
G1 X104.610 Y84.634 E0.01354
G1 X105.042 Y84.739 E0.01396
G1 X105.437 Y84.946 E0.01396
G1 X105.771 Y85.241 E0.01399
G1 X106.029 Y85.620 E0.01436
G1 X106.182 Y86.023 E0.01353
G1 X106.227 Y86.392 E0.01164
G1 X106.582 Y86.650 F10800.000
;WIPE_START
G1 F8640.000
G1 X106.182 Y86.907 E-0.11952
G1 X106.029 Y87.311 E-0.09965
G1 X105.771 Y87.690 E-0.10577
G1 X105.437 Y87.985 E-0.10298
G1 X105.055 Y88.186 E-0.09968
G1 X104.610 Y88.297 E-0.10581
G1 X104.165 Y88.296 E-0.10293
G1 X103.745 Y88.193 E-0.09970
G1 X103.339 Y87.981 E-0.10584
G1 X103.006 Y87.684 E-0.10296
G1 X102.754 Y87.317 E-0.10282
G1 X102.598 Y86.901 E-0.10272
G1 X102.557 Y86.558 E-0.07963
;WIPE_END
G1 E-0.07000 F2100.000
G1 Z0.400 F10800.000
G1 X110.731 Y96.997
G1 Z0.200
G1 E1.40000 F2100.000
;TYPE:Perimeter
G1 F1200.000
G1 X111.266 Y96.870 E0.01723
G1 X111.750 Y96.870 E0.01520
G1 X112.253 Y96.991 E0.01622
G1 X112.713 Y97.231 E0.01627
G1 X113.106 Y97.577 E0.01642
G1 X113.411 Y98.033 E0.01719
G1 X113.583 Y98.485 E0.01517
G1 X113.645 Y99.000 E0.01626
G1 X113.583 Y99.515 E0.01626
G1 X113.411 Y99.967 E0.01517
G1 X113.106 Y100.423 E0.01719
G1 X112.714 Y100.769 E0.01639
G1 X112.285 Y100.994 E0.01519
G1 X111.753 Y101.131 E0.01722
G1 X111.232 Y101.128 E0.01635
G1 X110.761 Y101.012 E0.01521
G1 X110.273 Y100.760 E0.01724
G1 X109.884 Y100.410 E0.01638
G1 X109.593 Y99.981 E0.01626
G1 X109.414 Y99.497 E0.01617
G1 X109.356 Y99.015 E0.01524
G1 X109.422 Y98.471 E0.01717
G1 X109.594 Y98.017 E0.01523
G1 X109.884 Y97.590 E0.01618
G1 X110.270 Y97.243 E0.01626
G1 X110.678 Y97.025 E0.01451
G1 X110.855 Y97.358 F10800.000
;TYPE:External perimeter
G1 F1200.000
G1 X111.310 Y97.247 E0.01467
G1 X111.705 Y97.247 E0.01240
G1 X112.120 Y97.347 E0.01337
G1 X112.499 Y97.544 E0.01339
G1 X112.820 Y97.827 E0.01344
G1 X113.074 Y98.207 E0.01430
G1 X113.214 Y98.576 E0.01239
G1 X113.266 Y99.000 E0.01338
G1 X113.214 Y99.424 E0.01338
G1 X113.074 Y99.793 E0.01239
G1 X112.820 Y100.173 E0.01430
G1 X112.499 Y100.456 E0.01343
G1 X112.149 Y100.639 E0.01240
G1 X111.707 Y100.753 E0.01431
G1 X111.279 Y100.751 E0.01341
G1 X110.895 Y100.657 E0.01241
G1 X110.489 Y100.447 E0.01433
G1 X110.170 Y100.161 E0.01343
G1 X109.931 Y99.807 E0.01338
G1 X109.783 Y99.408 E0.01335
G1 X109.735 Y99.015 E0.01242
G1 X109.791 Y98.562 E0.01430
G1 X109.931 Y98.192 E0.01242
G1 X110.170 Y97.839 E0.01335
G1 X110.488 Y97.554 E0.01338
G1 X110.802 Y97.386 E0.01119
G1 X110.919 Y96.963 F10800.000
;WIPE_START
G1 F8640.000
G1 X111.310 Y97.247 E-0.12151
G1 X111.705 Y97.247 E-0.09135
G1 X112.120 Y97.347 E-0.09845
G1 X112.499 Y97.544 E-0.09857
G1 X112.820 Y97.827 E-0.09899
G1 X113.074 Y98.207 E-0.10533
G1 X113.214 Y98.576 E-0.09127
G1 X113.266 Y99.000 E-0.09855
G1 X113.214 Y99.424 E-0.09855
G1 X113.074 Y99.793 E-0.09127
G1 X112.820 Y100.173 E-0.10533
G1 X112.499 Y100.456 E-0.09890
G1 X112.149 Y100.639 E-0.09132
G1 X111.978 Y100.683 E-0.04060
;WIPE_END
G1 E-0.07000 F2100.000
G1 Z0.400 F10800.000
G1 X105.652 Y107.667
G1 Z0.200
G1 E1.40000 F2100.000
;TYPE:Perimeter
G1 F1200.000
G1 X106.056 Y108.024 E0.01691
G1 X106.366 Y108.479 E0.01724
G1 X106.551 Y108.967 E0.01636
G1 X106.616 Y109.500 E0.01683
G1 X106.551 Y110.033 E0.01683
G1 X106.366 Y110.521 E0.01636
G1 X106.056 Y110.976 E0.01724
G1 X105.653 Y111.332 E0.01689
G1 X105.190 Y111.575 E0.01637
G1 X104.657 Y111.709 E0.01725
G1 X104.119 Y111.708 E0.01688
G1 X103.611 Y111.583 E0.01638
G1 X103.123 Y111.328 E0.01726
G1 X102.721 Y110.970 E0.01689
G1 X102.417 Y110.527 E0.01684
G1 X102.229 Y110.025 E0.01680
G1 X102.166 Y109.506 E0.01639
G1 X102.233 Y108.961 E0.01723
G1 X102.418 Y108.472 E0.01639
G1 X102.721 Y108.030 E0.01680
G1 X103.122 Y107.673 E0.01684
G1 X103.598 Y107.421 E0.01689
G1 X104.133 Y107.291 E0.01726
G1 X104.655 Y107.291 E0.01638
G1 X105.176 Y107.418 E0.01682
G1 X105.599 Y107.640 E0.01496
G1 X105.424 Y107.974 F10800.000
;TYPE:External perimeter
G1 F1200.000
G1 X105.771 Y108.276 E0.01442
G1 X106.029 Y108.654 E0.01436
G1 X106.182 Y109.058 E0.01353
G1 X106.236 Y109.500 E0.01396
G1 X106.182 Y109.942 E0.01396
G1 X106.029 Y110.346 E0.01353
G1 X105.771 Y110.724 E0.01436
G1 X105.437 Y111.020 E0.01398
G1 X105.055 Y111.220 E0.01354
G1 X104.610 Y111.332 E0.01437
G1 X104.165 Y111.331 E0.01398
G1 X103.745 Y111.228 E0.01354
G1 X103.339 Y111.016 E0.01437
G1 X103.006 Y110.719 E0.01398
G1 X102.754 Y110.352 E0.01396
G1 X102.598 Y109.935 E0.01395
G1 X102.546 Y109.506 E0.01354
G1 X102.601 Y109.052 E0.01436
G1 X102.755 Y108.648 E0.01354
G1 X103.006 Y108.281 E0.01395
G1 X103.339 Y107.985 E0.01396
G1 X103.733 Y107.776 E0.01398
G1 X104.178 Y107.668 E0.01437
G1 X104.610 Y107.668 E0.01354
G1 X105.042 Y107.774 E0.01396
G1 X105.371 Y107.946 E0.01164
G1 X105.785 Y107.800 F10800.000
;WIPE_START
G1 F8640.000
G1 X105.771 Y108.276 E-0.11970
G1 X106.029 Y108.654 E-0.10577
G1 X106.182 Y109.058 E-0.09966
G1 X106.236 Y109.500 E-0.10282
G1 X106.182 Y109.942 E-0.10282
G1 X106.029 Y110.346 E-0.09965
G1 X105.771 Y110.724 E-0.10577
G1 X105.437 Y111.020 E-0.10298
G1 X105.055 Y111.220 E-0.09968
G1 X104.610 Y111.332 E-0.10581
G1 X104.165 Y111.331 E-0.10293
G1 X103.745 Y111.228 E-0.09970
G1 X103.428 Y111.062 E-0.08271
;WIPE_END
G1 E-0.07000 F2100.000
G1 Z0.400 F10800.000
G1 X149.813 Y93.852
G1 Z0.200
G1 E1.40000 F2100.000
;TYPE:Perimeter
G1 F1200.000
G1 X151.631 Y93.852 E0.05701
G1 X151.631 Y117.272 E0.73430
M73 P0 R57
G1 X149.536 Y117.272 E0.06570
G1 X149.475 Y117.258 E0.00197
G1 X149.222 Y116.331 E0.03011
G1 X148.907 Y115.472 E0.02871
G1 X148.507 Y114.640 E0.02895
G1 X148.028 Y113.852 E0.02890
G1 X147.474 Y113.112 E0.02898
G1 X146.849 Y112.430 E0.02901
G1 X146.148 Y111.801 E0.02950
