; generated by PrusaSlicer 2.3.3+win64 on 2021-12-18 at 21:45:51 UTC

; 

; external perimeters extrusion width = 0.60mm
; perimeters extrusion width = 0.50mm
; infill extrusion width = 0.50mm
; solid infill extrusion width = 0.50mm
; top infill extrusion width = 0.45mm
; first layer extrusion width = 0.42mm

M73 P0 R73
M73 Q0 S74
M201 X1000 Y1000 Z200 E5000 ; sets maximum accelerations, mm/sec^2
M203 X200 Y200 Z12 E120 ; sets maximum feedrates, mm/sec
M204 P1250 R1250 T1250 ; sets acceleration (P, T) and retract acceleration (R), mm/sec^2
M205 X8.00 Y8.00 Z0.40 E4.50 ; sets the jerk limits, mm/sec
M205 S0 T0 ; sets the minimum extruding and travel feed rate, mm/sec
M107
;TYPE:Custom
M862.3 P "MK3S" ; printer model check
M862.1 P0.4 ; nozzle diameter check
M115 U3.10.0 ; tell printer latest fw version
G90 ; use absolute coordinates
M83 ; extruder relative mode
M104 S240 ; set extruder temp
M140 S85 ; set bed temp
M190 S85 ; wait for bed temp
M109 S240 ; wait for extruder temp
G28 W ; home all without mesh bed level
G80 ; mesh bed leveling
G1 Y-3.0 F1000.0 ; go outside print area
G92 E0.0
G1 X60.0 E9.0 F1000.0 ; intro line
G1 X100.0 E12.5 F1000.0 ; intro line
G92 E0.0
M221 S95

; Don't change E values below. Excessive value can damage the printer.

M907 E538 ; set extruder motor current
G21 ; set units to millimeters
G90 ; use absolute coordinates
M83 ; use relative distances for extrusion
M900 K0.08 ; Filament gcode LA 1.5
M900 K45 ; Filament gcode LA 1.0
;LAYER_CHANGE
;Z:0.2
;HEIGHT:0.2
;BEFORE_LAYER_CHANGE
G92 E0.0
;0.2


G1 E-1.00000 F2100.000
G1 Z0.200 F10800.000
;AFTER_LAYER_CHANGE
;0.2
G1 Z0.400
G1 X145.938 Y105.318
G1 Z0.200
G1 E1.00000 F2100.000
M204 S1000
;TYPE:Skirt
;WIDTH:0.42
G1 F1200.000
G1 X146.077 Y104.458 E0.02731
G1 X146.389 Y103.867 E0.02095
G1 X146.853 Y103.387 E0.02095
G1 X222.965 Y44.514 E3.01704
G1 X223.650 Y44.146 E0.02437
G1 X224.420 Y44.019 E0.02449
G1 X225.298 Y44.189 E0.02802
G1 X226.050 Y44.670 E0.02802
G1 X226.572 Y45.396 E0.02802
G1 X226.789 Y46.259 E0.02790
G1 X226.758 Y46.805 E0.01716
G1 X225.107 Y55.878 E0.28913
G1 X198.558 Y166.207 E3.55804
G1 X198.110 Y166.967 E0.02767
G1 X197.417 Y167.512 E0.02767
G1 X178.740 Y176.508 E0.64998
G1 X177.834 Y176.739 E0.02931
G1 X176.909 Y176.602 E0.02931
G1 X176.083 Y176.096 E0.03036
G1 X175.765 Y175.728 E0.01526
G1 X175.526 Y175.300 E0.01538
G1 X146.119 Y106.174 E2.35536
G1 X145.950 Y105.377 E0.02555
; printing object Right AUX Support Bracket Lower Outboard.stl id:0 copy 0
;WIPE_START
G1 F8640.000
G1 X146.077 Y104.458 E-0.21412
G1 X146.389 Y103.867 E-0.15428
G1 X146.853 Y103.387 E-0.15428
G1 X148.316 Y102.254 E-0.42731
;WIPE_END
G1 E-0.05000 F2100.000
G1 Z0.400 F10800.000
G1 X149.407 Y105.569
G1 Z0.200
G1 E1.00000 F2100.000
;TYPE:Perimeter
G1 F1200.000
G1 X215.035 Y54.806 E2.60145
G1 X215.783 Y54.188 E0.03041
G1 X215.694 Y54.515 E0.01062
G1 X215.593 Y55.026 E0.01632
G1 X212.103 Y74.217 E0.61161
G1 X188.169 Y90.910 E0.91492
G1 X187.822 Y90.929 E0.01088
G1 X187.176 Y91.025 E0.02048
G1 X186.548 Y91.180 E0.02028
G1 X185.923 Y91.397 E0.02075
G1 X185.293 Y91.687 E0.02176
G1 X184.744 Y92.003 E0.01984
G1 X184.214 Y92.376 E0.02033
G1 X171.861 Y101.930 E0.48966
G1 X171.334 Y102.380 E0.02173
G1 X170.838 Y102.894 E0.02240
G1 X170.391 Y103.455 E0.02246
G1 X169.998 Y104.056 E0.02252
G1 X169.663 Y104.693 E0.02257
G1 X169.388 Y105.360 E0.02261
G1 X169.175 Y106.049 E0.02263
G1 X169.028 Y106.756 E0.02265
G1 X168.946 Y107.474 E0.02264
G1 X168.931 Y108.195 E0.02263
G1 X168.983 Y108.914 E0.02260
G1 X169.102 Y109.624 E0.02255
G1 X169.286 Y110.317 E0.02250
G1 X169.528 Y110.970 E0.02185
G1 X183.922 Y144.805 E1.15287
G1 X184.227 Y145.436 E0.02197
G1 X184.601 Y146.048 E0.02249
G1 X185.031 Y146.619 E0.02242
G1 X185.514 Y147.143 E0.02235
G1 X186.046 Y147.614 E0.02228
G1 X186.620 Y148.029 E0.02221
G1 X187.233 Y148.382 E0.02217
G1 X187.877 Y148.670 E0.02213
G1 X188.547 Y148.890 E0.02210
G1 X189.235 Y149.040 E0.02209
G1 X189.935 Y149.118 E0.02209
G1 X190.640 Y149.124 E0.02211
G1 X191.343 Y149.057 E0.02214
G1 X192.037 Y148.919 E0.02218
G1 X192.715 Y148.711 E0.02223
G1 X193.352 Y148.442 E0.02168
G1 X198.208 Y146.104 E0.16898
G1 X198.852 Y147.085 E0.03681
G1 X195.650 Y164.693 E0.56111
G1 X178.145 Y173.123 E0.60918
G1 X149.430 Y105.624 E2.29990
;WIPE_START
G1 F8640.000
G1 X152.683 Y103.105 E-0.95000
;WIPE_END
G1 E-0.05000 F2100.000
G1 Z0.400 F10800.000
G1 X217.214 Y53.065
G1 Z0.200
G1 E1.00000 F2100.000
G1 F1200.000
G1 X217.769 Y52.686 E0.02108
G1 X222.511 Y49.023 E0.18785
G1 X223.289 Y48.379 E0.03169
G1 X223.169 Y48.885 E0.01633
G1 X222.247 Y53.930 E0.16078
G1 X217.708 Y53.112 E0.14461
G1 X217.274 Y53.071 E0.01366
G1 X216.447 Y53.441 F10800.000
;TYPE:External perimeter
G1 F1200.000
G1 X216.196 Y54.104 E0.02222
G1 X216.062 Y54.601 E0.01615
G1 X215.964 Y55.096 E0.01582
G1 X212.446 Y74.438 E0.61639
G1 X188.296 Y91.280 E0.92316
M73 P1 R73
M73 Q1 S74
G1 X187.860 Y91.304 E0.01369
G1 X187.249 Y91.395 E0.01937
G1 X186.655 Y91.542 E0.01918
G1 X186.064 Y91.747 E0.01962
G1 X185.466 Y92.023 E0.02065
G1 X184.947 Y92.321 E0.01877
G1 X184.438 Y92.679 E0.01952
G1 X172.099 Y102.223 E0.48910
G1 X171.593 Y102.655 E0.02088
G1 X171.121 Y103.143 E0.02127
G1 X170.697 Y103.676 E0.02134
G1 X170.324 Y104.247 E0.02141
G1 X170.005 Y104.853 E0.02147
G1 X169.743 Y105.487 E0.02151
G1 X169.541 Y106.144 E0.02153
G1 X169.400 Y106.817 E0.02155
G1 X169.323 Y107.499 E0.02154
G1 X169.308 Y108.186 E0.02153
G1 X169.358 Y108.869 E0.02149
G1 X169.471 Y109.544 E0.02144
G1 X169.646 Y110.203 E0.02138
G1 X169.879 Y110.831 E0.02100
G1 X184.265 Y144.649 E1.15230
M73 P1 R72
G1 X184.558 Y145.255 E0.02111
G1 X184.913 Y145.836 E0.02133
G1 X185.321 Y146.377 E0.02125
G1 X185.778 Y146.873 E0.02117
G1 X186.282 Y147.320 E0.02109
G1 X186.825 Y147.711 E0.02102
G1 X187.404 Y148.045 E0.02096
G1 X188.013 Y148.317 E0.02091
G1 X188.646 Y148.525 E0.02088
G1 X189.296 Y148.667 E0.02087
G1 X189.958 Y148.741 E0.02087
G1 X190.624 Y148.747 E0.02089
G1 X191.288 Y148.684 E0.02093
G1 X191.944 Y148.553 E0.02098
G1 X192.586 Y148.356 E0.02104
G1 X193.197 Y148.098 E0.02079
G1 X198.342 Y145.621 E0.17905
G1 X199.250 Y147.005 E0.05189
G1 X195.987 Y164.949 E0.57186
M73 Q1 S73
G1 X177.953 Y173.634 E0.62759
G1 X148.946 Y105.449 E2.32330
G1 X214.799 Y54.511 E2.61039
G1 X215.576 Y53.869 E0.03160
G1 X216.279 Y53.179 E0.03089
G1 X217.128 Y52.678 E0.03091
G1 X217.545 Y52.383 E0.01602
G1 X222.275 Y48.729 E0.18741
G1 X223.055 Y48.083 E0.03176
G1 X223.738 Y47.345 E0.03152
G1 X224.077 Y47.082 E0.01345
G1 X223.996 Y47.532 E0.01434
G1 X223.817 Y47.984 E0.01524
G1 X223.655 Y48.470 E0.01604
G1 X223.538 Y48.963 E0.01590
G1 X222.550 Y54.367 E0.17226
G1 X217.656 Y53.486 E0.15591
G1 X217.149 Y53.438 E0.01598
G1 X216.507 Y53.441 E0.02012
G1 X216.060 Y53.341 F10800.000
G1 X215.897 Y53.819
;TYPE:Gap fill
;WIDTH:0.138947
G1 F1200.000
G1 X215.998 Y54.103 E0.00241
;WIPE_START
G1 F8640.000
G1 X215.897 Y53.819 E-0.06956
;WIPE_END
G1 E-0.93044 F2100.000
G1 Z0.400 F10800.000
G1 X215.184 Y54.829
G1 Z0.200
G1 E1.00000 F2100.000
;TYPE:Solid infill
;WIDTH:0.420587
G1 F1200.000
G1 X215.324 Y54.969 E0.00621
G1 X215.242 Y55.421 E0.01442
G1 X215.006 Y55.185 E0.01045
G1 X214.705 Y55.418 E0.01196
G1 X215.159 Y55.872 E0.02017
G1 X215.077 Y56.324 E0.01442
G1 X214.404 Y55.651 E0.02989
G1 X214.103 Y55.884 E0.01196
G1 X214.995 Y56.776 E0.03960
G1 X214.912 Y57.228 E0.01442
G1 X213.802 Y56.117 E0.04932
G1 X213.501 Y56.350 E0.01196
G1 X214.830 Y57.679 E0.05904
G1 X214.748 Y58.131 E0.01442
G1 X213.199 Y56.583 E0.06876
G1 X212.898 Y56.816 E0.01196
G1 X214.665 Y58.583 E0.07847
G1 X214.583 Y59.035 E0.01442
G1 X212.597 Y57.049 E0.08819
G1 X212.296 Y57.282 E0.01196
G1 X214.501 Y59.486 E0.09791
G1 X214.418 Y59.938 E0.01442
G1 X211.995 Y57.515 E0.10763
G1 X211.694 Y57.748 E0.01196
G1 X214.336 Y60.390 E0.11734
G1 X214.254 Y60.842 E0.01442
G1 X211.392 Y57.981 E0.12706
G1 X211.091 Y58.214 E0.01196
G1 X214.171 Y61.293 E0.13678
G1 X214.089 Y61.745 E0.01442
G1 X210.790 Y58.447 E0.14649
G1 X210.489 Y58.679 E0.01196
G1 X214.006 Y62.197 E0.15621
G1 X213.924 Y62.649 E0.01442
G1 X210.188 Y58.912 E0.16593
G1 X209.887 Y59.145 E0.01196
G1 X213.842 Y63.100 E0.17565
G1 X213.759 Y63.552 E0.01442
G1 X209.586 Y59.378 E0.18536
G1 X209.284 Y59.611 E0.01196
G1 X213.677 Y64.004 E0.19508
G1 X213.595 Y64.456 E0.01442
G1 X208.983 Y59.844 E0.20480
G1 X208.682 Y60.077 E0.01196
G1 X213.512 Y64.907 E0.21452
G1 X213.430 Y65.359 E0.01442
G1 X208.381 Y60.310 E0.22423
G1 X208.080 Y60.543 E0.01196
G1 X213.348 Y65.811 E0.23395
G1 X213.265 Y66.263 E0.01442
G1 X207.779 Y60.776 E0.24367
G1 X207.477 Y61.009 E0.01196
G1 X213.183 Y66.714 E0.25339
G1 X213.101 Y67.166 E0.01442
G1 X207.176 Y61.242 E0.26310
G1 X206.875 Y61.475 E0.01196
G1 X213.018 Y67.618 E0.27282
G1 X212.936 Y68.070 E0.01442
G1 X206.574 Y61.708 E0.28254
G1 X206.273 Y61.941 E0.01196
G1 X212.854 Y68.521 E0.29226
G1 X212.771 Y68.973 E0.01442
G1 X205.972 Y62.174 E0.30197
G1 X205.671 Y62.407 E0.01196
G1 X212.689 Y69.425 E0.31169
G1 X212.607 Y69.877 E0.01442
G1 X205.369 Y62.640 E0.32141
G1 X205.068 Y62.873 E0.01196
G1 X212.524 Y70.328 E0.33112
G1 X212.442 Y70.780 E0.01442
G1 X204.767 Y63.105 E0.34084
G1 X204.466 Y63.338 E0.01196
G1 X212.359 Y71.232 E0.35056
G1 X212.277 Y71.684 E0.01442
G1 X204.165 Y63.571 E0.36028
G1 X203.864 Y63.804 E0.01196
G1 X212.195 Y72.135 E0.36999
G1 X212.112 Y72.587 E0.01442
G1 X203.562 Y64.037 E0.37971
G1 X203.261 Y64.270 E0.01196
G1 X212.030 Y73.039 E0.38943
G1 X211.948 Y73.491 E0.01442
G1 X202.960 Y64.503 E0.39915
G1 X202.659 Y64.736 E0.01196
G1 X211.865 Y73.942 E0.40886
G1 X211.845 Y74.052 E0.00349
G1 X211.607 Y74.218 E0.00913
G1 X202.358 Y64.969 E0.41076
G1 X202.057 Y65.202 E0.01196
G1 X211.292 Y74.438 E0.41016
G1 X210.978 Y74.657 E0.01205
G1 X201.755 Y65.435 E0.40956
G1 X201.454 Y65.668 E0.01196
G1 X210.663 Y74.877 E0.40896
G1 X210.348 Y75.096 E0.01205
G1 X201.153 Y65.901 E0.40836
G1 X200.852 Y66.134 E0.01196
G1 X210.034 Y75.315 E0.40776
G1 X209.719 Y75.535 E0.01205
G1 X200.551 Y66.367 E0.40717
G1 X200.250 Y66.600 E0.01196
G1 X209.404 Y75.754 E0.40657
G1 X209.090 Y75.974 E0.01205
G1 X199.949 Y66.833 E0.40597
G1 X199.647 Y67.066 E0.01196
G1 X208.775 Y76.193 E0.40537
G1 X208.460 Y76.413 E0.01205
G1 X199.346 Y67.298 E0.40477
G1 X199.045 Y67.531 E0.01196
G1 X208.146 Y76.632 E0.40417
G1 X207.831 Y76.852 E0.01205
G1 X198.744 Y67.764 E0.40357
G1 X198.443 Y67.997 E0.01196
G1 X207.516 Y77.071 E0.40297
G1 X207.202 Y77.290 E0.01205
G1 X198.142 Y68.230 E0.40237
G1 X197.840 Y68.463 E0.01196
G1 X206.887 Y77.510 E0.40177
G1 X206.573 Y77.729 E0.01205
G1 X197.539 Y68.696 E0.40117
G1 X197.238 Y68.929 E0.01196
G1 X206.258 Y77.949 E0.40057
M73 P2 R72
G1 X205.943 Y78.168 E0.01205
G1 X196.937 Y69.162 E0.39997
M73 Q2 S73
G1 X196.636 Y69.395 E0.01196
G1 X205.629 Y78.388 E0.39937
G1 X205.314 Y78.607 E0.01205
G1 X196.335 Y69.628 E0.39877
G1 X196.034 Y69.861 E0.01196
G1 X204.999 Y78.827 E0.39818
G1 X204.685 Y79.046 E0.01205
G1 X195.732 Y70.094 E0.39758
G1 X195.431 Y70.327 E0.01196
G1 X204.370 Y79.266 E0.39698
G1 X204.055 Y79.485 E0.01205
G1 X195.130 Y70.560 E0.39638
G1 X194.829 Y70.793 E0.01196
G1 X203.741 Y79.704 E0.39578
G1 X203.426 Y79.924 E0.01205
G1 X194.528 Y71.026 E0.39518
G1 X194.227 Y71.259 E0.01196
G1 X203.111 Y80.143 E0.39458
G1 X202.797 Y80.363 E0.01205
G1 X193.925 Y71.491 E0.39398
G1 X193.624 Y71.724 E0.01196
G1 X202.482 Y80.582 E0.39338
G1 X202.167 Y80.802 E0.01205
G1 X193.323 Y71.957 E0.39278
G1 X193.022 Y72.190 E0.01196
G1 X201.853 Y81.021 E0.39218
G1 X201.538 Y81.241 E0.01205
G1 X192.721 Y72.423 E0.39158
G1 X192.420 Y72.656 E0.01196
G1 X201.223 Y81.460 E0.39098
G1 X200.909 Y81.679 E0.01205
G1 X192.118 Y72.889 E0.39038
G1 X191.817 Y73.122 E0.01196
G1 X200.594 Y81.899 E0.38978
G1 X200.279 Y82.118 E0.01205
G1 X191.516 Y73.355 E0.38918
G1 X191.215 Y73.588 E0.01196
G1 X199.965 Y82.338 E0.38859
G1 X199.650 Y82.557 E0.01205
G1 X190.914 Y73.821 E0.38799
G1 X190.613 Y74.054 E0.01196
G1 X199.336 Y82.777 E0.38739
G1 X199.021 Y82.996 E0.01205
G1 X190.312 Y74.287 E0.38679
G1 X190.010 Y74.520 E0.01196
G1 X198.706 Y83.216 E0.38619
G1 X198.392 Y83.435 E0.01205
G1 X189.709 Y74.753 E0.38559
G1 X189.408 Y74.986 E0.01196
G1 X198.077 Y83.655 E0.38499
G1 X197.762 Y83.874 E0.01205
G1 X189.107 Y75.219 E0.38439
G1 X188.806 Y75.452 E0.01196
G1 X197.448 Y84.093 E0.38379
G1 X197.133 Y84.313 E0.01205
G1 X188.505 Y75.685 E0.38319
G1 X188.203 Y75.917 E0.01196
G1 X196.818 Y84.532 E0.38259
G1 X196.504 Y84.752 E0.01205
G1 X187.902 Y76.150 E0.38199
M73 P2 R71
G1 X187.601 Y76.383 E0.01196
G1 X196.189 Y84.971 E0.38139
G1 X195.874 Y85.191 E0.01205
G1 X187.300 Y76.616 E0.38079
G1 X186.999 Y76.849 E0.01196
G1 X195.560 Y85.410 E0.38019
M73 Q2 S72
G1 X195.245 Y85.630 E0.01205
G1 X186.698 Y77.082 E0.37960
G1 X186.397 Y77.315 E0.01196
G1 X194.930 Y85.849 E0.37900
G1 X194.616 Y86.068 E0.01205
G1 X186.095 Y77.548 E0.37840
G1 X185.794 Y77.781 E0.01196
G1 X194.301 Y86.288 E0.37780
G1 X193.986 Y86.507 E0.01205
G1 X185.493 Y78.014 E0.37720
G1 X185.192 Y78.247 E0.01196
G1 X193.672 Y86.727 E0.37660
G1 X193.357 Y86.946 E0.01205
G1 X184.891 Y78.480 E0.37600
G1 X184.590 Y78.713 E0.01196
G1 X193.042 Y87.166 E0.37540
G1 X192.728 Y87.385 E0.01205
G1 X184.288 Y78.946 E0.37480
G1 X183.987 Y79.179 E0.01196
G1 X192.413 Y87.605 E0.37420
G1 X192.099 Y87.824 E0.01205
G1 X183.686 Y79.412 E0.37360
G1 X183.385 Y79.645 E0.01196
G1 X191.784 Y88.044 E0.37300
G1 X191.469 Y88.263 E0.01205
G1 X183.084 Y79.878 E0.37240
G1 X182.783 Y80.110 E0.01196
G1 X191.155 Y88.482 E0.37180
G1 X190.840 Y88.702 E0.01205
G1 X182.481 Y80.343 E0.37120
G1 X182.180 Y80.576 E0.01196
G1 X190.525 Y88.921 E0.37061
G1 X190.211 Y89.141 E0.01205
G1 X181.879 Y80.809 E0.37001
G1 X181.578 Y81.042 E0.01196
G1 X189.896 Y89.360 E0.36941
G1 X189.581 Y89.580 E0.01205
G1 X181.277 Y81.275 E0.36881
G1 X180.976 Y81.508 E0.01196
G1 X189.267 Y89.799 E0.36821
G1 X188.952 Y90.019 E0.01205
G1 X180.675 Y81.741 E0.36761
G1 X180.373 Y81.974 E0.01196
G1 X188.637 Y90.238 E0.36701
G1 X188.323 Y90.457 E0.01205
G1 X180.072 Y82.207 E0.36641
G1 X179.771 Y82.440 E0.01196
G1 X187.969 Y90.637 E0.36406
G1 X187.489 Y90.692 E0.01515
G1 X179.470 Y82.673 E0.35615
G1 X179.169 Y82.906 E0.01196
G1 X187.032 Y90.769 E0.34922
G1 X186.604 Y90.875 E0.01386
G1 X178.868 Y83.139 E0.34356
G1 X178.566 Y83.372 E0.01196
G1 X186.197 Y91.002 E0.33888
G1 X185.802 Y91.141 E0.01315
G1 X178.265 Y83.605 E0.33471
G1 X177.964 Y83.838 E0.01196
G1 X185.436 Y91.310 E0.33185
G1 X185.077 Y91.485 E0.01254
G1 X177.663 Y84.071 E0.32928
G1 X177.362 Y84.304 E0.01196
G1 X184.738 Y91.680 E0.32759
G1 X184.414 Y91.889 E0.01213
G1 X177.061 Y84.536 E0.32655
G1 X176.760 Y84.769 E0.01196
G1 X184.100 Y92.110 E0.32600
G1 X183.797 Y92.341 E0.01197
G1 X176.458 Y85.002 E0.32590
G1 X176.157 Y85.235 E0.01196
G1 X183.496 Y92.574 E0.32590
G1 X183.194 Y92.807 E0.01196
G1 X175.856 Y85.468 E0.32590
M73 P3 R71
G1 X175.555 Y85.701 E0.01196
G1 X182.893 Y93.039 E0.32590
G1 X182.592 Y93.272 E0.01196
G1 X175.254 Y85.934 E0.32590
M73 Q3 S72
G1 X174.953 Y86.167 E0.01196
G1 X182.291 Y93.505 E0.32590
G1 X181.990 Y93.738 E0.01196
G1 X174.651 Y86.400 E0.32590
G1 X174.350 Y86.633 E0.01196
G1 X181.689 Y93.971 E0.32590
G1 X181.387 Y94.204 E0.01196
G1 X174.049 Y86.866 E0.32590
G1 X173.748 Y87.099 E0.01196
G1 X181.086 Y94.437 E0.32590
G1 X180.785 Y94.670 E0.01196
G1 X173.447 Y87.332 E0.32590
G1 X173.146 Y87.565 E0.01196
G1 X180.484 Y94.903 E0.32590
G1 X180.183 Y95.136 E0.01196
G1 X172.845 Y87.798 E0.32590
G1 X172.543 Y88.031 E0.01196
G1 X179.882 Y95.369 E0.32590
G1 X179.580 Y95.602 E0.01196
G1 X172.242 Y88.264 E0.32590
G1 X171.941 Y88.497 E0.01196
G1 X179.279 Y95.835 E0.32590
G1 X178.978 Y96.068 E0.01196
G1 X171.640 Y88.729 E0.32590
G1 X171.339 Y88.962 E0.01196
G1 X178.677 Y96.301 E0.32590
G1 X178.376 Y96.534 E0.01196
G1 X171.038 Y89.195 E0.32590
G1 X170.736 Y89.428 E0.01196
G1 X178.075 Y96.767 E0.32590
G1 X177.774 Y97.000 E0.01196
G1 X170.435 Y89.661 E0.32590
G1 X170.134 Y89.894 E0.01196
G1 X177.472 Y97.232 E0.32590
G1 X177.171 Y97.465 E0.01196
G1 X169.833 Y90.127 E0.32590
G1 X169.532 Y90.360 E0.01196
G1 X176.870 Y97.698 E0.32590
