; generated by PrusaSlicer 2.3.3+win64 on 2021-12-19 at 00:08:38 UTC

; 

; external perimeters extrusion width = 0.60mm
; perimeters extrusion width = 0.50mm
; infill extrusion width = 0.50mm
; solid infill extrusion width = 0.50mm
; top infill extrusion width = 0.45mm
; support material extrusion width = 0.38mm
; first layer extrusion width = 0.42mm

M73 P0 R83
M73 Q0 S84
M201 X1000 Y1000 Z200 E5000 ; sets maximum accelerations, mm/sec^2
M203 X200 Y200 Z12 E120 ; sets maximum feedrates, mm/sec
M204 P1250 R1250 T1250 ; sets acceleration (P, T) and retract acceleration (R), mm/sec^2
M205 X8.00 Y8.00 Z0.40 E4.50 ; sets the jerk limits, mm/sec
M205 S0 T0 ; sets the minimum extruding and travel feed rate, mm/sec
M107
;TYPE:Custom
M862.3 P "MK3S" ; printer model check
M862.1 P0.4 ; nozzle diameter check
M115 U3.10.0 ; tell printer latest fw version
G90 ; use absolute coordinates
M83 ; extruder relative mode
M104 S240 ; set extruder temp
M140 S85 ; set bed temp
M190 S85 ; wait for bed temp
M109 S240 ; wait for extruder temp
G28 W ; home all without mesh bed level
G80 ; mesh bed leveling
G1 Y-3.0 F1000.0 ; go outside print area
G92 E0.0
G1 X60.0 E9.0 F1000.0 ; intro line
G1 X100.0 E12.5 F1000.0 ; intro line
G92 E0.0
M221 S95

; Don't change E values below. Excessive value can damage the printer.

M907 E538 ; set extruder motor current
G21 ; set units to millimeters
G90 ; use absolute coordinates
M83 ; use relative distances for extrusion
M900 K0.08 ; Filament gcode LA 1.5
M900 K45 ; Filament gcode LA 1.0
;LAYER_CHANGE
;Z:0.2
;HEIGHT:0.2
;BEFORE_LAYER_CHANGE
G92 E0.0
;0.2


G1 E-1.00000 F2100.000
G1 Z0.200 F10800.000
;AFTER_LAYER_CHANGE
;0.2
G1 Z0.400
G1 X92.309 Y106.314
G1 Z0.200
G1 E1.00000 F2100.000
M204 S1000
;TYPE:Skirt
;WIDTH:0.42
G1 F1200.000
G1 X92.623 Y105.699 E0.02166
G1 X93.098 Y105.202 E0.02154
G1 X160.208 Y53.293 E2.66019
G1 X160.893 Y52.925 E0.02437
G1 X161.663 Y52.798 E0.02449
G1 X162.159 Y52.851 E0.01562
G1 X162.628 Y53.005 E0.01550
G1 X163.056 Y53.252 E0.01550
G1 X163.424 Y53.583 E0.01550
G1 X163.715 Y53.982 E0.01550
G1 X163.917 Y54.433 E0.01550
G1 X164.022 Y54.916 E0.01550
G1 X164.024 Y55.414 E0.01562
G1 X152.294 Y158.286 E3.24638
G1 X149.563 Y171.851 E0.43386
G1 X149.349 Y172.314 E0.01597
G1 X149.043 Y172.716 E0.01585
G1 X145.659 Y176.102 E0.15010
G1 X145.268 Y176.411 E0.01562
G1 X131.531 Y183.273 E0.48146
G1 X130.801 Y183.410 E0.02331
G1 X120.524 Y183.581 E0.32226
G1 X117.941 Y183.400 E0.08119
G1 X117.402 Y183.285 E0.01728
G1 X116.639 Y182.857 E0.02743
G1 X116.083 Y182.181 E0.02743
G1 X109.322 Y168.643 E0.47448
G1 X103.192 Y151.967 E0.55709
G1 X93.375 Y122.257 E0.98106
G1 X93.266 Y121.709 E0.01752
G1 X92.189 Y107.234 E0.45513
G1 X92.302 Y106.374 E0.02719
; printing object Right AUX Support Bracket Lower Outboardv2.stl id:0 copy 0
;WIPE_START
G1 F8640.000
G1 X92.623 Y105.699 E-0.17262
G1 X93.098 Y105.202 E-0.15863
G1 X95.218 Y103.563 E-0.61875
;WIPE_END
G1 E-0.05000 F2100.000
G1 Z0.400 F10800.000
G1 X95.636 Y121.522
G1 Z0.200
G1 E1.00000 F2100.000
;TYPE:Support material
G1 F1200.000
G1 X95.636 Y112.944 E0.26896
G1 X96.390 Y112.790 E0.02413
G1 X96.390 Y121.353 E0.26846
G1 X97.144 Y121.353 E0.02365
G1 X97.144 Y114.396 E0.21813
G1 X97.898 Y116.169 E0.06040
G1 X97.898 Y121.353 E0.16254
G1 X98.652 Y121.353 E0.02365
G1 X98.652 Y117.941 E0.10696
G1 X98.818 Y118.331 E0.01329
G1 X99.283 Y118.452 E0.01505
G1 X99.406 Y118.357 E0.00490
G1 X99.406 Y121.353 E0.09393
G1 X100.161 Y121.353 E0.02365
G1 X100.161 Y117.774 E0.11222
G1 X100.915 Y117.190 E0.02989
G1 X100.915 Y121.353 E0.13051
G1 X101.669 Y121.353 E0.02365
G1 X101.669 Y116.607 E0.14880
G1 X102.423 Y116.023 E0.02989
G1 X102.423 Y121.353 E0.16709
G1 X103.177 Y121.353 E0.02365
G1 X103.177 Y115.440 E0.18538
G1 X103.931 Y114.857 E0.02989
G1 X103.931 Y121.353 E0.20367
G1 X104.685 Y121.353 E0.02365
G1 X104.685 Y114.273 E0.22196
G1 X105.440 Y113.690 E0.02989
G1 X105.440 Y151.193 E1.17588
G1 X106.194 Y151.193 E0.02365
G1 X106.194 Y113.107 E1.19417
G1 X106.948 Y112.523 E0.02989
G1 X106.948 Y151.193 E1.21247
G1 X107.702 Y151.193 E0.02365
G1 X107.702 Y111.940 E1.23076
G1 X108.456 Y111.357 E0.02989
G1 X108.456 Y157.824 E1.45696
G1 X109.210 Y157.824 E0.02365
G1 X109.210 Y110.773 E1.47525
G1 X109.965 Y110.190 E0.02989
G1 X109.965 Y157.824 E1.49354
G1 X110.719 Y157.824 E0.02365
G1 X110.719 Y109.607 E1.51184
M73 P0 R82
G1 X111.473 Y109.023 E0.02989
G1 X111.473 Y157.824 E1.53013
G1 X111.534 Y157.824 E0.00191
G1 X111.534 Y167.771 E0.31188
G1 X112.227 Y167.771 E0.02174
G1 X112.227 Y108.440 E1.86029
M73 P1 R82
M73 Q1 S84
G1 X112.981 Y107.857 E0.02989
G1 X112.981 Y167.771 E1.87858
M73 Q1 S83
G1 X113.735 Y167.771 E0.02365
G1 X113.735 Y107.273 E1.89687
G1 X114.490 Y106.690 E0.02989
G1 X114.490 Y167.771 E1.91516
G1 X114.849 Y167.771 E0.01128
G1 X114.849 Y174.403 E0.20792
G1 X115.244 Y174.403 E0.01236
G1 X115.244 Y106.107 E2.14137
G1 X115.998 Y105.523 E0.02989
G1 X115.998 Y174.403 E2.15966
G1 X116.752 Y174.403 E0.02365
G1 X116.752 Y104.940 E2.17795
G1 X117.506 Y104.357 E0.02989
G1 X117.506 Y174.403 E2.19624
G1 X118.165 Y174.403 E0.02066
G1 X118.165 Y181.034 E0.20792
G1 X118.260 Y181.034 E0.00299
G1 X118.260 Y103.773 E2.42245
G1 X119.014 Y103.190 E0.02989
G1 X119.014 Y181.034 E2.44074
G1 X119.769 Y181.034 E0.02365
G1 X119.769 Y102.606 E2.45903
G1 X120.523 Y102.023 E0.02989
G1 X120.523 Y181.203 E2.48264
;WIPE_START
G1 F8640.000
G1 X120.523 Y177.089 E-0.95000
;WIPE_END
G1 E-0.05000 F2100.000
G1 Z0.400 F10800.000
G1 X149.935 Y157.994
G1 Z0.200
G1 E1.00000 F2100.000
G1 F1200.000
G1 X149.935 Y148.570 E0.29547
G1 X149.181 Y148.570 E0.02365
G1 X149.181 Y157.824 E0.29015
G1 X148.427 Y157.824 E0.02365
G1 X148.427 Y148.570 E0.29015
G1 X147.673 Y148.570 E0.02365
G1 X147.673 Y157.824 E0.29015
G1 X147.313 Y157.824 E0.01128
G1 X147.313 Y171.087 E0.41584
G1 X146.918 Y171.087 E0.01236
G1 X146.918 Y141.939 E0.91391
G1 X146.164 Y141.939 E0.02365
G1 X146.164 Y171.087 E0.91391
G1 X145.410 Y171.087 E0.02365
G1 X145.410 Y141.939 E0.91391
G1 X144.656 Y141.939 E0.02365
G1 X144.656 Y171.087 E0.91391
M73 P2 R82
M73 Q2 S83
G1 X143.997 Y171.087 E0.02066
G1 X143.997 Y174.403 E0.10396
G1 X143.902 Y174.403 E0.00299
G1 X143.902 Y141.939 E1.01787
G1 X143.148 Y141.939 E0.02365
G1 X143.148 Y174.403 E1.01787
G1 X142.393 Y174.403 E0.02365
G1 X142.393 Y141.939 E1.01787
M73 P2 R81
G1 X141.639 Y141.939 E0.02365
G1 X141.639 Y174.403 E1.01787
G1 X140.885 Y174.403 E0.02365
G1 X140.885 Y141.939 E1.01787
G1 X140.131 Y141.939 E0.02365
G1 X140.131 Y174.403 E1.01787
G1 X139.377 Y174.403 E0.02365
G1 X139.377 Y141.939 E1.01787
M73 Q2 S82
G1 X138.623 Y141.939 E0.02365
G1 X138.623 Y174.403 E1.01787
G1 X137.868 Y174.403 E0.02365
G1 X137.868 Y141.939 E1.01787
G1 X137.114 Y141.939 E0.02365
G1 X137.114 Y177.718 E1.12182
G1 X136.360 Y177.718 E0.02365
G1 X136.360 Y141.939 E1.12182
G1 X135.606 Y141.939 E0.02365
G1 X135.606 Y177.718 E1.12182
G1 X134.852 Y177.718 E0.02365
G1 X134.852 Y141.939 E1.12182
G1 X134.098 Y141.939 E0.02365
G1 X134.098 Y177.718 E1.12182
G1 X133.343 Y177.718 E0.02365
G1 X133.343 Y135.308 E1.32974
G1 X132.589 Y135.308 E0.02365
G1 X132.589 Y177.718 E1.32974
G1 X131.835 Y177.718 E0.02365
G1 X131.835 Y135.308 E1.32974
G1 X131.081 Y135.308 E0.02365
G1 X131.081 Y177.718 E1.32974
G1 X130.735 Y177.718 E0.01086
G1 X130.735 Y181.034 E0.10396
G1 X130.327 Y181.034 E0.01278
G1 X130.327 Y125.361 E1.74558
G1 X129.573 Y125.361 E0.02365
G1 X129.573 Y181.034 E1.74558
G1 X128.819 Y181.034 E0.02365
G1 X128.819 Y125.361 E1.74558
G1 X128.064 Y125.361 E0.02365
G1 X128.064 Y181.034 E1.74558
G1 X127.310 Y181.034 E0.02365
G1 X127.310 Y118.730 E1.95350
G1 X126.556 Y118.730 E0.02365
G1 X126.556 Y181.034 E1.95350
M73 P3 R81
M73 Q3 S82
G1 X125.802 Y181.034 E0.02365
G1 X125.802 Y118.730 E1.95350
G1 X125.048 Y118.730 E0.02365
G1 X125.048 Y181.034 E1.95350
G1 X124.294 Y181.034 E0.02365
G1 X124.294 Y118.730 E1.95350
G1 X124.103 Y118.730 E0.00597
G1 X124.103 Y112.099 E0.20792
G1 X123.539 Y112.099 E0.01768
G1 X123.539 Y181.034 E2.16141
G1 X122.785 Y181.034 E0.02365
G1 X122.785 Y112.099 E2.16141
M73 P3 R80
G1 X122.031 Y112.099 E0.02365
G1 X122.031 Y181.034 E2.16141
M73 Q3 S81
G1 X121.277 Y181.034 E0.02365
G1 X121.277 Y112.099 E2.16141
G1 X120.788 Y112.099 E0.01534
G1 X120.788 Y108.090 E0.12568
G1 X121.277 Y108.090 E0.01534
G1 X121.277 Y101.440 E0.20852
G1 X122.031 Y100.856 E0.02989
G1 X122.031 Y108.090 E0.22681
G1 X122.785 Y108.090 E0.02365
G1 X122.785 Y100.273 E0.24510
G1 X123.539 Y99.690 E0.02989
G1 X123.539 Y108.260 E0.26871
;WIPE_START
G1 F8640.000
G1 X123.539 Y104.146 E-0.95000
;WIPE_END
G1 E-0.05000 F2100.000
G1 Z0.400 F10800.000
G1 X99.499 Y116.673
G1 Z0.200
G1 E1.00000 F2100.000
;TYPE:Perimeter
G1 F1200.000
G1 X95.574 Y107.446 E0.31438
G1 X158.743 Y58.584 E2.50401
G1 X159.528 Y57.935 E0.03192
G1 X159.338 Y58.782 E0.02720
G1 X156.187 Y76.143 E0.55324
G1 X133.908 Y91.681 E0.85163
G1 X133.517 Y91.702 E0.01228
G1 X132.870 Y91.799 E0.02053
G1 X132.233 Y91.956 E0.02057
G1 X131.612 Y92.173 E0.02062
G1 X131.012 Y92.448 E0.02068
G1 X130.439 Y92.777 E0.02074
G1 X129.911 Y93.149 E0.02024
G1 X99.546 Y116.636 E1.20364
G1 X99.343 Y117.270 F10800.000
;TYPE:External perimeter
G1 F1200.000
G1 X95.113 Y107.326 E0.33882
G1 X158.508 Y58.289 E2.51295
G1 X159.292 Y57.641 E0.03190
G1 X159.978 Y56.900 E0.03167
G1 X160.323 Y56.633 E0.01367
G1 X160.219 Y57.208 E0.01831
G1 X160.058 Y57.552 E0.01193
G1 X159.902 Y57.989 E0.01454
G1 X159.708 Y58.857 E0.02788
G1 X156.530 Y76.363 E0.55787
G1 X134.036 Y92.052 E0.85988
G1 X133.555 Y92.077 E0.01509
G1 X132.943 Y92.169 E0.01941
G1 X132.340 Y92.318 E0.01946
G1 X131.753 Y92.523 E0.01952
G1 X131.185 Y92.783 E0.01958
G1 X130.642 Y93.096 E0.01965
G1 X130.135 Y93.452 E0.01943
G1 X99.390 Y117.233 E1.21869
G1 X99.358 Y116.870 F10800.000
;WIPE_START
G1 F8640.000
G1 X97.760 Y113.456 E-0.95000
;WIPE_END
G1 E-0.05000 F2100.000
G1 Z0.400 F10800.000
G1 X159.170 Y59.076
G1 Z0.200
G1 E1.00000 F2100.000
;TYPE:Solid infill
;WIDTH:0.420086
G1 F1200.000
G1 X158.908 Y58.814 E0.01162
G1 X158.607 Y59.046 E0.01192
G1 X158.942 Y59.381 E0.01485
G1 X158.860 Y59.833 E0.01439
G1 X158.306 Y59.279 E0.02455
G1 X158.006 Y59.512 E0.01192
G1 X158.778 Y60.284 E0.03426
G1 X158.696 Y60.736 E0.01439
G1 X157.705 Y59.744 E0.04396
G1 X157.404 Y59.977 E0.01192
G1 X158.614 Y61.187 E0.05367
G1 X158.532 Y61.638 E0.01439
G1 X157.103 Y60.210 E0.06337
G1 X156.803 Y60.442 E0.01192
G1 X158.450 Y62.090 E0.07307
G1 X158.368 Y62.541 E0.01439
G1 X156.502 Y60.675 E0.08278
G1 X156.201 Y60.908 E0.01192
G1 X158.286 Y62.993 E0.09248
G1 X158.204 Y63.444 E0.01439
G1 X155.900 Y61.140 E0.10219
G1 X155.600 Y61.373 E0.01192
G1 X158.122 Y63.896 E0.11189
G1 X158.041 Y64.347 E0.01439
G1 X155.299 Y61.606 E0.12160
G1 X154.998 Y61.838 E0.01192
G1 X157.959 Y64.799 E0.13130
G1 X157.877 Y65.250 E0.01439
M73 P4 R80
G1 X154.697 Y62.071 E0.14101
G1 X154.397 Y62.303 E0.01192
G1 X157.795 Y65.701 E0.15071
G1 X157.713 Y66.153 E0.01439
G1 X154.096 Y62.536 E0.16041
G1 X153.795 Y62.769 E0.01192
G1 X157.631 Y66.604 E0.17012
G1 X157.549 Y67.056 E0.01439
G1 X153.494 Y63.001 E0.17982
G1 X153.194 Y63.234 E0.01192
G1 X157.467 Y67.507 E0.18953
G1 X157.385 Y67.959 E0.01439
G1 X152.893 Y63.467 E0.19923
M73 Q4 S81
G1 X152.592 Y63.699 E0.01192
G1 X157.303 Y68.410 E0.20894
G1 X157.221 Y68.862 E0.01439
G1 X152.291 Y63.932 E0.21864
G1 X151.991 Y64.165 E0.01192
G1 X157.139 Y69.313 E0.22834
G1 X157.057 Y69.764 E0.01439
G1 X151.690 Y64.397 E0.23805
G1 X151.389 Y64.630 E0.01192
G1 X156.975 Y70.216 E0.24775
G1 X156.893 Y70.667 E0.01439
G1 X151.088 Y64.862 E0.25746
G1 X150.788 Y65.095 E0.01192
G1 X156.811 Y71.119 E0.26716
G1 X156.729 Y71.570 E0.01439
G1 X150.487 Y65.328 E0.27687
G1 X150.186 Y65.560 E0.01192
G1 X156.647 Y72.022 E0.28657
G1 X156.565 Y72.473 E0.01439
G1 X149.885 Y65.793 E0.29628
G1 X149.585 Y66.026 E0.01192
G1 X156.483 Y72.925 E0.30598
G1 X156.401 Y73.376 E0.01439
G1 X149.284 Y66.258 E0.31568
G1 X148.983 Y66.491 E0.01192
G1 X156.320 Y73.827 E0.32539
G1 X156.238 Y74.279 E0.01439
G1 X148.682 Y66.724 E0.33509
G1 X148.382 Y66.956 E0.01192
G1 X156.156 Y74.730 E0.34480
G1 X156.074 Y75.182 E0.01439
G1 X148.081 Y67.189 E0.35450
G1 X147.780 Y67.421 E0.01192
G1 X155.992 Y75.633 E0.36421
G1 X155.929 Y75.978 E0.01098
G1 X155.855 Y76.030 E0.00284
G1 X147.479 Y67.654 E0.37147
G1 X147.178 Y67.887 E0.01192
G1 X155.541 Y76.249 E0.37087
G1 X155.226 Y76.468 E0.01201
G1 X146.878 Y68.119 E0.37028
G1 X146.577 Y68.352 E0.01192
G1 X154.912 Y76.687 E0.36968
G1 X154.598 Y76.906 E0.01201
G1 X146.276 Y68.585 E0.36908
G1 X145.975 Y68.817 E0.01192
G1 X154.284 Y77.125 E0.36848
G1 X153.969 Y77.345 E0.01201
G1 X145.675 Y69.050 E0.36788
G1 X145.374 Y69.283 E0.01192
G1 X153.655 Y77.564 E0.36729
G1 X153.341 Y77.783 E0.01201
G1 X145.073 Y69.515 E0.36669
G1 X144.772 Y69.748 E0.01192
G1 X153.027 Y78.002 E0.36609
G1 X152.712 Y78.221 E0.01201
G1 X144.472 Y69.980 E0.36549
G1 X144.171 Y70.213 E0.01192
G1 X152.398 Y78.440 E0.36490
G1 X152.084 Y78.660 E0.01201
G1 X143.870 Y70.446 E0.36430
G1 X143.569 Y70.678 E0.01192
G1 X151.770 Y78.879 E0.36370
G1 X151.456 Y79.098 E0.01201
G1 X143.269 Y70.911 E0.36310
G1 X142.968 Y71.144 E0.01192
G1 X151.141 Y79.317 E0.36250
G1 X150.827 Y79.536 E0.01201
G1 X142.667 Y71.376 E0.36191
G1 X142.366 Y71.609 E0.01192
G1 X150.513 Y79.755 E0.36131
G1 X150.199 Y79.975 E0.01201
G1 X142.066 Y71.842 E0.36071
G1 X141.765 Y72.074 E0.01192
G1 X149.884 Y80.194 E0.36011
G1 X149.570 Y80.413 E0.01201
G1 X141.464 Y72.307 E0.35952
G1 X141.163 Y72.540 E0.01192
G1 X149.256 Y80.632 E0.35892
G1 X148.942 Y80.851 E0.01201
G1 X140.863 Y72.772 E0.35832
G1 X140.562 Y73.005 E0.01192
G1 X148.627 Y81.070 E0.35772
G1 X148.313 Y81.290 E0.01201
G1 X140.261 Y73.237 E0.35712
G1 X139.960 Y73.470 E0.01192
G1 X147.999 Y81.509 E0.35653
M73 P4 R79
G1 X147.685 Y81.728 E0.01201
G1 X139.660 Y73.703 E0.35593
G1 X139.359 Y73.935 E0.01192
G1 X147.371 Y81.947 E0.35533
G1 X147.056 Y82.166 E0.01201
G1 X139.058 Y74.168 E0.35473
G1 X138.757 Y74.401 E0.01192
G1 X146.742 Y82.385 E0.35414
G1 X146.428 Y82.604 E0.01201
G1 X138.457 Y74.633 E0.35354
G1 X138.156 Y74.866 E0.01192
G1 X146.114 Y82.824 E0.35294
G1 X145.799 Y83.043 E0.01201
G1 X137.855 Y75.099 E0.35234
G1 X137.554 Y75.331 E0.01192
G1 X145.485 Y83.262 E0.35174
G1 X145.171 Y83.481 E0.01201
G1 X137.254 Y75.564 E0.35115
G1 X136.953 Y75.796 E0.01192
G1 X144.857 Y83.700 E0.35055
G1 X144.542 Y83.919 E0.01201
G1 X136.652 Y76.029 E0.34995
M73 Q4 S80
G1 X136.351 Y76.262 E0.01192
G1 X144.228 Y84.139 E0.34935
G1 X143.914 Y84.358 E0.01201
G1 X136.051 Y76.494 E0.34876
G1 X135.750 Y76.727 E0.01192
G1 X143.600 Y84.577 E0.34816
G1 X143.285 Y84.796 E0.01201
G1 X135.449 Y76.960 E0.34756
G1 X135.148 Y77.192 E0.01192
G1 X142.971 Y85.015 E0.34696
G1 X142.657 Y85.234 E0.01201
G1 X134.848 Y77.425 E0.34636
G1 X134.547 Y77.658 E0.01192
G1 X142.343 Y85.454 E0.34577
G1 X142.029 Y85.673 E0.01201
G1 X134.246 Y77.890 E0.34517
G1 X133.945 Y78.123 E0.01192
G1 X141.714 Y85.892 E0.34457
G1 X141.400 Y86.111 E0.01201
G1 X133.645 Y78.355 E0.34397
G1 X133.344 Y78.588 E0.01192
G1 X141.086 Y86.330 E0.34338
G1 X140.772 Y86.549 E0.01201
G1 X133.043 Y78.821 E0.34278
G1 X132.742 Y79.053 E0.01192
G1 X140.457 Y86.769 E0.34218
G1 X140.143 Y86.988 E0.01201
G1 X132.442 Y79.286 E0.34158
G1 X132.141 Y79.519 E0.01192
G1 X139.829 Y87.207 E0.34098
G1 X139.515 Y87.426 E0.01201
G1 X131.840 Y79.751 E0.34039
G1 X131.539 Y79.984 E0.01192
G1 X139.200 Y87.645 E0.33979
G1 X138.886 Y87.864 E0.01201
G1 X131.238 Y80.217 E0.33919
G1 X130.938 Y80.449 E0.01192
G1 X138.572 Y88.083 E0.33859
G1 X138.258 Y88.303 E0.01201
G1 X130.637 Y80.682 E0.33800
G1 X130.336 Y80.915 E0.01192
G1 X137.944 Y88.522 E0.33740
G1 X137.629 Y88.741 E0.01201
G1 X130.035 Y81.147 E0.33680
G1 X129.735 Y81.380 E0.01192
G1 X137.315 Y88.960 E0.33620
G1 X137.001 Y89.179 E0.01201
G1 X129.434 Y81.612 E0.33560
G1 X129.133 Y81.845 E0.01192
G1 X136.687 Y89.398 E0.33501
G1 X136.372 Y89.618 E0.01201
G1 X128.832 Y82.078 E0.33441
G1 X128.532 Y82.310 E0.01192
G1 X136.058 Y89.837 E0.33381
G1 X135.744 Y90.056 E0.01201
G1 X128.231 Y82.543 E0.33321
G1 X127.930 Y82.776 E0.01192
G1 X135.430 Y90.275 E0.33262
