; generated by PrusaSlicer 2.3.0+win64 on 2021-07-04 at 03:53:58 UTC

; 

; external perimeters extrusion width = 0.25mm
; perimeters extrusion width = 0.25mm
; infill extrusion width = 0.25mm
; solid infill extrusion width = 0.25mm
; top infill extrusion width = 0.25mm
; support material extrusion width = 0.20mm
; first layer extrusion width = 0.30mm

M73 P0 R90
M73 Q0 S91
M201 X1000 Y1000 Z200 E5000 ; sets maximum accelerations, mm/sec^2
M203 X200 Y200 Z12 E120 ; sets maximum feedrates, mm/sec
M204 P1250 R1250 T1250 ; sets acceleration (P, T) and retract acceleration (R), mm/sec^2
M205 X8.00 Y8.00 Z0.40 E4.50 ; sets the jerk limits, mm/sec
M205 S0 T0 ; sets the minimum extruding and travel feed rate, mm/sec
M107
;TYPE:Custom
M862.3 P "MK3S" ; printer model check
M862.1 P0.25 ; nozzle diameter check
M115 U3.9.1 ; tell printer latest fw version
G90 ; use absolute coordinates
M83 ; extruder relative mode
M104 S215 ; set extruder temp
M140 S60 ; set bed temp
M190 S60 ; wait for bed temp
M109 S215 ; wait for extruder temp
G28 W ; home all without mesh bed level
G80 ; mesh bed leveling
G1 Y-3.0 F1000.0 ; go outside print area
G92 E0.0
G1 X60.0 E8.0 F700.0 ; intro line
G1 X100.0 E12.5 F700.0 ; intro line
G92 E0.0
M221 S95

; Don't change E value below. Excessive value can damage the printer.
M907 E430 ; set extruder motor current
G21 ; set units to millimeters
G90 ; use absolute coordinates
M83 ; use relative distances for extrusion
M900 K0.05 ; Filament gcode LA 1.5
M900 K30 ; Filament gcode LA 1.0
;LAYER_CHANGE
;Z:0.2
;HEIGHT:0.2
;BEFORE_LAYER_CHANGE
G92 E0.0
;0.2


M73 Q0 S90
G1 E-0.80000 F2100.000
G1 Z0.150 F10800.000
G1 Z0.200
;AFTER_LAYER_CHANGE
;0.2
G1 Z0.350
G1 X86.283 Y119.884
G1 Z0.200
G1 E0.80000 F2100.000
M204 S500
;TYPE:Skirt
;WIDTH:0.3
G1 F1200.000
G1 X86.643 Y118.779 E0.02485
G1 X87.320 Y117.829 E0.02492
G1 X88.263 Y117.120 E0.02524
G1 X89.302 Y116.746 E0.02358
G1 X90.072 Y116.665 E0.01657
G1 X159.929 Y116.665 E1.49327
G1 X160.558 Y116.718 E0.01351
G1 X161.238 Y116.898 E0.01503
G1 X161.817 Y117.166 E0.01363
G1 X162.522 Y117.678 E0.01863
G1 X162.996 Y118.197 E0.01503
G1 X163.329 Y118.724 E0.01333
G1 X163.581 Y119.321 E0.01385
G1 X163.727 Y119.948 E0.01376
G1 X163.764 Y133.373 E0.28698
G1 X163.626 Y134.241 E0.01880
G1 X163.397 Y134.857 E0.01404
G1 X163.037 Y135.467 E0.01515
G1 X162.570 Y135.998 E0.01511
G1 X161.772 Y136.580 E0.02112
G1 X161.009 Y136.897 E0.01767
G1 X128.677 Y145.224 E0.71369
G1 X127.869 Y145.309 E0.01737
G1 X122.117 Y145.309 E0.12297
G1 X121.381 Y145.238 E0.01580
G1 X89.007 Y136.901 E0.71461
G1 X88.186 Y136.555 E0.01904
G1 X87.294 Y135.863 E0.02413
G1 X86.665 Y134.984 E0.02311
G1 X86.312 Y133.983 E0.02269
G1 X86.230 Y133.212 E0.01657
G1 X86.282 Y119.921 E0.28412
M204 S1000
;WIPE_START
G1 F8640.000
G1 X86.643 Y118.779 E-0.27663
G1 X87.320 Y117.829 E-0.26921
G1 X88.061 Y117.272 E-0.21416
;WIPE_END
G1 E-0.04000 F2100.000
G1 Z0.350 F10800.000
G1 X122.431 Y137.133
G1 Z0.200
G1 E0.80000 F2100.000
M204 S500
;TYPE:Perimeter
G1 F1200.000
G1 X122.664 Y136.716 E0.01022
G1 X122.965 Y136.344 E0.01022
G1 X123.324 Y136.028 E0.01022
G1 X123.731 Y135.777 E0.01022
G1 X124.174 Y135.599 E0.01022
G1 X124.642 Y135.498 E0.01022
G1 X125.112 Y135.478 E0.01006
G1 X125.593 Y135.538 E0.01036
G1 X126.051 Y135.679 E0.01024
G1 X126.478 Y135.894 E0.01022
G1 X126.863 Y136.178 E0.01022
G1 X127.193 Y136.523 E0.01022
G1 X127.457 Y136.913 E0.01006
G1 X127.658 Y137.354 E0.01036
G1 X127.779 Y137.818 E0.01024
G1 X127.819 Y138.294 E0.01022
G1 X127.779 Y138.771 E0.01022
G1 X127.658 Y139.234 E0.01022
G1 X127.461 Y139.669 E0.01022
G1 X127.193 Y140.066 E0.01022
G1 X126.868 Y140.405 E0.01006
G1 X126.479 Y140.695 E0.01036
G1 X126.051 Y140.910 E0.01024
G1 X125.594 Y141.050 E0.01022
G1 X125.120 Y141.111 E0.01022
G1 X124.642 Y141.091 E0.01022
G1 X124.174 Y140.990 E0.01022
G1 X123.731 Y140.812 E0.01022
G1 X123.324 Y140.561 E0.01022
G1 X122.965 Y140.245 E0.01022
G1 X122.664 Y139.873 E0.01022
G1 X122.435 Y139.462 E0.01006
G1 X122.272 Y139.006 E0.01036
G1 X122.191 Y138.534 E0.01024
G1 X122.191 Y138.055 E0.01022
G1 X122.272 Y137.584 E0.01022
G1 X122.419 Y137.169 E0.00942
M204 S1000
G1 X122.661 Y137.254 F10800.000
M204 S500
G1 F1200.000
G1 X122.878 Y136.860 E0.00962
G1 X123.151 Y136.522 E0.00929
G1 X123.477 Y136.235 E0.00929
G1 X123.847 Y136.008 E0.00929
G1 X124.250 Y135.846 E0.00929
G1 X124.675 Y135.754 E0.00929
G1 X125.102 Y135.736 E0.00914
G1 X125.539 Y135.791 E0.00942
G1 X125.955 Y135.918 E0.00930
G1 X126.343 Y136.114 E0.00929
G1 X126.692 Y136.372 E0.00929
G1 X126.993 Y136.685 E0.00929
G1 X127.232 Y137.040 E0.00914
G1 X127.415 Y137.441 E0.00942
G1 X127.524 Y137.862 E0.00930
G1 X127.561 Y138.294 E0.00929
G1 X127.524 Y138.727 E0.00929
G1 X127.415 Y139.148 E0.00929
G1 X127.236 Y139.544 E0.00929
G1 X126.993 Y139.903 E0.00929
G1 X126.697 Y140.212 E0.00914
G1 X126.343 Y140.475 E0.00942
G1 X125.955 Y140.671 E0.00930
G1 X125.540 Y140.798 E0.00929
G1 X125.109 Y140.853 E0.00929
G1 X124.675 Y140.835 E0.00929
G1 X124.250 Y140.743 E0.00929
G1 X123.847 Y140.581 E0.00929
G1 X123.477 Y140.354 E0.00929
G1 X123.151 Y140.067 E0.00929
G1 X122.878 Y139.729 E0.00929
G1 X122.670 Y139.356 E0.00914
G1 X122.522 Y138.940 E0.00942
G1 X122.448 Y138.512 E0.00930
G1 X122.448 Y138.077 E0.00929
G1 X122.521 Y137.649 E0.00929
G1 X122.648 Y137.290 E0.00815
M204 S1000
G1 X122.891 Y137.375 F10800.000
M204 S500
;TYPE:External perimeter
G1 F1200.000
G1 X123.092 Y137.005 E0.00901
G1 X123.337 Y136.701 E0.00835
G1 X123.630 Y136.443 E0.00835
G1 X123.963 Y136.238 E0.00835
G1 X124.326 Y136.092 E0.00835
G1 X124.707 Y136.010 E0.00835
G1 X125.091 Y135.994 E0.00821
G1 X125.485 Y136.043 E0.00849
G1 X125.859 Y136.157 E0.00836
G1 X126.208 Y136.333 E0.00835
G1 X126.522 Y136.566 E0.00835
G1 X126.792 Y136.848 E0.00835
G1 X127.007 Y137.166 E0.00821
G1 X127.172 Y137.527 E0.00849
G1 X127.270 Y137.905 E0.00836
G1 X127.303 Y138.294 E0.00835
G1 X127.270 Y138.684 E0.00835
G1 X127.172 Y139.062 E0.00835
G1 X127.011 Y139.418 E0.00835
G1 X126.792 Y139.741 E0.00835
G1 X126.526 Y140.019 E0.00821
G1 X126.208 Y140.256 E0.00849
G1 X125.859 Y140.432 E0.00836
G1 X125.485 Y140.546 E0.00835
G1 X125.098 Y140.596 E0.00835
G1 X124.707 Y140.579 E0.00835
G1 X124.326 Y140.497 E0.00835
G1 X123.963 Y140.351 E0.00835
G1 X123.630 Y140.146 E0.00835
G1 X123.337 Y139.888 E0.00835
G1 X123.092 Y139.584 E0.00835
G1 X122.904 Y139.249 E0.00821
G1 X122.771 Y138.875 E0.00849
G1 X122.705 Y138.490 E0.00836
G1 X122.705 Y138.099 E0.00835
G1 X122.771 Y137.714 E0.00835
G1 X122.878 Y137.411 E0.00688
M204 S1000
G1 X122.743 Y137.174 F10800.000
;WIPE_START
G1 F8640.000
G1 X123.092 Y137.005 E-0.10588
G1 X123.337 Y136.701 E-0.09020
G1 X123.630 Y136.443 E-0.09020
G1 X123.963 Y136.238 E-0.09020
G1 X124.326 Y136.092 E-0.09020
G1 X124.707 Y136.010 E-0.09020
G1 X125.091 Y135.994 E-0.08868
G1 X125.485 Y136.043 E-0.09166
G1 X125.579 Y136.072 E-0.02278
;WIPE_END
G1 E-0.04000 F2100.000
G1 Z0.350 F10800.000
G1 X120.849 Y137.907
G1 Z0.200
G1 E0.80000 F2100.000
M204 S500
;TYPE:Perimeter
G1 F1200.000
G1 X120.685 Y137.225 E0.01499
G1 X120.416 Y136.575 E0.01504
G1 X120.049 Y135.976 E0.01501
G1 X119.583 Y135.433 E0.01532
G1 X119.059 Y134.986 E0.01472
G1 X118.467 Y134.622 E0.01484
G1 X117.811 Y134.350 E0.01517
G1 X117.130 Y134.186 E0.01497
G1 X116.454 Y134.133 E0.01451
G1 X90.101 Y134.133 E0.56332
G1 X89.931 Y134.119 E0.00365
G1 X89.657 Y134.030 E0.00616
G1 X89.424 Y133.861 E0.00616
G1 X89.254 Y133.628 E0.00616
G1 X89.165 Y133.354 E0.00616
G1 X89.152 Y133.183 E0.00365
G1 X89.152 Y120.536 E0.27036
G1 X89.165 Y120.365 E0.00365
G1 X89.254 Y120.091 E0.00616
G1 X89.424 Y119.858 E0.00616
G1 X89.657 Y119.689 E0.00616
G1 X89.931 Y119.600 E0.00616
G1 X90.101 Y119.586 E0.00365
G1 X159.899 Y119.586 E1.49202
G1 X160.062 Y119.599 E0.00349
G1 X160.343 Y119.689 E0.00632
G1 X160.576 Y119.858 E0.00616
G1 X160.746 Y120.091 E0.00616
G1 X160.835 Y120.365 E0.00616
G1 X160.848 Y120.536 E0.00365
G1 X160.848 Y133.183 E0.27036
G1 X160.835 Y133.354 E0.00365
G1 X160.746 Y133.628 E0.00616
G1 X160.576 Y133.861 E0.00616
G1 X160.343 Y134.030 E0.00616
G1 X160.069 Y134.119 E0.00616
G1 X159.899 Y134.133 E0.00365
G1 X133.546 Y134.133 E0.56332
G1 X132.870 Y134.186 E0.01451
G1 X132.189 Y134.350 E0.01497
G1 X131.533 Y134.622 E0.01517
G1 X130.941 Y134.986 E0.01484
G1 X130.417 Y135.433 E0.01472
G1 X129.951 Y135.976 E0.01532
G1 X129.584 Y136.575 E0.01501
G1 X129.315 Y137.225 E0.01504
G1 X129.151 Y137.912 E0.01510
G1 X129.098 Y138.581 E0.01434
G1 X129.098 Y141.121 E0.05430
G1 X129.081 Y141.341 E0.00471
G1 X129.036 Y141.530 E0.00416
G1 X128.961 Y141.709 E0.00416
G1 X128.862 Y141.871 E0.00405
G1 X128.733 Y142.024 E0.00428
G1 X128.586 Y142.149 E0.00413
G1 X128.420 Y142.251 E0.00416
G1 X128.240 Y142.325 E0.00416
G1 X128.051 Y142.371 E0.00416
G1 X127.831 Y142.388 E0.00471
G1 X122.169 Y142.388 E0.12105
G1 X121.949 Y142.371 E0.00471
G1 X121.760 Y142.325 E0.00416
G1 X121.580 Y142.251 E0.00416
G1 X121.414 Y142.149 E0.00416
G1 X121.267 Y142.023 E0.00416
G1 X121.140 Y141.875 E0.00416
G1 X121.039 Y141.709 E0.00416
G1 X120.964 Y141.530 E0.00416
G1 X120.919 Y141.341 E0.00416
G1 X120.902 Y141.121 E0.00471
G1 X120.902 Y138.581 E0.05430
G1 X120.852 Y137.944 E0.01365
M204 S1000
G1 X120.595 Y137.964 F10800.000
M204 S500
G1 F1200.000
G1 X120.440 Y137.304 E0.01449
G1 X120.186 Y136.692 E0.01417
G1 X119.841 Y136.128 E0.01413
G1 X119.400 Y135.615 E0.01445
G1 X118.907 Y135.194 E0.01387
G1 X118.349 Y134.852 E0.01399
G1 X117.731 Y134.595 E0.01431
G1 X117.090 Y134.441 E0.01410
G1 X116.444 Y134.390 E0.01386
G1 X90.091 Y134.390 E0.56332
G1 X89.891 Y134.374 E0.00430
G1 X89.711 Y134.331 E0.00396
G1 X89.540 Y134.260 E0.00396
G1 X89.382 Y134.163 E0.00396
G1 X89.241 Y134.043 E0.00396
G1 X89.121 Y133.903 E0.00396
G1 X89.024 Y133.745 E0.00396
G1 X88.954 Y133.574 E0.00396
G1 X88.910 Y133.394 E0.00396
G1 X88.895 Y133.194 E0.00430
G1 X88.895 Y120.525 E0.27079
G1 X88.910 Y120.325 E0.00430
G1 X88.954 Y120.145 E0.00396
G1 X89.024 Y119.974 E0.00396
G1 X89.121 Y119.816 E0.00396
G1 X89.241 Y119.676 E0.00396
G1 X89.382 Y119.556 E0.00396
G1 X89.540 Y119.459 E0.00396
G1 X89.711 Y119.388 E0.00396
G1 X89.891 Y119.345 E0.00396
G1 X90.091 Y119.329 E0.00430
G1 X159.909 Y119.329 E1.49245
G1 X160.101 Y119.344 E0.00412
G1 X160.290 Y119.388 E0.00415
G1 X160.460 Y119.459 E0.00393
G1 X160.618 Y119.556 E0.00396
G1 X160.759 Y119.676 E0.00396
G1 X160.879 Y119.816 E0.00396
G1 X160.976 Y119.974 E0.00396
G1 X161.046 Y120.145 E0.00396
G1 X161.090 Y120.325 E0.00396
G1 X161.105 Y120.525 E0.00430
G1 X161.105 Y133.194 E0.27079
G1 X161.090 Y133.394 E0.00430
G1 X161.046 Y133.574 E0.00396
G1 X160.976 Y133.745 E0.00396
G1 X160.879 Y133.903 E0.00396
G1 X160.759 Y134.043 E0.00396
G1 X160.618 Y134.163 E0.00396
G1 X160.460 Y134.260 E0.00396
G1 X160.289 Y134.331 E0.00396
G1 X160.109 Y134.374 E0.00396
G1 X159.909 Y134.390 E0.00430
G1 X133.556 Y134.390 E0.56332
G1 X132.910 Y134.441 E0.01386
G1 X132.269 Y134.595 E0.01410
G1 X131.651 Y134.852 E0.01431
G1 X131.093 Y135.194 E0.01399
G1 X130.600 Y135.615 E0.01387
G1 X130.159 Y136.128 E0.01445
G1 X129.814 Y136.692 E0.01413
G1 X129.560 Y137.305 E0.01417
G1 X129.405 Y137.952 E0.01423
G1 X129.355 Y138.591 E0.01369
G1 X129.355 Y141.131 E0.05430
G1 X129.336 Y141.381 E0.00536
G1 X129.281 Y141.609 E0.00502
G1 X129.191 Y141.826 E0.00502
G1 X129.071 Y142.022 E0.00491
G1 X128.915 Y142.206 E0.00514
G1 X128.737 Y142.358 E0.00501
G1 X128.537 Y142.481 E0.00502
G1 X128.320 Y142.570 E0.00502
G1 X128.092 Y142.625 E0.00502
G1 X127.842 Y142.645 E0.00536
G1 X122.158 Y142.645 E0.12148
G1 X121.908 Y142.625 E0.00536
G1 X121.680 Y142.570 E0.00502
G1 X121.463 Y142.481 E0.00502
G1 X121.263 Y142.358 E0.00502
G1 X121.084 Y142.205 E0.00502
G1 X120.932 Y142.027 E0.00502
G1 X120.809 Y141.826 E0.00502
G1 X120.719 Y141.609 E0.00502
G1 X120.664 Y141.381 E0.00502
G1 X120.645 Y141.131 E0.00536
G1 X120.645 Y138.591 E0.05430
G1 X120.598 Y138.002 E0.01263
M204 S1000
G1 X120.342 Y138.022 F10800.000
M204 S500
;TYPE:External perimeter
G1 F1200.000
G1 X120.194 Y137.384 E0.01399
G1 X119.956 Y136.809 E0.01331
G1 X119.632 Y136.280 E0.01326
G1 X119.218 Y135.798 E0.01358
G1 X118.755 Y135.403 E0.01301
G1 X118.232 Y135.082 E0.01313
G1 X117.651 Y134.840 E0.01344
G1 X117.050 Y134.696 E0.01323
G1 X116.433 Y134.647 E0.01321
G1 X90.081 Y134.647 E0.56332
G1 X89.850 Y134.629 E0.00495
G1 X89.631 Y134.576 E0.00482
G1 X89.423 Y134.490 E0.00482
G1 X89.230 Y134.372 E0.00482
G1 X89.059 Y134.226 E0.00482
G1 X88.912 Y134.054 E0.00482
G1 X88.795 Y133.862 E0.00482
G1 X88.708 Y133.654 E0.00482
G1 X88.656 Y133.434 E0.00482
G1 X88.638 Y133.204 E0.00495
G1 X88.638 Y120.515 E0.27123
G1 X88.656 Y120.285 E0.00495
G1 X88.708 Y120.065 E0.00482
G1 X88.795 Y119.857 E0.00482
G1 X88.912 Y119.665 E0.00482
G1 X89.059 Y119.493 E0.00482
G1 X89.230 Y119.347 E0.00482
G1 X89.423 Y119.229 E0.00482
G1 X89.631 Y119.143 E0.00482
G1 X89.850 Y119.090 E0.00482
G1 X90.081 Y119.072 E0.00495
G1 X159.919 Y119.072 E1.49288
G1 X160.141 Y119.089 E0.00476
G1 X160.369 Y119.143 E0.00502
G1 X160.577 Y119.229 E0.00481
G1 X160.770 Y119.347 E0.00482
G1 X160.941 Y119.493 E0.00482
G1 X161.088 Y119.665 E0.00482
G1 X161.205 Y119.857 E0.00482
G1 X161.292 Y120.065 E0.00482
G1 X161.344 Y120.285 E0.00482
G1 X161.363 Y120.515 E0.00495
G1 X161.363 Y133.204 E0.27123
G1 X161.344 Y133.434 E0.00495
G1 X161.292 Y133.654 E0.00482
G1 X161.205 Y133.862 E0.00482
G1 X161.088 Y134.054 E0.00482
G1 X160.941 Y134.226 E0.00482
G1 X160.770 Y134.372 E0.00482
G1 X160.577 Y134.490 E0.00482
G1 X160.369 Y134.576 E0.00482
G1 X160.150 Y134.629 E0.00482
G1 X159.919 Y134.647 E0.00495
G1 X133.567 Y134.647 E0.56332
G1 X132.951 Y134.696 E0.01321
G1 X132.349 Y134.840 E0.01323
G1 X131.768 Y135.082 E0.01344
G1 X131.245 Y135.403 E0.01313
G1 X130.782 Y135.798 E0.01301
G1 X130.368 Y136.280 E0.01358
G1 X130.044 Y136.809 E0.01326
G1 X129.806 Y137.384 E0.01331
G1 X129.660 Y137.992 E0.01337
G1 X129.613 Y138.601 E0.01305
G1 X129.613 Y141.141 E0.05430
G1 X129.590 Y141.421 E0.00601
G1 X129.526 Y141.689 E0.00589
G1 X129.421 Y141.944 E0.00589
G1 X129.280 Y142.174 E0.00577
G1 X129.098 Y142.388 E0.00601
G1 X128.889 Y142.566 E0.00588
G1 X128.654 Y142.710 E0.00589
G1 X128.400 Y142.816 E0.00589
G1 X128.132 Y142.880 E0.00589
G1 X127.852 Y142.902 E0.00601
G1 X122.148 Y142.902 E0.12191
G1 X121.868 Y142.880 E0.00601
G1 X121.600 Y142.816 E0.00589
G1 X121.346 Y142.710 E0.00589
G1 X121.111 Y142.566 E0.00589
G1 X120.902 Y142.388 E0.00589
G1 X120.723 Y142.178 E0.00589
G1 X120.579 Y141.944 E0.00589
G1 X120.474 Y141.689 E0.00589
G1 X120.410 Y141.421 E0.00589
G1 X120.388 Y141.141 E0.00601
G1 X120.388 Y138.601 E0.05430
G1 X120.345 Y138.059 E0.01161
M204 S1000
G1 X120.536 Y137.865 F10800.000
;WIPE_START
G1 F8640.000
G1 X120.194 Y137.384 E-0.15972
G1 X119.956 Y136.809 E-0.14372
G1 X119.632 Y136.280 E-0.14325
G1 X119.218 Y135.798 E-0.14673
G1 X118.755 Y135.403 E-0.14052
G1 X118.659 Y135.344 E-0.02606
;WIPE_END
G1 E-0.04000 F2100.000
G1 Z0.350 F10800.000
G1 X160.131 Y119.702
G1 Z0.200
G1 E0.80000 F2100.000
M204 S500
;TYPE:Solid infill
;WIDTH:0.300748
G1 F1200.000
G1 X160.513 Y120.084 E0.01158
G1 X160.615 Y120.285 E0.00483
G1 X160.656 Y120.591 E0.00663
G1 X159.843 Y119.779 E0.02462
G1 X159.479 Y119.779 E0.00782
G1 X160.656 Y120.956 E0.03568
G1 X160.656 Y121.320 E0.00782
G1 X159.114 Y119.779 E0.04673
G1 X158.750 Y119.779 E0.00782
G1 X160.656 Y121.685 E0.05779
G1 X160.656 Y122.050 E0.00782
G1 X158.385 Y119.779 E0.06884
G1 X158.020 Y119.779 E0.00782
G1 X160.656 Y122.414 E0.07990
G1 X160.656 Y122.779 E0.00782
G1 X157.656 Y119.779 E0.09095
G1 X157.291 Y119.779 E0.00782
G1 X160.656 Y123.143 E0.10201
G1 X160.656 Y123.508 E0.00782
G1 X156.926 Y119.779 E0.11306
G1 X156.562 Y119.779 E0.00782
G1 X160.656 Y123.873 E0.12412
G1 X160.656 Y124.237 E0.00782
G1 X156.197 Y119.779 E0.13517
M73 Q1 S90
G1 X155.833 Y119.779 E0.00782
G1 X160.656 Y124.602 E0.14623
G1 X160.656 Y124.967 E0.00782
G1 X155.468 Y119.779 E0.15728
M73 P1 R90
G1 X155.103 Y119.779 E0.00782
G1 X160.656 Y125.331 E0.16834
G1 X160.656 Y125.696 E0.00782
G1 X154.739 Y119.779 E0.17939
G1 X154.374 Y119.779 E0.00782
G1 X160.656 Y126.060 E0.19045
M73 P1 R89
