; generated by PrusaSlicer 2.3.0+win64 on 2021-06-29 at 22:53:02 UTC

; 

; external perimeters extrusion width = 0.25mm
; perimeters extrusion width = 0.25mm
; infill extrusion width = 0.25mm
; solid infill extrusion width = 0.25mm
; top infill extrusion width = 0.25mm
; support material extrusion width = 0.20mm
; first layer extrusion width = 0.30mm

M73 P0 R142
M73 Q0 S142
M201 X1000 Y1000 Z200 E5000 ; sets maximum accelerations, mm/sec^2
M203 X200 Y200 Z12 E120 ; sets maximum feedrates, mm/sec
M204 P1250 R1250 T1250 ; sets acceleration (P, T) and retract acceleration (R), mm/sec^2
M205 X8.00 Y8.00 Z0.40 E4.50 ; sets the jerk limits, mm/sec
M205 S0 T0 ; sets the minimum extruding and travel feed rate, mm/sec
M107
;TYPE:Custom
M862.3 P "MK3S" ; printer model check
M862.1 P0.25 ; nozzle diameter check
M115 U3.9.1 ; tell printer latest fw version
G90 ; use absolute coordinates
M83 ; extruder relative mode
M104 S240 ; set extruder temp
M140 S85 ; set bed temp
M190 S85 ; wait for bed temp
M109 S240 ; wait for extruder temp
G28 W ; home all without mesh bed level
G80 ; mesh bed leveling
G1 Y-3.0 F1000.0 ; go outside print area
G92 E0.0
G1 X60.0 E8.0 F700.0 ; intro line
G1 X100.0 E12.5 F700.0 ; intro line
G92 E0.0
M221 S95

; Don't change E value below. Excessive value can damage the printer.
M907 E430 ; set extruder motor current
G21 ; set units to millimeters
G90 ; use absolute coordinates
M83 ; use relative distances for extrusion
M900 K0.08 ; Filament gcode LA 1.5
M900 K45 ; Filament gcode LA 1.0
;LAYER_CHANGE
;Z:0.2
;HEIGHT:0.2
;BEFORE_LAYER_CHANGE
G92 E0.0
;0.2


G1 E-1.40000 F2100.000
G1 Z0.200 F10800.000
;AFTER_LAYER_CHANGE
;0.2
G1 Z0.400
G1 X85.087 Y88.182
G1 Z0.200
G1 E1.40000 F2100.000
M204 S500
;TYPE:Skirt
;WIDTH:0.3
G1 F1200.000
G1 X85.485 Y87.504 E0.01681
G1 X93.418 Y79.562 E0.23994
G1 X93.956 Y79.170 E0.01423
G1 X118.945 Y70.015 E0.56889
G1 X122.006 Y69.622 E0.06597
G1 X151.493 Y69.622 E0.63032
G1 X154.010 Y69.670 E0.05381
G1 X154.596 Y69.778 E0.01274
G1 X155.041 Y69.979 E0.01045
G1 X157.841 Y71.685 E0.07009
G1 X158.299 Y72.137 E0.01376
G1 X161.116 Y76.005 E0.10229
G1 X161.368 Y76.488 E0.01163
G1 X161.496 Y77.013 E0.01156
G1 X161.512 Y123.342 E0.99034
M73 P0 R141
G1 X160.365 Y137.753 E0.30903
G1 X160.194 Y138.404 E0.01439
G1 X159.836 Y138.978 E0.01446
G1 X158.635 Y140.123 E0.03547
G1 X158.113 Y140.377 E0.01242
G1 X157.539 Y140.490 E0.01250
G1 X137.828 Y140.378 E0.42134
G1 X94.780 Y138.058 E0.92154
G1 X94.078 Y137.898 E0.01541
G1 X93.458 Y137.522 E0.01548
G1 X85.731 Y129.802 E0.23349
G1 X85.353 Y129.254 E0.01423
G1 X85.152 Y128.619 E0.01423
G1 X84.950 Y123.384 E0.11199
G1 X84.944 Y88.952 E0.73604
G1 X85.080 Y88.219 E0.01593
M204 S1000
;WIPE_START
G1 F8640.000
G1 X85.485 Y87.504 E-0.18977
G1 X88.975 Y84.010 E-1.14023
;WIPE_END
G1 E-0.07000 F2100.000
G1 Z0.400 F10800.000
G1 X139.237 Y121.493
G1 Z0.200
G1 E1.40000 F2100.000
M204 S500
;TYPE:Support material
G1 F1200.000
G1 X137.096 Y123.634 E0.06472
G1 X137.460 Y123.998 E0.01099
G1 X139.121 Y122.336 E0.05024
G1 X139.121 Y123.063 E0.01554
G1 X137.823 Y124.361 E0.03925
G1 X137.879 Y124.417 E0.00167
G1 X137.879 Y125.033 E0.01318
G1 X139.121 Y123.790 E0.03757
G1 X139.121 Y124.517 E0.01554
G1 X137.879 Y125.760 E0.03757
G1 X137.879 Y126.487 E0.01554
G1 X139.121 Y125.244 E0.03757
G1 X139.121 Y125.972 E0.01554
G1 X137.879 Y127.214 E0.03757
G1 X137.879 Y127.942 E0.01554
G1 X139.121 Y126.699 E0.03757
G1 X139.121 Y127.426 E0.01554
G1 X137.879 Y128.669 E0.03757
G1 X137.879 Y129.396 E0.01554
G1 X139.121 Y128.153 E0.03757
G1 X139.121 Y128.880 E0.01554
G1 X137.879 Y130.123 E0.03757
G1 X137.879 Y130.850 E0.01554
G1 X139.121 Y129.607 E0.03757
G1 X139.121 Y130.334 E0.01554
G1 X137.879 Y131.577 E0.03757
G1 X137.879 Y132.304 E0.01554
G1 X139.121 Y131.061 E0.03757
G1 X139.121 Y131.789 E0.01554
G1 X137.879 Y133.031 E0.03757
G1 X137.879 Y133.759 E0.01554
G1 X139.121 Y132.516 E0.03757
G1 X139.121 Y133.243 E0.01554
G1 X137.879 Y134.486 E0.03757
G1 X137.879 Y135.213 E0.01554
G1 X139.121 Y133.970 E0.03757
G1 X139.121 Y134.697 E0.01554
G1 X137.879 Y135.940 E0.03757
G1 X137.879 Y136.667 E0.01554
G1 X139.121 Y135.424 E0.03757
G1 X139.121 Y136.151 E0.01554
G1 X137.879 Y137.394 E0.03757
G1 X137.879 Y138.121 E0.01554
G1 X139.232 Y136.768 E0.04092
G1 X139.343 Y136.879 E0.00335
G1 X139.849 Y136.879 E0.01080
G1 X138.606 Y138.121 E0.03757
G1 X139.333 Y138.121 E0.01554
G1 X140.576 Y136.879 E0.03757
G1 X141.303 Y136.879 E0.01554
G1 X140.060 Y138.121 E0.03757
G1 X140.787 Y138.121 E0.01554
G1 X142.030 Y136.879 E0.03757
G1 X142.757 Y136.879 E0.01554
G1 X141.514 Y138.121 E0.03757
G1 X142.241 Y138.121 E0.01554
G1 X143.484 Y136.879 E0.03757
G1 X144.211 Y136.879 E0.01554
G1 X142.969 Y138.121 E0.03757
G1 X143.696 Y138.121 E0.01554
G1 X144.939 Y136.879 E0.03757
G1 X145.666 Y136.879 E0.01554
G1 X144.423 Y138.121 E0.03757
G1 X145.150 Y138.121 E0.01554
G1 X146.393 Y136.879 E0.03757
G1 X147.120 Y136.879 E0.01554
G1 X145.877 Y138.121 E0.03757
G1 X146.604 Y138.121 E0.01554
G1 X147.847 Y136.879 E0.03757
G1 X148.574 Y136.879 E0.01554
G1 X147.331 Y138.121 E0.03757
G1 X148.058 Y138.121 E0.01554
G1 X149.301 Y136.879 E0.03757
G1 X150.028 Y136.879 E0.01554
G1 X148.786 Y138.121 E0.03757
G1 X149.513 Y138.121 E0.01554
G1 X150.756 Y136.879 E0.03757
G1 X151.483 Y136.879 E0.01554
G1 X150.240 Y138.121 E0.03757
G1 X150.967 Y138.121 E0.01554
G1 X152.210 Y136.879 E0.03757
G1 X152.937 Y136.879 E0.01554
G1 X151.694 Y138.121 E0.03757
G1 X152.421 Y138.121 E0.01554
G1 X153.664 Y136.879 E0.03757
G1 X154.391 Y136.879 E0.01554
G1 X153.148 Y138.121 E0.03757
G1 X153.876 Y138.121 E0.01554
G1 X155.118 Y136.879 E0.03757
G1 X155.845 Y136.879 E0.01554
G1 X154.603 Y138.121 E0.03757
G1 X155.330 Y138.121 E0.01554
G1 X158.121 Y135.330 E0.08439
G1 X158.121 Y136.057 E0.01554
G1 X156.057 Y138.121 E0.06241
G1 X156.784 Y138.121 E0.01554
G1 X158.121 Y136.784 E0.04043
G1 X158.121 Y137.511 E0.01554
G1 X157.395 Y138.237 E0.02194
M204 S1000
G1 X157.159 Y121.023 F10800.000
M204 S500
G1 F1200.000
G1 X156.879 Y121.303 E0.00847
G1 X156.879 Y122.030 E0.01554
G1 X157.441 Y121.468 E0.01699
G1 X157.804 Y121.832 E0.01099
G1 X156.879 Y122.757 E0.02798
G1 X156.879 Y123.484 E0.01554
G1 X158.168 Y122.195 E0.03897
G1 X158.531 Y122.559 E0.01099
G1 X156.879 Y124.211 E0.04996
G1 X156.879 Y124.939 E0.01554
G1 X158.895 Y122.922 E0.06095
G1 X159.255 Y123.283 E0.01090
G1 X156.879 Y125.666 E0.07194
G1 X156.879 Y126.393 E0.01554
G1 X158.121 Y125.150 E0.03757
G1 X158.121 Y125.877 E0.01554
G1 X156.879 Y127.120 E0.03757
G1 X156.879 Y127.847 E0.01554
G1 X158.121 Y126.604 E0.03757
G1 X158.121 Y127.331 E0.01554
G1 X156.879 Y128.574 E0.03757
G1 X156.879 Y129.301 E0.01554
G1 X158.121 Y128.058 E0.03757
G1 X158.121 Y128.786 E0.01554
G1 X156.879 Y130.028 E0.03757
G1 X156.879 Y130.756 E0.01554
G1 X158.121 Y129.513 E0.03757
G1 X158.121 Y130.240 E0.01554
G1 X156.879 Y131.483 E0.03757
G1 X156.879 Y132.210 E0.01554
G1 X158.121 Y130.967 E0.03757
G1 X158.121 Y131.694 E0.01554
G1 X156.879 Y132.937 E0.03757
G1 X156.879 Y133.664 E0.01554
G1 X158.121 Y132.421 E0.03757
G1 X158.121 Y133.148 E0.01554
G1 X156.879 Y134.391 E0.03757
G1 X156.879 Y135.118 E0.01554
G1 X158.121 Y133.876 E0.03757
G1 X158.121 Y134.603 E0.01554
G1 X156.763 Y135.961 E0.04107
M204 S1000
;WIPE_START
G1 F8640.000
G1 X158.121 Y134.603 E-0.44361
G1 X158.121 Y133.876 E-0.16790
G1 X156.879 Y135.118 E-0.40584
G1 X156.879 Y134.391 E-0.16790
G1 X157.322 Y133.948 E-0.14475
;WIPE_END
G1 E-0.07000 F2100.000
G1 Z0.400 F10800.000
G1 X154.578 Y135.237
G1 Z0.200
G1 E1.40000 F2100.000
M204 S500
G1 F1200.000
G1 X155.121 Y134.694 E0.01642
G1 X155.121 Y133.967 E0.01554
G1 X153.967 Y135.121 E0.03490
G1 X153.240 Y135.121 E0.01554
G1 X155.121 Y133.240 E0.05688
G1 X155.121 Y132.513 E0.01554
G1 X152.513 Y135.121 E0.07887
G1 X151.785 Y135.121 E0.01554
G1 X155.121 Y131.785 E0.10085
G1 X155.121 Y131.058 E0.01554
G1 X151.058 Y135.121 E0.12283
G1 X150.331 Y135.121 E0.01554
G1 X155.121 Y130.331 E0.14481
G1 X155.121 Y129.604 E0.01554
G1 X149.604 Y135.121 E0.16679
G1 X148.877 Y135.121 E0.01554
G1 X155.121 Y128.877 E0.18877
G1 X155.121 Y128.150 E0.01554
G1 X148.150 Y135.121 E0.21076
G1 X147.423 Y135.121 E0.01554
G1 X155.121 Y127.423 E0.23274
G1 X155.121 Y126.696 E0.01554
G1 X146.696 Y135.121 E0.25472
G1 X145.968 Y135.121 E0.01554
G1 X155.121 Y125.968 E0.27670
G1 X155.121 Y125.241 E0.01554
G1 X145.241 Y135.121 E0.29868
G1 X144.514 Y135.121 E0.01554
G1 X155.121 Y124.514 E0.32066
G1 X155.121 Y123.787 E0.01554
G1 X143.787 Y135.121 E0.34265
G1 X143.060 Y135.121 E0.01554
G1 X155.121 Y123.060 E0.36463
M73 Q0 S141
G1 X155.121 Y122.333 E0.01554
G1 X142.333 Y135.121 E0.38661
G1 X141.606 Y135.121 E0.01554
G1 X155.121 Y121.606 E0.40859
G1 X155.121 Y120.879 E0.01554
G1 X140.879 Y135.121 E0.43057
G1 X140.879 Y134.394 E0.01554
G1 X154.394 Y120.879 E0.40859
G1 X153.667 Y120.879 E0.01554
G1 X140.879 Y133.667 E0.38661
G1 X140.879 Y132.940 E0.01554
G1 X152.940 Y120.879 E0.36463
G1 X152.213 Y120.879 E0.01554
G1 X140.879 Y132.213 E0.34265
G1 X140.879 Y131.486 E0.01554
G1 X151.486 Y120.879 E0.32066
G1 X150.759 Y120.879 E0.01554
G1 X140.879 Y130.759 E0.29868
G1 X140.879 Y130.032 E0.01554
G1 X150.032 Y120.879 E0.27670
G1 X149.304 Y120.879 E0.01554
G1 X140.879 Y129.304 E0.25472
G1 X140.879 Y128.577 E0.01554
G1 X148.577 Y120.879 E0.23274
G1 X147.850 Y120.879 E0.01554
G1 X140.879 Y127.850 E0.21076
G1 X140.879 Y127.123 E0.01554
G1 X147.123 Y120.879 E0.18877
G1 X146.396 Y120.879 E0.01554
G1 X140.879 Y126.396 E0.16679
G1 X140.879 Y125.669 E0.01554
G1 X145.669 Y120.879 E0.14481
G1 X144.942 Y120.879 E0.01554
G1 X140.879 Y124.942 E0.12283
G1 X140.879 Y124.215 E0.01554
G1 X144.215 Y120.879 E0.10085
G1 X143.487 Y120.879 E0.01554
G1 X140.879 Y123.487 E0.07887
G1 X140.879 Y122.760 E0.01554
G1 X142.760 Y120.879 E0.05688
G1 X142.033 Y120.879 E0.01554
G1 X140.879 Y122.033 E0.03490
G1 X140.879 Y121.306 E0.01554
G1 X141.422 Y120.763 E0.01642
M204 S1000
;WIPE_START
G1 F8640.000
G1 X140.879 Y121.306 E-0.17736
G1 X140.879 Y122.033 E-0.16790
G1 X142.033 Y120.879 E-0.37702
G1 X142.760 Y120.879 E-0.16790
G1 X141.413 Y122.225 E-0.43983
;WIPE_END
G1 E-0.07000 F2100.000
G1 Z0.400 F10800.000
G1 X142.537 Y118.194
G1 Z0.200
G1 E1.40000 F2100.000
M204 S500
G1 F1200.000
G1 X141.609 Y119.121 E0.02805
G1 X142.336 Y119.121 E0.01554
G1 X142.818 Y118.639 E0.01459
G1 X143.182 Y119.003 E0.01099
G1 X143.063 Y119.121 E0.00359
G1 X143.790 Y119.121 E0.01554
G1 X145.033 Y117.879 E0.03757
G1 X145.760 Y117.879 E0.01554
G1 X144.517 Y119.121 E0.03757
G1 X145.244 Y119.121 E0.01554
G1 X146.487 Y117.879 E0.03757
G1 X147.214 Y117.879 E0.01554
G1 X145.972 Y119.121 E0.03757
G1 X146.699 Y119.121 E0.01554
G1 X147.942 Y117.879 E0.03757
G1 X148.669 Y117.879 E0.01554
G1 X147.426 Y119.121 E0.03757
G1 X148.153 Y119.121 E0.01554
G1 X149.396 Y117.879 E0.03757
G1 X150.123 Y117.879 E0.01554
G1 X148.880 Y119.121 E0.03757
G1 X149.607 Y119.121 E0.01554
G1 X150.850 Y117.879 E0.03757
G1 X151.493 Y117.879 E0.01374
G1 X151.535 Y117.921 E0.00128
G1 X150.334 Y119.121 E0.03629
G1 X151.061 Y119.121 E0.01554
G1 X151.898 Y118.284 E0.02530
G1 X152.262 Y118.648 E0.01099
G1 X151.789 Y119.121 E0.01431
G1 X152.516 Y119.121 E0.01554
G1 X152.626 Y119.012 E0.00332
G1 X152.717 Y119.103 E0.00277
G1 X153.897 Y117.924 E0.03565
G1 X154.168 Y118.196 E0.00822
G1 X153.243 Y119.121 E0.02798
G1 X153.970 Y119.121 E0.01554
G1 X154.532 Y118.559 E0.01699
G1 X154.896 Y118.923 E0.01099
G1 X154.581 Y119.237 E0.00950
M204 S1000
;WIPE_START
G1 F8640.000
G1 X154.896 Y118.923 E-0.10259
G1 X154.532 Y118.559 E-0.11872
G1 X153.970 Y119.121 E-0.18353
G1 X153.243 Y119.121 E-0.16790
G1 X154.168 Y118.196 E-0.30225
G1 X153.897 Y117.924 E-0.08879
G1 X152.775 Y119.046 E-0.36623
;WIPE_END
G1 E-0.07000 F2100.000
G1 Z0.400 F10800.000
G1 X140.093 Y120.093
G1 Z0.200
G1 E1.40000 F2100.000
M204 S500
;TYPE:Perimeter
G1 F1200.000
G1 X155.907 Y120.093 E0.33805
G1 X155.907 Y135.907 E0.33805
G1 X140.093 Y135.907 E0.33805
G1 X140.093 Y120.130 E0.33725
M204 S1000
G1 X140.350 Y120.350 F10800.000
M204 S500
;TYPE:External perimeter
G1 F1200.000
G1 X155.650 Y120.350 E0.32706
G1 X155.650 Y135.650 E0.32706
G1 X140.350 Y135.650 E0.32706
G1 X140.350 Y120.388 E0.32626
M204 S1000
G1 X140.285 Y120.109 F10800.000
G1 X139.907 Y119.907
M204 S500
;TYPE:Perimeter
G1 F1200.000
G1 X156.093 Y119.907 E0.34599
G1 X156.093 Y136.093 E0.34599
G1 X139.907 Y136.093 E0.34599
G1 X139.907 Y119.945 E0.34519
M204 S1000
G1 X139.650 Y119.650 F10800.000
M204 S500
;TYPE:External perimeter
G1 F1200.000
G1 X156.350 Y119.650 E0.35698
G1 X156.350 Y136.350 E0.35698
G1 X139.650 Y136.350 E0.35698
G1 X139.650 Y119.688 E0.35618
M204 S1000
G1 X139.891 Y119.715 F10800.000
;WIPE_START
G1 F8640.000
G1 X145.410 Y119.675 E-1.33000
;WIPE_END
G1 E-0.07000 F2100.000
G1 Z0.400 F10800.000
G1 X154.578 Y112.237
G1 Z0.200
G1 E1.40000 F2100.000
M204 S500
;TYPE:Support material
G1 F1200.000
G1 X155.121 Y111.694 E0.01642
G1 X155.121 Y110.967 E0.01554
G1 X153.967 Y112.121 E0.03490
G1 X153.240 Y112.121 E0.01554
G1 X155.121 Y110.240 E0.05688
G1 X155.121 Y109.513 E0.01554
G1 X152.513 Y112.121 E0.07887
G1 X151.785 Y112.121 E0.01554
G1 X155.121 Y108.785 E0.10085
G1 X155.121 Y108.058 E0.01554
G1 X151.058 Y112.121 E0.12283
M73 P0 R140
G1 X150.331 Y112.121 E0.01554
G1 X155.121 Y107.331 E0.14481
G1 X155.121 Y106.604 E0.01554
G1 X149.604 Y112.121 E0.16679
G1 X148.877 Y112.121 E0.01554
G1 X155.121 Y105.877 E0.18877
G1 X155.121 Y105.150 E0.01554
G1 X148.150 Y112.121 E0.21076
G1 X147.423 Y112.121 E0.01554
G1 X155.121 Y104.423 E0.23274
G1 X155.121 Y103.696 E0.01554
G1 X146.696 Y112.121 E0.25472
G1 X145.968 Y112.121 E0.01554
G1 X155.121 Y102.968 E0.27670
G1 X155.121 Y102.241 E0.01554
G1 X145.241 Y112.121 E0.29868
G1 X144.514 Y112.121 E0.01554
G1 X155.121 Y101.514 E0.32066
G1 X155.121 Y100.787 E0.01554
G1 X143.787 Y112.121 E0.34265
G1 X143.060 Y112.121 E0.01554
G1 X155.121 Y100.060 E0.36463
G1 X155.121 Y99.333 E0.01554
G1 X142.333 Y112.121 E0.38661
G1 X141.606 Y112.121 E0.01554
G1 X155.121 Y98.606 E0.40859
G1 X155.121 Y97.879 E0.01554
G1 X140.879 Y112.121 E0.43057
M73 P1 R140
M73 Q1 S141
G1 X140.879 Y111.394 E0.01554
G1 X154.394 Y97.879 E0.40859
G1 X153.667 Y97.879 E0.01554
G1 X140.879 Y110.667 E0.38661
G1 X140.879 Y109.940 E0.01554
G1 X152.940 Y97.879 E0.36463
G1 X152.213 Y97.879 E0.01554
G1 X140.879 Y109.213 E0.34265
G1 X140.879 Y108.486 E0.01554
G1 X151.486 Y97.879 E0.32066
G1 X150.759 Y97.879 E0.01554
G1 X140.879 Y107.759 E0.29868
G1 X140.879 Y107.032 E0.01554
G1 X150.032 Y97.879 E0.27670
G1 X149.304 Y97.879 E0.01554
G1 X140.879 Y106.304 E0.25472
G1 X140.879 Y105.577 E0.01554
G1 X148.577 Y97.879 E0.23274
G1 X147.850 Y97.879 E0.01554
G1 X140.879 Y104.850 E0.21076
G1 X140.879 Y104.123 E0.01554
G1 X147.123 Y97.879 E0.18877
G1 X146.396 Y97.879 E0.01554
G1 X140.879 Y103.396 E0.16679
G1 X140.879 Y102.669 E0.01554
G1 X145.669 Y97.879 E0.14481
G1 X144.942 Y97.879 E0.01554
G1 X140.879 Y101.942 E0.12283
G1 X140.879 Y101.215 E0.01554
G1 X144.215 Y97.879 E0.10085
G1 X143.487 Y97.879 E0.01554
G1 X140.879 Y100.487 E0.07887
G1 X140.879 Y99.760 E0.01554
G1 X142.760 Y97.879 E0.05688
G1 X142.033 Y97.879 E0.01554
G1 X140.879 Y99.033 E0.03490
G1 X140.879 Y98.306 E0.01554
G1 X141.422 Y97.763 E0.01642
M204 S1000
;WIPE_START
G1 F8640.000
G1 X140.879 Y98.306 E-0.17736
G1 X140.879 Y99.033 E-0.16790
G1 X142.033 Y97.879 E-0.37702
G1 X142.760 Y97.879 E-0.16790
G1 X141.413 Y99.225 E-0.43983
;WIPE_END
G1 E-0.07000 F2100.000
G1 Z0.400 F10800.000
G1 X139.237 Y98.493
G1 Z0.200
G1 E1.40000 F2100.000
M204 S500
G1 F1200.000
G1 X137.096 Y100.634 E0.06472
G1 X137.460 Y100.998 E0.01099
G1 X139.121 Y99.336 E0.05024
G1 X139.121 Y100.063 E0.01554
G1 X137.823 Y101.361 E0.03925
G1 X137.879 Y101.417 E0.00167
G1 X137.879 Y102.033 E0.01318
G1 X139.121 Y100.790 E0.03757
G1 X139.121 Y101.517 E0.01554
G1 X137.879 Y102.760 E0.03757
G1 X137.879 Y103.487 E0.01554
G1 X139.121 Y102.244 E0.03757
G1 X139.121 Y102.972 E0.01554
G1 X137.879 Y104.214 E0.03757
G1 X137.879 Y104.942 E0.01554
G1 X139.121 Y103.699 E0.03757
G1 X139.121 Y104.426 E0.01554
G1 X137.879 Y105.669 E0.03757
G1 X137.879 Y106.396 E0.01554
