; generated by PrusaSlicer 2.3.0+win64 on 2021-06-29 at 21:26:59 UTC

; 

; external perimeters extrusion width = 0.25mm
; perimeters extrusion width = 0.25mm
; infill extrusion width = 0.25mm
; solid infill extrusion width = 0.25mm
; top infill extrusion width = 0.25mm
; support material extrusion width = 0.20mm
; first layer extrusion width = 0.30mm

M73 P0 R34
M73 Q0 S34
M201 X1000 Y1000 Z200 E5000 ; sets maximum accelerations, mm/sec^2
M203 X200 Y200 Z12 E120 ; sets maximum feedrates, mm/sec
M204 P1250 R1250 T1250 ; sets acceleration (P, T) and retract acceleration (R), mm/sec^2
M205 X8.00 Y8.00 Z0.40 E4.50 ; sets the jerk limits, mm/sec
M205 S0 T0 ; sets the minimum extruding and travel feed rate, mm/sec
M107
;TYPE:Custom
M862.3 P "MK3S" ; printer model check
M862.1 P0.25 ; nozzle diameter check
M115 U3.9.1 ; tell printer latest fw version
G90 ; use absolute coordinates
M83 ; extruder relative mode
M104 S240 ; set extruder temp
M140 S85 ; set bed temp
M190 S85 ; wait for bed temp
M109 S240 ; wait for extruder temp
G28 W ; home all without mesh bed level
G80 ; mesh bed leveling
G1 Y-3.0 F1000.0 ; go outside print area
G92 E0.0
G1 X60.0 E8.0 F700.0 ; intro line
G1 X100.0 E12.5 F700.0 ; intro line
G92 E0.0
M221 S95

; Don't change E value below. Excessive value can damage the printer.
M907 E430 ; set extruder motor current
G21 ; set units to millimeters
G90 ; use absolute coordinates
M83 ; use relative distances for extrusion
M900 K0.08 ; Filament gcode LA 1.5
M900 K45 ; Filament gcode LA 1.0
;LAYER_CHANGE
;Z:0.2
;HEIGHT:0.2
;BEFORE_LAYER_CHANGE
G92 E0.0
;0.2


G1 E-1.40000 F2100.000
G1 Z0.200 F10800.000
;AFTER_LAYER_CHANGE
;0.2
G1 Z0.400
G1 X117.440 Y75.719
G1 Z0.200
G1 E1.40000 F2100.000
M204 S500
;TYPE:Skirt
;WIDTH:0.3
G1 F1200.000
G1 X118.394 Y75.507 E0.02088
G1 X130.174 Y75.430 E0.25181
G1 X133.276 Y75.747 E0.06666
G1 X133.845 Y75.929 E0.01278
G1 X134.353 Y76.238 E0.01270
G1 X142.089 Y83.951 E0.23352
G1 X142.509 Y84.567 E0.01593
G1 X142.731 Y85.279 E0.01593
G1 X142.760 Y88.043 E0.05911
G1 X142.660 Y93.003 E0.10603
G1 X137.515 Y123.330 E0.65754
G1 X137.089 Y124.127 E0.01932
G1 X136.030 Y125.198 E0.03220
G1 X135.376 Y125.602 E0.01643
G1 X134.634 Y125.790 E0.01635
G1 X114.852 Y125.685 E0.42288
G1 X114.112 Y125.566 E0.01602
G1 X113.483 Y125.262 E0.01494
G1 X112.961 Y124.797 E0.01494
G1 X112.587 Y124.206 E0.01494
G1 X112.390 Y123.532 E0.01502
G1 X108.334 Y93.178 E0.65461
G1 X108.145 Y88.043 E0.10985
G1 X108.142 Y85.724 E0.04957
G1 X108.259 Y85.055 E0.01453
G1 X108.501 Y84.521 E0.01253
G1 X108.861 Y84.057 E0.01253
G1 X116.700 Y76.218 E0.23700
G1 X117.409 Y75.740 E0.01827
M204 S1000
G1 X117.551 Y75.952 F10800.000
M204 S500
G1 F1200.000
G1 X118.406 Y75.764 E0.01871
G1 X130.174 Y75.687 E0.25154
G1 X133.216 Y75.997 E0.06537
G1 X133.732 Y76.160 E0.01156
G1 X134.194 Y76.440 E0.01156
G1 X141.896 Y84.121 E0.23252
G1 X142.278 Y84.680 E0.01446
G1 X142.478 Y85.330 E0.01454
G1 X142.503 Y88.042 E0.05798
G1 X142.405 Y92.968 E0.10531
G1 X137.270 Y123.254 E0.65664
M73 P1 R34
M73 Q1 S34
G1 X136.878 Y123.978 E0.01759
G1 X135.861 Y125.004 E0.03089
G1 X135.269 Y125.368 E0.01486
G1 X134.598 Y125.535 E0.01478
G1 X114.854 Y125.428 E0.42205
M73 P1 R33
G1 X114.186 Y125.320 E0.01446
G1 X113.620 Y125.045 E0.01344
G1 X113.152 Y124.625 E0.01344
G1 X112.818 Y124.092 E0.01344
G1 X112.644 Y123.488 E0.01344
G1 X108.590 Y93.155 E0.65417
G1 X108.402 Y88.045 E0.10932
G1 X108.398 Y85.740 E0.04927
G1 X108.506 Y85.127 E0.01329
G1 X108.724 Y84.649 E0.01124
G1 X109.047 Y84.234 E0.01124
G1 X116.878 Y76.404 E0.23673
G1 X117.520 Y75.973 E0.01653
M204 S1000
;WIPE_START
G1 F8640.000
G1 X118.406 Y75.764 E-0.21021
G1 X123.256 Y75.732 E-1.11979
;WIPE_END
G1 E-0.07000 F2100.000
G1 Z0.400 F10800.000
G1 X119.537 Y103.244
G1 Z0.200
G1 E1.40000 F2100.000
M204 S500
;TYPE:Support material
G1 F1200.000
G1 X118.609 Y104.171 E0.02805
G1 X119.336 Y104.171 E0.01554
G1 X119.818 Y103.689 E0.01459
G1 X120.182 Y104.053 E0.01099
G1 X120.063 Y104.171 E0.00359
G1 X120.790 Y104.171 E0.01554
G1 X122.033 Y102.929 E0.03757
G1 X122.760 Y102.929 E0.01554
G1 X121.517 Y104.171 E0.03757
G1 X122.244 Y104.171 E0.01554
G1 X123.487 Y102.929 E0.03757
G1 X124.214 Y102.929 E0.01554
G1 X122.972 Y104.171 E0.03757
M73 Q1 S33
G1 X123.699 Y104.171 E0.01554
G1 X124.942 Y102.929 E0.03757
G1 X125.669 Y102.929 E0.01554
G1 X124.426 Y104.171 E0.03757
G1 X125.153 Y104.171 E0.01554
G1 X126.396 Y102.929 E0.03757
G1 X127.123 Y102.929 E0.01554
G1 X125.880 Y104.171 E0.03757
G1 X126.607 Y104.171 E0.01554
G1 X127.850 Y102.929 E0.03757
G1 X128.493 Y102.929 E0.01374
G1 X128.535 Y102.971 E0.00128
G1 X127.334 Y104.171 E0.03629
G1 X128.061 Y104.171 E0.01554
G1 X128.898 Y103.334 E0.02530
G1 X129.262 Y103.698 E0.01099
G1 X128.789 Y104.171 E0.01431
G1 X129.516 Y104.171 E0.01554
G1 X129.626 Y104.062 E0.00332
G1 X129.717 Y104.153 E0.00277
G1 X130.897 Y102.974 E0.03565
G1 X131.168 Y103.246 E0.00822
G1 X130.243 Y104.171 E0.02798
G1 X130.970 Y104.171 E0.01554
G1 X131.532 Y103.609 E0.01699
G1 X131.896 Y103.973 E0.01099
G1 X131.581 Y104.287 E0.00950
M204 S1000
;WIPE_START
G1 F8640.000
G1 X131.896 Y103.973 E-0.10259
G1 X131.532 Y103.609 E-0.11872
G1 X130.970 Y104.171 E-0.18353
G1 X130.243 Y104.171 E-0.16790
G1 X131.168 Y103.246 E-0.30225
G1 X130.897 Y102.974 E-0.08879
G1 X129.775 Y104.096 E-0.36623
;WIPE_END
G1 E-0.07000 F2100.000
G1 Z0.400 F10800.000
G1 X134.159 Y106.073
G1 Z0.200
G1 E1.40000 F2100.000
M204 S500
G1 F1200.000
G1 X133.879 Y106.353 E0.00847
G1 X133.879 Y107.080 E0.01554
G1 X134.441 Y106.518 E0.01699
G1 X134.804 Y106.882 E0.01099
G1 X133.879 Y107.807 E0.02798
G1 X133.879 Y108.534 E0.01554
G1 X135.168 Y107.245 E0.03897
G1 X135.531 Y107.609 E0.01099
G1 X133.879 Y109.261 E0.04996
G1 X133.879 Y109.989 E0.01554
G1 X135.895 Y107.972 E0.06095
G1 X136.255 Y108.333 E0.01090
G1 X133.879 Y110.716 E0.07194
G1 X133.879 Y111.443 E0.01554
G1 X135.121 Y110.200 E0.03757
G1 X135.121 Y110.927 E0.01554
G1 X133.879 Y112.170 E0.03757
G1 X133.879 Y112.897 E0.01554
G1 X135.121 Y111.654 E0.03757
G1 X135.121 Y112.381 E0.01554
G1 X133.879 Y113.624 E0.03757
G1 X133.879 Y114.351 E0.01554
G1 X135.121 Y113.108 E0.03757
G1 X135.121 Y113.836 E0.01554
G1 X133.879 Y115.078 E0.03757
G1 X133.879 Y115.806 E0.01554
G1 X135.121 Y114.563 E0.03757
G1 X135.121 Y115.290 E0.01554
G1 X133.879 Y116.533 E0.03757
G1 X133.879 Y117.260 E0.01554
G1 X135.121 Y116.017 E0.03757
G1 X135.121 Y116.744 E0.01554
G1 X133.879 Y117.987 E0.03757
G1 X133.879 Y118.714 E0.01554
G1 X135.121 Y117.471 E0.03757
G1 X135.121 Y118.198 E0.01554
G1 X133.879 Y119.441 E0.03757
G1 X133.879 Y120.168 E0.01554
G1 X135.121 Y118.926 E0.03757
G1 X135.121 Y119.653 E0.01554
G1 X133.763 Y121.011 E0.04107
M204 S1000
;WIPE_START
G1 F8640.000
G1 X135.121 Y119.653 E-0.44361
G1 X135.121 Y118.926 E-0.16790
G1 X133.879 Y120.168 E-0.40584
G1 X133.879 Y119.441 E-0.16790
G1 X134.322 Y118.998 E-0.14475
;WIPE_END
G1 E-0.07000 F2100.000
G1 Z0.400 F10800.000
G1 X131.578 Y120.287
G1 Z0.200
G1 E1.40000 F2100.000
M204 S500
G1 F1200.000
G1 X132.121 Y119.744 E0.01642
G1 X132.121 Y119.017 E0.01554
G1 X130.967 Y120.171 E0.03490
G1 X130.240 Y120.171 E0.01554
G1 X132.121 Y118.290 E0.05688
G1 X132.121 Y117.563 E0.01554
G1 X129.513 Y120.171 E0.07887
G1 X128.785 Y120.171 E0.01554
G1 X132.121 Y116.835 E0.10085
G1 X132.121 Y116.108 E0.01554
G1 X128.058 Y120.171 E0.12283
G1 X127.331 Y120.171 E0.01554
G1 X132.121 Y115.381 E0.14481
G1 X132.121 Y114.654 E0.01554
G1 X126.604 Y120.171 E0.16679
G1 X125.877 Y120.171 E0.01554
G1 X132.121 Y113.927 E0.18877
G1 X132.121 Y113.200 E0.01554
G1 X125.150 Y120.171 E0.21076
G1 X124.423 Y120.171 E0.01554
G1 X132.121 Y112.473 E0.23274
G1 X132.121 Y111.746 E0.01554
G1 X123.696 Y120.171 E0.25472
G1 X122.968 Y120.171 E0.01554
G1 X132.121 Y111.018 E0.27670
G1 X132.121 Y110.291 E0.01554
G1 X122.241 Y120.171 E0.29868
G1 X121.514 Y120.171 E0.01554
G1 X132.121 Y109.564 E0.32066
G1 X132.121 Y108.837 E0.01554
G1 X120.787 Y120.171 E0.34265
G1 X120.060 Y120.171 E0.01554
G1 X132.121 Y108.110 E0.36463
G1 X132.121 Y107.383 E0.01554
G1 X119.333 Y120.171 E0.38661
M73 P2 R33
M73 Q2 S33
G1 X118.606 Y120.171 E0.01554
G1 X132.121 Y106.656 E0.40859
G1 X132.121 Y105.929 E0.01554
G1 X117.879 Y120.171 E0.43057
G1 X117.879 Y119.444 E0.01554
G1 X131.394 Y105.929 E0.40859
G1 X130.667 Y105.929 E0.01554
G1 X117.879 Y118.717 E0.38661
G1 X117.879 Y117.990 E0.01554
G1 X129.940 Y105.929 E0.36463
G1 X129.213 Y105.929 E0.01554
G1 X117.879 Y117.263 E0.34265
G1 X117.879 Y116.536 E0.01554
G1 X128.486 Y105.929 E0.32066
G1 X127.759 Y105.929 E0.01554
G1 X117.879 Y115.809 E0.29868
G1 X117.879 Y115.082 E0.01554
G1 X127.032 Y105.929 E0.27670
G1 X126.304 Y105.929 E0.01554
G1 X117.879 Y114.354 E0.25472
G1 X117.879 Y113.627 E0.01554
G1 X125.577 Y105.929 E0.23274
G1 X124.850 Y105.929 E0.01554
G1 X117.879 Y112.900 E0.21076
G1 X117.879 Y112.173 E0.01554
G1 X124.123 Y105.929 E0.18877
G1 X123.396 Y105.929 E0.01554
G1 X117.879 Y111.446 E0.16679
G1 X117.879 Y110.719 E0.01554
G1 X122.669 Y105.929 E0.14481
G1 X121.942 Y105.929 E0.01554
G1 X117.879 Y109.992 E0.12283
G1 X117.879 Y109.264 E0.01554
G1 X121.215 Y105.929 E0.10085
G1 X120.487 Y105.929 E0.01554
G1 X117.879 Y108.537 E0.07887
G1 X117.879 Y107.810 E0.01554
G1 X119.760 Y105.929 E0.05688
G1 X119.033 Y105.929 E0.01554
G1 X117.879 Y107.083 E0.03490
G1 X117.879 Y106.356 E0.01554
G1 X118.422 Y105.813 E0.01642
M204 S1000
;WIPE_START
G1 F8640.000
G1 X117.879 Y106.356 E-0.17736
G1 X117.879 Y107.083 E-0.16790
G1 X119.033 Y105.929 E-0.37702
G1 X119.760 Y105.929 E-0.16790
G1 X118.413 Y107.275 E-0.43983
;WIPE_END
G1 E-0.07000 F2100.000
G1 Z0.400 F10800.000
G1 X116.237 Y106.543
G1 Z0.200
G1 E1.40000 F2100.000
M204 S500
G1 F1200.000
G1 X114.096 Y108.684 E0.06472
G1 X114.460 Y109.048 E0.01099
G1 X116.121 Y107.386 E0.05024
G1 X116.121 Y108.113 E0.01554
G1 X114.823 Y109.411 E0.03925
G1 X114.879 Y109.467 E0.00167
G1 X114.879 Y110.083 E0.01318
G1 X116.121 Y108.840 E0.03757
G1 X116.121 Y109.567 E0.01554
G1 X114.879 Y110.810 E0.03757
G1 X114.879 Y111.537 E0.01554
G1 X116.121 Y110.294 E0.03757
G1 X116.121 Y111.022 E0.01554
G1 X114.879 Y112.264 E0.03757
G1 X114.879 Y112.992 E0.01554
G1 X116.121 Y111.749 E0.03757
G1 X116.121 Y112.476 E0.01554
G1 X114.879 Y113.719 E0.03757
G1 X114.879 Y114.446 E0.01554
G1 X116.121 Y113.203 E0.03757
G1 X116.121 Y113.930 E0.01554
G1 X114.879 Y115.173 E0.03757
G1 X114.879 Y115.900 E0.01554
G1 X116.121 Y114.657 E0.03757
G1 X116.121 Y115.384 E0.01554
G1 X114.879 Y116.627 E0.03757
G1 X114.879 Y117.354 E0.01554
G1 X116.121 Y116.111 E0.03757
G1 X116.121 Y116.839 E0.01554
G1 X114.879 Y118.081 E0.03757
G1 X114.879 Y118.809 E0.01554
G1 X116.121 Y117.566 E0.03757
G1 X116.121 Y118.293 E0.01554
G1 X114.879 Y119.536 E0.03757
G1 X114.879 Y120.263 E0.01554
G1 X116.121 Y119.020 E0.03757
G1 X116.121 Y119.747 E0.01554
G1 X114.879 Y120.990 E0.03757
G1 X114.879 Y121.717 E0.01554
G1 X116.121 Y120.474 E0.03757
G1 X116.121 Y121.201 E0.01554
G1 X114.879 Y122.444 E0.03757
G1 X114.879 Y123.171 E0.01554
G1 X116.232 Y121.818 E0.04092
G1 X116.343 Y121.929 E0.00335
G1 X116.849 Y121.929 E0.01080
G1 X115.606 Y123.171 E0.03757
G1 X116.333 Y123.171 E0.01554
G1 X117.576 Y121.929 E0.03757
G1 X118.303 Y121.929 E0.01554
G1 X117.060 Y123.171 E0.03757
G1 X117.787 Y123.171 E0.01554
G1 X119.030 Y121.929 E0.03757
G1 X119.757 Y121.929 E0.01554
G1 X118.514 Y123.171 E0.03757
G1 X119.241 Y123.171 E0.01554
G1 X120.484 Y121.929 E0.03757
G1 X121.211 Y121.929 E0.01554
G1 X119.969 Y123.171 E0.03757
G1 X120.696 Y123.171 E0.01554
G1 X121.939 Y121.929 E0.03757
G1 X122.666 Y121.929 E0.01554
G1 X121.423 Y123.171 E0.03757
G1 X122.150 Y123.171 E0.01554
G1 X123.393 Y121.929 E0.03757
G1 X124.120 Y121.929 E0.01554
G1 X122.877 Y123.171 E0.03757
G1 X123.604 Y123.171 E0.01554
G1 X124.847 Y121.929 E0.03757
G1 X125.574 Y121.929 E0.01554
G1 X124.331 Y123.171 E0.03757
G1 X125.058 Y123.171 E0.01554
G1 X126.301 Y121.929 E0.03757
G1 X127.028 Y121.929 E0.01554
G1 X125.786 Y123.171 E0.03757
G1 X126.513 Y123.171 E0.01554
G1 X127.756 Y121.929 E0.03757
G1 X128.483 Y121.929 E0.01554
G1 X127.240 Y123.171 E0.03757
G1 X127.967 Y123.171 E0.01554
G1 X129.210 Y121.929 E0.03757
G1 X129.937 Y121.929 E0.01554
G1 X128.694 Y123.171 E0.03757
G1 X129.421 Y123.171 E0.01554
G1 X130.664 Y121.929 E0.03757
G1 X131.391 Y121.929 E0.01554
G1 X130.148 Y123.171 E0.03757
G1 X130.876 Y123.171 E0.01554
G1 X132.118 Y121.929 E0.03757
G1 X132.845 Y121.929 E0.01554
G1 X131.603 Y123.171 E0.03757
G1 X132.330 Y123.171 E0.01554
G1 X135.121 Y120.380 E0.08439
G1 X135.121 Y121.107 E0.01554
M73 Q3 S33
G1 X133.057 Y123.171 E0.06241
M73 P3 R33
G1 X133.784 Y123.171 E0.01554
G1 X135.121 Y121.834 E0.04043
G1 X135.121 Y122.561 E0.01554
G1 X134.395 Y123.287 E0.02194
M204 S1000
;WIPE_START
G1 F8640.000
G1 X135.121 Y122.561 E-0.23703
G1 X135.121 Y121.834 E-0.16790
G1 X133.784 Y123.171 E-0.43670
G1 X133.057 Y123.171 E-0.16790
G1 X134.038 Y122.190 E-0.32048
;WIPE_END
G1 E-0.07000 F2100.000
G1 Z0.400 F10800.000
G1 X132.907 Y120.957
G1 Z0.200
G1 E1.40000 F2100.000
M204 S500
;TYPE:Perimeter
G1 F1200.000
G1 X117.093 Y120.957 E0.33805
G1 X117.093 Y105.143 E0.33805
G1 X132.907 Y105.143 E0.33805
G1 X132.907 Y120.920 E0.33725
M204 S1000
G1 X132.650 Y120.700 F10800.000
M204 S500
;TYPE:External perimeter
G1 F1200.000
G1 X117.350 Y120.700 E0.32706
G1 X117.350 Y105.400 E0.32706
G1 X132.650 Y105.400 E0.32706
G1 X132.650 Y120.662 E0.32626
M204 S1000
G1 X132.715 Y120.941 F10800.000
G1 X133.093 Y121.143
M204 S500
;TYPE:Perimeter
G1 F1200.000
G1 X116.907 Y121.143 E0.34599
G1 X116.907 Y104.957 E0.34599
G1 X133.093 Y104.957 E0.34599
G1 X133.093 Y121.105 E0.34519
M204 S1000
G1 X133.350 Y121.400 F10800.000
M204 S500
;TYPE:External perimeter
G1 F1200.000
G1 X116.650 Y121.400 E0.35698
G1 X116.650 Y104.700 E0.35698
G1 X133.350 Y104.700 E0.35698
G1 X133.350 Y121.362 E0.35618
M204 S1000
G1 X133.109 Y121.335 F10800.000
;WIPE_START
G1 F8640.000
G1 X127.590 Y121.375 E-1.33000
;WIPE_END
G1 E-0.07000 F2100.000
G1 Z0.400 F10800.000
G1 X132.370 Y100.460
G1 Z0.200
G1 E1.40000 F2100.000
M204 S500
;TYPE:Support material
G1 F1200.000
G1 X140.169 Y92.661 E0.23577
G1 X139.806 Y92.297 E0.01099
G1 X132.088 Y100.015 E0.23330
G1 X131.725 Y99.651 E0.01099
G1 X139.442 Y91.934 E0.23330
G1 X139.079 Y91.570 E0.01099
G1 X131.361 Y99.287 E0.23330
G1 X131.349 Y99.275 E0.00037
G1 X130.170 Y100.455 E0.03565
G1 X129.818 Y100.103 E0.01062
G1 X139.894 Y90.027 E0.30460
G1 X139.531 Y89.664 E0.01099
G1 X129.455 Y99.740 E0.30460
G1 X129.091 Y99.376 E0.01099
G1 X139.167 Y89.300 E0.30460
G1 X139.067 Y89.199 E0.00305
G1 X140.246 Y88.020 E0.03565
G1 X139.983 Y87.757 E0.00794
G1 X127.548 Y100.192 E0.37591
M73 P3 R32
M73 Q4 S33
G1 X127.185 Y99.828 E0.01099
G1 X132.885 Y94.128 E0.17233
M73 P4 R32
G1 X132.158 Y94.128 E0.01554
G1 X126.821 Y99.465 E0.16134
G1 X126.632 Y99.275 E0.00573
G1 X125.453 Y100.455 E0.03565
G1 X125.278 Y100.280 E0.00527
G1 X131.431 Y94.128 E0.18600
G1 X130.704 Y94.128 E0.01554
G1 X124.915 Y99.917 E0.17501
G1 X124.551 Y99.553 E0.01099
G1 X129.977 Y94.128 E0.16401
G1 X129.250 Y94.128 E0.01554
G1 X123.008 Y100.369 E0.18868
G1 X122.645 Y100.005 E0.01099
G1 X128.522 Y94.128 E0.17768
G1 X127.795 Y94.128 E0.01554
G1 X122.281 Y99.642 E0.16669
G1 X121.918 Y99.278 E0.01099
G1 X127.068 Y94.128 E0.15570
G1 X126.341 Y94.128 E0.01554
G1 X120.375 Y100.094 E0.18036
M73 Q4 S32
G1 X120.011 Y99.731 E0.01099
G1 X125.614 Y94.128 E0.16937
G1 X124.887 Y94.128 E0.01554
G1 X119.648 Y99.367 E0.15838
G1 X119.556 Y99.275 E0.00277
G1 X118.377 Y100.455 E0.03565
G1 X118.105 Y100.183 E0.00822
G1 X124.160 Y94.128 E0.18304
G1 X123.433 Y94.128 E0.01554
G1 X117.741 Y99.819 E0.17205
G1 X117.378 Y99.456 E0.01099
G1 X122.705 Y94.128 E0.16106
G1 X121.978 Y94.128 E0.01554
G1 X117.014 Y99.092 E0.15007
G1 X116.651 Y98.728 E0.01099
G1 X121.251 Y94.128 E0.13908
G1 X120.524 Y94.128 E0.01554
G1 X116.287 Y98.365 E0.12809
G1 X115.923 Y98.001 E0.01099
G1 X119.797 Y94.128 E0.11710
G1 X119.070 Y94.128 E0.01554
G1 X115.560 Y97.638 E0.10611
G1 X115.196 Y97.274 E0.01099
G1 X118.343 Y94.128 E0.09512
G1 X117.858 Y94.123 E0.01036
G1 X117.665 Y94.079 E0.00424
G1 X114.833 Y96.911 E0.08561
