; generated by PrusaSlicer 2.3.0+win64 on 2021-06-29 at 20:42:54 UTC

; 

; external perimeters extrusion width = 0.25mm
; perimeters extrusion width = 0.25mm
; infill extrusion width = 0.25mm
; solid infill extrusion width = 0.25mm
; top infill extrusion width = 0.25mm
; support material extrusion width = 0.20mm
; first layer extrusion width = 0.30mm

M73 P0 R32
M73 Q0 S32
M201 X1000 Y1000 Z200 E5000 ; sets maximum accelerations, mm/sec^2
M203 X200 Y200 Z12 E120 ; sets maximum feedrates, mm/sec
M204 P1250 R1250 T1250 ; sets acceleration (P, T) and retract acceleration (R), mm/sec^2
M205 X8.00 Y8.00 Z0.40 E4.50 ; sets the jerk limits, mm/sec
M205 S0 T0 ; sets the minimum extruding and travel feed rate, mm/sec
M107
;TYPE:Custom
M862.3 P "MK3S" ; printer model check
M862.1 P0.25 ; nozzle diameter check
M115 U3.9.1 ; tell printer latest fw version
G90 ; use absolute coordinates
M83 ; extruder relative mode
M104 S240 ; set extruder temp
M140 S85 ; set bed temp
M190 S85 ; wait for bed temp
M109 S240 ; wait for extruder temp
G28 W ; home all without mesh bed level
G80 ; mesh bed leveling
G1 Y-3.0 F1000.0 ; go outside print area
G92 E0.0
G1 X60.0 E8.0 F700.0 ; intro line
G1 X100.0 E12.5 F700.0 ; intro line
G92 E0.0
M221 S95

; Don't change E value below. Excessive value can damage the printer.
M907 E430 ; set extruder motor current
G21 ; set units to millimeters
G90 ; use absolute coordinates
M83 ; use relative distances for extrusion
M900 K0.08 ; Filament gcode LA 1.5
M900 K45 ; Filament gcode LA 1.0
;LAYER_CHANGE
;Z:0.2
;HEIGHT:0.2
;BEFORE_LAYER_CHANGE
G92 E0.0
;0.2


G1 E-1.40000 F2100.000
G1 Z0.200 F10800.000
;AFTER_LAYER_CHANGE
;0.2
G1 Z0.400
G1 X116.401 Y76.071
G1 Z0.200
G1 E1.40000 F2100.000
M204 S500
;TYPE:Skirt
;WIDTH:0.3
G1 F1200.000
G1 X117.348 Y75.887 E0.02061
G1 X130.449 Y75.900 E0.28004
G1 X134.052 Y76.078 E0.07711
G1 X134.606 Y76.179 E0.01203
G1 X135.167 Y76.425 E0.01311
G1 X135.650 Y76.798 E0.01303
G1 X141.161 Y82.310 E0.16663
G1 X141.472 Y82.713 E0.01087
G1 X141.694 Y83.166 E0.01078
G1 X141.843 Y83.833 E0.01461
G1 X142.055 Y87.488 E0.07826
G1 X142.055 Y92.534 E0.10786
G1 X141.963 Y94.428 E0.04055
G1 X137.739 Y123.618 E0.63046
G1 X137.531 Y124.240 E0.01403
G1 X137.169 Y124.787 E0.01403
G1 X136.497 Y125.436 E0.01997
G1 X135.847 Y125.794 E0.01585
G1 X134.977 Y125.951 E0.01891
G1 X114.558 Y125.830 E0.43648
G1 X113.856 Y125.679 E0.01535
G1 X113.225 Y125.336 E0.01535
G1 X112.714 Y124.826 E0.01544
G1 X112.371 Y124.195 E0.01535
G1 X112.232 Y123.617 E0.01270
G1 X108.859 Y94.368 E0.62938
G1 X108.850 Y85.877 E0.18151
G1 X108.932 Y84.056 E0.03896
G1 X109.133 Y83.298 E0.01676
G1 X109.558 Y82.639 E0.01676
G1 X115.596 Y76.596 E0.18261
G1 X116.370 Y76.091 E0.01975
M204 S1000
G1 X116.597 Y76.272 F10800.000
M204 S500
G1 F1200.000
G1 X117.328 Y76.144 E0.01587
G1 X130.409 Y76.157 E0.27962
G1 X134.151 Y76.346 E0.08009
G1 X134.673 Y76.472 E0.01148
G1 X135.150 Y76.719 E0.01148
G1 X141.000 Y82.514 E0.17602
G1 X141.376 Y83.072 E0.01439
G1 X141.570 Y83.713 E0.01431
G1 X141.798 Y87.517 E0.08146
G1 X141.798 Y92.528 E0.10713
G1 X141.717 Y94.316 E0.03826
G1 X137.413 Y123.851 E0.63801
M73 P1 R32
M73 Q1 S32
G1 X137.066 Y124.507 E0.01587
G1 X136.386 Y125.197 E0.02069
G1 X135.794 Y125.539 E0.01462
G1 X135.127 Y125.689 E0.01462
G1 X114.705 Y125.578 E0.43654
G1 X114.016 Y125.463 E0.01494
G1 X113.465 Y125.192 E0.01313
G1 X113.008 Y124.782 E0.01313
G1 X112.676 Y124.261 E0.01321
G1 X112.499 Y123.672 E0.01313
G1 X109.121 Y94.409 E0.62970
G1 X109.107 Y85.859 E0.18276
G1 X109.183 Y84.130 E0.03699
G1 X109.291 Y83.601 E0.01156
G1 X109.511 Y83.131 E0.01108
G1 X109.834 Y82.721 E0.01116
G1 X115.789 Y76.766 E0.18003
G1 X116.165 Y76.477 E0.01014
G1 X116.563 Y76.288 E0.00941
M204 S1000
;WIPE_START
G1 F8640.000
G1 X117.328 Y76.144 E-0.17984
G1 X122.310 Y76.149 E-1.15016
;WIPE_END
G1 E-0.07000 F2100.000
G1 Z0.400 F10800.000
G1 X119.537 Y103.244
G1 Z0.200
G1 E1.40000 F2100.000
M204 S500
;TYPE:Support material
G1 F1200.000
G1 X118.459 Y104.321 E0.03258
G1 X119.186 Y104.321 E0.01554
G1 X119.818 Y103.689 E0.01912
G1 X120.045 Y103.916 E0.00686
G1 X121.183 Y102.779 E0.03438
G1 X121.456 Y102.779 E0.00584
G1 X119.913 Y104.321 E0.04664
G1 X120.640 Y104.321 E0.01554
G1 X122.183 Y102.779 E0.04664
G1 X122.910 Y102.779 E0.01554
G1 X121.367 Y104.321 E0.04664
G1 X122.094 Y104.321 E0.01554
G1 X123.637 Y102.779 E0.04664
G1 X124.364 Y102.779 E0.01554
G1 X122.822 Y104.321 E0.04664
G1 X123.549 Y104.321 E0.01554
G1 X125.092 Y102.779 E0.04664
G1 X125.819 Y102.779 E0.01554
G1 X124.276 Y104.321 E0.04664
G1 X125.003 Y104.321 E0.01554
G1 X126.546 Y102.779 E0.04664
G1 X127.273 Y102.779 E0.01554
G1 X125.730 Y104.321 E0.04664
G1 X126.457 Y104.321 E0.01554
G1 X128.000 Y102.779 E0.04664
G1 X128.727 Y102.779 E0.01554
G1 X127.184 Y104.321 E0.04664
G1 X127.911 Y104.321 E0.01554
G1 X129.136 Y103.097 E0.03701
G1 X129.499 Y103.461 E0.01099
G1 X128.639 Y104.321 E0.02602
G1 X129.366 Y104.321 E0.01554
G1 X129.863 Y103.824 E0.01503
G1 X129.955 Y103.916 E0.00277
G1 X130.780 Y103.090 E0.02496
G1 X131.052 Y103.362 E0.00822
G1 X130.093 Y104.321 E0.02900
G1 X130.820 Y104.321 E0.01554
G1 X131.416 Y103.726 E0.01801
G1 X131.779 Y104.089 E0.01099
G1 X131.431 Y104.437 E0.01052
M204 S1000
;WIPE_START
G1 F8640.000
G1 X131.779 Y104.089 E-0.11361
G1 X131.416 Y103.726 E-0.11872
G1 X130.820 Y104.321 E-0.19456
G1 X130.093 Y104.321 E-0.16790
G1 X131.052 Y103.362 E-0.31328
G1 X130.780 Y103.090 E-0.08879
G1 X129.955 Y103.916 E-0.26965
G1 X129.863 Y103.824 E-0.02994
G1 X129.760 Y103.927 E-0.03357
;WIPE_END
G1 E-0.07000 F2100.000
G1 Z0.400 F10800.000
G1 X133.613 Y106.619
G1 Z0.200
G1 E1.40000 F2100.000
M204 S500
G1 F1200.000
G1 X133.961 Y106.271 E0.01052
G1 X134.324 Y106.634 E0.01099
G1 X133.729 Y107.230 E0.01801
G1 X133.729 Y107.957 E0.01554
G1 X134.688 Y106.998 E0.02900
G1 X135.051 Y107.361 E0.01099
G1 X133.729 Y108.684 E0.03999
G1 X133.729 Y109.411 E0.01554
G1 X135.271 Y107.869 E0.04664
G1 X135.271 Y108.596 E0.01554
G1 X133.729 Y110.139 E0.04664
G1 X133.729 Y110.866 E0.01554
G1 X135.271 Y109.323 E0.04664
G1 X135.271 Y110.050 E0.01554
G1 X133.729 Y111.593 E0.04664
G1 X133.729 Y112.320 E0.01554
G1 X135.271 Y110.777 E0.04664
G1 X135.271 Y111.504 E0.01554
G1 X133.729 Y113.047 E0.04664
G1 X133.729 Y113.774 E0.01554
G1 X135.271 Y112.231 E0.04664
G1 X135.271 Y112.958 E0.01554
G1 X133.729 Y114.501 E0.04664
G1 X133.729 Y115.228 E0.01554
G1 X135.271 Y113.686 E0.04664
G1 X135.271 Y114.413 E0.01554
G1 X133.729 Y115.956 E0.04664
G1 X133.729 Y116.683 E0.01554
G1 X135.271 Y115.140 E0.04664
G1 X135.271 Y115.867 E0.01554
G1 X133.729 Y117.410 E0.04664
G1 X133.729 Y118.137 E0.01554
G1 X135.271 Y116.594 E0.04664
G1 X135.271 Y117.321 E0.01554
G1 X133.729 Y118.864 E0.04664
G1 X133.729 Y119.591 E0.01554
G1 X135.271 Y118.048 E0.04664
G1 X135.271 Y118.776 E0.01554
G1 X133.729 Y120.318 E0.04664
G1 X133.729 Y121.045 E0.01554
G1 X135.271 Y119.503 E0.04664
G1 X135.271 Y120.230 E0.01554
G1 X132.180 Y123.321 E0.09346
G1 X132.907 Y123.321 E0.01554
G1 X135.271 Y120.957 E0.07148
G1 X135.271 Y121.684 E0.01554
G1 X133.634 Y123.321 E0.04950
G1 X134.361 Y123.321 E0.01554
G1 X135.271 Y122.411 E0.02752
G1 X135.271 Y123.138 E0.01554
G1 X134.973 Y123.437 E0.00903
M204 S1000
G1 X131.337 Y123.437 F10800.000
M204 S500
G1 F1200.000
G1 X132.995 Y121.779 E0.05014
G1 X132.268 Y121.779 E0.01554
G1 X130.726 Y123.321 E0.04664
G1 X129.998 Y123.321 E0.01554
G1 X131.541 Y121.779 E0.04664
G1 X130.814 Y121.779 E0.01554
G1 X129.271 Y123.321 E0.04664
G1 X128.544 Y123.321 E0.01554
G1 X130.087 Y121.779 E0.04664
G1 X129.360 Y121.779 E0.01554
G1 X127.817 Y123.321 E0.04664
G1 X127.090 Y123.321 E0.01554
G1 X128.633 Y121.779 E0.04664
G1 X127.906 Y121.779 E0.01554
G1 X126.363 Y123.321 E0.04664
G1 X125.636 Y123.321 E0.01554
G1 X127.178 Y121.779 E0.04664
G1 X126.451 Y121.779 E0.01554
G1 X124.908 Y123.321 E0.04664
G1 X124.181 Y123.321 E0.01554
G1 X125.724 Y121.779 E0.04664
G1 X124.997 Y121.779 E0.01554
G1 X123.454 Y123.321 E0.04664
G1 X122.727 Y123.321 E0.01554
G1 X124.270 Y121.779 E0.04664
G1 X123.543 Y121.779 E0.01554
G1 X122.000 Y123.321 E0.04664
G1 X121.273 Y123.321 E0.01554
G1 X122.816 Y121.779 E0.04664
G1 X122.089 Y121.779 E0.01554
G1 X120.546 Y123.321 E0.04664
G1 X119.819 Y123.321 E0.01554
G1 X121.361 Y121.779 E0.04664
G1 X120.634 Y121.779 E0.01554
G1 X119.091 Y123.321 E0.04664
G1 X118.364 Y123.321 E0.01554
G1 X119.907 Y121.779 E0.04664
G1 X119.180 Y121.779 E0.01554
G1 X117.637 Y123.321 E0.04664
G1 X116.910 Y123.321 E0.01554
G1 X118.453 Y121.779 E0.04664
G1 X117.726 Y121.779 E0.01554
G1 X116.183 Y123.321 E0.04664
G1 X115.456 Y123.321 E0.01554
G1 X116.999 Y121.779 E0.04664
G1 X116.405 Y121.779 E0.01268
G1 X116.338 Y121.712 E0.00202
G1 X114.729 Y123.321 E0.04866
G1 X114.729 Y122.594 E0.01554
G1 X116.271 Y121.051 E0.04664
G1 X116.271 Y120.324 E0.01554
G1 X114.729 Y121.867 E0.04664
G1 X114.729 Y121.140 E0.01554
G1 X116.271 Y119.597 E0.04664
G1 X116.271 Y118.870 E0.01554
G1 X114.729 Y120.413 E0.04664
G1 X114.729 Y119.686 E0.01554
G1 X116.271 Y118.143 E0.04664
G1 X116.271 Y117.416 E0.01554
G1 X114.729 Y118.959 E0.04664
G1 X114.729 Y118.231 E0.01554
G1 X116.271 Y116.689 E0.04664
G1 X116.271 Y115.961 E0.01554
G1 X114.729 Y117.504 E0.04664
G1 X114.729 Y116.777 E0.01554
G1 X116.271 Y115.234 E0.04664
G1 X116.271 Y114.507 E0.01554
G1 X114.729 Y116.050 E0.04664
G1 X114.729 Y115.323 E0.01554
G1 X116.271 Y113.780 E0.04664
G1 X116.271 Y113.053 E0.01554
G1 X114.729 Y114.596 E0.04664
M73 Q2 S32
G1 X114.729 Y113.869 E0.01554
G1 X116.271 Y112.326 E0.04664
M73 P2 R32
G1 X116.271 Y111.599 E0.01554
G1 X114.729 Y113.142 E0.04664
G1 X114.729 Y112.414 E0.01554
G1 X116.271 Y110.872 E0.04664
G1 X116.271 Y110.144 E0.01554
G1 X114.729 Y111.687 E0.04664
G1 X114.729 Y110.960 E0.01554
G1 X116.271 Y109.417 E0.04664
G1 X116.271 Y108.690 E0.01554
G1 X114.715 Y110.247 E0.04706
G1 X114.351 Y109.883 E0.01099
G1 X116.271 Y107.963 E0.05806
G1 X116.271 Y107.236 E0.01554
G1 X114.813 Y108.694 E0.04408
G1 X114.450 Y108.331 E0.01099
G1 X116.387 Y106.393 E0.05857
M204 S1000
;WIPE_START
G1 F8640.000
G1 X114.450 Y108.331 E-0.63268
G1 X114.813 Y108.694 E-0.11872
G1 X116.271 Y107.236 E-0.47618
G1 X116.271 Y107.680 E-0.10243
;WIPE_END
G1 E-0.07000 F2100.000
G1 Z0.400 F10800.000
G1 X117.845 Y105.663
G1 Z0.200
G1 E1.40000 F2100.000
M204 S500
G1 F1200.000
G1 X117.729 Y105.779 E0.00351
G1 X117.729 Y106.506 E0.01554
G1 X118.456 Y105.779 E0.02199
G1 X119.183 Y105.779 E0.01554
G1 X117.729 Y107.233 E0.04397
G1 X117.729 Y107.960 E0.01554
G1 X119.910 Y105.779 E0.06595
G1 X120.637 Y105.779 E0.01554
G1 X117.729 Y108.687 E0.08794
G1 X117.729 Y109.415 E0.01554
G1 X121.365 Y105.779 E0.10992
G1 X122.092 Y105.779 E0.01554
G1 X117.729 Y110.142 E0.13190
G1 X117.729 Y110.869 E0.01554
G1 X122.819 Y105.779 E0.15388
G1 X123.546 Y105.779 E0.01554
G1 X117.729 Y111.596 E0.17586
G1 X117.729 Y112.323 E0.01554
G1 X124.273 Y105.779 E0.19784
G1 X125.000 Y105.779 E0.01554
G1 X117.729 Y113.050 E0.21983
G1 X117.729 Y113.777 E0.01554
G1 X125.727 Y105.779 E0.24181
G1 X126.454 Y105.779 E0.01554
G1 X117.729 Y114.504 E0.26379
G1 X117.729 Y115.232 E0.01554
G1 X127.182 Y105.779 E0.28577
G1 X127.909 Y105.779 E0.01554
G1 X117.729 Y115.959 E0.30775
G1 X117.729 Y116.686 E0.01554
G1 X128.636 Y105.779 E0.32973
G1 X129.363 Y105.779 E0.01554
G1 X117.729 Y117.413 E0.35171
G1 X117.729 Y118.140 E0.01554
G1 X130.090 Y105.779 E0.37370
M73 P2 R31
G1 X130.817 Y105.779 E0.01554
G1 X117.729 Y118.867 E0.39568
G1 X117.729 Y119.594 E0.01554
G1 X131.544 Y105.779 E0.41766
G1 X132.271 Y105.779 E0.01554
G1 X117.729 Y120.321 E0.43964
G1 X118.456 Y120.321 E0.01554
G1 X132.271 Y106.506 E0.41766
M73 Q2 S31
G1 X132.271 Y107.233 E0.01554
G1 X119.183 Y120.321 E0.39568
G1 X119.910 Y120.321 E0.01554
G1 X132.271 Y107.960 E0.37370
G1 X132.271 Y108.687 E0.01554
G1 X120.637 Y120.321 E0.35171
G1 X121.364 Y120.321 E0.01554
G1 X132.271 Y109.414 E0.32973
G1 X132.271 Y110.141 E0.01554
G1 X122.091 Y120.321 E0.30775
M73 Q3 S31
G1 X122.818 Y120.321 E0.01554
G1 X132.271 Y110.868 E0.28577
M73 P3 R31
G1 X132.271 Y111.596 E0.01554
G1 X123.546 Y120.321 E0.26379
G1 X124.273 Y120.321 E0.01554
G1 X132.271 Y112.323 E0.24181
G1 X132.271 Y113.050 E0.01554
G1 X125.000 Y120.321 E0.21983
G1 X125.727 Y120.321 E0.01554
G1 X132.271 Y113.777 E0.19784
G1 X132.271 Y114.504 E0.01554
G1 X126.454 Y120.321 E0.17586
G1 X127.181 Y120.321 E0.01554
G1 X132.271 Y115.231 E0.15388
G1 X132.271 Y115.958 E0.01554
G1 X127.908 Y120.321 E0.13190
G1 X128.635 Y120.321 E0.01554
G1 X132.271 Y116.685 E0.10992
G1 X132.271 Y117.413 E0.01554
G1 X129.363 Y120.321 E0.08794
G1 X130.090 Y120.321 E0.01554
G1 X132.271 Y118.140 E0.06595
G1 X132.271 Y118.867 E0.01554
G1 X130.817 Y120.321 E0.04397
G1 X131.544 Y120.321 E0.01554
G1 X132.271 Y119.594 E0.02199
G1 X132.271 Y120.321 E0.01554
G1 X132.155 Y120.437 E0.00351
M204 S1000
;WIPE_START
G1 F8640.000
G1 X132.271 Y120.321 E-0.03788
G1 X132.271 Y119.594 E-0.16790
G1 X131.544 Y120.321 E-0.23754
G1 X130.817 Y120.321 E-0.16790
G1 X132.271 Y118.867 E-0.47498
G1 X132.271 Y118.140 E-0.16790
G1 X132.039 Y118.372 E-0.07591
;WIPE_END
G1 E-0.07000 F2100.000
G1 Z0.400 F10800.000
G1 X117.093 Y105.143
G1 Z0.200
G1 E1.40000 F2100.000
M204 S500
;TYPE:Perimeter
G1 F1200.000
G1 X132.907 Y105.143 E0.33805
G1 X132.907 Y120.957 E0.33805
G1 X117.093 Y120.957 E0.33805
G1 X117.093 Y105.180 E0.33725
M204 S1000
G1 X117.350 Y105.400 F10800.000
M204 S500
;TYPE:External perimeter
G1 F1200.000
G1 X132.650 Y105.400 E0.32706
G1 X132.650 Y120.700 E0.32706
G1 X117.350 Y120.700 E0.32706
G1 X117.350 Y105.438 E0.32626
M204 S1000
G1 X117.285 Y105.159 F10800.000
G1 X116.907 Y104.957
M204 S500
;TYPE:Perimeter
G1 F1200.000
G1 X133.093 Y104.957 E0.34599
G1 X133.093 Y121.143 E0.34599
G1 X116.907 Y121.143 E0.34599
G1 X116.907 Y104.995 E0.34519
M204 S1000
G1 X116.650 Y104.700 F10800.000
M204 S500
;TYPE:External perimeter
G1 F1200.000
G1 X133.350 Y104.700 E0.35698
G1 X133.350 Y121.400 E0.35698
G1 X116.650 Y121.400 E0.35698
G1 X116.650 Y104.737 E0.35618
M204 S1000
G1 X116.891 Y104.765 F10800.000
;WIPE_START
G1 F8640.000
G1 X122.410 Y104.725 E-1.33000
;WIPE_END
M73 Q4 S31
G1 E-0.07000 F2100.000
G1 Z0.400 F10800.000
M73 P4 R31
G1 X126.984 Y100.029
G1 Z0.200
G1 E1.40000 F2100.000
M204 S500
;TYPE:Support material
G1 F1200.000
G1 X133.041 Y93.972 E0.18308
G1 X132.308 Y93.978 E0.01566
G1 X126.703 Y99.583 E0.16946
G1 X126.339 Y99.220 E0.01099
G1 X131.581 Y93.978 E0.15847
G1 X130.854 Y93.978 E0.01554
G1 X125.150 Y99.682 E0.17244
G1 X124.786 Y99.318 E0.01099
G1 X130.127 Y93.978 E0.16145
G1 X129.400 Y93.978 E0.01554
G1 X123.597 Y99.781 E0.17542
G1 X123.233 Y99.417 E0.01099
G1 X128.672 Y93.978 E0.16443
G1 X127.945 Y93.978 E0.01554
G1 X122.044 Y99.879 E0.17840
G1 X121.680 Y99.516 E0.01099
G1 X127.218 Y93.978 E0.16741
G1 X126.491 Y93.978 E0.01554
G1 X120.491 Y99.978 E0.18138
G1 X120.127 Y99.614 E0.01099
G1 X125.764 Y93.978 E0.17039
G1 X125.037 Y93.978 E0.01554
G1 X119.764 Y99.251 E0.15940
G1 X119.672 Y99.159 E0.00277
G1 X118.846 Y99.985 E0.02496
G1 X118.575 Y99.713 E0.00822
G1 X124.310 Y93.978 E0.17338
G1 X123.583 Y93.978 E0.01554
G1 X118.211 Y99.349 E0.16238
G1 X118.021 Y99.159 E0.00575
G1 X117.195 Y99.985 E0.02496
G1 X117.022 Y99.812 E0.00524
G1 X122.855 Y93.978 E0.17636
G1 X122.128 Y93.978 E0.01554
G1 X116.658 Y99.448 E0.16537
G1 X116.295 Y99.084 E0.01099
G1 X121.401 Y93.978 E0.15438
G1 X120.674 Y93.978 E0.01554
G1 X115.931 Y98.721 E0.14339
G1 X115.567 Y98.357 E0.01099
G1 X119.947 Y93.978 E0.13239
G1 X119.220 Y93.978 E0.01554
G1 X115.204 Y97.994 E0.12140
G1 X114.840 Y97.630 E0.01099
G1 X118.493 Y93.978 E0.11041
G1 X117.949 Y93.978 E0.01162
G1 X117.785 Y93.958 E0.00353
G1 X114.477 Y97.267 E0.10001
G1 X114.113 Y96.903 E0.01099
G1 X117.353 Y93.663 E0.09794
G1 X117.244 Y93.417 E0.00576
G1 X117.224 Y93.065 E0.00753
G1 X113.750 Y96.539 E0.10503
G1 X113.386 Y96.176 E0.01099
G1 X117.224 Y92.338 E0.11603
G1 X117.224 Y91.611 E0.01554
G1 X113.022 Y95.812 E0.12702
G1 X112.659 Y95.449 E0.01099
G1 X117.224 Y90.884 E0.13801
G1 X117.224 Y90.157 E0.01554
G1 X112.295 Y95.085 E0.14900
G1 X111.932 Y94.722 E0.01099
G1 X117.224 Y89.429 E0.15999
