; generated by PrusaSlicer 2.3.0+win64 on 2021-06-30 at 19:44:34 UTC

; 

; external perimeters extrusion width = 0.25mm
; perimeters extrusion width = 0.25mm
; infill extrusion width = 0.25mm
; solid infill extrusion width = 0.25mm
; top infill extrusion width = 0.25mm
; support material extrusion width = 0.20mm
; first layer extrusion width = 0.30mm

M73 P0 R191
M73 Q0 S192
M201 X1000 Y1000 Z200 E5000 ; sets maximum accelerations, mm/sec^2
M203 X200 Y200 Z12 E120 ; sets maximum feedrates, mm/sec
M204 P1250 R1250 T1250 ; sets acceleration (P, T) and retract acceleration (R), mm/sec^2
M205 X8.00 Y8.00 Z0.40 E4.50 ; sets the jerk limits, mm/sec
M205 S0 T0 ; sets the minimum extruding and travel feed rate, mm/sec
M107
;TYPE:Custom
M862.3 P "MK3S" ; printer model check
M862.1 P0.25 ; nozzle diameter check
M115 U3.9.1 ; tell printer latest fw version
G90 ; use absolute coordinates
M83 ; extruder relative mode
M104 S215 ; set extruder temp
M140 S60 ; set bed temp
M190 S60 ; wait for bed temp
M109 S215 ; wait for extruder temp
G28 W ; home all without mesh bed level
G80 ; mesh bed leveling
G1 Y-3.0 F1000.0 ; go outside print area
G92 E0.0
G1 X60.0 E8.0 F700.0 ; intro line
G1 X100.0 E12.5 F700.0 ; intro line
G92 E0.0
M221 S95

; Don't change E value below. Excessive value can damage the printer.
M907 E430 ; set extruder motor current
G21 ; set units to millimeters
G90 ; use absolute coordinates
M83 ; use relative distances for extrusion
M900 K0.05 ; Filament gcode LA 1.5
M900 K30 ; Filament gcode LA 1.0
;LAYER_CHANGE
;Z:0.2
;HEIGHT:0.2
;BEFORE_LAYER_CHANGE
G92 E0.0
;0.2


G1 E-0.80000 F2100.000
G1 Z0.150 F10800.000
G1 Z0.200
;AFTER_LAYER_CHANGE
;0.2
G1 Z0.350
G1 X77.518 Y84.803
G1 Z0.200
G1 E0.80000 F2100.000
M204 S500
;TYPE:Skirt
;WIDTH:0.3
G1 F1200.000
G1 X80.060 Y80.396 E0.10874
G1 X80.414 Y79.944 E0.01226
G1 X105.229 Y57.457 E0.71586
G1 X105.796 Y57.177 E0.01352
G1 X106.419 Y57.066 E0.01352
G1 X118.221 Y56.988 E0.25229
G1 X121.150 Y57.280 E0.06292
G1 X144.566 Y60.537 E0.50538
M73 Q0 S191
G1 X145.017 Y60.746 E0.01061
G1 X145.413 Y61.051 E0.01069
G1 X153.025 Y68.674 E0.23028
G1 X176.132 Y101.013 E0.84963
G1 X176.386 Y101.478 E0.01132
G1 X176.550 Y102.303 E0.01798
G1 X176.550 Y120.788 E0.39515
G1 X176.471 Y125.526 E0.10128
G1 X176.295 Y126.303 E0.01705
G1 X175.833 Y126.998 E0.01783
G1 X167.805 Y135.001 E0.24231
G1 X144.703 Y151.176 E0.60285
G1 X143.916 Y151.522 E0.01837
G1 X143.427 Y151.578 E0.01053
G1 X129.308 Y151.570 E0.30180
G1 X80.227 Y148.423 E1.05133
G1 X79.497 Y148.249 E0.01603
G1 X78.993 Y147.953 E0.01250
G1 X78.582 Y147.537 E0.01250
G1 X78.291 Y147.030 E0.01250
G1 X78.141 Y146.465 E0.01250
G1 X77.340 Y131.754 E0.31493
G1 X77.339 Y85.677 E0.98496
G1 X77.511 Y84.839 E0.01827
M204 S1000
;WIPE_START
G1 F8640.000
G1 X79.149 Y81.984 E-0.76000
;WIPE_END
G1 E-0.04000 F2100.000
G1 Z0.350 F10800.000
G1 X144.701 Y102.481
G1 Z0.200
G1 E0.80000 F2100.000
M204 S500
;TYPE:Support material
G1 F1200.000
G1 X152.501 Y94.681 E0.23577
G1 X152.864 Y95.045 E0.01099
G1 X145.147 Y102.762 E0.23330
G1 X145.510 Y103.126 E0.01099
G1 X153.228 Y95.408 E0.23330
G1 X153.591 Y95.772 E0.01099
G1 X145.874 Y103.489 E0.23330
G1 X145.886 Y103.502 E0.00037
G1 X144.707 Y104.681 E0.03565
G1 X145.058 Y105.032 E0.01062
G1 X155.134 Y94.956 E0.30460
G1 X155.498 Y95.320 E0.01099
G1 X145.422 Y105.396 E0.30460
G1 X145.785 Y105.759 E0.01099
G1 X155.861 Y95.683 E0.30460
G1 X155.962 Y95.784 E0.00305
G1 X157.141 Y94.605 E0.03565
G1 X157.404 Y94.868 E0.00795
G1 X144.888 Y107.384 E0.37838
M204 S1000
;WIPE_START
G1 F8640.000
G1 X147.215 Y105.057 E-0.76000
;WIPE_END
G1 E-0.04000 F2100.000
G1 Z0.350 F10800.000
G1 X153.007 Y102.173
M73 P0 R190
G1 Z0.200
G1 E0.80000 F2100.000
M204 S500
G1 F1200.000
G1 X152.479 Y102.702 E0.01599
G1 X152.479 Y103.429 E0.01554
G1 X153.619 Y102.289 E0.03447
G1 X154.346 Y102.289 E0.01554
G1 X152.479 Y104.156 E0.05645
G1 X152.479 Y104.883 E0.01554
G1 X155.073 Y102.289 E0.07843
G1 X155.800 Y102.289 E0.01554
G1 X152.479 Y105.610 E0.10041
G1 X152.479 Y106.337 E0.01554
G1 X156.527 Y102.289 E0.12240
G1 X157.254 Y102.289 E0.01554
G1 X152.479 Y107.065 E0.14438
G1 X152.479 Y107.792 E0.01554
G1 X157.982 Y102.289 E0.16636
G1 X158.709 Y102.289 E0.01554
G1 X152.479 Y108.519 E0.18834
G1 X152.479 Y109.246 E0.01554
G1 X159.436 Y102.289 E0.21032
G1 X160.163 Y102.289 E0.01554
G1 X153.020 Y109.432 E0.21593
G1 X153.747 Y109.432 E0.01554
G1 X160.890 Y102.289 E0.21593
G1 X161.617 Y102.289 E0.01554
G1 X154.474 Y109.432 E0.21593
G1 X155.201 Y109.432 E0.01554
G1 X162.344 Y102.289 E0.21593
G1 X163.071 Y102.289 E0.01554
G1 X155.929 Y109.432 E0.21593
G1 X156.656 Y109.432 E0.01554
G1 X163.799 Y102.289 E0.21593
G1 X164.526 Y102.289 E0.01554
G1 X157.383 Y109.432 E0.21593
G1 X158.110 Y109.432 E0.01554
G1 X165.253 Y102.289 E0.21593
G1 X165.980 Y102.289 E0.01554
G1 X158.837 Y109.432 E0.21593
G1 X159.564 Y109.432 E0.01554
G1 X166.521 Y102.474 E0.21032
G1 X166.521 Y103.202 E0.01554
G1 X160.291 Y109.432 E0.18834
G1 X161.018 Y109.432 E0.01554
G1 X166.521 Y103.929 E0.16636
G1 X166.521 Y104.656 E0.01554
G1 X161.746 Y109.432 E0.14438
G1 X162.473 Y109.432 E0.01554
G1 X166.521 Y105.383 E0.12240
G1 X166.521 Y106.110 E0.01554
G1 X163.200 Y109.432 E0.10041
G1 X163.927 Y109.432 E0.01554
G1 X166.521 Y106.837 E0.07843
G1 X166.521 Y107.564 E0.01554
G1 X164.654 Y109.432 E0.05645
G1 X165.381 Y109.432 E0.01554
G1 X166.521 Y108.291 E0.03447
G1 X166.521 Y109.019 E0.01554
G1 X165.993 Y109.547 E0.01599
M204 S1000
;WIPE_START
G1 F8640.000
G1 X166.521 Y109.019 E-0.17267
G1 X166.521 Y108.291 E-0.16790
G1 X165.381 Y109.432 E-0.37233
G1 X165.177 Y109.432 E-0.04710
;WIPE_END
G1 E-0.04000 F2100.000
G1 Z0.350 F10800.000
G1 X166.418 Y117.121
G1 Z0.200
G1 E0.80000 F2100.000
M204 S500
G1 F1200.000
G1 X174.217 Y109.322 E0.23577
G1 X173.853 Y108.958 E0.01099
G1 X166.136 Y116.675 E0.23330
G1 X165.772 Y116.312 E0.01099
G1 X173.490 Y108.595 E0.23330
G1 X173.126 Y108.231 E0.01099
G1 X165.409 Y115.948 E0.23330
G1 X165.397 Y115.936 E0.00037
G1 X164.217 Y117.115 E0.03565
G1 X163.866 Y116.764 E0.01062
G1 X173.942 Y106.688 E0.30460
G1 X173.578 Y106.325 E0.01099
G1 X163.502 Y116.401 E0.30460
G1 X163.139 Y116.037 E0.01099
G1 X173.215 Y105.961 E0.30460
G1 X173.114 Y105.860 E0.00305
G1 X174.293 Y104.681 E0.03565
G1 X174.030 Y104.418 E0.00794
G1 X161.596 Y116.853 E0.37591
G1 X161.232 Y116.489 E0.01099
G1 X166.933 Y110.789 E0.17233
G1 X166.206 Y110.789 E0.01554
G1 X160.869 Y116.126 E0.16134
G1 X160.679 Y115.936 E0.00573
G1 X159.500 Y117.115 E0.03565
G1 X159.326 Y116.941 E0.00527
G1 X165.478 Y110.789 E0.18600
G1 X164.751 Y110.789 E0.01554
G1 X158.962 Y116.578 E0.17501
G1 X158.599 Y116.214 E0.01099
G1 X164.024 Y110.789 E0.16401
G1 X163.297 Y110.789 E0.01554
G1 X157.056 Y117.030 E0.18868
G1 X156.692 Y116.666 E0.01099
G1 X162.570 Y110.789 E0.17768
G1 X161.843 Y110.789 E0.01554
G1 X156.329 Y116.303 E0.16669
G1 X155.965 Y115.939 E0.01099
G1 X161.116 Y110.789 E0.15570
G1 X160.389 Y110.789 E0.01554
G1 X154.422 Y116.755 E0.18036
G1 X154.059 Y116.391 E0.01099
G1 X159.661 Y110.789 E0.16937
G1 X158.934 Y110.789 E0.01554
G1 X153.695 Y116.028 E0.15838
G1 X153.603 Y115.936 E0.00277
G1 X152.424 Y117.115 E0.03565
G1 X152.152 Y116.844 E0.00822
G1 X158.207 Y110.789 E0.18304
G1 X157.480 Y110.789 E0.01554
G1 X151.789 Y116.480 E0.17205
G1 X151.425 Y116.116 E0.01099
G1 X156.753 Y110.789 E0.16106
G1 X156.026 Y110.789 E0.01554
G1 X151.062 Y115.753 E0.15007
G1 X150.698 Y115.389 E0.01099
G1 X155.299 Y110.789 E0.13908
G1 X154.571 Y110.789 E0.01554
G1 X150.334 Y115.026 E0.12809
G1 X149.971 Y114.662 E0.01099
G1 X153.844 Y110.789 E0.11710
G1 X153.117 Y110.789 E0.01554
G1 X149.607 Y114.299 E0.10611
G1 X149.244 Y113.935 E0.01099
G1 X152.390 Y110.789 E0.09512
G1 X151.905 Y110.784 E0.01036
G1 X151.712 Y110.740 E0.00424
G1 X148.880 Y113.572 E0.08561
G1 X148.517 Y113.208 E0.01099
G1 X151.293 Y110.431 E0.08394
G1 X151.217 Y110.308 E0.00309
G1 X151.150 Y110.132 E0.00404
G1 X151.121 Y109.876 E0.00550
G1 X148.153 Y112.844 E0.08974
G1 X147.789 Y112.481 E0.01099
G1 X151.121 Y109.149 E0.10073
G1 X151.121 Y108.422 E0.01554
G1 X147.426 Y112.117 E0.11172
G1 X147.062 Y111.754 E0.01099
G1 X151.121 Y107.695 E0.12271
G1 X151.121 Y106.967 E0.01554
G1 X146.699 Y111.390 E0.13370
G1 X146.335 Y111.027 E0.01099
G1 X151.121 Y106.240 E0.14469
G1 X151.121 Y105.513 E0.01554
G1 X145.972 Y110.663 E0.15568
G1 X145.608 Y110.299 E0.01099
G1 X151.121 Y104.786 E0.16667
G1 X151.121 Y104.059 E0.01554
G1 X145.244 Y109.936 E0.17766
G1 X144.881 Y109.572 E0.01099
G1 X151.121 Y103.332 E0.18866
G1 X151.121 Y102.605 E0.01554
G1 X145.697 Y108.029 E0.16399
G1 X145.333 Y107.666 E0.01099
G1 X151.121 Y101.878 E0.17499
G1 X151.129 Y101.693 E0.00395
G1 X151.174 Y101.509 E0.00404
G1 X151.270 Y101.321 E0.00453
G1 X151.362 Y101.207 E0.00313
G1 X151.510 Y101.081 E0.00416
G1 X151.678 Y100.993 E0.00404
G1 X151.883 Y100.939 E0.00453
G1 X152.067 Y100.932 E0.00395
G1 X157.768 Y95.231 E0.17233
G1 X158.131 Y95.595 E0.01099
G1 X152.794 Y100.932 E0.16134
G1 X153.522 Y100.932 E0.01554
G1 X159.674 Y94.779 E0.18600
G1 X160.038 Y95.143 E0.01099
G1 X154.249 Y100.932 E0.17501
G1 X154.976 Y100.932 E0.01554
G1 X160.401 Y95.506 E0.16402
G1 X160.679 Y95.784 E0.00840
G1 X161.859 Y94.605 E0.03565
G1 X161.944 Y94.690 E0.00259
G1 X155.703 Y100.932 E0.18868
G1 X156.430 Y100.932 E0.01554
G1 X162.308 Y95.054 E0.17769
G1 X162.671 Y95.418 E0.01099
G1 X157.157 Y100.932 E0.16669
G1 X157.884 Y100.932 E0.01554
G1 X164.217 Y94.605 E0.19136
G1 X164.578 Y94.965 E0.01090
G1 X158.611 Y100.932 E0.18036
G1 X159.339 Y100.932 E0.01554
G1 X164.941 Y95.329 E0.16937
G1 X165.305 Y95.692 E0.01099
G1 X160.066 Y100.932 E0.15838
G1 X160.793 Y100.932 E0.01554
G1 X166.848 Y94.877 E0.18304
G1 X167.211 Y95.240 E0.01099
G1 X161.520 Y100.932 E0.17205
G1 X162.247 Y100.932 E0.01554
G1 X167.575 Y95.604 E0.16106
G1 X167.939 Y95.967 E0.01099
G1 X162.974 Y100.932 E0.15007
G1 X163.701 Y100.932 E0.01554
G1 X168.302 Y96.331 E0.13908
G1 X168.666 Y96.695 E0.01099
G1 X164.429 Y100.932 E0.12809
G1 X165.156 Y100.932 E0.01554
G1 X169.029 Y97.058 E0.11710
G1 X169.393 Y97.422 E0.01099
G1 X165.883 Y100.932 E0.10611
M73 Q0 S190
G1 X166.610 Y100.932 E0.01554
G1 X169.756 Y97.785 E0.09512
G1 X170.120 Y98.149 E0.01099
G1 X167.288 Y100.981 E0.08561
G1 X167.509 Y101.094 E0.00530
G1 X167.707 Y101.289 E0.00595
G1 X170.483 Y98.512 E0.08394
G1 X170.847 Y98.876 E0.01099
G1 X167.879 Y101.844 E0.08974
G1 X167.879 Y102.572 E0.01554
G1 X171.211 Y99.240 E0.10073
G1 X171.574 Y99.603 E0.01099
G1 X167.879 Y103.299 E0.11172
G1 X167.879 Y104.026 E0.01554
G1 X171.938 Y99.967 E0.12271
G1 X172.301 Y100.330 E0.01099
G1 X167.879 Y104.753 E0.13370
G1 X167.879 Y105.480 E0.01554
G1 X172.665 Y100.694 E0.14469
G1 X173.028 Y101.057 E0.01099
G1 X167.879 Y106.207 E0.15568
G1 X167.879 Y106.934 E0.01554
G1 X173.392 Y101.421 E0.16667
G1 X173.756 Y101.784 E0.01099
G1 X167.879 Y107.661 E0.17767
G1 X167.879 Y108.389 E0.01554
G1 X174.119 Y102.148 E0.18866
G1 X174.293 Y102.322 E0.00527
G1 X173.114 Y103.502 E0.03565
G1 X173.303 Y103.691 E0.00573
G1 X167.879 Y109.116 E0.16400
G1 X167.879 Y109.843 E0.01554
G1 X173.749 Y103.973 E0.17746
M204 S1000
;WIPE_START
G1 F8640.000
G1 X171.421 Y106.300 E-0.76000
;WIPE_END
G1 E-0.04000 F2100.000
G1 Z0.350 F10800.000
G1 X151.950 Y101.760
G1 Z0.200
G1 E0.80000 F2100.000
M204 S500
;TYPE:External perimeter
G1 F1200.000
G1 X167.050 Y101.760 E0.32278
G1 X167.050 Y109.960 E0.17529
G1 X151.950 Y109.960 E0.32278
G1 X151.950 Y101.798 E0.17448
M204 S1000
G1 X151.862 Y101.526 F10800.000
G1 X151.769 Y101.549
M204 S500
G1 F1200.000
G1 X151.917 Y101.471 E0.00357
G1 X152.009 Y101.460 E0.00199
G1 X166.997 Y101.461 E0.32038
G1 X167.158 Y101.500 E0.00354
G1 X167.260 Y101.580 E0.00278
G1 X167.325 Y101.687 E0.00268
G1 X167.350 Y101.824 E0.00297
G1 X167.350 Y109.897 E0.17256
G1 X167.324 Y110.038 E0.00307
G1 X167.287 Y110.108 E0.00170
G1 X167.162 Y110.219 E0.00357
G1 X166.991 Y110.260 E0.00376
G1 X152.009 Y110.260 E0.32026
G1 X151.838 Y110.219 E0.00376
G1 X151.772 Y110.174 E0.00170
G1 X151.689 Y110.068 E0.00288
G1 X151.650 Y109.901 E0.00367
G1 X151.650 Y101.820 E0.17275
G1 X151.662 Y101.726 E0.00202
G1 X151.744 Y101.577 E0.00364
M204 S1000
G1 X151.926 Y101.605 F10800.000
G1 X151.805 Y101.758
M204 S500
;TYPE:Gap fill
;WIDTH:0.0858404
G1 F1200.000
G1 X151.805 Y109.967 E0.02930
M204 S1000
G1 X151.943 Y110.106 F10800.000
M204 S500
;WIDTH:0.0858424
G1 F1200.000
G1 X167.057 Y110.106 E0.05394
M204 S1000
G1 X167.195 Y109.939 F10800.000
M204 S500
;WIDTH:0.0858403
G1 F1200.000
G1 X167.195 Y101.781 E0.02911
M204 S1000
G1 X167.058 Y101.615 F10800.000
M204 S500
;WIDTH:0.0854763
G1 F1200.000
G1 X151.943 Y101.615 E0.05349
M204 S1000
;WIPE_START
G1 F8640.000
G1 X155.234 Y101.615 E-0.76000
;WIPE_END
G1 E-0.04000 F2100.000
G1 Z0.350 F10800.000
G1 X153.007 Y118.273
G1 Z0.200
G1 E0.80000 F2100.000
M204 S500
;TYPE:Support material
;WIDTH:0.3
G1 F1200.000
G1 X152.479 Y118.802 E0.01599
G1 X152.479 Y119.529 E0.01554
G1 X153.619 Y118.389 E0.03447
G1 X154.346 Y118.389 E0.01554
G1 X152.479 Y120.256 E0.05645
G1 X152.479 Y120.983 E0.01554
G1 X155.073 Y118.389 E0.07843
G1 X155.800 Y118.389 E0.01554
G1 X152.479 Y121.710 E0.10041
G1 X152.479 Y122.437 E0.01554
G1 X156.527 Y118.389 E0.12240
G1 X157.254 Y118.389 E0.01554
G1 X152.479 Y123.165 E0.14438
G1 X152.479 Y123.892 E0.01554
G1 X157.982 Y118.389 E0.16636
G1 X158.709 Y118.389 E0.01554
G1 X152.479 Y124.619 E0.18834
G1 X152.479 Y125.346 E0.01554
G1 X159.436 Y118.389 E0.21032
G1 X160.163 Y118.389 E0.01554
G1 X153.020 Y125.532 E0.21593
G1 X153.747 Y125.532 E0.01554
G1 X160.890 Y118.389 E0.21593
G1 X161.617 Y118.389 E0.01554
G1 X154.474 Y125.532 E0.21593
G1 X155.201 Y125.532 E0.01554
G1 X162.344 Y118.389 E0.21593
G1 X163.071 Y118.389 E0.01554
G1 X155.929 Y125.532 E0.21593
M73 P0 R189
G1 X156.656 Y125.532 E0.01554
G1 X163.799 Y118.389 E0.21593
G1 X164.526 Y118.389 E0.01554
G1 X157.383 Y125.532 E0.21593
G1 X158.110 Y125.532 E0.01554
G1 X165.253 Y118.389 E0.21593
G1 X165.980 Y118.389 E0.01554
G1 X158.837 Y125.532 E0.21593
G1 X159.564 Y125.532 E0.01554
G1 X166.521 Y118.574 E0.21032
G1 X166.521 Y119.302 E0.01554
G1 X160.291 Y125.532 E0.18834
G1 X161.018 Y125.532 E0.01554
G1 X166.521 Y120.029 E0.16636
G1 X166.521 Y120.756 E0.01554
G1 X161.746 Y125.532 E0.14438
G1 X162.473 Y125.532 E0.01554
G1 X166.521 Y121.483 E0.12240
G1 X166.521 Y122.210 E0.01554
G1 X163.200 Y125.532 E0.10041
G1 X163.927 Y125.532 E0.01554
G1 X166.521 Y122.937 E0.07843
G1 X166.521 Y123.664 E0.01554
G1 X164.654 Y125.532 E0.05645
G1 X165.381 Y125.532 E0.01554
G1 X166.521 Y124.391 E0.03447
G1 X166.521 Y125.119 E0.01554
G1 X165.993 Y125.647 E0.01599
M204 S1000
;WIPE_START
G1 F8640.000
G1 X166.521 Y125.119 E-0.17267
G1 X166.521 Y124.391 E-0.16790
G1 X165.381 Y125.532 E-0.37233
G1 X165.177 Y125.532 E-0.04710
;WIPE_END
G1 E-0.04000 F2100.000
G1 Z0.350 F10800.000
G1 X166.418 Y133.221
G1 Z0.200
G1 E0.80000 F2100.000
M204 S500
G1 F1200.000
G1 X174.217 Y125.422 E0.23577
G1 X173.853 Y125.058 E0.01099
G1 X166.136 Y132.775 E0.23330
G1 X165.772 Y132.412 E0.01099
G1 X173.490 Y124.695 E0.23330
G1 X173.126 Y124.331 E0.01099
G1 X165.409 Y132.048 E0.23330
G1 X165.397 Y132.036 E0.00037
G1 X164.217 Y133.215 E0.03565
G1 X163.866 Y132.864 E0.01062
G1 X173.942 Y122.788 E0.30460
G1 X173.578 Y122.425 E0.01099
G1 X163.502 Y132.501 E0.30460
G1 X163.139 Y132.137 E0.01099
G1 X173.215 Y122.061 E0.30460
G1 X173.114 Y121.960 E0.00305
G1 X174.293 Y120.781 E0.03565
G1 X174.030 Y120.518 E0.00794
G1 X161.596 Y132.953 E0.37591
G1 X161.232 Y132.589 E0.01099
G1 X166.933 Y126.889 E0.17233
G1 X166.206 Y126.889 E0.01554
G1 X160.869 Y132.226 E0.16134
G1 X160.679 Y132.036 E0.00573
G1 X159.500 Y133.215 E0.03565
G1 X159.326 Y133.041 E0.00527
G1 X165.478 Y126.889 E0.18600
G1 X164.751 Y126.889 E0.01554
G1 X158.962 Y132.678 E0.17501
G1 X158.599 Y132.314 E0.01099
G1 X164.024 Y126.889 E0.16401
G1 X163.297 Y126.889 E0.01554
G1 X157.056 Y133.130 E0.18868
G1 X156.692 Y132.766 E0.01099
G1 X162.570 Y126.889 E0.17768
G1 X161.843 Y126.889 E0.01554
G1 X156.329 Y132.403 E0.16669
G1 X155.965 Y132.039 E0.01099
G1 X161.116 Y126.889 E0.15570
G1 X160.389 Y126.889 E0.01554
