; generated by PrusaSlicer 2.3.0+win64 on 2021-04-15 at 23:24:37 UTC

; 

; external perimeters extrusion width = 0.45mm
; perimeters extrusion width = 0.45mm
; infill extrusion width = 0.45mm
; solid infill extrusion width = 0.45mm
; top infill extrusion width = 0.40mm
; first layer extrusion width = 0.42mm

M73 P0 R86
M73 Q0 S86
M201 X1000 Y1000 Z200 E5000 ; sets maximum accelerations, mm/sec^2
M203 X200 Y200 Z12 E120 ; sets maximum feedrates, mm/sec
M204 P1250 R1250 T1250 ; sets acceleration (P, T) and retract acceleration (R), mm/sec^2
M205 X8.00 Y8.00 Z0.40 E4.50 ; sets the jerk limits, mm/sec
M205 S0 T0 ; sets the minimum extruding and travel feed rate, mm/sec
M107
;TYPE:Custom
M862.3 P "MK3S" ; printer model check
M862.1 P0.4 ; nozzle diameter check
M115 U3.9.1 ; tell printer latest fw version
G90 ; use absolute coordinates
M83 ; extruder relative mode
M104 S230 ; set extruder temp
M140 S85 ; set bed temp
M190 S85 ; wait for bed temp
M109 S230 ; wait for extruder temp
G28 W ; home all without mesh bed level
G80 ; mesh bed leveling
G1 Y-3.0 F1000.0 ; go outside print area
G92 E0.0
G1 X60.0 E9.0 F1000.0 ; intro line
G1 X100.0 E12.5 F1000.0 ; intro line
G92 E0.0
M221 S95

; Don't change E values below. Excessive value can damage the printer.
M907 E430 ; set extruder motor current
G21 ; set units to millimeters
G90 ; use absolute coordinates
M83 ; use relative distances for extrusion
M900 K0.08 ; Filament gcode LA 1.5
M900 K45 ; Filament gcode LA 1.0
;LAYER_CHANGE
;Z:0.2
;HEIGHT:0.2
;BEFORE_LAYER_CHANGE
G92 E0.0
;0.2


G1 E-1.40000 F2100.000
G1 Z0.200 F10800.000
;AFTER_LAYER_CHANGE
;0.2
G1 Z0.400
G1 X108.730 Y91.057
G1 Z0.200
G1 E1.40000 F2100.000
M204 S1000
;TYPE:Skirt
;WIDTH:0.42
G1 F1200.000
G1 X109.998 Y89.706 E0.05808
G1 X112.238 Y87.790 E0.09241
G1 X113.373 Y87.018 E0.04306
G1 X114.997 Y86.057 E0.05917
G1 X116.718 Y85.239 E0.05975
G1 X118.620 Y84.545 E0.06348
G1 X120.887 Y83.971 E0.07332
G1 X123.207 Y83.648 E0.07344
G1 X125.145 Y83.575 E0.06080
G1 X127.852 Y83.765 E0.08510
G1 X128.902 Y83.947 E0.03341
G1 X130.336 Y84.249 E0.04594
G1 X133.046 Y85.144 E0.08949
G1 X134.739 Y85.914 E0.05832
G1 X136.735 Y87.072 E0.07235
G1 X138.612 Y88.452 E0.07305
G1 X140.208 Y89.906 E0.06767
G1 X141.899 Y91.827 E0.08024
G1 X143.203 Y93.700 E0.07157
G1 X144.153 Y95.397 E0.06097
G1 X144.697 Y96.577 E0.04073
G1 X145.352 Y98.301 E0.05784
G1 X145.917 Y100.356 E0.06683
G1 X146.297 Y102.644 E0.07272
G1 X146.427 Y105.000 E0.07399
G1 X146.297 Y107.354 E0.07390
G1 X145.918 Y109.643 E0.07275
G1 X145.353 Y111.697 E0.06680
G1 X144.697 Y113.422 E0.05786
G1 X144.158 Y114.593 E0.04042
G1 X143.317 Y116.114 E0.05450
G1 X142.604 Y117.196 E0.04061
G1 X141.466 Y118.705 E0.05926
G1 X140.207 Y120.095 E0.05880
G1 X138.615 Y121.546 E0.06756
G1 X136.737 Y122.927 E0.07308
G1 X134.736 Y124.087 E0.07252
G1 X133.045 Y124.857 E0.05826
G1 X131.824 Y125.307 E0.04081
G1 X129.970 Y125.840 E0.06048
G1 X127.902 Y126.229 E0.06599
G1 X125.140 Y126.425 E0.08680
G1 X123.215 Y126.352 E0.06041
G1 X120.885 Y126.028 E0.07375
G1 X118.622 Y125.456 E0.07320
G1 X116.722 Y124.762 E0.06343
G1 X114.314 Y123.572 E0.08421
G1 X112.466 Y122.376 E0.06902
G1 X110.953 Y121.177 E0.06054
G1 X110.018 Y120.314 E0.03987
G1 X108.732 Y118.945 E0.05892
G1 X107.376 Y117.187 E0.06959
G1 X106.159 Y115.204 E0.07296
G1 X105.201 Y113.193 E0.06983
G1 X104.385 Y110.842 E0.07805
G1 X103.881 Y108.611 E0.07170
G1 X103.633 Y106.587 E0.06394
G1 X103.581 Y105.284 E0.04088
G1 X103.631 Y103.444 E0.05772
G1 X103.875 Y101.419 E0.06395
G1 X104.384 Y99.160 E0.07260
G1 X105.189 Y96.837 E0.07709
G1 X106.158 Y94.798 E0.07080
G1 X107.375 Y92.815 E0.07296
G1 X108.694 Y91.104 E0.06772
;WIPE_START
G1 F8640.000
G1 X109.998 Y89.706 E-0.44154
G1 X112.238 Y87.790 E-0.68050
G1 X112.982 Y87.284 E-0.20796
;WIPE_END
G1 E-0.07000 F2100.000
G1 Z0.400 F10800.000
G1 X121.174 Y101.911
G1 Z0.200
G1 E1.40000 F2100.000
;TYPE:Perimeter
G1 F1200.000
G1 X121.751 Y101.309 E0.02615
G1 X122.422 Y100.813 E0.02615
G1 X123.167 Y100.437 E0.02615
G1 X123.964 Y100.193 E0.02615
G1 X124.754 Y100.092 E0.02496
G1 X125.622 Y100.122 E0.02725
G1 X126.440 Y100.298 E0.02622
G1 X127.214 Y100.609 E0.02615
G1 X127.924 Y101.046 E0.02615
G1 X128.550 Y101.597 E0.02615
G1 X129.074 Y102.246 E0.02615
G1 X129.481 Y102.975 E0.02615
G1 X129.759 Y103.761 E0.02615
G1 X129.900 Y104.583 E0.02615
G1 X129.900 Y105.417 E0.02615
G1 X129.759 Y106.239 E0.02615
G1 X129.481 Y107.025 E0.02615
G1 X129.074 Y107.754 E0.02615
G1 X128.550 Y108.403 E0.02615
G1 X127.924 Y108.954 E0.02615
G1 X127.214 Y109.391 E0.02615
G1 X126.440 Y109.702 E0.02615
G1 X125.625 Y109.878 E0.02615
G1 X124.791 Y109.913 E0.02615
G1 X123.964 Y109.807 E0.02615
G1 X123.167 Y109.563 E0.02615
G1 X122.422 Y109.187 E0.02615
G1 X121.751 Y108.691 E0.02615
G1 X121.174 Y108.089 E0.02615
G1 X120.707 Y107.398 E0.02615
G1 X120.363 Y106.638 E0.02615
G1 X120.153 Y105.831 E0.02615
G1 X120.083 Y105.000 E0.02615
G1 X120.153 Y104.169 E0.02615
G1 X120.363 Y103.362 E0.02615
G1 X120.707 Y102.602 E0.02615
G1 X121.140 Y101.960 E0.02427
G1 X121.453 Y102.172 F10800.000
;TYPE:External perimeter
G1 F1200.000
G1 X122.001 Y101.593 E0.02500
G1 X122.620 Y101.135 E0.02414
G1 X123.308 Y100.788 E0.02414
G1 X124.044 Y100.563 E0.02414
G1 X124.771 Y100.470 E0.02300
G1 X125.576 Y100.498 E0.02524
G1 X126.329 Y100.660 E0.02416
G1 X127.043 Y100.947 E0.02414
G1 X127.699 Y101.351 E0.02414
G1 X128.277 Y101.859 E0.02414
G1 X128.761 Y102.458 E0.02414
G1 X129.136 Y103.130 E0.02414
G1 X129.393 Y103.856 E0.02414
G1 X129.523 Y104.615 E0.02414
G1 X129.523 Y105.385 E0.02414
G1 X129.393 Y106.144 E0.02414
G1 X129.136 Y106.870 E0.02414
G1 X128.761 Y107.542 E0.02414
G1 X128.277 Y108.141 E0.02414
G1 X127.699 Y108.649 E0.02414
G1 X127.043 Y109.053 E0.02414
G1 X126.329 Y109.340 E0.02414
G1 X125.577 Y109.502 E0.02414
G1 X124.807 Y109.535 E0.02414
G1 X124.044 Y109.437 E0.02414
G1 X123.308 Y109.212 E0.02414
G1 X122.620 Y108.865 E0.02414
G1 X122.001 Y108.407 E0.02414
G1 X121.469 Y107.851 E0.02414
G1 X121.037 Y107.214 E0.02414
G1 X120.720 Y106.512 E0.02414
G1 X120.526 Y105.767 E0.02414
G1 X120.461 Y105.000 E0.02414
G1 X120.526 Y104.233 E0.02414
G1 X120.720 Y103.488 E0.02414
G1 X121.037 Y102.786 E0.02414
G1 X121.419 Y102.221 E0.02138
G1 X121.307 Y101.799 F10800.000
;WIPE_START
G1 F8640.000
G1 X122.001 Y101.593 E-0.19780
G1 X122.620 Y101.135 E-0.17776
G1 X123.308 Y100.788 E-0.17776
G1 X124.044 Y100.563 E-0.17776
G1 X124.771 Y100.470 E-0.16936
G1 X125.576 Y100.498 E-0.18586
G1 X126.329 Y100.660 E-0.17796
G1 X126.593 Y100.766 E-0.06573
;WIPE_END
G1 E-0.07000 F2100.000
G1 Z0.400 F10800.000
G1 X119.974 Y100.759
G1 Z0.200
G1 E1.40000 F2100.000
;TYPE:Perimeter
G1 F1200.000
G1 X119.332 Y101.665 E0.03481
G1 X118.852 Y102.666 E0.03481
G1 X118.547 Y103.733 E0.03481
G1 X118.426 Y104.837 E0.03481
G1 X118.492 Y105.945 E0.03481
G1 X118.744 Y107.026 E0.03481
G1 X119.174 Y108.050 E0.03481
G1 X119.770 Y108.986 E0.03481
G1 X120.702 Y110.015 E0.04352
G1 X120.852 Y110.248 E0.00868
G1 X120.961 Y110.502 E0.00869
G1 X121.028 Y110.772 E0.00869
G1 X121.049 Y111.048 E0.00869
G1 X121.024 Y111.324 E0.00869
G1 X120.954 Y111.593 E0.00869
G1 X120.841 Y111.846 E0.00869
G1 X120.688 Y112.077 E0.00869
G1 X120.499 Y112.280 E0.00869
G1 X120.279 Y112.449 E0.00869
G1 X120.035 Y112.579 E0.00869
G1 X119.772 Y112.667 E0.00869
G1 X119.498 Y112.711 E0.00869
G1 X119.221 Y112.709 E0.00869
G1 X118.948 Y112.662 E0.00869
G1 X118.686 Y112.570 E0.00869
G1 X118.443 Y112.437 E0.00869
G1 X118.226 Y112.266 E0.00866
G1 X117.151 Y111.088 E0.04999
G1 X116.278 Y109.755 E0.04996
G1 X115.630 Y108.300 E0.04996
G1 X115.223 Y106.759 E0.04996
G1 X115.068 Y105.173 E0.04996
G1 X115.168 Y103.583 E0.04996
G1 X115.521 Y102.029 E0.04996
G1 X116.118 Y100.552 E0.04996
G1 X116.943 Y99.189 E0.04996
G1 X117.976 Y97.976 E0.04996
G1 X119.189 Y96.943 E0.04996
G1 X120.552 Y96.118 E0.04996
G1 X122.029 Y95.521 E0.04996
G1 X123.583 Y95.168 E0.04996
G1 X125.143 Y95.070 E0.04900
G1 X126.758 Y95.223 E0.05087
G1 X128.300 Y95.630 E0.04999
G1 X129.755 Y96.278 E0.04996
G1 X131.088 Y97.151 E0.04996
G1 X132.266 Y98.226 E0.04999
G1 X132.437 Y98.443 E0.00866
G1 X132.570 Y98.686 E0.00869
G1 X132.662 Y98.948 E0.00869
G1 X132.709 Y99.221 E0.00869
G1 X132.711 Y99.498 E0.00869
G1 X132.667 Y99.772 E0.00869
G1 X132.579 Y100.035 E0.00869
G1 X132.449 Y100.279 E0.00869
G1 X132.280 Y100.499 E0.00869
G1 X132.077 Y100.688 E0.00869
G1 X131.846 Y100.841 E0.00869
G1 X131.593 Y100.954 E0.00869
G1 X131.324 Y101.024 E0.00869
G1 X131.048 Y101.049 E0.00869
G1 X130.772 Y101.028 E0.00869
G1 X130.502 Y100.961 E0.00869
G1 X130.248 Y100.852 E0.00869
G1 X130.015 Y100.702 E0.00868
G1 X128.986 Y99.770 E0.04352
G1 X128.050 Y99.174 E0.03481
G1 X127.026 Y98.744 E0.03481
G1 X125.945 Y98.492 E0.03481
G1 X124.837 Y98.426 E0.03481
G1 X123.733 Y98.547 E0.03481
G1 X122.666 Y98.852 E0.03481
G1 X121.665 Y99.332 E0.03481
G1 X120.759 Y99.974 E0.03481
G1 X120.017 Y100.717 E0.03293
G1 X119.750 Y100.450 F10800.000
;TYPE:External perimeter
G1 F1200.000
G1 X119.685 Y100.515 E0.00288
G1 X119.006 Y101.473 E0.03681
G1 X118.498 Y102.532 E0.03681
G1 X118.176 Y103.660 E0.03681
G1 X118.048 Y104.828 E0.03681
G1 X118.118 Y106.000 E0.03681
G1 X118.384 Y107.143 E0.03681
G1 X118.839 Y108.225 E0.03681
G1 X119.469 Y109.216 E0.03681
G1 X120.402 Y110.245 E0.04355
G1 X120.518 Y110.426 E0.00673
G1 X120.603 Y110.623 E0.00673
G1 X120.654 Y110.832 E0.00673
G1 X120.670 Y111.046 E0.00673
G1 X120.651 Y111.260 E0.00673
G1 X120.597 Y111.467 E0.00673
G1 X120.510 Y111.664 E0.00673
G1 X120.391 Y111.843 E0.00673
G1 X120.245 Y112.000 E0.00673
G1 X120.074 Y112.131 E0.00673
G1 X119.885 Y112.232 E0.00673
G1 X119.681 Y112.300 E0.00673
G1 X119.469 Y112.334 E0.00673
G1 X119.254 Y112.333 E0.00673
G1 X119.043 Y112.296 E0.00673
G1 X118.840 Y112.225 E0.00673
G1 X118.652 Y112.121 E0.00673
G1 X118.484 Y111.989 E0.00672
G1 X117.450 Y110.857 E0.04807
G1 X116.611 Y109.574 E0.04806
G1 X115.987 Y108.174 E0.04806
G1 X115.596 Y106.692 E0.04806
G1 X115.446 Y105.167 E0.04806
G1 X115.542 Y103.637 E0.04806
G1 X115.882 Y102.143 E0.04806
G1 X116.456 Y100.722 E0.04806
G1 X117.250 Y99.411 E0.04806
G1 X118.243 Y98.243 E0.04806
G1 X119.411 Y97.250 E0.04806
G1 X120.722 Y96.456 E0.04806
G1 X122.143 Y95.882 E0.04806
G1 X123.637 Y95.542 E0.04806
G1 X125.137 Y95.448 E0.04712
G1 X126.692 Y95.596 E0.04897
G1 X128.174 Y95.987 E0.04807
G1 X129.574 Y96.611 E0.04806
G1 X130.857 Y97.450 E0.04806
G1 X131.989 Y98.484 E0.04807
G1 X132.121 Y98.652 E0.00672
G1 X132.225 Y98.840 E0.00673
G1 X132.296 Y99.043 E0.00673
G1 X132.333 Y99.254 E0.00673
G1 X132.334 Y99.469 E0.00673
G1 X132.300 Y99.681 E0.00673
G1 X132.232 Y99.885 E0.00673
G1 X132.131 Y100.074 E0.00673
G1 X132.000 Y100.245 E0.00673
G1 X131.843 Y100.391 E0.00673
G1 X131.664 Y100.510 E0.00673
G1 X131.467 Y100.597 E0.00673
G1 X131.260 Y100.651 E0.00673
G1 X131.046 Y100.670 E0.00673
G1 X130.832 Y100.654 E0.00673
G1 X130.623 Y100.603 E0.00673
G1 X130.426 Y100.518 E0.00673
G1 X130.245 Y100.402 E0.00673
G1 X129.216 Y99.469 E0.04355
G1 X128.225 Y98.839 E0.03681
G1 X127.143 Y98.384 E0.03681
G1 X126.000 Y98.118 E0.03681
G1 X124.828 Y98.048 E0.03681
G1 X123.660 Y98.176 E0.03681
G1 X122.532 Y98.498 E0.03681
G1 X121.473 Y99.006 E0.03681
G1 X120.515 Y99.685 E0.03681
G1 X119.792 Y100.408 E0.03205
G1 X119.771 Y100.540 F10800.000
;WIPE_START
G1 F8640.000
G1 X119.685 Y100.515 E-0.03508
G1 X119.006 Y101.473 E-0.27110
G1 X118.498 Y102.532 E-0.27109
G1 X118.176 Y103.660 E-0.27110
G1 X118.048 Y104.828 E-0.27109
G1 X118.102 Y105.738 E-0.21054
;WIPE_END
G1 E-0.07000 F2100.000
G1 Z0.400 F10800.000
G1 X111.227 Y93.008
G1 Z0.200
G1 E1.40000 F2100.000
;TYPE:Perimeter
G1 F1200.000
G1 X112.566 Y91.627 E0.06031
G1 X114.192 Y90.279 E0.06622
G1 X115.867 Y89.186 E0.06273
G1 X117.704 Y88.259 E0.06449
G1 X119.546 Y87.572 E0.06165
G1 X121.499 Y87.077 E0.06319
G1 X123.497 Y86.800 E0.06324
G1 X125.502 Y86.745 E0.06288
G1 X127.513 Y86.912 E0.06327
G1 X129.615 Y87.335 E0.06723
G1 X131.471 Y87.924 E0.06105
G1 X133.249 Y88.707 E0.06092
G1 X134.987 Y89.711 E0.06294
G1 X136.613 Y90.906 E0.06326
G1 X138.088 Y92.264 E0.06286
G1 X139.412 Y93.784 E0.06318
G1 X140.559 Y95.440 E0.06318
G1 X141.558 Y97.302 E0.06624
G1 X142.274 Y99.074 E0.05994
G1 X142.819 Y101.004 E0.06288
G1 X143.151 Y102.992 E0.06318
M73 P0 R85
G1 X143.262 Y105.002 E0.06311
G1 X143.151 Y107.008 E0.06301
G1 X142.819 Y108.998 E0.06326
G1 X142.273 Y110.928 E0.06288
G1 X141.559 Y112.696 E0.05979
G1 X140.555 Y114.567 E0.06657
G1 X139.412 Y116.216 E0.06291
G1 X138.087 Y117.737 E0.06327
G1 X136.611 Y119.095 E0.06287
G1 X134.987 Y120.289 E0.06319
G1 X133.247 Y121.294 E0.06300
G1 X131.473 Y122.075 E0.06079
G1 X129.460 Y122.709 E0.06619
G1 X127.511 Y123.089 E0.06224
G1 X125.445 Y123.256 E0.06497
G1 X123.496 Y123.200 E0.06116
G1 X121.499 Y122.923 E0.06319
G1 X119.544 Y122.428 E0.06326
G1 X117.704 Y121.741 E0.06158
G1 X115.822 Y120.787 E0.06615
G1 X114.188 Y119.717 E0.06125
G1 X112.632 Y118.436 E0.06319
G1 X111.225 Y116.990 E0.06325
G1 X109.994 Y115.407 E0.06288
G1 X108.938 Y113.690 E0.06319
G1 X108.084 Y111.882 E0.06270
G1 X107.427 Y109.969 E0.06342
G1 X106.987 Y108.002 E0.06320
G1 X106.762 Y105.886 E0.06673
G1 X106.766 Y103.990 E0.05943
G1 X106.987 Y101.997 E0.06287
G1 X107.427 Y100.031 E0.06318
G1 X108.082 Y98.123 E0.06324
G1 X108.938 Y96.310 E0.06288
G1 X109.995 Y94.591 E0.06327
G1 X111.190 Y93.056 E0.06099
G1 X110.892 Y92.824 F10800.000
;TYPE:External perimeter
G1 F1200.000
G1 X112.309 Y91.350 E0.06411
G1 X113.966 Y89.977 E0.06747
G1 X115.679 Y88.858 E0.06413
G1 X117.552 Y87.913 E0.06579
G1 X119.433 Y87.211 E0.06295
G1 X121.427 Y86.706 E0.06449
G1 X123.466 Y86.424 E0.06455
G1 X125.512 Y86.367 E0.06418
G1 X127.565 Y86.538 E0.06457
G1 X129.378 Y86.890 E0.05792
G1 X129.716 Y86.971 E0.01091
G1 X131.604 Y87.571 E0.06211
G1 X133.420 Y88.370 E0.06220
G1 X135.194 Y89.395 E0.06423
G1 X136.853 Y90.615 E0.06457
G1 X138.359 Y92.001 E0.06417
G1 X139.710 Y93.552 E0.06449
G1 X140.882 Y95.243 E0.06451
G1 X141.900 Y97.142 E0.06756
G1 X142.631 Y98.952 E0.06122
G1 X143.188 Y100.922 E0.06417
G1 X143.527 Y102.950 E0.06449
G1 X143.639 Y105.002 E0.06442
G1 X143.527 Y107.050 E0.06432
G1 X143.187 Y109.081 E0.06456
G1 X142.630 Y111.050 E0.06418
G1 X141.901 Y112.856 E0.06107
G1 X140.879 Y114.762 E0.06779
G1 X139.710 Y116.448 E0.06435
G1 X138.357 Y118.001 E0.06457
G1 X136.851 Y119.387 E0.06417
G1 X135.194 Y120.605 E0.06449
G1 X133.418 Y121.630 E0.06430
G1 X131.606 Y122.428 E0.06208
G1 X129.552 Y123.075 E0.06751
G1 X127.562 Y123.463 E0.06357
G1 X125.455 Y123.633 E0.06628
G1 X123.464 Y123.576 E0.06245
G1 X121.427 Y123.294 E0.06449
G1 X119.431 Y122.788 E0.06456
G1 X117.552 Y122.087 E0.06289
G1 X115.633 Y121.114 E0.06746
G1 X113.964 Y120.021 E0.06255
G1 X112.376 Y118.714 E0.06449
G1 X110.940 Y117.238 E0.06455
G1 X109.683 Y115.622 E0.06418
G1 X108.606 Y113.870 E0.06449
G1 X107.735 Y112.024 E0.06401
G1 X107.064 Y110.072 E0.06472
G1 X106.614 Y108.063 E0.06454
G1 X106.385 Y105.905 E0.06804
G1 X106.389 Y103.969 E0.06071
G1 X106.614 Y101.935 E0.06416
G1 X107.064 Y99.928 E0.06449
G1 X107.732 Y97.981 E0.06455
G1 X108.606 Y96.130 E0.06418
G1 X109.685 Y94.375 E0.06457
G1 X110.856 Y92.871 E0.05976
G1 X111.285 Y92.899 F10800.000
;WIPE_START
G1 F8640.000
G1 X112.309 Y91.350 E-0.48590
G1 X113.966 Y89.977 E-0.49689
G1 X115.225 Y89.155 E-0.34721
;WIPE_END
G1 E-0.07000 F2100.000
G1 Z0.400 F10800.000
G1 X139.426 Y94.003
G1 Z0.200
G1 E1.40000 F2100.000
;TYPE:Solid infill
;WIDTH:0.421232
G1 F1200.000
G1 X137.878 Y92.455 E0.06887
G1 X136.433 Y91.125 E0.06178
G1 X134.846 Y89.958 E0.06197
G1 X139.961 Y95.074 E0.22758
G1 X140.318 Y95.588 E0.01968
G1 X140.754 Y96.401 E0.02902
G1 X133.575 Y89.222 E0.31937
G1 X133.121 Y88.960 E0.01648
G1 X132.508 Y88.690 E0.02109
G1 X141.343 Y97.525 E0.39305
G1 X141.706 Y98.423 E0.03046
G1 X131.551 Y88.268 E0.45173
G1 X131.371 Y88.189 E0.00621
G1 X130.735 Y87.987 E0.02099
G1 X142.042 Y99.294 E0.50302
G1 X142.253 Y100.040 E0.02438
G1 X129.951 Y87.738 E0.54728
G1 X129.544 Y87.609 E0.01343
G1 X129.222 Y87.544 E0.01034
G1 X142.464 Y100.786 E0.58909
G1 X142.543 Y101.066 E0.00915
G1 X142.610 Y101.467 E0.01280
