; generated by PrusaSlicer 2.3.0+win64 on 2021-04-17 at 22:53:34 UTC

; 

; external perimeters extrusion width = 0.60mm
; perimeters extrusion width = 0.50mm
; infill extrusion width = 0.50mm
; solid infill extrusion width = 0.50mm
; top infill extrusion width = 0.45mm
; first layer extrusion width = 0.42mm

M73 P0 R51
M73 Q0 S52
M201 X1000 Y1000 Z200 E5000 ; sets maximum accelerations, mm/sec^2
M203 X200 Y200 Z12 E120 ; sets maximum feedrates, mm/sec
M204 P1250 R1250 T1250 ; sets acceleration (P, T) and retract acceleration (R), mm/sec^2
M205 X8.00 Y8.00 Z0.40 E4.50 ; sets the jerk limits, mm/sec
M205 S0 T0 ; sets the minimum extruding and travel feed rate, mm/sec
M107
;TYPE:Custom
M862.3 P "MK3S" ; printer model check
M862.1 P0.4 ; nozzle diameter check
M115 U3.9.1 ; tell printer latest fw version
G90 ; use absolute coordinates
M83 ; extruder relative mode
M104 S230 ; set extruder temp
M140 S85 ; set bed temp
M190 S85 ; wait for bed temp
M109 S230 ; wait for extruder temp
G28 W ; home all without mesh bed level
G80 ; mesh bed leveling
G1 Y-3.0 F1000.0 ; go outside print area
G92 E0.0
G1 X60.0 E9.0 F1000.0 ; intro line
G1 X100.0 E12.5 F1000.0 ; intro line
G92 E0.0
M221 S95

; Don't change E values below. Excessive value can damage the printer.

M907 E538 ; set extruder motor current
G21 ; set units to millimeters
G90 ; use absolute coordinates
M83 ; use relative distances for extrusion
M900 K0.08 ; Filament gcode LA 1.5
M900 K45 ; Filament gcode LA 1.0
;LAYER_CHANGE
;Z:0.2
;HEIGHT:0.2
;BEFORE_LAYER_CHANGE
G92 E0.0
;0.2


G1 E-1.40000 F2100.000
G1 Z0.200 F10800.000
;AFTER_LAYER_CHANGE
;0.2
G1 Z0.400
G1 X109.505 Y84.753
M73 Q0 S51
G1 Z0.200
G1 E1.40000 F2100.000
M204 S1000
;TYPE:Skirt
;WIDTH:0.42
G1 F1200.000
G1 X111.181 Y84.003 E0.05756
G1 X112.927 Y83.626 E0.05602
G1 X113.881 Y83.573 E0.02995
G1 X136.116 Y83.573 E0.69717
G1 X137.823 Y83.744 E0.05379
G1 X138.915 Y84.037 E0.03543
G1 X140.477 Y84.743 E0.05375
G1 X141.866 Y85.741 E0.05363
G1 X142.668 Y86.542 E0.03555
G1 X143.667 Y87.931 E0.05363
G1 X144.374 Y89.493 E0.05375
G1 X144.662 Y90.554 E0.03448
G1 X144.840 Y92.286 E0.05459
G1 X144.837 Y117.807 E0.80018
G1 X144.670 Y119.403 E0.05034
G1 X144.412 Y120.398 E0.03221
G1 X144.037 Y121.351 E0.03210
G1 X143.233 Y122.743 E0.05042
G1 X142.610 Y123.526 E0.03138
G1 X141.962 Y124.176 E0.02876
G1 X140.475 Y125.258 E0.05768
G1 X138.794 Y126.005 E0.05768
G1 X137.911 Y126.240 E0.02864
G1 X136.921 Y126.388 E0.03138
G1 X113.092 Y126.389 E0.74715
G1 X112.076 Y126.237 E0.03221
G1 X111.103 Y125.970 E0.03162
G1 X110.226 Y125.619 E0.02963
G1 X108.844 Y124.820 E0.05002
G1 X108.061 Y124.197 E0.03138
G1 X107.411 Y123.550 E0.02876
G1 X106.329 Y122.062 E0.05768
G1 X105.583 Y120.381 E0.05768
G1 X105.347 Y119.495 E0.02876
G1 X105.199 Y118.497 E0.03162
G1 X105.163 Y92.182 E0.82509
G1 X105.331 Y90.593 E0.05010
G1 X105.588 Y89.602 E0.03210
G1 X105.963 Y88.649 E0.03210
G1 X106.767 Y87.257 E0.05042
G1 X107.390 Y86.474 E0.03138
G1 X108.035 Y85.826 E0.02864
G1 X109.457 Y84.788 E0.05520
;WIPE_START
G1 F8640.000
G1 X111.181 Y84.003 E-0.43745
G1 X112.927 Y83.626 E-0.41252
G1 X113.881 Y83.573 E-0.22058
G1 X115.005 Y83.573 E-0.25945
;WIPE_END
G1 E-0.07000 F2100.000
G1 Z0.400 F10800.000
G1 X131.227 Y102.453
G1 Z0.200
G1 E1.40000 F2100.000
;TYPE:Perimeter
G1 F1200.000
G1 X131.633 Y102.000 E0.01908
G1 X132.100 Y101.611 E0.01908
G1 X132.619 Y101.294 E0.01908
G1 X133.182 Y101.055 E0.01915
G1 X133.800 Y100.898 E0.02001
G1 X134.373 Y100.835 E0.01806
G1 X134.981 Y100.858 E0.01908
G1 X135.581 Y100.969 E0.01915
G1 X136.184 Y101.179 E0.02001
G1 X136.696 Y101.443 E0.01806
G1 X137.191 Y101.797 E0.01908
G1 X137.629 Y102.219 E0.01908
G1 X138.001 Y102.701 E0.01908
G1 X138.298 Y103.231 E0.01908
G1 X138.516 Y103.799 E0.01908
G1 X138.648 Y104.393 E0.01908
G1 X138.693 Y105.002 E0.01915
G1 X138.641 Y105.639 E0.02001
G1 X138.516 Y106.201 E0.01806
G1 X138.298 Y106.769 E0.01908
G1 X138.001 Y107.299 E0.01908
G1 X137.629 Y107.781 E0.01908
G1 X137.191 Y108.203 E0.01908
G1 X136.696 Y108.557 E0.01908
G1 X136.155 Y108.835 E0.01908
G1 X135.579 Y109.032 E0.01908
G1 X134.981 Y109.142 E0.01908
G1 X134.373 Y109.165 E0.01908
G1 X133.768 Y109.098 E0.01908
G1 X133.179 Y108.944 E0.01908
G1 X132.619 Y108.706 E0.01908
G1 X132.100 Y108.389 E0.01908
G1 X131.631 Y107.999 E0.01915
G1 X131.209 Y107.520 E0.02001
G1 X130.891 Y107.040 E0.01806
G1 X130.633 Y106.489 E0.01908
G1 X130.457 Y105.906 E0.01908
G1 X130.369 Y105.304 E0.01908
G1 X130.369 Y104.696 E0.01908
G1 X130.457 Y104.094 E0.01908
G1 X130.633 Y103.511 E0.01908
G1 X130.891 Y102.960 E0.01908
G1 X131.193 Y102.503 E0.01719
G1 X131.508 Y102.711 F10800.000
;TYPE:External perimeter
G1 F1200.000
G1 X131.895 Y102.272 E0.01835
G1 X132.320 Y101.918 E0.01735
G1 X132.792 Y101.630 E0.01735
G1 X133.302 Y101.413 E0.01737
G1 X133.868 Y101.270 E0.01828
G1 X134.387 Y101.213 E0.01637
G1 X134.939 Y101.233 E0.01735
G1 X135.484 Y101.334 E0.01737
G1 X136.035 Y101.527 E0.01828
G1 X136.499 Y101.765 E0.01637
G1 X136.949 Y102.087 E0.01735
G1 X137.347 Y102.471 E0.01735
G1 X137.685 Y102.909 E0.01735
G1 X137.956 Y103.392 E0.01735
G1 X138.154 Y103.908 E0.01735
G1 X138.274 Y104.448 E0.01735
G1 X138.314 Y105.001 E0.01737
G1 X138.267 Y105.582 E0.01828
G1 X138.154 Y106.092 E0.01637
G1 X137.956 Y106.608 E0.01735
G1 X137.685 Y107.091 E0.01735
G1 X137.347 Y107.529 E0.01735
G1 X136.949 Y107.913 E0.01735
G1 X136.499 Y108.235 E0.01735
G1 X136.007 Y108.487 E0.01735
G1 X135.483 Y108.666 E0.01735
G1 X134.939 Y108.767 E0.01735
G1 X134.387 Y108.787 E0.01735
G1 X133.837 Y108.726 E0.01735
G1 X133.302 Y108.586 E0.01735
G1 X132.792 Y108.370 E0.01735
G1 X132.320 Y108.082 E0.01735
G1 X131.894 Y107.727 E0.01737
G1 X131.509 Y107.290 E0.01828
G1 X131.221 Y106.855 E0.01637
G1 X130.986 Y106.354 E0.01735
G1 X130.826 Y105.824 E0.01735
G1 X130.746 Y105.277 E0.01735
G1 X130.746 Y104.723 E0.01735
G1 X130.826 Y104.176 E0.01735
G1 X130.986 Y103.646 E0.01735
G1 X131.221 Y103.145 E0.01735
G1 X131.475 Y102.761 E0.01445
G1 X131.354 Y102.342 F10800.000
;WIPE_START
G1 F8640.000
G1 X131.895 Y102.272 E-0.14888
G1 X132.320 Y101.918 E-0.12774
G1 X132.792 Y101.630 E-0.12774
G1 X133.302 Y101.413 E-0.12793
G1 X133.868 Y101.270 E-0.13463
G1 X134.387 Y101.213 E-0.12058
G1 X134.939 Y101.233 E-0.12774
G1 X135.484 Y101.334 E-0.12793
G1 X136.035 Y101.527 E-0.13463
G1 X136.499 Y101.765 E-0.12058
G1 X136.610 Y101.845 E-0.03164
;WIPE_END
G1 E-0.07000 F2100.000
G1 Z0.400 F10800.000
G1 X136.388 Y93.347
G1 Z0.200
G1 E1.40000 F2100.000
;TYPE:Perimeter
G1 F1200.000
G1 X135.926 Y93.061 E0.01703
G1 X135.525 Y92.695 E0.01703
G1 X135.198 Y92.262 E0.01703
G1 X134.956 Y91.776 E0.01703
G1 X134.807 Y91.253 E0.01703
G1 X134.757 Y90.712 E0.01703
G1 X134.807 Y90.172 E0.01703
G1 X134.956 Y89.649 E0.01703
G1 X135.198 Y89.163 E0.01703
G1 X135.525 Y88.730 E0.01703
G1 X135.926 Y88.364 E0.01703
G1 X136.388 Y88.078 E0.01703
G1 X136.895 Y87.882 E0.01703
G1 X137.428 Y87.782 E0.01703
G1 X137.972 Y87.782 E0.01703
G1 X138.505 Y87.882 E0.01703
G1 X139.012 Y88.078 E0.01703
G1 X139.474 Y88.364 E0.01703
G1 X139.875 Y88.730 E0.01703
G1 X140.202 Y89.163 E0.01703
G1 X140.444 Y89.649 E0.01703
G1 X140.593 Y90.172 E0.01703
G1 X140.643 Y90.713 E0.01703
G1 X140.593 Y91.253 E0.01703
G1 X140.444 Y91.776 E0.01703
G1 X140.202 Y92.262 E0.01703
G1 X139.875 Y92.695 E0.01703
G1 X139.474 Y93.061 E0.01703
G1 X139.012 Y93.347 E0.01703
G1 X138.505 Y93.543 E0.01703
G1 X137.972 Y93.643 E0.01703
G1 X137.428 Y93.643 E0.01703
G1 X136.895 Y93.543 E0.01703
G1 X136.444 Y93.369 E0.01515
G1 X136.580 Y93.017 F10800.000
;TYPE:External perimeter
G1 F1200.000
G1 X136.155 Y92.759 E0.01561
G1 X135.805 Y92.440 E0.01484
G1 X135.520 Y92.062 E0.01484
G1 X135.309 Y91.639 E0.01484
G1 X135.179 Y91.184 E0.01484
G1 X135.136 Y90.712 E0.01484
G1 X135.179 Y90.241 E0.01484
G1 X135.309 Y89.786 E0.01484
G1 X135.520 Y89.363 E0.01484
G1 X135.805 Y88.985 E0.01484
G1 X136.155 Y88.666 E0.01484
G1 X136.557 Y88.417 E0.01484
G1 X136.998 Y88.246 E0.01484
G1 X137.463 Y88.159 E0.01484
G1 X137.937 Y88.159 E0.01484
G1 X138.402 Y88.246 E0.01484
G1 X138.843 Y88.417 E0.01484
G1 X139.245 Y88.666 E0.01484
G1 X139.595 Y88.985 E0.01484
G1 X139.880 Y89.363 E0.01484
G1 X140.091 Y89.786 E0.01484
G1 X140.221 Y90.241 E0.01484
G1 X140.264 Y90.713 E0.01484
G1 X140.221 Y91.184 E0.01484
G1 X140.091 Y91.639 E0.01484
G1 X139.880 Y92.062 E0.01484
G1 X139.595 Y92.440 E0.01484
G1 X139.245 Y92.759 E0.01484
G1 X138.843 Y93.008 E0.01484
G1 X138.402 Y93.179 E0.01484
G1 X137.937 Y93.266 E0.01484
G1 X137.463 Y93.266 E0.01484
G1 X136.998 Y93.179 E0.01484
G1 X136.636 Y93.039 E0.01217
G1 X136.248 Y93.240 F10800.000
;WIPE_START
G1 F8640.000
G1 X136.155 Y92.759 E-0.12862
G1 X135.805 Y92.440 E-0.10927
G1 X135.520 Y92.062 E-0.10927
G1 X135.309 Y91.639 E-0.10927
G1 X135.179 Y91.184 E-0.10927
G1 X135.136 Y90.712 E-0.10927
G1 X135.179 Y90.241 E-0.10927
G1 X135.309 Y89.786 E-0.10927
G1 X135.520 Y89.363 E-0.10927
G1 X135.805 Y88.985 E-0.10927
G1 X136.155 Y88.666 E-0.10927
G1 X136.555 Y88.418 E-0.10868
;WIPE_END
G1 E-0.07000 F2100.000
G1 Z0.400 F10800.000
G1 X115.193 Y91.253
G1 Z0.200
G1 E1.40000 F2100.000
;TYPE:Perimeter
G1 F1200.000
G1 X115.044 Y91.776 E0.01703
G1 X114.802 Y92.262 E0.01703
G1 X114.475 Y92.695 E0.01703
G1 X114.074 Y93.061 E0.01703
G1 X113.612 Y93.347 E0.01703
G1 X113.105 Y93.543 E0.01703
G1 X112.572 Y93.643 E0.01703
G1 X112.028 Y93.643 E0.01703
G1 X111.495 Y93.543 E0.01703
G1 X110.988 Y93.347 E0.01703
G1 X110.526 Y93.061 E0.01703
G1 X110.125 Y92.695 E0.01703
G1 X109.798 Y92.262 E0.01703
G1 X109.556 Y91.776 E0.01703
G1 X109.407 Y91.253 E0.01703
G1 X109.357 Y90.712 E0.01703
G1 X109.407 Y90.172 E0.01703
G1 X109.556 Y89.649 E0.01703
G1 X109.798 Y89.163 E0.01703
G1 X110.125 Y88.730 E0.01703
G1 X110.526 Y88.364 E0.01703
G1 X110.988 Y88.078 E0.01703
G1 X111.495 Y87.882 E0.01703
G1 X112.028 Y87.782 E0.01703
G1 X112.572 Y87.782 E0.01703
G1 X113.105 Y87.882 E0.01703
G1 X113.612 Y88.078 E0.01703
G1 X114.074 Y88.364 E0.01703
G1 X114.475 Y88.730 E0.01703
G1 X114.802 Y89.163 E0.01703
G1 X115.044 Y89.649 E0.01703
G1 X115.193 Y90.172 E0.01703
G1 X115.243 Y90.713 E0.01703
G1 X115.199 Y91.194 E0.01515
G1 X114.823 Y91.159 F10800.000
;TYPE:External perimeter
G1 F1200.000
G1 X114.691 Y91.639 E0.01561
G1 X114.480 Y92.062 E0.01484
G1 X114.195 Y92.440 E0.01484
G1 X113.845 Y92.759 E0.01484
G1 X113.443 Y93.008 E0.01484
G1 X113.002 Y93.179 E0.01484
G1 X112.537 Y93.266 E0.01484
G1 X112.063 Y93.266 E0.01484
G1 X111.598 Y93.179 E0.01484
G1 X111.157 Y93.008 E0.01484
G1 X110.755 Y92.759 E0.01484
G1 X110.405 Y92.440 E0.01484
G1 X110.120 Y92.062 E0.01484
G1 X109.909 Y91.639 E0.01484
G1 X109.779 Y91.184 E0.01484
G1 X109.736 Y90.712 E0.01484
G1 X109.779 Y90.241 E0.01484
G1 X109.909 Y89.786 E0.01484
G1 X110.120 Y89.363 E0.01484
G1 X110.405 Y88.985 E0.01484
G1 X110.755 Y88.666 E0.01484
G1 X111.157 Y88.417 E0.01484
G1 X111.598 Y88.246 E0.01484
G1 X112.063 Y88.159 E0.01484
G1 X112.537 Y88.159 E0.01484
G1 X113.002 Y88.246 E0.01484
G1 X113.443 Y88.417 E0.01484
G1 X113.845 Y88.666 E0.01484
G1 X114.195 Y88.985 E0.01484
G1 X114.480 Y89.363 E0.01484
G1 X114.691 Y89.786 E0.01484
G1 X114.821 Y90.241 E0.01484
G1 X114.864 Y90.713 E0.01484
G1 X114.829 Y91.099 E0.01217
G1 X115.129 Y91.417 F10800.000
;WIPE_START
G1 F8640.000
G1 X114.691 Y91.639 E-0.12863
G1 X114.480 Y92.062 E-0.10927
G1 X114.195 Y92.440 E-0.10927
G1 X113.845 Y92.759 E-0.10927
G1 X113.443 Y93.008 E-0.10927
G1 X113.002 Y93.179 E-0.10927
G1 X112.537 Y93.266 E-0.10927
G1 X112.063 Y93.266 E-0.10927
G1 X111.598 Y93.179 E-0.10927
G1 X111.157 Y93.008 E-0.10927
G1 X110.755 Y92.759 E-0.10927
G1 X110.407 Y92.442 E-0.10868
;WIPE_END
G1 E-0.07000 F2100.000
G1 Z0.400 F10800.000
G1 X114.690 Y110.576
G1 Z0.200
G1 E1.40000 F2100.000
;TYPE:Perimeter
G1 F1200.000
G1 X113.819 Y110.365 E0.02809
G1 X113.176 Y110.122 E0.02155
G1 X112.567 Y109.803 E0.02155
G1 X112.002 Y109.412 E0.02155
G1 X111.489 Y108.955 E0.02155
G1 X111.036 Y108.438 E0.02155
G1 X110.649 Y107.870 E0.02155
G1 X110.335 Y107.259 E0.02155
G1 X110.097 Y106.614 E0.02155
G1 X109.941 Y105.945 E0.02155
G1 X109.867 Y105.262 E0.02155
G1 X109.877 Y104.575 E0.02155
G1 X109.970 Y103.894 E0.02155
G1 X110.147 Y103.230 E0.02155
G1 X110.403 Y102.592 E0.02155
G1 X110.735 Y101.990 E0.02155
G1 X111.138 Y101.434 E0.02155
G1 X111.607 Y100.931 E0.02155
G1 X112.133 Y100.489 E0.02155
G1 X112.709 Y100.114 E0.02155
G1 X113.326 Y99.813 E0.02155
G1 X113.976 Y99.589 E0.02155
G1 X114.648 Y99.447 E0.02155
G1 X115.301 Y99.390 E0.02053
G1 X116.018 Y99.412 E0.02251
G1 X116.698 Y99.520 E0.02160
G1 X117.359 Y99.711 E0.02155
G1 X117.991 Y99.981 E0.02155
G1 X118.585 Y100.326 E0.02155
G1 X119.133 Y100.741 E0.02155
G1 X119.626 Y101.219 E0.02155
G1 X120.057 Y101.755 E0.02155
G1 X120.419 Y102.339 E0.02155
G1 X120.707 Y102.963 E0.02155
G1 X120.917 Y103.617 E0.02155
G1 X121.045 Y104.292 E0.02155
G1 X121.090 Y104.978 E0.02155
G1 X121.050 Y105.664 E0.02155
G1 X120.927 Y106.340 E0.02155
G1 X120.723 Y106.996 E0.02155
G1 X120.439 Y107.623 E0.02155
G1 X119.973 Y108.388 E0.02809
G1 X114.745 Y110.553 E0.17744
M73 P0 R50
G1 X114.659 Y110.181 F10800.000
;TYPE:External perimeter
G1 F1200.000
G1 X113.930 Y110.004 E0.02350
G1 X113.331 Y109.778 E0.02010
G1 X112.763 Y109.480 E0.02010
G1 X112.236 Y109.115 E0.02010
G1 X111.758 Y108.688 E0.02010
G1 X111.335 Y108.207 E0.02010
G1 X110.974 Y107.677 E0.02010
G1 X110.681 Y107.107 E0.02010
G1 X110.459 Y106.505 E0.02010
G1 X110.313 Y105.881 E0.02010
G1 X110.244 Y105.244 E0.02010
G1 X110.253 Y104.603 E0.02010
G1 X110.341 Y103.968 E0.02010
G1 X110.505 Y103.349 E0.02010
G1 X110.744 Y102.754 E0.02010
G1 X111.054 Y102.193 E0.02010
G1 X111.430 Y101.674 E0.02010
G1 X111.867 Y101.205 E0.02010
G1 X112.358 Y100.792 E0.02010
G1 X112.895 Y100.443 E0.02010
G1 X113.471 Y100.162 E0.02010
G1 X114.077 Y99.953 E0.02010
G1 X114.704 Y99.820 E0.02010
G1 X115.311 Y99.768 E0.01911
G1 X115.983 Y99.788 E0.02106
G1 X116.616 Y99.889 E0.02012
G1 X117.232 Y100.067 E0.02010
G1 X117.822 Y100.318 E0.02010
G1 X118.376 Y100.640 E0.02010
G1 X118.887 Y101.027 E0.02010
G1 X119.347 Y101.474 E0.02010
G1 X119.748 Y101.973 E0.02010
G1 X120.086 Y102.518 E0.02010
G1 X120.355 Y103.100 E0.02010
G1 X120.550 Y103.710 E0.02010
G1 X120.670 Y104.340 E0.02010
G1 X120.712 Y104.980 E0.02010
G1 X120.675 Y105.620 E0.02010
G1 X120.560 Y106.250 E0.02010
G1 X120.370 Y106.862 E0.02010
G1 X120.105 Y107.446 E0.02010
G1 X119.715 Y108.086 E0.02350
G1 X114.714 Y110.158 E0.16972
G1 X114.458 Y110.526 F10800.000
;WIPE_START
G1 F8640.000
G1 X113.930 Y110.004 E-0.18446
G1 X113.331 Y109.778 E-0.14800
G1 X112.763 Y109.480 E-0.14800
G1 X112.236 Y109.115 E-0.14800
G1 X111.758 Y108.688 E-0.14800
G1 X111.335 Y108.207 E-0.14800
G1 X110.974 Y107.677 E-0.14800
G1 X110.681 Y107.107 E-0.14800
G1 X110.517 Y106.662 E-0.10953
;WIPE_END
G1 E-0.07000 F2100.000
G1 Z0.400 F10800.000
G1 X113.105 Y116.457
G1 Z0.200
G1 E1.40000 F2100.000
;TYPE:Perimeter
G1 F1200.000
G1 X113.612 Y116.653 E0.01703
G1 X114.074 Y116.939 E0.01703
G1 X114.475 Y117.305 E0.01703
G1 X114.802 Y117.738 E0.01703
G1 X115.044 Y118.224 E0.01703
G1 X115.193 Y118.747 E0.01703
G1 X115.243 Y119.288 E0.01703
G1 X115.193 Y119.828 E0.01703
G1 X115.044 Y120.351 E0.01703
G1 X114.802 Y120.837 E0.01703
G1 X114.475 Y121.270 E0.01703
G1 X114.074 Y121.636 E0.01703
G1 X113.612 Y121.922 E0.01703
G1 X113.105 Y122.118 E0.01703
G1 X112.572 Y122.218 E0.01703
G1 X112.028 Y122.218 E0.01703
G1 X111.495 Y122.118 E0.01703
G1 X110.988 Y121.922 E0.01703
G1 X110.526 Y121.636 E0.01703
G1 X110.125 Y121.270 E0.01703
G1 X109.798 Y120.837 E0.01703
G1 X109.556 Y120.351 E0.01703
G1 X109.407 Y119.828 E0.01703
G1 X109.357 Y119.287 E0.01703
G1 X109.407 Y118.747 E0.01703
G1 X109.556 Y118.224 E0.01703
G1 X109.798 Y117.738 E0.01703
G1 X110.125 Y117.305 E0.01703
G1 X110.526 Y116.939 E0.01703
G1 X110.988 Y116.653 E0.01703
G1 X111.495 Y116.457 E0.01703
G1 X112.028 Y116.357 E0.01703
G1 X112.572 Y116.357 E0.01703
G1 X113.046 Y116.446 E0.01515
G1 X112.977 Y116.816 F10800.000
;TYPE:External perimeter
G1 F1200.000
G1 X113.443 Y116.992 E0.01561
G1 X113.845 Y117.241 E0.01484
G1 X114.195 Y117.560 E0.01484
G1 X114.480 Y117.938 E0.01484
