; generated by PrusaSlicer 2.3.3+win64 on 2022-01-09 at 04:38:29 UTC

; 

; external perimeters extrusion width = 0.60mm
; perimeters extrusion width = 0.50mm
; infill extrusion width = 0.50mm
; solid infill extrusion width = 0.50mm
; top infill extrusion width = 0.45mm
; first layer extrusion width = 0.42mm

M73 P0 R179
M73 Q0 S180
M201 X1000 Y1000 Z200 E5000 ; sets maximum accelerations, mm/sec^2
M203 X200 Y200 Z12 E120 ; sets maximum feedrates, mm/sec
M204 P1250 R1250 T1250 ; sets acceleration (P, T) and retract acceleration (R), mm/sec^2
M205 X8.00 Y8.00 Z0.40 E4.50 ; sets the jerk limits, mm/sec
M205 S0 T0 ; sets the minimum extruding and travel feed rate, mm/sec
M107
;TYPE:Custom
M862.3 P "MK3S" ; printer model check
M862.1 P0.4 ; nozzle diameter check
M115 U3.10.0 ; tell printer latest fw version
G90 ; use absolute coordinates
M83 ; extruder relative mode
M104 S240 ; set extruder temp
M140 S85 ; set bed temp
M190 S85 ; wait for bed temp
M109 S240 ; wait for extruder temp
G28 W ; home all without mesh bed level
G80 ; mesh bed leveling
G1 Y-3.0 F1000.0 ; go outside print area
G92 E0.0
G1 X60.0 E9.0 F1000.0 ; intro line
G1 X100.0 E12.5 F1000.0 ; intro line
G92 E0.0
M221 S95

; Don't change E values below. Excessive value can damage the printer.

M907 E538 ; set extruder motor current
G21 ; set units to millimeters
G90 ; use absolute coordinates
M83 ; use relative distances for extrusion
M900 K0.08 ; Filament gcode LA 1.5
M900 K45 ; Filament gcode LA 1.0
;LAYER_CHANGE
;Z:0.2
;HEIGHT:0.2
;BEFORE_LAYER_CHANGE
G92 E0.0
;0.2


M73 P0 R178
G1 E-1.00000 F2100.000
G1 Z0.200 F10800.000
;AFTER_LAYER_CHANGE
;0.2
G1 Z0.400
G1 X83.295 Y63.344
G1 Z0.200
G1 E1.00000 F2100.000
M204 S1000
;TYPE:Skirt
;WIDTH:0.42
G1 F1200.000
G1 X84.065 Y62.815 E0.02931
G1 X84.980 Y62.623 E0.02931
G1 X165.004 Y62.623 E2.50909
G1 X165.902 Y62.801 E0.02872
G1 X166.664 Y63.303 E0.02860
G1 X167.182 Y64.058 E0.02872
G1 X167.377 Y64.953 E0.02872
G1 X167.377 Y145.019 E2.51041
G1 X167.199 Y145.902 E0.02825
G1 X166.705 Y146.656 E0.02825
M73 Q0 S179
G1 X165.924 Y147.190 E0.02966
G1 X165.000 Y147.377 E0.02957
G1 X84.981 Y147.377 E2.50894
G1 X84.098 Y147.199 E0.02825
G1 X83.344 Y146.705 E0.02825
G1 X82.810 Y145.924 E0.02966
G1 X82.623 Y145.000 E0.02957
G1 X82.623 Y64.981 E2.50894
G1 X82.801 Y64.098 E0.02825
G1 X83.262 Y63.394 E0.02637
; printing object speaker top.stl id:0 copy 0
;WIPE_START
G1 F8640.000
G1 X84.065 Y62.815 E-0.22871
G1 X84.980 Y62.623 E-0.21582
G1 X87.169 Y62.623 E-0.50547
;WIPE_END
G1 E-0.05000 F2100.000
G1 Z0.400 F10800.000
G1 X145.611 Y121.619
G1 Z0.200
G1 E1.00000 F2100.000
;TYPE:Perimeter
G1 F1200.000
G1 X145.974 Y121.336 E0.01445
G1 X146.379 Y121.117 E0.01445
G1 X146.815 Y120.967 E0.01445
G1 X147.270 Y120.891 E0.01445
G1 X147.730 Y120.891 E0.01445
G1 X148.185 Y120.967 E0.01445
G1 X148.621 Y121.117 E0.01445
G1 X149.026 Y121.336 E0.01445
G1 X149.389 Y121.619 E0.01445
G1 X149.702 Y121.958 E0.01445
G1 X149.954 Y122.344 E0.01445
G1 X150.139 Y122.766 E0.01445
G1 X150.252 Y123.212 E0.01445
G1 X150.290 Y123.671 E0.01445
G1 X150.252 Y124.131 E0.01445
G1 X150.139 Y124.577 E0.01445
G1 X149.954 Y124.999 E0.01445
G1 X149.702 Y125.385 E0.01445
G1 X149.389 Y125.724 E0.01445
G1 X149.026 Y126.007 E0.01445
G1 X148.621 Y126.226 E0.01445
G1 X148.185 Y126.376 E0.01445
G1 X147.730 Y126.452 E0.01445
G1 X147.270 Y126.452 E0.01445
G1 X146.815 Y126.376 E0.01445
G1 X146.379 Y126.226 E0.01445
G1 X145.974 Y126.007 E0.01445
G1 X145.611 Y125.724 E0.01445
G1 X145.298 Y125.385 E0.01445
G1 X145.046 Y124.999 E0.01445
G1 X144.861 Y124.577 E0.01445
G1 X144.748 Y124.131 E0.01445
G1 X144.710 Y123.671 E0.01445
G1 X144.748 Y123.212 E0.01445
G1 X144.861 Y122.766 E0.01445
G1 X145.046 Y122.344 E0.01445
G1 X145.298 Y121.958 E0.01445
G1 X145.570 Y121.663 E0.01257
G1 X145.847 Y121.918 F10800.000
;TYPE:External perimeter
G1 F1200.000
G1 X146.181 Y121.653 E0.01338
G1 X146.531 Y121.463 E0.01249
G1 X146.908 Y121.334 E0.01249
G1 X147.301 Y121.268 E0.01249
G1 X147.699 Y121.268 E0.01249
G1 X148.092 Y121.334 E0.01249
G1 X148.469 Y121.463 E0.01249
G1 X148.819 Y121.653 E0.01249
G1 X149.133 Y121.897 E0.01249
G1 X149.403 Y122.190 E0.01249
G1 X149.621 Y122.524 E0.01249
G1 X149.781 Y122.888 E0.01249
G1 X149.879 Y123.274 E0.01249
G1 X149.911 Y123.671 E0.01249
G1 X149.879 Y124.068 E0.01249
G1 X149.781 Y124.454 E0.01249
G1 X149.621 Y124.819 E0.01249
G1 X149.403 Y125.152 E0.01249
G1 X149.133 Y125.445 E0.01249
G1 X148.819 Y125.690 E0.01249
G1 X148.469 Y125.880 E0.01249
G1 X148.092 Y126.009 E0.01249
G1 X147.699 Y126.075 E0.01249
G1 X147.301 Y126.075 E0.01249
G1 X146.908 Y126.009 E0.01249
G1 X146.531 Y125.880 E0.01249
G1 X146.181 Y125.690 E0.01249
G1 X145.867 Y125.445 E0.01249
G1 X145.597 Y125.152 E0.01249
G1 X145.379 Y124.819 E0.01249
G1 X145.219 Y124.454 E0.01249
G1 X145.121 Y124.068 E0.01249
G1 X145.089 Y123.671 E0.01249
G1 X145.121 Y123.274 E0.01249
G1 X145.219 Y122.888 E0.01249
G1 X145.379 Y122.524 E0.01249
G1 X145.597 Y122.190 E0.01249
G1 X145.807 Y121.963 E0.00970
G1 X145.757 Y121.529 F10800.000
;WIPE_START
G1 F8640.000
G1 X146.181 Y121.653 E-0.11222
G1 X146.531 Y121.463 E-0.09196
G1 X146.908 Y121.334 E-0.09196
G1 X147.301 Y121.268 E-0.09196
G1 X147.699 Y121.268 E-0.09196
G1 X148.092 Y121.334 E-0.09196
G1 X148.469 Y121.463 E-0.09196
G1 X148.819 Y121.653 E-0.09196
G1 X149.133 Y121.897 E-0.09196
G1 X149.403 Y122.190 E-0.09196
G1 X149.427 Y122.227 E-0.01013
;WIPE_END
G1 E-0.05000 F2100.000
G1 Z0.400 F10800.000
G1 X105.290 Y123.671
G1 Z0.200
G1 E1.00000 F2100.000
;TYPE:Perimeter
G1 F1200.000
G1 X105.252 Y124.131 E0.01445
G1 X105.139 Y124.577 E0.01445
G1 X104.954 Y124.999 E0.01445
G1 X104.702 Y125.385 E0.01445
G1 X104.389 Y125.724 E0.01445
G1 X104.026 Y126.007 E0.01445
G1 X103.621 Y126.226 E0.01445
G1 X103.185 Y126.376 E0.01445
G1 X102.730 Y126.452 E0.01445
G1 X102.270 Y126.452 E0.01445
G1 X101.815 Y126.376 E0.01445
G1 X101.379 Y126.226 E0.01445
G1 X100.974 Y126.007 E0.01445
G1 X100.611 Y125.724 E0.01445
G1 X100.298 Y125.385 E0.01445
G1 X100.046 Y124.999 E0.01445
G1 X99.861 Y124.577 E0.01445
G1 X99.748 Y124.131 E0.01445
G1 X99.710 Y123.671 E0.01445
G1 X99.748 Y123.212 E0.01445
G1 X99.861 Y122.766 E0.01445
G1 X100.046 Y122.344 E0.01445
G1 X100.298 Y121.958 E0.01445
G1 X100.611 Y121.619 E0.01445
G1 X100.974 Y121.336 E0.01445
G1 X101.355 Y121.130 E0.01357
G1 X101.812 Y120.967 E0.01522
G1 X102.270 Y120.891 E0.01454
G1 X102.730 Y120.891 E0.01445
G1 X103.185 Y120.967 E0.01445
G1 X103.621 Y121.117 E0.01445
G1 X104.026 Y121.336 E0.01445
G1 X104.389 Y121.619 E0.01445
G1 X104.702 Y121.958 E0.01445
G1 X104.954 Y122.344 E0.01445
G1 X105.139 Y122.766 E0.01445
G1 X105.252 Y123.212 E0.01445
G1 X105.285 Y123.612 E0.01257
G1 X104.909 Y123.643 F10800.000
;TYPE:External perimeter
G1 F1200.000
G1 X104.879 Y124.068 E0.01338
G1 X104.781 Y124.454 E0.01249
G1 X104.621 Y124.819 E0.01249
G1 X104.403 Y125.152 E0.01249
G1 X104.133 Y125.445 E0.01249
G1 X103.819 Y125.690 E0.01249
G1 X103.469 Y125.880 E0.01249
G1 X103.092 Y126.009 E0.01249
G1 X102.699 Y126.075 E0.01249
G1 X102.301 Y126.075 E0.01249
G1 X101.908 Y126.009 E0.01249
G1 X101.531 Y125.880 E0.01249
G1 X101.181 Y125.690 E0.01249
G1 X100.867 Y125.445 E0.01249
G1 X100.597 Y125.152 E0.01249
G1 X100.379 Y124.819 E0.01249
G1 X100.219 Y124.454 E0.01249
G1 X100.121 Y124.068 E0.01249
G1 X100.089 Y123.671 E0.01249
G1 X100.121 Y123.274 E0.01249
G1 X100.219 Y122.888 E0.01249
G1 X100.379 Y122.524 E0.01249
G1 X100.597 Y122.190 E0.01249
G1 X100.867 Y121.897 E0.01249
G1 X101.181 Y121.653 E0.01249
G1 X101.509 Y121.475 E0.01167
G1 X101.907 Y121.334 E0.01326
G1 X102.301 Y121.268 E0.01252
G1 X102.699 Y121.268 E0.01249
G1 X103.092 Y121.334 E0.01249
G1 X103.469 Y121.463 E0.01249
G1 X103.819 Y121.653 E0.01249
G1 X104.133 Y121.897 E0.01249
G1 X104.403 Y122.190 E0.01249
G1 X104.621 Y122.524 E0.01249
G1 X104.781 Y122.888 E0.01249
G1 X104.879 Y123.274 E0.01249
G1 X104.904 Y123.583 E0.00970
G1 X105.257 Y123.840 F10800.000
;WIPE_START
G1 F8640.000
G1 X104.879 Y124.068 E-0.11223
G1 X104.781 Y124.454 E-0.09196
G1 X104.621 Y124.819 E-0.09196
G1 X104.403 Y125.152 E-0.09196
G1 X104.133 Y125.445 E-0.09196
G1 X103.819 Y125.690 E-0.09196
G1 X103.469 Y125.880 E-0.09196
G1 X103.092 Y126.009 E-0.09196
G1 X102.699 Y126.075 E-0.09196
G1 X102.301 Y126.075 E-0.09196
G1 X102.258 Y126.067 E-0.01013
;WIPE_END
G1 E-0.05000 F2100.000
G1 Z0.400 F10800.000
G1 X123.879 Y76.226
G1 Z0.200
G1 E1.00000 F2100.000
;TYPE:Perimeter
G1 F1200.000
G1 X123.474 Y76.007 E0.01445
G1 X123.111 Y75.724 E0.01445
G1 X122.798 Y75.385 E0.01445
G1 X122.562 Y75.023 E0.01357
G1 X122.362 Y74.580 E0.01522
G1 X122.248 Y74.131 E0.01454
G1 X122.210 Y73.671 E0.01445
G1 X122.248 Y73.212 E0.01445
G1 X122.361 Y72.766 E0.01445
G1 X122.546 Y72.344 E0.01445
G1 X122.798 Y71.958 E0.01445
G1 X123.111 Y71.619 E0.01445
G1 X123.474 Y71.336 E0.01445
G1 X123.879 Y71.117 E0.01445
G1 X124.315 Y70.967 E0.01445
G1 X124.770 Y70.891 E0.01445
G1 X125.230 Y70.891 E0.01445
G1 X125.685 Y70.967 E0.01445
G1 X126.121 Y71.117 E0.01445
G1 X126.526 Y71.336 E0.01445
G1 X126.889 Y71.619 E0.01445
G1 X127.202 Y71.958 E0.01445
G1 X127.438 Y72.320 E0.01357
G1 X127.638 Y72.763 E0.01522
G1 X127.752 Y73.212 E0.01454
G1 X127.790 Y73.671 E0.01445
G1 X127.752 Y74.131 E0.01445
G1 X127.639 Y74.577 E0.01445
G1 X127.454 Y74.999 E0.01445
G1 X127.202 Y75.385 E0.01445
G1 X126.889 Y75.724 E0.01445
G1 X126.526 Y76.007 E0.01445
G1 X126.121 Y76.226 E0.01445
G1 X125.685 Y76.376 E0.01445
G1 X125.230 Y76.452 E0.01445
G1 X124.770 Y76.452 E0.01445
G1 X124.315 Y76.376 E0.01445
G1 X123.936 Y76.246 E0.01257
G1 X124.059 Y75.889 F10800.000
;TYPE:External perimeter
G1 F1200.000
G1 X123.681 Y75.690 E0.01338
G1 X123.367 Y75.445 E0.01249
G1 X123.097 Y75.152 E0.01249
G1 X122.893 Y74.841 E0.01167
G1 X122.720 Y74.455 E0.01326
G1 X122.621 Y74.068 E0.01252
G1 X122.589 Y73.671 E0.01249
G1 X122.621 Y73.274 E0.01249
G1 X122.719 Y72.888 E0.01249
G1 X122.879 Y72.524 E0.01249
G1 X123.097 Y72.190 E0.01249
G1 X123.367 Y71.897 E0.01249
G1 X123.681 Y71.653 E0.01249
G1 X124.031 Y71.463 E0.01249
G1 X124.408 Y71.334 E0.01249
G1 X124.801 Y71.268 E0.01249
G1 X125.199 Y71.268 E0.01249
G1 X125.592 Y71.334 E0.01249
G1 X125.969 Y71.463 E0.01249
G1 X126.319 Y71.653 E0.01249
G1 X126.633 Y71.897 E0.01249
G1 X126.903 Y72.190 E0.01249
G1 X127.107 Y72.502 E0.01167
G1 X127.280 Y72.887 E0.01326
G1 X127.379 Y73.274 E0.01252
G1 X127.411 Y73.671 E0.01249
G1 X127.379 Y74.068 E0.01249
G1 X127.281 Y74.454 E0.01249
G1 X127.121 Y74.819 E0.01249
G1 X126.903 Y75.152 E0.01249
G1 X126.633 Y75.445 E0.01249
G1 X126.319 Y75.690 E0.01249
G1 X125.969 Y75.880 E0.01249
G1 X125.592 Y76.009 E0.01249
G1 X125.199 Y76.075 E0.01249
G1 X124.801 Y76.075 E0.01249
G1 X124.408 Y76.009 E0.01249
G1 X124.115 Y75.908 E0.00970
G1 X123.738 Y76.129 F10800.000
;WIPE_START
G1 F8640.000
G1 X123.681 Y75.690 E-0.11223
G1 X123.367 Y75.445 E-0.09196
G1 X123.097 Y75.152 E-0.09196
G1 X122.893 Y74.841 E-0.08597
G1 X122.720 Y74.455 E-0.09762
G1 X122.621 Y74.068 E-0.09222
G1 X122.589 Y73.671 E-0.09196
G1 X122.621 Y73.274 E-0.09196
G1 X122.719 Y72.888 E-0.09196
G1 X122.879 Y72.524 E-0.09196
G1 X122.903 Y72.487 E-0.01020
;WIPE_END
G1 E-0.05000 F2100.000
G1 Z0.400 F10800.000
G1 X85.787 Y65.787
G1 Z0.200
G1 E1.00000 F2100.000
;TYPE:Perimeter
G1 F1200.000
G1 X164.213 Y65.787 E2.45899
G1 X164.213 Y144.213 E2.45899
G1 X85.787 Y144.213 E2.45899
G1 X85.787 Y65.847 E2.45711
G1 X85.410 Y65.410 F10800.000
;TYPE:External perimeter
G1 F1200.000
G1 X164.590 Y65.410 E2.48263
G1 X164.590 Y144.590 E2.48263
G1 X85.410 Y144.590 E2.48263
G1 X85.410 Y65.470 E2.48075
G1 X85.796 Y65.514 F10800.000
;WIPE_START
G1 F8640.000
G1 X89.524 Y65.467 E-0.95000
;WIPE_END
G1 E-0.05000 F2100.000
G1 Z0.400 F10800.000
G1 X163.336 Y65.900
G1 Z0.200
G1 E1.00000 F2100.000
;TYPE:Solid infill
;WIDTH:0.420545
G1 F1200.000
G1 X163.930 Y66.494 E0.02637
G1 X163.930 Y67.028 E0.01677
G1 X162.972 Y66.070 E0.04255
G1 X162.438 Y66.070 E0.01677
G1 X163.930 Y67.562 E0.06626
G1 X163.930 Y68.096 E0.01677
G1 X161.904 Y66.070 E0.08997
G1 X161.370 Y66.070 E0.01677
G1 X163.930 Y68.630 E0.11369
M73 P0 R177
G1 X163.930 Y69.164 E0.01677
G1 X160.836 Y66.070 E0.13740
G1 X160.302 Y66.070 E0.01677
G1 X163.930 Y69.698 E0.16112
G1 X163.930 Y70.232 E0.01677
G1 X159.768 Y66.070 E0.18483
G1 X159.234 Y66.070 E0.01677
G1 X163.930 Y70.766 E0.20855
G1 X163.930 Y71.300 E0.01677
G1 X158.700 Y66.070 E0.23226
G1 X158.166 Y66.070 E0.01677
G1 X163.930 Y71.834 E0.25598
G1 X163.930 Y72.368 E0.01677
G1 X157.632 Y66.070 E0.27969
G1 X157.098 Y66.070 E0.01677
G1 X163.930 Y72.902 E0.30341
G1 X163.930 Y73.436 E0.01677
G1 X156.564 Y66.070 E0.32712
G1 X156.029 Y66.070 E0.01677
G1 X163.930 Y73.971 E0.35083
G1 X163.930 Y74.505 E0.01677
G1 X155.495 Y66.070 E0.37455
G1 X154.961 Y66.070 E0.01677
G1 X163.930 Y75.039 E0.39826
G1 X163.930 Y75.573 E0.01677
G1 X154.427 Y66.070 E0.42198
G1 X153.893 Y66.070 E0.01677
G1 X163.930 Y76.107 E0.44569
G1 X163.930 Y76.641 E0.01677
G1 X153.359 Y66.070 E0.46941
G1 X152.825 Y66.070 E0.01677
G1 X163.930 Y77.175 E0.49312
G1 X163.930 Y77.709 E0.01677
G1 X152.291 Y66.070 E0.51684
G1 X151.757 Y66.070 E0.01677
G1 X163.930 Y78.243 E0.54055
M73 Q0 S178
G1 X163.930 Y78.777 E0.01677
G1 X151.223 Y66.070 E0.56427
G1 X150.689 Y66.070 E0.01677
G1 X163.930 Y79.311 E0.58798
G1 X163.930 Y79.845 E0.01677
G1 X150.155 Y66.070 E0.61170
G1 X149.621 Y66.070 E0.01677
G1 X163.930 Y80.379 E0.63541
G1 X163.930 Y80.913 E0.01677
G1 X149.087 Y66.070 E0.65912
G1 X148.553 Y66.070 E0.01677
G1 X163.930 Y81.447 E0.68284
G1 X163.930 Y81.981 E0.01677
G1 X148.019 Y66.070 E0.70655
G1 X147.485 Y66.070 E0.01677
G1 X163.930 Y82.515 E0.73027
G1 X163.930 Y83.049 E0.01677
G1 X146.951 Y66.070 E0.75398
G1 X146.417 Y66.070 E0.01677
G1 X163.930 Y83.583 E0.77770
G1 X163.930 Y84.117 E0.01677
G1 X145.883 Y66.070 E0.80141
G1 X145.349 Y66.070 E0.01677
G1 X163.930 Y84.651 E0.82513
G1 X163.930 Y85.185 E0.01677
G1 X144.815 Y66.070 E0.84884
G1 X144.281 Y66.070 E0.01677
G1 X163.930 Y85.719 E0.87256
G1 X163.930 Y86.254 E0.01677
G1 X143.746 Y66.070 E0.89627
G1 X143.212 Y66.070 E0.01677
G1 X163.930 Y86.788 E0.91998
G1 X163.930 Y87.322 E0.01677
G1 X142.678 Y66.070 E0.94370
G1 X142.144 Y66.070 E0.01677
G1 X163.930 Y87.856 E0.96741
G1 X163.930 Y88.390 E0.01677
G1 X141.610 Y66.070 E0.99113
G1 X141.076 Y66.070 E0.01677
G1 X163.930 Y88.924 E1.01484
G1 X163.930 Y89.458 E0.01677
G1 X140.542 Y66.070 E1.03856
G1 X140.008 Y66.070 E0.01677
G1 X163.930 Y89.992 E1.06227
G1 X163.930 Y90.526 E0.01677
G1 X139.474 Y66.070 E1.08599
G1 X138.940 Y66.070 E0.01677
G1 X163.930 Y91.060 E1.10970
M73 P1 R177
M73 Q1 S178
G1 X163.930 Y91.594 E0.01677
G1 X138.406 Y66.070 E1.13342
G1 X137.872 Y66.070 E0.01677
G1 X163.930 Y92.128 E1.15713
G1 X163.930 Y92.662 E0.01677
G1 X137.338 Y66.070 E1.18085
G1 X136.804 Y66.070 E0.01677
G1 X163.930 Y93.196 E1.20456
G1 X163.930 Y93.730 E0.01677
G1 X136.270 Y66.070 E1.22827
G1 X135.736 Y66.070 E0.01677
G1 X163.930 Y94.264 E1.25199
G1 X163.930 Y94.798 E0.01677
G1 X135.202 Y66.070 E1.27570
G1 X134.668 Y66.070 E0.01677
G1 X163.930 Y95.332 E1.29942
G1 X163.930 Y95.866 E0.01677
G1 X134.134 Y66.070 E1.32313
M73 P1 R176
G1 X133.600 Y66.070 E0.01677
G1 X163.930 Y96.400 E1.34685
G1 X163.930 Y96.934 E0.01677
G1 X133.066 Y66.070 E1.37056
G1 X132.532 Y66.070 E0.01677
G1 X163.930 Y97.468 E1.39428
G1 X163.930 Y98.002 E0.01677
G1 X131.998 Y66.070 E1.41799
M73 Q1 S177
G1 X131.464 Y66.070 E0.01677
G1 X163.930 Y98.536 E1.44171
G1 X163.930 Y99.071 E0.01677
G1 X130.929 Y66.070 E1.46542
G1 X130.395 Y66.070 E0.01677
G1 X163.930 Y99.605 E1.48913
G1 X163.930 Y100.139 E0.01677
G1 X129.861 Y66.070 E1.51285
G1 X129.327 Y66.070 E0.01677
G1 X163.930 Y100.673 E1.53656
G1 X163.930 Y101.207 E0.01677
G1 X128.793 Y66.070 E1.56028
G1 X128.259 Y66.070 E0.01677
G1 X163.930 Y101.741 E1.58399
G1 X163.930 Y102.275 E0.01677
G1 X127.725 Y66.070 E1.60771
G1 X127.191 Y66.070 E0.01677
G1 X163.930 Y102.809 E1.63142
G1 X163.930 Y103.343 E0.01677
G1 X126.657 Y66.070 E1.65514
G1 X126.123 Y66.070 E0.01677
G1 X163.930 Y103.877 E1.67885
G1 X163.930 Y104.411 E0.01677
G1 X125.589 Y66.070 E1.70257
G1 X125.055 Y66.070 E0.01677
