; generated by PrusaSlicer 2.3.3+win64 on 2022-01-08 at 23:06:44 UTC

; 

; external perimeters extrusion width = 0.60mm
; perimeters extrusion width = 0.50mm
; infill extrusion width = 0.50mm
; solid infill extrusion width = 0.50mm
; top infill extrusion width = 0.45mm
; first layer extrusion width = 0.42mm

M73 P0 R209
M73 Q0 S210
M201 X1000 Y1000 Z200 E5000 ; sets maximum accelerations, mm/sec^2
M203 X200 Y200 Z12 E120 ; sets maximum feedrates, mm/sec
M204 P1250 R1250 T1250 ; sets acceleration (P, T) and retract acceleration (R), mm/sec^2
M205 X8.00 Y8.00 Z0.40 E4.50 ; sets the jerk limits, mm/sec
M205 S0 T0 ; sets the minimum extruding and travel feed rate, mm/sec
M107
;TYPE:Custom
M862.3 P "MK3S" ; printer model check
M862.1 P0.4 ; nozzle diameter check
M115 U3.10.0 ; tell printer latest fw version
G90 ; use absolute coordinates
M83 ; extruder relative mode
M104 S240 ; set extruder temp
M140 S85 ; set bed temp
M190 S85 ; wait for bed temp
M109 S240 ; wait for extruder temp
G28 W ; home all without mesh bed level
G80 ; mesh bed leveling
G1 Y-3.0 F1000.0 ; go outside print area
G92 E0.0
G1 X60.0 E9.0 F1000.0 ; intro line
G1 X100.0 E12.5 F1000.0 ; intro line
G92 E0.0
M221 S95

; Don't change E values below. Excessive value can damage the printer.

M907 E538 ; set extruder motor current
G21 ; set units to millimeters
G90 ; use absolute coordinates
M83 ; use relative distances for extrusion
M900 K0.08 ; Filament gcode LA 1.5
M900 K45 ; Filament gcode LA 1.0
;LAYER_CHANGE
;Z:0.2
;HEIGHT:0.2
;BEFORE_LAYER_CHANGE
G92 E0.0
;0.2


G1 E-1.00000 F2100.000
G1 Z0.200 F10800.000
;AFTER_LAYER_CHANGE
;0.2
G1 Z0.400
G1 X83.295 Y63.344
G1 Z0.200
G1 E1.00000 F2100.000
M204 S1000
;TYPE:Skirt
;WIDTH:0.42
G1 F1200.000
G1 X84.065 Y62.815 E0.02931
G1 X84.980 Y62.623 E0.02931
G1 X165.004 Y62.623 E2.50909
M73 P0 R208
G1 X165.902 Y62.801 E0.02872
G1 X166.664 Y63.303 E0.02860
G1 X167.182 Y64.058 E0.02872
G1 X167.377 Y64.953 E0.02872
G1 X167.377 Y145.019 E2.51041
G1 X167.199 Y145.902 E0.02825
G1 X166.705 Y146.656 E0.02825
G1 X165.924 Y147.190 E0.02966
G1 X165.000 Y147.377 E0.02957
G1 X84.981 Y147.377 E2.50894
G1 X84.098 Y147.199 E0.02825
G1 X83.344 Y146.705 E0.02825
G1 X82.810 Y145.924 E0.02966
G1 X82.623 Y145.000 E0.02957
G1 X82.623 Y64.981 E2.50894
M73 Q0 S209
G1 X82.801 Y64.098 E0.02825
G1 X83.262 Y63.394 E0.02637
; printing object speaker mount.stl id:0 copy 0
;WIPE_START
G1 F8640.000
G1 X84.065 Y62.815 E-0.22871
G1 X84.980 Y62.623 E-0.21582
G1 X87.169 Y62.623 E-0.50547
;WIPE_END
G1 E-0.05000 F2100.000
G1 Z0.400 F10800.000
G1 X145.363 Y121.878
G1 Z0.200
G1 E1.00000 F2100.000
;TYPE:Perimeter
G1 F1200.000
G1 X145.707 Y121.534 E0.01525
G1 X146.105 Y121.255 E0.01525
G1 X146.546 Y121.050 E0.01525
G1 X147.016 Y120.924 E0.01525
G1 X147.500 Y120.881 E0.01525
G1 X147.984 Y120.924 E0.01525
G1 X148.454 Y121.050 E0.01525
G1 X148.895 Y121.255 E0.01525
G1 X149.293 Y121.534 E0.01525
G1 X149.637 Y121.878 E0.01525
G1 X149.916 Y122.276 E0.01525
G1 X150.122 Y122.717 E0.01525
G1 X150.248 Y123.187 E0.01525
G1 X150.290 Y123.671 E0.01525
G1 X150.248 Y124.156 E0.01525
G1 X150.122 Y124.626 E0.01525
G1 X149.916 Y125.066 E0.01525
G1 X149.637 Y125.465 E0.01525
G1 X149.293 Y125.809 E0.01525
G1 X148.895 Y126.088 E0.01525
G1 X148.454 Y126.293 E0.01525
G1 X147.984 Y126.419 E0.01525
G1 X147.500 Y126.461 E0.01525
G1 X147.016 Y126.419 E0.01525
G1 X146.546 Y126.293 E0.01525
G1 X146.105 Y126.088 E0.01525
G1 X145.707 Y125.809 E0.01525
G1 X145.363 Y125.465 E0.01525
G1 X145.084 Y125.066 E0.01525
G1 X144.878 Y124.626 E0.01525
G1 X144.752 Y124.156 E0.01525
G1 X144.710 Y123.671 E0.01525
G1 X144.752 Y123.187 E0.01525
G1 X144.878 Y122.717 E0.01525
G1 X145.084 Y122.276 E0.01525
G1 X145.328 Y121.927 E0.01337
G1 X145.637 Y122.143 F10800.000
;TYPE:External perimeter
G1 F1200.000
G1 X145.950 Y121.824 E0.01402
G1 X146.294 Y121.583 E0.01318
G1 X146.675 Y121.405 E0.01318
G1 X147.081 Y121.296 E0.01318
G1 X147.500 Y121.260 E0.01318
G1 X147.919 Y121.296 E0.01318
G1 X148.325 Y121.405 E0.01318
G1 X148.706 Y121.583 E0.01318
G1 X149.050 Y121.824 E0.01318
G1 X149.347 Y122.121 E0.01318
G1 X149.588 Y122.466 E0.01318
G1 X149.766 Y122.847 E0.01318
G1 X149.875 Y123.253 E0.01318
G1 X149.912 Y123.671 E0.01318
G1 X149.875 Y124.090 E0.01318
G1 X149.766 Y124.496 E0.01318
G1 X149.588 Y124.877 E0.01318
G1 X149.347 Y125.221 E0.01318
G1 X149.050 Y125.519 E0.01318
G1 X148.706 Y125.760 E0.01318
G1 X148.325 Y125.937 E0.01318
G1 X147.919 Y126.046 E0.01318
G1 X147.500 Y126.083 E0.01318
G1 X147.081 Y126.046 E0.01318
G1 X146.675 Y125.937 E0.01318
G1 X146.294 Y125.760 E0.01318
G1 X145.950 Y125.519 E0.01318
G1 X145.653 Y125.221 E0.01318
G1 X145.412 Y124.877 E0.01318
G1 X145.234 Y124.496 E0.01318
G1 X145.125 Y124.090 E0.01318
G1 X145.088 Y123.671 E0.01318
G1 X145.125 Y123.253 E0.01318
G1 X145.234 Y122.847 E0.01318
G1 X145.412 Y122.466 E0.01318
G1 X145.603 Y122.193 E0.01045
G1 X145.497 Y121.769 F10800.000
;WIPE_START
G1 F8640.000
G1 X145.950 Y121.824 E-0.11690
G1 X146.294 Y121.583 E-0.09706
G1 X146.675 Y121.405 E-0.09706
G1 X147.081 Y121.296 E-0.09706
G1 X147.500 Y121.260 E-0.09705
G1 X147.919 Y121.296 E-0.09708
G1 X148.325 Y121.405 E-0.09707
G1 X148.706 Y121.583 E-0.09706
G1 X149.050 Y121.824 E-0.09706
G1 X149.223 Y121.997 E-0.05659
;WIPE_END
G1 E-0.05000 F2100.000
G1 Z0.400 F10800.000
G1 X105.290 Y123.671
G1 Z0.200
G1 E1.00000 F2100.000
;TYPE:Perimeter
G1 F1200.000
G1 X105.248 Y124.156 E0.01525
G1 X105.122 Y124.626 E0.01525
G1 X104.916 Y125.066 E0.01525
G1 X104.637 Y125.465 E0.01525
G1 X104.293 Y125.809 E0.01525
G1 X103.895 Y126.088 E0.01525
G1 X103.454 Y126.293 E0.01525
G1 X102.984 Y126.419 E0.01525
G1 X102.500 Y126.461 E0.01525
G1 X102.016 Y126.419 E0.01525
G1 X101.546 Y126.293 E0.01525
G1 X101.105 Y126.088 E0.01525
G1 X100.707 Y125.809 E0.01525
G1 X100.363 Y125.465 E0.01525
G1 X100.084 Y125.066 E0.01525
G1 X99.878 Y124.626 E0.01525
G1 X99.752 Y124.156 E0.01525
G1 X99.710 Y123.671 E0.01525
G1 X99.752 Y123.187 E0.01525
G1 X99.878 Y122.717 E0.01525
G1 X100.084 Y122.276 E0.01525
G1 X100.363 Y121.878 E0.01525
G1 X100.707 Y121.534 E0.01525
G1 X101.105 Y121.255 E0.01525
G1 X101.546 Y121.050 E0.01525
G1 X102.016 Y120.924 E0.01525
G1 X102.500 Y120.881 E0.01525
G1 X102.984 Y120.924 E0.01525
G1 X103.454 Y121.050 E0.01525
G1 X103.895 Y121.255 E0.01525
G1 X104.293 Y121.534 E0.01525
G1 X104.637 Y121.878 E0.01525
G1 X104.916 Y122.276 E0.01525
G1 X105.122 Y122.717 E0.01525
G1 X105.248 Y123.187 E0.01525
G1 X105.285 Y123.612 E0.01337
G1 X104.909 Y123.644 F10800.000
;TYPE:External perimeter
G1 F1200.000
G1 X104.875 Y124.090 E0.01402
G1 X104.766 Y124.496 E0.01318
G1 X104.588 Y124.877 E0.01318
G1 X104.347 Y125.221 E0.01318
G1 X104.050 Y125.519 E0.01318
G1 X103.706 Y125.760 E0.01318
G1 X103.325 Y125.937 E0.01318
G1 X102.919 Y126.046 E0.01318
G1 X102.500 Y126.083 E0.01318
G1 X102.081 Y126.046 E0.01318
G1 X101.675 Y125.937 E0.01318
G1 X101.294 Y125.760 E0.01318
G1 X100.950 Y125.519 E0.01318
G1 X100.653 Y125.221 E0.01318
G1 X100.412 Y124.877 E0.01318
G1 X100.234 Y124.496 E0.01318
G1 X100.125 Y124.090 E0.01318
G1 X100.088 Y123.671 E0.01318
G1 X100.125 Y123.253 E0.01318
G1 X100.234 Y122.847 E0.01318
G1 X100.412 Y122.466 E0.01318
G1 X100.653 Y122.121 E0.01318
G1 X100.950 Y121.824 E0.01318
G1 X101.294 Y121.583 E0.01318
G1 X101.675 Y121.405 E0.01318
G1 X102.081 Y121.296 E0.01318
G1 X102.500 Y121.260 E0.01318
G1 X102.919 Y121.296 E0.01318
G1 X103.325 Y121.405 E0.01318
G1 X103.706 Y121.583 E0.01318
G1 X104.050 Y121.824 E0.01318
G1 X104.347 Y122.121 E0.01318
G1 X104.588 Y122.466 E0.01318
G1 X104.766 Y122.847 E0.01318
G1 X104.875 Y123.253 E0.01318
G1 X104.904 Y123.585 E0.01045
G1 X105.257 Y123.842 F10800.000
;WIPE_START
G1 F8640.000
G1 X104.875 Y124.090 E-0.11690
G1 X104.766 Y124.496 E-0.09706
G1 X104.588 Y124.877 E-0.09706
G1 X104.347 Y125.221 E-0.09706
G1 X104.050 Y125.519 E-0.09706
G1 X103.706 Y125.760 E-0.09706
G1 X103.325 Y125.937 E-0.09706
G1 X102.919 Y126.046 E-0.09706
G1 X102.500 Y126.083 E-0.09706
G1 X102.256 Y126.062 E-0.05659
;WIPE_END
G1 E-0.05000 F2100.000
G1 Z0.400 F10800.000
G1 X124.046 Y76.293
G1 Z0.200
G1 E1.00000 F2100.000
;TYPE:Perimeter
G1 F1200.000
G1 X123.605 Y76.088 E0.01525
G1 X123.207 Y75.809 E0.01525
G1 X122.863 Y75.465 E0.01525
G1 X122.584 Y75.066 E0.01525
G1 X122.378 Y74.626 E0.01525
G1 X122.252 Y74.156 E0.01525
G1 X122.210 Y73.671 E0.01525
G1 X122.252 Y73.187 E0.01525
G1 X122.378 Y72.717 E0.01525
G1 X122.584 Y72.276 E0.01525
G1 X122.863 Y71.878 E0.01525
G1 X123.207 Y71.534 E0.01525
G1 X123.605 Y71.255 E0.01525
G1 X124.046 Y71.050 E0.01525
G1 X124.516 Y70.924 E0.01525
G1 X125.000 Y70.881 E0.01525
G1 X125.484 Y70.924 E0.01525
G1 X125.954 Y71.050 E0.01525
G1 X126.395 Y71.255 E0.01525
G1 X126.793 Y71.534 E0.01525
G1 X127.137 Y71.878 E0.01525
G1 X127.416 Y72.276 E0.01525
G1 X127.622 Y72.717 E0.01525
G1 X127.748 Y73.187 E0.01525
G1 X127.790 Y73.671 E0.01525
G1 X127.748 Y74.156 E0.01525
G1 X127.622 Y74.626 E0.01525
G1 X127.416 Y75.066 E0.01525
G1 X127.137 Y75.465 E0.01525
G1 X126.793 Y75.809 E0.01525
G1 X126.395 Y76.088 E0.01525
G1 X125.954 Y76.293 E0.01525
G1 X125.484 Y76.419 E0.01525
G1 X125.000 Y76.461 E0.01525
G1 X124.516 Y76.419 E0.01525
G1 X124.104 Y76.309 E0.01337
G1 X124.201 Y75.944 F10800.000
;TYPE:External perimeter
G1 F1200.000
G1 X123.794 Y75.760 E0.01402
G1 X123.450 Y75.519 E0.01318
G1 X123.153 Y75.221 E0.01318
G1 X122.912 Y74.877 E0.01318
G1 X122.734 Y74.496 E0.01318
G1 X122.625 Y74.090 E0.01318
G1 X122.588 Y73.671 E0.01318
G1 X122.625 Y73.253 E0.01318
G1 X122.734 Y72.847 E0.01318
G1 X122.912 Y72.466 E0.01318
G1 X123.153 Y72.121 E0.01318
G1 X123.450 Y71.824 E0.01318
G1 X123.794 Y71.583 E0.01318
G1 X124.175 Y71.405 E0.01318
G1 X124.581 Y71.296 E0.01318
G1 X125.000 Y71.260 E0.01318
G1 X125.419 Y71.296 E0.01318
G1 X125.825 Y71.405 E0.01318
G1 X126.206 Y71.583 E0.01318
G1 X126.550 Y71.824 E0.01318
G1 X126.847 Y72.121 E0.01318
G1 X127.088 Y72.466 E0.01318
G1 X127.266 Y72.847 E0.01318
G1 X127.375 Y73.253 E0.01318
G1 X127.412 Y73.671 E0.01318
G1 X127.375 Y74.090 E0.01318
G1 X127.266 Y74.496 E0.01318
G1 X127.088 Y74.877 E0.01318
G1 X126.847 Y75.221 E0.01318
G1 X126.550 Y75.519 E0.01318
G1 X126.206 Y75.760 E0.01318
G1 X125.825 Y75.937 E0.01318
G1 X125.419 Y76.046 E0.01318
G1 X125.000 Y76.083 E0.01318
G1 X124.581 Y76.046 E0.01318
G1 X124.259 Y75.960 E0.01045
G1 X123.897 Y76.204 F10800.000
;WIPE_START
G1 F8640.000
G1 X123.794 Y75.760 E-0.11690
G1 X123.450 Y75.519 E-0.09706
G1 X123.153 Y75.221 E-0.09706
G1 X122.912 Y74.877 E-0.09706
G1 X122.734 Y74.496 E-0.09706
G1 X122.625 Y74.090 E-0.09706
G1 X122.588 Y73.671 E-0.09706
G1 X122.625 Y73.253 E-0.09706
G1 X122.734 Y72.847 E-0.09706
G1 X122.837 Y72.624 E-0.05659
;WIPE_END
G1 E-0.05000 F2100.000
G1 Z0.400 F10800.000
G1 X85.787 Y65.787
G1 Z0.200
G1 E1.00000 F2100.000
;TYPE:Perimeter
G1 F1200.000
G1 X164.213 Y65.787 E2.45899
G1 X164.213 Y144.213 E2.45899
G1 X85.787 Y144.213 E2.45899
G1 X85.787 Y65.847 E2.45711
G1 X85.410 Y65.410 F10800.000
;TYPE:External perimeter
G1 F1200.000
G1 X164.590 Y65.410 E2.48263
G1 X164.590 Y144.590 E2.48263
G1 X85.410 Y144.590 E2.48263
G1 X85.410 Y65.470 E2.48075
G1 X85.796 Y65.514 F10800.000
;WIPE_START
G1 F8640.000
G1 X89.524 Y65.467 E-0.95000
;WIPE_END
G1 E-0.05000 F2100.000
G1 Z0.400 F10800.000
G1 X163.336 Y65.900
G1 Z0.200
G1 E1.00000 F2100.000
;TYPE:Solid infill
;WIDTH:0.420545
G1 F1200.000
G1 X163.930 Y66.494 E0.02637
G1 X163.930 Y67.028 E0.01677
G1 X162.972 Y66.070 E0.04255
G1 X162.438 Y66.070 E0.01677
G1 X163.930 Y67.562 E0.06626
G1 X163.930 Y68.096 E0.01677
G1 X161.904 Y66.070 E0.08997
G1 X161.370 Y66.070 E0.01677
G1 X163.930 Y68.630 E0.11369
G1 X163.930 Y69.164 E0.01677
G1 X160.836 Y66.070 E0.13740
G1 X160.302 Y66.070 E0.01677
G1 X163.930 Y69.698 E0.16112
G1 X163.930 Y70.232 E0.01677
G1 X159.768 Y66.070 E0.18483
G1 X159.234 Y66.070 E0.01677
G1 X163.930 Y70.766 E0.20855
G1 X163.930 Y71.300 E0.01677
G1 X158.700 Y66.070 E0.23226
G1 X158.166 Y66.070 E0.01677
G1 X163.930 Y71.834 E0.25598
G1 X163.930 Y72.368 E0.01677
G1 X157.632 Y66.070 E0.27969
G1 X157.098 Y66.070 E0.01677
G1 X163.930 Y72.902 E0.30341
G1 X163.930 Y73.436 E0.01677
G1 X156.564 Y66.070 E0.32712
G1 X156.029 Y66.070 E0.01677
G1 X163.930 Y73.971 E0.35083
G1 X163.930 Y74.505 E0.01677
G1 X155.495 Y66.070 E0.37455
M73 P0 R207
G1 X154.961 Y66.070 E0.01677
G1 X163.930 Y75.039 E0.39826
G1 X163.930 Y75.573 E0.01677
G1 X154.427 Y66.070 E0.42198
G1 X153.893 Y66.070 E0.01677
G1 X163.930 Y76.107 E0.44569
G1 X163.930 Y76.641 E0.01677
G1 X153.359 Y66.070 E0.46941
G1 X152.825 Y66.070 E0.01677
G1 X163.930 Y77.175 E0.49312
G1 X163.930 Y77.709 E0.01677
G1 X152.291 Y66.070 E0.51684
G1 X151.757 Y66.070 E0.01677
G1 X163.930 Y78.243 E0.54055
G1 X163.930 Y78.777 E0.01677
G1 X151.223 Y66.070 E0.56427
G1 X150.689 Y66.070 E0.01677
G1 X163.930 Y79.311 E0.58798
G1 X163.930 Y79.845 E0.01677
G1 X150.155 Y66.070 E0.61170
G1 X149.621 Y66.070 E0.01677
G1 X163.930 Y80.379 E0.63541
G1 X163.930 Y80.913 E0.01677
G1 X149.087 Y66.070 E0.65912
M73 Q0 S208
G1 X148.553 Y66.070 E0.01677
G1 X163.930 Y81.447 E0.68284
G1 X163.930 Y81.981 E0.01677
G1 X148.019 Y66.070 E0.70655
G1 X147.485 Y66.070 E0.01677
G1 X163.930 Y82.515 E0.73027
G1 X163.930 Y83.049 E0.01677
G1 X146.951 Y66.070 E0.75398
G1 X146.417 Y66.070 E0.01677
G1 X163.930 Y83.583 E0.77770
G1 X163.930 Y84.117 E0.01677
G1 X145.883 Y66.070 E0.80141
G1 X145.349 Y66.070 E0.01677
G1 X163.930 Y84.651 E0.82513
G1 X163.930 Y85.185 E0.01677
G1 X144.815 Y66.070 E0.84884
G1 X144.281 Y66.070 E0.01677
G1 X163.930 Y85.719 E0.87256
G1 X163.930 Y86.254 E0.01677
G1 X143.746 Y66.070 E0.89627
G1 X143.212 Y66.070 E0.01677
G1 X163.930 Y86.788 E0.91998
G1 X163.930 Y87.322 E0.01677
G1 X142.678 Y66.070 E0.94370
G1 X142.144 Y66.070 E0.01677
G1 X163.930 Y87.856 E0.96741
G1 X163.930 Y88.390 E0.01677
G1 X141.610 Y66.070 E0.99113
G1 X141.076 Y66.070 E0.01677
G1 X163.930 Y88.924 E1.01484
G1 X163.930 Y89.458 E0.01677
G1 X140.542 Y66.070 E1.03856
G1 X140.008 Y66.070 E0.01677
G1 X163.930 Y89.992 E1.06227
G1 X163.930 Y90.526 E0.01677
G1 X139.474 Y66.070 E1.08599
G1 X138.940 Y66.070 E0.01677
G1 X163.930 Y91.060 E1.10970
G1 X163.930 Y91.594 E0.01677
G1 X138.406 Y66.070 E1.13342
G1 X137.872 Y66.070 E0.01677
G1 X163.930 Y92.128 E1.15713
G1 X163.930 Y92.662 E0.01677
G1 X137.338 Y66.070 E1.18085
G1 X136.804 Y66.070 E0.01677
G1 X163.930 Y93.196 E1.20456
G1 X163.930 Y93.730 E0.01677
G1 X136.270 Y66.070 E1.22827
G1 X135.736 Y66.070 E0.01677
G1 X163.930 Y94.264 E1.25199
G1 X163.930 Y94.798 E0.01677
G1 X135.202 Y66.070 E1.27570
G1 X134.668 Y66.070 E0.01677
G1 X163.930 Y95.332 E1.29942
G1 X163.930 Y95.866 E0.01677
G1 X134.134 Y66.070 E1.32313
M73 P1 R207
M73 Q1 S208
G1 X133.600 Y66.070 E0.01677
G1 X163.930 Y96.400 E1.34685
G1 X163.930 Y96.934 E0.01677
G1 X133.066 Y66.070 E1.37056
M73 P1 R206
G1 X132.532 Y66.070 E0.01677
G1 X163.930 Y97.468 E1.39428
G1 X163.930 Y98.002 E0.01677
G1 X131.998 Y66.070 E1.41799
G1 X131.464 Y66.070 E0.01677
G1 X163.930 Y98.536 E1.44171
G1 X163.930 Y99.071 E0.01677
G1 X130.929 Y66.070 E1.46542
M73 Q1 S207
G1 X130.395 Y66.070 E0.01677
G1 X163.930 Y99.605 E1.48913
G1 X163.930 Y100.139 E0.01677
G1 X129.861 Y66.070 E1.51285
G1 X129.327 Y66.070 E0.01677
G1 X163.930 Y100.673 E1.53656
G1 X163.930 Y101.207 E0.01677
G1 X128.793 Y66.070 E1.56028
G1 X128.259 Y66.070 E0.01677
G1 X163.930 Y101.741 E1.58399
G1 X163.930 Y102.275 E0.01677
G1 X127.725 Y66.070 E1.60771
G1 X127.191 Y66.070 E0.01677
G1 X163.930 Y102.809 E1.63142
G1 X163.930 Y103.343 E0.01677
G1 X126.657 Y66.070 E1.65514
G1 X126.123 Y66.070 E0.01677
G1 X163.930 Y103.877 E1.67885
G1 X163.930 Y104.411 E0.01677
G1 X125.589 Y66.070 E1.70257
G1 X125.055 Y66.070 E0.01677
G1 X163.930 Y104.945 E1.72628
G1 X163.930 Y105.479 E0.01677
G1 X124.521 Y66.070 E1.75000
G1 X123.987 Y66.070 E0.01677
G1 X163.930 Y106.013 E1.77371
G1 X163.930 Y106.547 E0.01677
G1 X123.453 Y66.070 E1.79742
G1 X122.919 Y66.070 E0.01677
G1 X163.930 Y107.081 E1.82114
G1 X163.930 Y107.615 E0.01677
G1 X122.385 Y66.070 E1.84485
G1 X121.851 Y66.070 E0.01677
G1 X163.930 Y108.149 E1.86857
G1 X163.930 Y108.683 E0.01677
G1 X127.897 Y72.650 E1.60010
