; generated by PrusaSlicer 2.3.3+win64 on 2021-12-28 at 03:41:52 UTC

; 

; external perimeters extrusion width = 0.60mm
; perimeters extrusion width = 0.50mm
; infill extrusion width = 0.50mm
; solid infill extrusion width = 0.50mm
; top infill extrusion width = 0.45mm
; first layer extrusion width = 0.42mm

M73 P0 R348
M73 Q0 S352
M201 X1000 Y1000 Z200 E5000 ; sets maximum accelerations, mm/sec^2
M203 X200 Y200 Z12 E120 ; sets maximum feedrates, mm/sec
M204 P1250 R1250 T1250 ; sets acceleration (P, T) and retract acceleration (R), mm/sec^2
M205 X8.00 Y8.00 Z0.40 E4.50 ; sets the jerk limits, mm/sec
M205 S0 T0 ; sets the minimum extruding and travel feed rate, mm/sec
M107
;TYPE:Custom
M862.3 P "MK3S" ; printer model check
M862.1 P0.4 ; nozzle diameter check
M115 U3.10.0 ; tell printer latest fw version
G90 ; use absolute coordinates
M83 ; extruder relative mode
M104 S240 ; set extruder temp
M140 S85 ; set bed temp
M190 S85 ; wait for bed temp
M109 S240 ; wait for extruder temp
G28 W ; home all without mesh bed level
G80 ; mesh bed leveling
G1 Y-3.0 F1000.0 ; go outside print area
G92 E0.0
G1 X60.0 E9.0 F1000.0 ; intro line
M73 P0 R347
G1 X100.0 E12.5 F1000.0 ; intro line
G92 E0.0
M221 S95

; Don't change E values below. Excessive value can damage the printer.

M907 E538 ; set extruder motor current
G21 ; set units to millimeters
G90 ; use absolute coordinates
M83 ; use relative distances for extrusion
M900 K0.08 ; Filament gcode LA 1.5
M900 K45 ; Filament gcode LA 1.0
;LAYER_CHANGE
;Z:0.2
;HEIGHT:0.2
;BEFORE_LAYER_CHANGE
G92 E0.0
;0.2


G1 E-1.00000 F2100.000
G1 Z0.200 F10800.000
;AFTER_LAYER_CHANGE
;0.2
G1 Z0.400
G1 X38.793 Y20.046
G1 Z0.200
G1 E1.00000 F2100.000
M204 S1000
;TYPE:Skirt
;WIDTH:0.42
G1 F1200.000
G1 X39.200 Y19.336 E0.02567
G1 X39.572 Y18.977 E0.01621
G1 X40.013 Y18.707 E0.01621
G1 X40.501 Y18.538 E0.01621
G1 X41.015 Y18.479 E0.01621
G1 X182.941 Y18.479 E4.45000
M73 Q0 S351
G1 X183.854 Y18.663 E0.02919
G1 X184.626 Y19.183 E0.02919
G1 X210.694 Y46.204 E1.17722
G1 X211.006 Y46.612 E0.01609
G1 X211.223 Y47.077 E0.01609
G1 X211.350 Y47.836 E0.02414
G1 X211.350 Y98.663 E1.59363
G1 X211.205 Y99.461 E0.02543
G1 X210.800 Y100.164 E0.02543
G1 X102.550 Y190.965 E4.43007
G1 X102.137 Y191.244 E0.01562
G1 X101.601 Y191.449 E0.01799
G1 X101.032 Y191.521 E0.01799
G1 X41.016 Y191.521 E1.88175
G1 X40.214 Y191.377 E0.02555
G1 X39.507 Y190.971 E0.02555
G1 X39.146 Y190.596 E0.01633
G1 X38.876 Y190.155 E0.01621
G1 X38.709 Y189.666 E0.01621
G1 X38.650 Y189.149 E0.01633
G1 X38.650 Y20.849 E5.27694
G1 X38.782 Y20.105 E0.02367
; printing object spin panel with hole.stl id:0 copy 0
;WIPE_START
G1 F8640.000
G1 X39.200 Y19.336 E-0.20212
G1 X39.572 Y18.977 E-0.11938
G1 X40.013 Y18.707 E-0.11938
G1 X40.501 Y18.538 E-0.11938
G1 X41.015 Y18.479 E-0.11938
G1 X42.186 Y18.479 E-0.27037
;WIPE_END
G1 E-0.05000 F2100.000
G1 Z0.400 F10800.000
G1 X103.426 Y93.298
G1 Z0.200
G1 E1.00000 F2100.000
;TYPE:Perimeter
G1 F1200.000
G1 X104.105 Y92.766 E0.02703
G1 X104.842 Y92.320 E0.02703
G1 X105.629 Y91.966 E0.02703
G1 X106.452 Y91.710 E0.02703
G1 X107.299 Y91.555 E0.02703
G1 X108.136 Y91.504 E0.02628
G1 X143.109 Y91.504 E1.09654
G1 X143.945 Y91.555 E0.02628
G1 X144.793 Y91.710 E0.02703
G1 X145.616 Y91.966 E0.02703
G1 X146.402 Y92.320 E0.02703
G1 X147.140 Y92.766 E0.02703
G1 X147.819 Y93.298 E0.02703
G1 X148.428 Y93.907 E0.02703
G1 X148.960 Y94.586 E0.02703
G1 X149.406 Y95.324 E0.02703
G1 X149.760 Y96.110 E0.02703
G1 X150.016 Y96.933 E0.02703
G1 X150.171 Y97.781 E0.02703
G1 X150.223 Y98.641 E0.02703
G1 X150.171 Y99.501 E0.02703
G1 X150.016 Y100.349 E0.02703
G1 X149.760 Y101.172 E0.02703
G1 X149.406 Y101.958 E0.02703
G1 X148.960 Y102.696 E0.02703
G1 X148.428 Y103.375 E0.02703
G1 X147.819 Y103.984 E0.02703
G1 X147.140 Y104.516 E0.02703
G1 X146.402 Y104.962 E0.02703
G1 X145.643 Y105.304 E0.02611
G1 X144.794 Y105.572 E0.02790
G1 X143.945 Y105.727 E0.02707
G1 X143.109 Y105.778 E0.02628
G1 X108.136 Y105.778 E1.09654
G1 X107.299 Y105.727 E0.02628
G1 X106.452 Y105.572 E0.02703
G1 X105.629 Y105.316 E0.02703
G1 X104.842 Y104.962 E0.02703
G1 X104.105 Y104.516 E0.02703
G1 X103.426 Y103.984 E0.02703
G1 X102.817 Y103.375 E0.02703
G1 X102.285 Y102.696 E0.02703
G1 X101.839 Y101.958 E0.02703
G1 X101.485 Y101.172 E0.02703
G1 X101.229 Y100.349 E0.02703
G1 X101.073 Y99.501 E0.02703
G1 X101.021 Y98.641 E0.02703
G1 X101.073 Y97.781 E0.02703
G1 X101.229 Y96.933 E0.02703
G1 X101.485 Y96.110 E0.02703
G1 X101.839 Y95.324 E0.02703
G1 X102.285 Y94.586 E0.02703
G1 X102.817 Y93.907 E0.02703
G1 X103.384 Y93.340 E0.02515
G1 X103.650 Y93.607 F10800.000
;TYPE:External perimeter
G1 F1200.000
G1 X104.319 Y93.077 E0.02676
G1 X105.018 Y92.655 E0.02560
G1 X105.763 Y92.320 E0.02560
G1 X106.542 Y92.077 E0.02560
G1 X107.345 Y91.930 E0.02560
G1 X108.148 Y91.881 E0.02521
G1 X143.097 Y91.881 E1.09583
G1 X143.900 Y91.930 E0.02521
G1 X144.703 Y92.077 E0.02560
G1 X145.482 Y92.320 E0.02560
G1 X146.227 Y92.655 E0.02560
G1 X146.925 Y93.077 E0.02560
G1 X147.568 Y93.580 E0.02560
G1 X148.145 Y94.158 E0.02560
G1 X148.649 Y94.800 E0.02560
G1 X149.071 Y95.499 E0.02560
G1 X149.406 Y96.244 E0.02560
G1 X149.649 Y97.023 E0.02560
G1 X149.796 Y97.826 E0.02560
G1 X149.846 Y98.641 E0.02560
G1 X149.796 Y99.456 E0.02560
G1 X149.649 Y100.259 E0.02560
G1 X149.406 Y101.038 E0.02560
G1 X149.071 Y101.783 E0.02560
G1 X148.649 Y102.482 E0.02560
G1 X148.145 Y103.124 E0.02560
G1 X147.568 Y103.701 E0.02560
G1 X146.925 Y104.205 E0.02560
G1 X146.227 Y104.627 E0.02560
G1 X145.508 Y104.951 E0.02470
G1 X144.703 Y105.205 E0.02647
G1 X143.900 Y105.352 E0.02561
G1 X143.097 Y105.401 E0.02521
G1 X108.148 Y105.401 E1.09583
G1 X107.345 Y105.352 E0.02521
G1 X106.542 Y105.205 E0.02560
G1 X105.763 Y104.962 E0.02560
G1 X105.018 Y104.627 E0.02560
G1 X104.319 Y104.205 E0.02560
G1 X103.677 Y103.701 E0.02560
G1 X103.099 Y103.124 E0.02560
G1 X102.596 Y102.482 E0.02560
G1 X102.174 Y101.783 E0.02560
G1 X101.838 Y101.038 E0.02560
G1 X101.596 Y100.259 E0.02560
G1 X101.448 Y99.456 E0.02560
G1 X101.399 Y98.641 E0.02560
G1 X101.448 Y97.826 E0.02560
G1 X101.596 Y97.023 E0.02560
G1 X101.838 Y96.244 E0.02560
G1 X102.174 Y95.499 E0.02560
G1 X102.596 Y94.800 E0.02560
G1 X103.099 Y94.158 E0.02560
G1 X103.608 Y93.649 E0.02255
G1 X103.569 Y93.215 F10800.000
;WIPE_START
G1 F8640.000
G1 X104.319 Y93.077 E-0.21081
G1 X105.018 Y92.655 E-0.18851
G1 X105.763 Y92.320 E-0.18851
G1 X106.542 Y92.077 E-0.18851
G1 X107.282 Y91.941 E-0.17366
;WIPE_END
G1 E-0.05000 F2100.000
G1 Z0.400 F10800.000
G1 X88.137 Y74.906
G1 Z0.200
G1 E1.00000 F2100.000
;TYPE:Perimeter
G1 F1200.000
G1 X87.674 Y75.231 E0.01775
G1 X87.161 Y75.470 E0.01775
G1 X86.614 Y75.616 E0.01775
G1 X86.050 Y75.666 E0.01775
G1 X85.486 Y75.616 E0.01775
G1 X84.939 Y75.470 E0.01775
G1 X84.426 Y75.231 E0.01775
G1 X83.963 Y74.906 E0.01775
G1 X83.583 Y74.526 E0.01683
G1 X83.239 Y74.044 E0.01857
G1 X82.998 Y73.529 E0.01784
G1 X82.852 Y72.982 E0.01775
G1 X82.802 Y72.418 E0.01775
G1 X82.852 Y71.854 E0.01775
G1 X82.998 Y71.307 E0.01775
G1 X83.238 Y70.794 E0.01775
G1 X83.562 Y70.331 E0.01775
G1 X83.963 Y69.930 E0.01775
G1 X84.426 Y69.606 E0.01775
G1 X84.939 Y69.366 E0.01775
G1 X85.486 Y69.220 E0.01775
G1 X86.021 Y69.173 E0.01683
G1 X86.611 Y69.219 E0.01857
G1 X87.161 Y69.366 E0.01784
G1 X87.674 Y69.606 E0.01775
G1 X88.137 Y69.930 E0.01775
G1 X88.538 Y70.331 E0.01775
G1 X88.862 Y70.794 E0.01775
G1 X89.102 Y71.307 E0.01775
G1 X89.248 Y71.854 E0.01775
G1 X89.298 Y72.418 E0.01775
G1 X89.248 Y72.982 E0.01775
G1 X89.109 Y73.501 E0.01683
G1 X88.864 Y74.040 E0.01857
G1 X88.538 Y74.506 E0.01784
G1 X88.180 Y74.863 E0.01587
G1 X87.913 Y74.597 F10800.000
;TYPE:External perimeter
G1 F1200.000
G1 X87.485 Y74.903 E0.01652
G1 X87.031 Y75.114 E0.01568
G1 X86.548 Y75.244 E0.01568
G1 X86.050 Y75.287 E0.01568
G1 X85.552 Y75.244 E0.01568
G1 X85.069 Y75.114 E0.01568
G1 X84.615 Y74.903 E0.01568
G1 X84.206 Y74.616 E0.01568
G1 X83.872 Y74.282 E0.01482
G1 X83.566 Y73.854 E0.01650
G1 X83.354 Y73.399 E0.01571
G1 X83.225 Y72.916 E0.01568
G1 X83.181 Y72.418 E0.01568
G1 X83.225 Y71.920 E0.01568
G1 X83.354 Y71.437 E0.01568
G1 X83.565 Y70.984 E0.01568
G1 X83.852 Y70.574 E0.01568
G1 X84.206 Y70.220 E0.01568
G1 X84.615 Y69.934 E0.01568
G1 X85.069 Y69.722 E0.01568
G1 X85.552 Y69.593 E0.01568
G1 X86.023 Y69.552 E0.01482
G1 X86.547 Y69.592 E0.01650
G1 X87.031 Y69.722 E0.01571
G1 X87.485 Y69.934 E0.01568
G1 X87.894 Y70.220 E0.01568
G1 X88.248 Y70.574 E0.01568
G1 X88.535 Y70.984 E0.01568
G1 X88.746 Y71.437 E0.01568
G1 X88.875 Y71.920 E0.01568
G1 X88.919 Y72.418 E0.01568
G1 X88.875 Y72.916 E0.01568
G1 X88.753 Y73.373 E0.01482
G1 X88.535 Y73.852 E0.01650
G1 X88.248 Y74.262 E0.01571
G1 X87.956 Y74.554 E0.01295
G1 X87.985 Y74.990 F10800.000
;WIPE_START
G1 F8640.000
G1 X87.485 Y74.903 E-0.13531
G1 X87.031 Y75.114 E-0.11547
G1 X86.548 Y75.244 E-0.11548
G1 X86.050 Y75.287 E-0.11547
G1 X85.552 Y75.244 E-0.11547
G1 X85.069 Y75.114 E-0.11547
G1 X84.615 Y74.903 E-0.11548
G1 X84.206 Y74.616 E-0.11547
G1 X84.186 Y74.596 E-0.00637
;WIPE_END
G1 E-0.05000 F2100.000
G1 Z0.400 F10800.000
G1 X135.875 Y72.418
G1 Z0.200
G1 E1.00000 F2100.000
;TYPE:Perimeter
G1 F1200.000
G1 X135.924 Y71.854 E0.01775
G1 X136.071 Y71.307 E0.01775
G1 X136.310 Y70.794 E0.01775
G1 X136.635 Y70.331 E0.01775
G1 X137.035 Y69.930 E0.01775
G1 X137.499 Y69.606 E0.01775
G1 X138.012 Y69.366 E0.01775
G1 X138.559 Y69.220 E0.01775
G1 X139.093 Y69.173 E0.01683
G1 X139.684 Y69.219 E0.01857
G1 X140.233 Y69.366 E0.01784
G1 X140.746 Y69.606 E0.01775
G1 X141.210 Y69.930 E0.01775
G1 X141.610 Y70.331 E0.01775
G1 X141.935 Y70.794 E0.01775
G1 X142.162 Y71.281 E0.01683
G1 X142.320 Y71.851 E0.01857
G1 X142.370 Y72.418 E0.01784
G1 X142.321 Y72.982 E0.01775
G1 X142.174 Y73.529 E0.01775
G1 X141.935 Y74.042 E0.01775
G1 X141.610 Y74.506 E0.01775
G1 X141.210 Y74.906 E0.01775
G1 X140.746 Y75.231 E0.01775
G1 X140.233 Y75.470 E0.01775
G1 X139.686 Y75.616 E0.01775
G1 X139.123 Y75.666 E0.01775
G1 X138.559 Y75.616 E0.01775
G1 X138.012 Y75.470 E0.01775
G1 X137.499 Y75.231 E0.01775
G1 X137.035 Y74.906 E0.01775
G1 X136.635 Y74.506 E0.01775
G1 X136.310 Y74.042 E0.01775
G1 X136.083 Y73.555 E0.01683
G1 X135.925 Y72.985 E0.01857
G1 X135.880 Y72.478 E0.01595
G1 X136.256 Y72.445 F10800.000
;TYPE:External perimeter
G1 F1200.000
G1 X136.297 Y71.920 E0.01652
G1 X136.427 Y71.437 E0.01568
G1 X136.638 Y70.984 E0.01568
G1 X136.925 Y70.574 E0.01568
G1 X137.278 Y70.220 E0.01568
G1 X137.688 Y69.934 E0.01568
G1 X138.141 Y69.722 E0.01568
G1 X138.624 Y69.593 E0.01568
G1 X139.095 Y69.552 E0.01482
G1 X139.620 Y69.592 E0.01650
G1 X140.104 Y69.722 E0.01571
G1 X140.557 Y69.934 E0.01568
G1 X140.967 Y70.220 E0.01568
G1 X141.320 Y70.574 E0.01568
G1 X141.607 Y70.984 E0.01568
G1 X141.807 Y71.412 E0.01482
G1 X141.948 Y71.919 E0.01650
G1 X141.992 Y72.418 E0.01571
G1 X141.948 Y72.916 E0.01568
G1 X141.818 Y73.399 E0.01568
G1 X141.607 Y73.853 E0.01568
G1 X141.320 Y74.262 E0.01568
G1 X140.967 Y74.616 E0.01568
G1 X140.557 Y74.903 E0.01568
G1 X140.104 Y75.114 E0.01568
G1 X139.621 Y75.244 E0.01568
G1 X139.123 Y75.287 E0.01568
G1 X138.624 Y75.244 E0.01568
G1 X138.141 Y75.114 E0.01568
G1 X137.688 Y74.903 E0.01568
G1 X137.278 Y74.616 E0.01568
G1 X136.925 Y74.262 E0.01568
G1 X136.638 Y73.853 E0.01568
G1 X136.438 Y73.424 E0.01482
G1 X136.297 Y72.917 E0.01650
G1 X136.261 Y72.505 E0.01298
G1 X135.908 Y72.248 F10800.000
;WIPE_START
G1 F8640.000
G1 X136.297 Y71.920 E-0.13531
G1 X136.427 Y71.437 E-0.11548
G1 X136.638 Y70.984 E-0.11548
G1 X136.925 Y70.574 E-0.11547
G1 X137.278 Y70.220 E-0.11548
G1 X137.688 Y69.934 E-0.11548
G1 X138.141 Y69.722 E-0.11548
G1 X138.624 Y69.593 E-0.11547
G1 X138.652 Y69.590 E-0.00637
;WIPE_END
G1 E-0.05000 F2100.000
G1 Z0.400 F10800.000
G1 X127.477 Y36.212
G1 Z0.200
G1 E1.00000 F2100.000
;TYPE:Perimeter
G1 F1200.000
G1 X126.763 Y36.328 E0.02269
G1 X126.083 Y36.328 E0.02131
G1 X125.391 Y36.218 E0.02198
G1 X124.725 Y35.997 E0.02200
G1 X124.102 Y35.673 E0.02203
G1 X123.523 Y35.238 E0.02269
G1 X123.052 Y34.748 E0.02131
G1 X122.653 Y34.172 E0.02198
G1 X122.350 Y33.539 E0.02200
G1 X122.153 Y32.865 E0.02200
G1 X122.066 Y32.169 E0.02200
G1 X122.093 Y31.467 E0.02203
G1 X122.238 Y30.757 E0.02271
G1 X122.488 Y30.102 E0.02200
G1 X122.828 Y29.514 E0.02129
G1 X123.270 Y28.969 E0.02200
G1 X123.812 Y28.489 E0.02271
G1 X124.407 Y28.115 E0.02203
G1 X125.053 Y27.842 E0.02198
G1 X125.712 Y27.680 E0.02129
G1 X126.410 Y27.621 E0.02197
G1 X127.110 Y27.676 E0.02200
G1 X127.792 Y27.842 E0.02200
G1 X128.439 Y28.115 E0.02203
G1 X129.050 Y28.502 E0.02269
G1 X129.559 Y28.953 E0.02131
G1 X130.004 Y29.494 E0.02198
G1 X130.357 Y30.102 E0.02203
G1 X130.614 Y30.779 E0.02271
G1 X130.752 Y31.468 E0.02203
G1 X130.779 Y32.169 E0.02200
G1 X130.692 Y32.865 E0.02198
G1 X130.503 Y33.517 E0.02129
G1 X130.204 Y34.152 E0.02200
G1 X129.793 Y34.747 E0.02269
G1 X129.322 Y35.237 E0.02131
G1 X128.763 Y35.660 E0.02197
G1 X128.143 Y35.988 E0.02200
G1 X127.534 Y36.193 E0.02015
G1 X127.413 Y35.836 F10800.000
;TYPE:External perimeter
G1 F1200.000
G1 X126.732 Y35.951 E0.02166
G1 X126.113 Y35.951 E0.01942
G1 X125.480 Y35.850 E0.02008
G1 X124.872 Y35.649 E0.02009
G1 X124.304 Y35.353 E0.02010
G1 X123.774 Y34.955 E0.02076
G1 X123.345 Y34.508 E0.01942
G1 X122.980 Y33.982 E0.02008
G1 X122.703 Y33.404 E0.02009
G1 X122.523 Y32.789 E0.02009
G1 X122.444 Y32.153 E0.02009
G1 X122.468 Y31.512 E0.02010
G1 X122.601 Y30.863 E0.02077
G1 X122.830 Y30.265 E0.02009
G1 X123.139 Y29.728 E0.01941
G1 X123.543 Y29.231 E0.02009
G1 X124.039 Y28.792 E0.02077
G1 X124.582 Y28.450 E0.02010
G1 X125.172 Y28.201 E0.02008
G1 X125.773 Y28.053 E0.01941
G1 X126.411 Y28.000 E0.02008
G1 X127.050 Y28.049 E0.02009
G1 X127.673 Y28.201 E0.02009
G1 X128.263 Y28.451 E0.02010
G1 X128.823 Y28.804 E0.02076
G1 X129.287 Y29.215 E0.01942
G1 X129.693 Y29.710 E0.02008
G1 X130.015 Y30.265 E0.02010
G1 X130.250 Y30.884 E0.02077
G1 X130.377 Y31.512 E0.02010
G1 X130.401 Y32.153 E0.02009
G1 X130.322 Y32.788 E0.02008
G1 X130.149 Y33.383 E0.01941
G1 X129.876 Y33.963 E0.02009
G1 X129.500 Y34.508 E0.02076
G1 X129.071 Y34.955 E0.01942
G1 X128.560 Y35.341 E0.02008
G1 X127.994 Y35.640 E0.02009
G1 X127.470 Y35.816 E0.01731
G1 X127.305 Y36.221 F10800.000
;WIPE_START
G1 F8640.000
G1 X126.732 Y35.951 E-0.17321
G1 X126.113 Y35.951 E-0.14303
G1 X125.480 Y35.850 E-0.14790
G1 X124.872 Y35.649 E-0.14797
G1 X124.304 Y35.353 E-0.14803
G1 X123.774 Y34.955 E-0.15290
G1 X123.663 Y34.839 E-0.03697
;WIPE_END
G1 E-0.05000 F2100.000
G1 Z0.400 F10800.000
G1 X89.433 Y170.204
G1 Z0.200
G1 E1.00000 F2100.000
;TYPE:Perimeter
G1 F1200.000
G1 X89.946 Y170.444 E0.01775
G1 X90.410 Y170.768 E0.01775
G1 X90.810 Y171.169 E0.01775
G1 X91.135 Y171.632 E0.01775
G1 X91.374 Y172.145 E0.01775
G1 X91.521 Y172.692 E0.01775
G1 X91.570 Y173.256 E0.01775
G1 X91.521 Y173.820 E0.01775
G1 X91.374 Y174.367 E0.01775
G1 X91.135 Y174.880 E0.01775
G1 X90.810 Y175.344 E0.01775
G1 X90.410 Y175.744 E0.01775
G1 X89.946 Y176.069 E0.01775
G1 X89.433 Y176.308 E0.01775
G1 X88.886 Y176.454 E0.01775
G1 X88.323 Y176.504 E0.01775
G1 X87.759 Y176.454 E0.01775
G1 X87.212 Y176.308 E0.01775
G1 X86.699 Y176.069 E0.01775
G1 X86.235 Y175.744 E0.01775
G1 X85.835 Y175.344 E0.01775
G1 X85.510 Y174.880 E0.01775
G1 X85.283 Y174.393 E0.01683
G1 X85.125 Y173.823 E0.01857
G1 X85.075 Y173.256 E0.01784
G1 X85.124 Y172.692 E0.01775
G1 X85.271 Y172.145 E0.01775
G1 X85.510 Y171.632 E0.01775
G1 X85.835 Y171.169 E0.01775
G1 X86.235 Y170.768 E0.01775
G1 X86.699 Y170.444 E0.01775
G1 X87.212 Y170.204 E0.01775
G1 X87.759 Y170.058 E0.01775
G1 X88.293 Y170.011 E0.01683
G1 X88.884 Y170.057 E0.01857
G1 X89.375 Y170.189 E0.01596
G1 X89.278 Y170.553 F10800.000
;TYPE:External perimeter
G1 F1200.000
G1 X89.757 Y170.772 E0.01651
G1 X90.167 Y171.058 E0.01568
G1 X90.520 Y171.412 E0.01568
G1 X90.807 Y171.822 E0.01568
G1 X91.018 Y172.275 E0.01568
G1 X91.148 Y172.758 E0.01568
G1 X91.192 Y173.256 E0.01568
G1 X91.148 Y173.754 E0.01568
G1 X91.018 Y174.237 E0.01568
G1 X90.807 Y174.691 E0.01568
G1 X90.520 Y175.100 E0.01568
G1 X90.167 Y175.454 E0.01568
G1 X89.757 Y175.741 E0.01568
G1 X89.304 Y175.952 E0.01568
G1 X88.821 Y176.082 E0.01568
