; generated by PrusaSlicer 2.3.3+win64 on 2021-12-27 at 06:21:49 UTC

; 

; external perimeters extrusion width = 0.60mm
; perimeters extrusion width = 0.50mm
; infill extrusion width = 0.50mm
; solid infill extrusion width = 0.50mm
; top infill extrusion width = 0.45mm
; first layer extrusion width = 0.42mm

M73 P0 R201
M73 Q0 S202
M201 X1000 Y1000 Z200 E5000 ; sets maximum accelerations, mm/sec^2
M203 X200 Y200 Z12 E120 ; sets maximum feedrates, mm/sec
M204 P1250 R1250 T1250 ; sets acceleration (P, T) and retract acceleration (R), mm/sec^2
M205 X8.00 Y8.00 Z0.40 E4.50 ; sets the jerk limits, mm/sec
M205 S0 T0 ; sets the minimum extruding and travel feed rate, mm/sec
M107
;TYPE:Custom
M862.3 P "MK3S" ; printer model check
M862.1 P0.4 ; nozzle diameter check
M115 U3.10.0 ; tell printer latest fw version
G90 ; use absolute coordinates
M83 ; extruder relative mode
M104 S240 ; set extruder temp
M140 S85 ; set bed temp
M190 S85 ; wait for bed temp
M109 S240 ; wait for extruder temp
G28 W ; home all without mesh bed level
G80 ; mesh bed leveling
G1 Y-3.0 F1000.0 ; go outside print area
G92 E0.0
G1 X60.0 E9.0 F1000.0 ; intro line
G1 X100.0 E12.5 F1000.0 ; intro line
G92 E0.0
M221 S95

; Don't change E values below. Excessive value can damage the printer.

M907 E538 ; set extruder motor current
G21 ; set units to millimeters
G90 ; use absolute coordinates
M83 ; use relative distances for extrusion
M900 K0.08 ; Filament gcode LA 1.5
M900 K45 ; Filament gcode LA 1.0
;LAYER_CHANGE
;Z:0.2
;HEIGHT:0.2
;BEFORE_LAYER_CHANGE
G92 E0.0
;0.2


G1 E-1.00000 F2100.000
G1 Z0.200 F10800.000
;AFTER_LAYER_CHANGE
;0.2
G1 Z0.400
G1 X44.229 Y70.337
G1 Z0.200
G1 E1.00000 F2100.000
M204 S1000
;TYPE:Skirt
;WIDTH:0.42
G1 F1200.000
G1 X45.080 Y69.346 E0.04096
G1 X45.775 Y68.793 E0.02784
G1 X46.645 Y68.322 E0.03102
G1 X47.733 Y67.978 E0.03579
G1 X48.840 Y67.864 E0.03489
G1 X201.237 Y67.864 E4.77831
G1 X202.306 Y67.969 E0.03367
G1 X203.354 Y68.284 E0.03431
G1 X204.314 Y68.797 E0.03412
G1 X205.148 Y69.478 E0.03377
G1 X205.845 Y70.324 E0.03437
G1 X206.355 Y71.272 E0.03376
G1 X206.672 Y72.303 E0.03382
G1 X206.783 Y73.337 E0.03259
G1 X206.782 Y137.023 E1.99685
G1 X206.682 Y137.976 E0.03004
G1 X206.435 Y138.836 E0.02806
G1 X205.850 Y139.990 E0.04057
G1 X205.009 Y140.970 E0.04051
G1 X204.310 Y141.529 E0.02803
G1 X203.437 Y142.003 E0.03115
G1 X202.349 Y142.347 E0.03578
G1 X201.242 Y142.461 E0.03489
G1 X48.807 Y142.460 E4.77950
M73 Q0 S201
G1 X47.806 Y142.361 E0.03152
G1 X46.936 Y142.115 E0.02835
G1 X45.772 Y141.530 E0.04087
G1 X44.777 Y140.675 E0.04111
G1 X44.225 Y139.980 E0.02785
G1 X43.750 Y139.104 E0.03124
G1 X43.410 Y138.021 E0.03558
G1 X43.298 Y136.935 E0.03423
G1 X43.299 Y73.320 E1.99460
M73 P0 R200
G1 X43.400 Y72.352 E0.03053
G1 X43.647 Y71.492 E0.02804
G1 X44.202 Y70.391 E0.03868
; printing object Stand_for_airsoft_glock_customisable.stl id:0 copy 0
;WIPE_START
G1 F8640.000
G1 X45.080 Y69.346 E-0.31511
G1 X45.775 Y68.793 E-0.20499
G1 X46.645 Y68.322 E-0.22846
G1 X47.477 Y68.059 E-0.20143
;WIPE_END
G1 E-0.05000 F2100.000
G1 Z0.400 F10800.000
G1 X127.718 Y112.165
G1 Z0.200
G1 E1.00000 F2100.000
;TYPE:Perimeter
G1 F1200.000
G1 X132.172 Y104.450 E0.27931
G1 X141.080 Y104.450 E0.27930
G1 X145.534 Y112.165 E0.27931
G1 X141.080 Y119.879 E0.27931
G1 X132.172 Y119.879 E0.27930
G1 X127.748 Y112.217 E0.27742
G1 X128.154 Y112.165 F10800.000
;TYPE:External perimeter
G1 F1200.000
G1 X132.390 Y104.827 E0.26565
G1 X140.863 Y104.827 E0.26565
G1 X145.099 Y112.165 E0.26565
G1 X140.863 Y119.502 E0.26565
G1 X132.390 Y119.502 E0.26565
G1 X128.184 Y112.217 E0.26377
G1 X127.807 Y111.965 F10800.000
;WIPE_START
G1 F8640.000
G1 X130.219 Y108.641 E-0.95000
;WIPE_END
G1 E-0.05000 F2100.000
G1 Z0.400 F10800.000
G1 X149.491 Y94.451
G1 Z0.200
G1 E1.00000 F2100.000
;TYPE:Perimeter
G1 F1200.000
G1 X157.140 Y94.451 E0.23982
G1 X157.429 Y95.763 E0.04214
G1 X156.648 Y96.125 E0.02698
G1 X156.178 Y96.401 E0.01710
G1 X155.737 Y96.721 E0.01709
G1 X155.328 Y97.082 E0.01710
G1 X154.933 Y97.508 E0.01822
G1 X154.583 Y97.969 E0.01812
G1 X154.282 Y98.461 E0.01811
G1 X154.031 Y98.982 E0.01812
G1 X153.824 Y99.546 E0.01884
G1 X153.677 Y100.127 E0.01880
G1 X153.590 Y100.708 E0.01841
G1 X153.560 Y101.317 E0.01912
G1 X153.560 Y109.880 E0.26849
G1 X149.491 Y109.880 E0.12757
G1 X145.037 Y102.166 E0.27930
G1 X149.461 Y94.503 E0.27742
G1 X149.709 Y94.828 F10800.000
;TYPE:External perimeter
G1 F1200.000
G1 X156.837 Y94.828 E0.22349
G1 X156.995 Y95.549 E0.02313
G1 X156.473 Y95.791 E0.01805
G1 X155.971 Y96.085 E0.01824
G1 X155.501 Y96.427 E0.01823
G1 X155.064 Y96.812 E0.01825
G1 X154.643 Y97.265 E0.01939
G1 X154.272 Y97.756 E0.01930
G1 X153.951 Y98.280 E0.01928
G1 X153.683 Y98.835 E0.01930
G1 X153.464 Y99.435 E0.02004
G1 X153.307 Y100.053 E0.01998
G1 X153.214 Y100.671 E0.01961
G1 X153.183 Y101.308 E0.01999
G1 X153.183 Y109.503 E0.25696
G1 X149.709 Y109.503 E0.10892
G1 X145.473 Y102.166 E0.26565
G1 X149.679 Y94.880 E0.26377
G1 X149.709 Y94.428 F10800.000
;WIPE_START
G1 F8640.000
G1 X153.793 Y94.850 E-0.95000
;WIPE_END
G1 E-0.05000 F2100.000
G1 Z0.400 F10800.000
G1 X132.172 Y84.452
G1 Z0.200
G1 E1.00000 F2100.000
;TYPE:Perimeter
G1 F1200.000
G1 X141.080 Y84.452 E0.27930
G1 X145.534 Y92.167 E0.27931
G1 X141.080 Y99.881 E0.27931
G1 X132.172 Y99.881 E0.27930
G1 X127.718 Y92.167 E0.27931
G1 X132.142 Y84.504 E0.27742
G1 X132.390 Y84.829 F10800.000
;TYPE:External perimeter
G1 F1200.000
G1 X140.863 Y84.829 E0.26565
G1 X145.099 Y92.167 E0.26565
G1 X140.863 Y99.504 E0.26565
G1 X132.390 Y99.504 E0.26565
G1 X128.154 Y92.167 E0.26565
G1 X132.360 Y84.881 E0.26377
G1 X132.390 Y84.429 F10800.000
;WIPE_START
G1 F8640.000
G1 X136.474 Y84.856 E-0.95000
;WIPE_END
G1 E-0.05000 F2100.000
G1 Z0.400 F10800.000
G1 X132.360 Y79.883
G1 Z0.200
G1 E1.00000 F2100.000
;TYPE:Perimeter
G1 F1200.000
G1 X132.172 Y79.883 E0.00589
G1 X129.492 Y75.240 E0.16810
G1 X129.946 Y74.453 E0.02850
G1 X143.307 Y74.453 E0.41891
G1 X143.761 Y75.240 E0.02850
G1 X141.080 Y79.883 E0.16810
G1 X132.420 Y79.883 E0.27154
G1 X132.420 Y79.506 F10800.000
;TYPE:External perimeter
G1 F1200.000
G1 X132.390 Y79.506 E0.00094
G1 X129.927 Y75.240 E0.15445
G1 X130.164 Y74.830 E0.01484
G1 X143.089 Y74.830 E0.40526
G1 X143.326 Y75.240 E0.01484
G1 X140.863 Y79.506 E0.15445
G1 X132.480 Y79.506 E0.26283
G1 X132.408 Y79.534 F10800.000
;WIPE_START
G1 F8640.000
G1 X132.390 Y79.506 E-0.02078
G1 X130.378 Y76.021 E-0.92922
;WIPE_END
G1 E-0.05000 F2100.000
G1 Z0.400 F10800.000
G1 X128.129 Y82.018
G1 Z0.200
G1 E1.00000 F2100.000
;TYPE:Perimeter
G1 F1200.000
G1 X128.216 Y82.168 E0.00541
G1 X123.762 Y89.882 E0.27931
G1 X114.854 Y89.882 E0.27930
G1 X110.400 Y82.168 E0.27931
G1 X114.854 Y74.453 E0.27931
G1 X123.762 Y74.453 E0.27930
G1 X128.099 Y81.966 E0.27201
G1 X127.773 Y82.155 F10800.000
;TYPE:External perimeter
G1 F1200.000
G1 X127.780 Y82.168 E0.00047
G1 X123.544 Y89.505 E0.26565
G1 X115.071 Y89.505 E0.26565
G1 X110.835 Y82.168 E0.26565
G1 X115.071 Y74.830 E0.26565
G1 X123.544 Y74.830 E0.26565
G1 X127.743 Y82.103 E0.26330
G1 X127.788 Y82.152 F10800.000
;WIPE_START
G1 F8640.000
G1 X127.780 Y82.168 E-0.01731
G1 X125.761 Y85.666 E-0.93269
;WIPE_END
G1 E-0.05000 F2100.000
G1 Z0.400 F10800.000
G1 X123.762 Y94.451
G1 Z0.200
G1 E1.00000 F2100.000
;TYPE:Perimeter
G1 F1200.000
G1 X128.216 Y102.166 E0.27931
G1 X123.762 Y109.880 E0.27931
G1 X114.854 Y109.880 E0.27930
G1 X110.400 Y102.166 E0.27931
G1 X114.854 Y94.451 E0.27931
G1 X123.702 Y94.451 E0.27742
G1 X123.544 Y94.828 F10800.000
;TYPE:External perimeter
G1 F1200.000
G1 X127.780 Y102.166 E0.26565
G1 X123.544 Y109.503 E0.26565
G1 X115.071 Y109.503 E0.26565
G1 X110.835 Y102.166 E0.26565
G1 X115.071 Y94.828 E0.26565
G1 X123.484 Y94.828 E0.26377
G1 X123.890 Y94.628 F10800.000
;WIPE_START
G1 F8640.000
G1 X125.563 Y98.379 E-0.95000
;WIPE_END
G1 E-0.05000 F2100.000
G1 Z0.400 F10800.000
G1 X114.854 Y114.449
G1 Z0.200
G1 E1.00000 F2100.000
;TYPE:Perimeter
G1 F1200.000
G1 X123.762 Y114.449 E0.27930
G1 X128.216 Y122.164 E0.27931
G1 X123.762 Y129.878 E0.27931
G1 X114.854 Y129.878 E0.27930
G1 X110.400 Y122.164 E0.27931
G1 X114.824 Y114.501 E0.27742
G1 X115.071 Y114.826 F10800.000
;TYPE:External perimeter
G1 F1200.000
G1 X123.544 Y114.826 E0.26565
G1 X127.780 Y122.164 E0.26565
G1 X123.544 Y129.501 E0.26565
G1 X115.071 Y129.501 E0.26565
G1 X110.835 Y122.164 E0.26565
G1 X115.041 Y114.878 E0.26377
G1 X115.071 Y114.426 F10800.000
;WIPE_START
G1 F8640.000
G1 X119.156 Y114.853 E-0.95000
;WIPE_END
G1 E-0.05000 F2100.000
G1 Z0.400 F10800.000
G1 X132.172 Y124.448
G1 Z0.200
G1 E1.00000 F2100.000
;TYPE:Perimeter
G1 F1200.000
G1 X141.080 Y124.448 E0.27930
G1 X145.534 Y132.163 E0.27931
G1 X143.307 Y136.021 E0.13970
G1 X129.946 Y136.021 E0.41891
G1 X127.718 Y132.163 E0.13970
G1 X132.142 Y124.500 E0.27742
G1 X132.390 Y124.825 F10800.000
;TYPE:External perimeter
G1 F1200.000
G1 X140.863 Y124.825 E0.26565
G1 X145.099 Y132.163 E0.26565
G1 X143.089 Y135.644 E0.12605
G1 X130.164 Y135.644 E0.40526
G1 X128.154 Y132.163 E0.12605
G1 X132.360 Y124.877 E0.26377
G1 X132.417 Y124.426 F10800.000
;WIPE_START
G1 F8640.000
G1 X136.474 Y124.852 E-0.95000
;WIPE_END
G1 E-0.05000 F2100.000
G1 Z0.400 F10800.000
G1 X145.037 Y122.164
G1 Z0.200
G1 E1.00000 F2100.000
;TYPE:Perimeter
G1 F1200.000
G1 X149.491 Y114.449 E0.27930
G1 X154.678 Y114.449 E0.16262
G1 X155.286 Y115.113 E0.02824
G1 X155.834 Y115.588 E0.02272
G1 X156.243 Y115.876 E0.01569
G1 X156.682 Y116.129 E0.01591
G1 X156.949 Y116.254 E0.00924
G1 X157.591 Y116.500 E0.02155
G1 X158.058 Y116.622 E0.01514
G1 X158.733 Y116.726 E0.02140
G1 X159.734 Y116.761 E0.03141
G1 X162.853 Y122.164 E0.19561
G1 X158.399 Y129.878 E0.27931
G1 X149.491 Y129.878 E0.27931
G1 X145.067 Y122.216 E0.27742
G1 X145.473 Y122.164 F10800.000
;TYPE:External perimeter
G1 F1200.000
G1 X149.709 Y114.826 E0.26565
G1 X154.512 Y114.826 E0.15059
G1 X155.023 Y115.384 E0.02372
G1 X155.601 Y115.885 E0.02400
G1 X156.040 Y116.194 E0.01682
G1 X156.508 Y116.464 E0.01694
G1 X156.801 Y116.602 E0.01016
G1 X157.475 Y116.860 E0.02263
G1 X157.982 Y116.992 E0.01640
G1 X158.697 Y117.102 E0.02270
G1 X159.512 Y117.130 E0.02555
G1 X162.418 Y122.164 E0.18224
G1 X158.182 Y129.501 E0.26565
G1 X149.709 Y129.501 E0.26566
G1 X145.503 Y122.216 E0.26377
G1 X145.126 Y121.964 F10800.000
;WIPE_START
G1 F8640.000
G1 X147.538 Y118.640 E-0.95000
;WIPE_END
G1 E-0.05000 F2100.000
G1 Z0.400 F10800.000
G1 X165.003 Y116.749
G1 Z0.200
G1 E1.00000 F2100.000
;TYPE:Perimeter
G1 F1200.000
G1 X177.525 Y116.749 E0.39264
G1 X175.718 Y119.879 E0.11333
G1 X166.810 Y119.879 E0.27930
G1 X165.033 Y116.801 E0.11145
G1 X165.656 Y117.126 F10800.000
;TYPE:External perimeter
G1 F1200.000
G1 X176.872 Y117.126 E0.35168
G1 X175.500 Y119.502 E0.08603
G1 X167.028 Y119.502 E0.26565
M73 Q0 S200
G1 X165.686 Y117.178 E0.08415
G1 X165.484 Y116.765 F10800.000
;WIPE_START
G1 F8640.000
G1 X169.800 Y117.159 E-0.95000
;WIPE_END
G1 E-0.05000 F2100.000
G1 Z0.400 F10800.000
G1 X166.810 Y124.448
G1 Z0.200
G1 E1.00000 F2100.000
;TYPE:Perimeter
G1 F1200.000
G1 X175.718 Y124.448 E0.27931
G1 X180.172 Y132.163 E0.27930
G1 X177.944 Y136.021 E0.13970
G1 X164.584 Y136.021 E0.41891
G1 X162.356 Y132.163 E0.13970
G1 X166.780 Y124.500 E0.27742
G1 X167.028 Y124.825 F10800.000
;TYPE:External perimeter
G1 F1200.000
G1 X175.500 Y124.825 E0.26565
G1 X179.737 Y132.163 E0.26565
M73 P0 R199
G1 X177.727 Y135.644 E0.12605
G1 X164.801 Y135.644 E0.40526
G1 X162.791 Y132.163 E0.12605
G1 X166.998 Y124.877 E0.26377
G1 X167.055 Y124.426 F10800.000
;WIPE_START
G1 F8640.000
G1 X171.112 Y124.852 E-0.95000
;WIPE_END
G1 E-0.05000 F2100.000
G1 Z0.400 F10800.000
G1 X179.675 Y122.164
G1 Z0.200
G1 E1.00000 F2100.000
;TYPE:Perimeter
G1 F1200.000
G1 X182.801 Y116.749 E0.19604
G1 X184.008 Y116.749 E0.03785
G1 X184.361 Y116.715 E0.01111
G1 X184.663 Y116.625 E0.00989
G1 X184.952 Y116.474 E0.01022
G1 X185.204 Y116.271 E0.01015
G1 X185.429 Y116.004 E0.01095
G1 X185.595 Y115.700 E0.01088
G1 X185.702 Y115.356 E0.01127
G1 X185.792 Y114.449 E0.02858
G1 X193.037 Y114.449 E0.22715
G1 X197.491 Y122.164 E0.27930
G1 X193.037 Y129.878 E0.27930
G1 X184.129 Y129.878 E0.27931
G1 X179.705 Y122.216 E0.27743
G1 X180.110 Y122.164 F10800.000
;TYPE:External perimeter
G1 F1200.000
G1 X183.019 Y117.126 E0.18239
G1 X184.026 Y117.126 E0.03160
G1 X184.433 Y117.087 E0.01282
G1 X184.806 Y116.976 E0.01218
G1 X185.159 Y116.791 E0.01251
G1 X185.469 Y116.542 E0.01246
G1 X185.742 Y116.218 E0.01329
G1 X185.944 Y115.847 E0.01324
G1 X186.073 Y115.431 E0.01365
G1 X186.133 Y114.826 E0.01907
G1 X192.819 Y114.826 E0.20962
G1 X197.055 Y122.164 E0.26565
G1 X192.819 Y129.501 E0.26565
G1 X184.346 Y129.501 E0.26566
G1 X180.140 Y122.216 E0.26377
G1 X179.764 Y121.964 F10800.000
;WIPE_START
G1 F8640.000
G1 X182.166 Y118.634 E-0.95000
;WIPE_END
G1 E-0.05000 F2100.000
G1 Z0.400 F10800.000
G1 X185.741 Y109.880
G1 Z0.200
G1 E1.00000 F2100.000
;TYPE:Perimeter
G1 F1200.000
G1 X185.741 Y97.277 E0.39517
G1 X185.703 Y96.888 E0.01226
G1 X185.589 Y96.523 E0.01199
G1 X185.430 Y96.234 E0.01032
G1 X185.217 Y95.978 E0.01044
G1 X184.627 Y95.498 E0.02385
G1 X185.000 Y94.451 E0.03483
G1 X193.037 Y94.451 E0.25200
G1 X197.491 Y102.166 E0.27930
G1 X193.037 Y109.880 E0.27930
G1 X185.801 Y109.880 E0.22687
G1 X186.118 Y109.503 F10800.000
;TYPE:External perimeter
G1 F1200.000
G1 X186.118 Y97.258 E0.38393
G1 X186.074 Y96.812 E0.01405
G1 X185.938 Y96.374 E0.01439
G1 X185.743 Y96.021 E0.01264
G1 X185.484 Y95.709 E0.01272
G1 X185.072 Y95.373 E0.01666
G1 X185.266 Y94.828 E0.01814
G1 X192.819 Y94.828 E0.23683
G1 X197.055 Y102.166 E0.26565
G1 X192.819 Y109.503 E0.26565
G1 X186.178 Y109.503 E0.20822
G1 X185.726 Y109.581 F10800.000
;WIPE_START
G1 F8640.000
G1 X186.158 Y105.389 E-0.95000
;WIPE_END
G1 E-0.05000 F2100.000
G1 Z0.400 F10800.000
G1 X178.254 Y95.488
G1 Z0.200
G1 E1.00000 F2100.000
;TYPE:Perimeter
G1 F1200.000
G1 X164.274 Y95.488 E0.43836
G1 X162.356 Y92.167 E0.12025
G1 X166.810 Y84.452 E0.27931
G1 X175.718 Y84.452 E0.27930
G1 X180.172 Y92.167 E0.27931
G1 X178.284 Y95.436 E0.11836
G1 X178.037 Y95.111 F10800.000
;TYPE:External perimeter
G1 F1200.000
G1 X164.491 Y95.111 E0.42471
G1 X162.791 Y92.167 E0.10659
G1 X167.028 Y84.829 E0.26565
G1 X175.500 Y84.829 E0.26565
G1 X179.737 Y92.167 E0.26565
G1 X178.067 Y95.059 E0.10471
G1 X178.069 Y95.510 F10800.000
;WIPE_START
G1 F8640.000
G1 X173.953 Y95.075 E-0.95000
;WIPE_END
G1 E-0.05000 F2100.000
G1 Z0.400 F10800.000
G1 X149.491 Y74.453
G1 Z0.200
G1 E1.00000 F2100.000
;TYPE:Perimeter
G1 F1200.000
G1 X158.399 Y74.453 E0.27931
G1 X162.853 Y82.168 E0.27931
G1 X158.399 Y89.882 E0.27931
G1 X149.491 Y89.882 E0.27931
G1 X145.037 Y82.168 E0.27930
G1 X149.461 Y74.505 E0.27742
G1 X149.709 Y74.830 F10800.000
;TYPE:External perimeter
G1 F1200.000
G1 X158.182 Y74.830 E0.26566
G1 X162.418 Y82.168 E0.26565
G1 X158.182 Y89.505 E0.26565
G1 X149.709 Y89.505 E0.26566
G1 X145.473 Y82.168 E0.26565
G1 X149.679 Y74.882 E0.26377
G1 X149.709 Y74.430 F10800.000
;WIPE_START
G1 F8640.000
G1 X153.793 Y74.857 E-0.95000
;WIPE_END
G1 E-0.05000 F2100.000
G1 Z0.400 F10800.000
G1 X106.443 Y124.448
G1 Z0.200
G1 E1.00000 F2100.000
;TYPE:Perimeter
G1 F1200.000
G1 X110.897 Y132.163 E0.27930
G1 X108.669 Y136.021 E0.13970
G1 X95.309 Y136.021 E0.41891
G1 X93.081 Y132.163 E0.13970
G1 X97.535 Y124.448 E0.27931
G1 X106.383 Y124.448 E0.27743
G1 X106.225 Y124.825 F10800.000
;TYPE:External perimeter
G1 F1200.000
G1 X110.461 Y132.163 E0.26565
G1 X108.451 Y135.644 E0.12605
G1 X95.526 Y135.644 E0.40526
G1 X93.516 Y132.163 E0.12605
G1 X97.753 Y124.825 E0.26565
G1 X106.165 Y124.825 E0.26377
G1 X106.572 Y124.625 F10800.000
;WIPE_START
G1 F8640.000
G1 X108.244 Y128.376 E-0.95000
;WIPE_END
G1 E-0.05000 F2100.000
G1 Z0.400 F10800.000
G1 X93.578 Y122.164
G1 Z0.200
G1 E1.00000 F2100.000
;TYPE:Perimeter
G1 F1200.000
G1 X89.124 Y129.878 E0.27931
G1 X80.216 Y129.878 E0.27930
G1 X75.762 Y122.164 E0.27931
G1 X80.216 Y114.449 E0.27931
G1 X89.124 Y114.449 E0.27930
G1 X93.548 Y122.112 E0.27742
G1 X93.143 Y122.164 F10800.000
;TYPE:External perimeter
G1 F1200.000
G1 X88.906 Y129.501 E0.26565
G1 X80.434 Y129.501 E0.26565
M73 P1 R199
M73 Q1 S200
