; generated by PrusaSlicer 2.3.0+win64 on 2021-07-06 at 06:01:41 UTC

; 

; external perimeters extrusion width = 0.45mm
; perimeters extrusion width = 0.45mm
; infill extrusion width = 0.45mm
; solid infill extrusion width = 0.45mm
; top infill extrusion width = 0.40mm
; first layer extrusion width = 0.42mm

M73 P0 R49
M73 Q0 S49
M201 X1000 Y1000 Z200 E5000 ; sets maximum accelerations, mm/sec^2
M203 X200 Y200 Z12 E120 ; sets maximum feedrates, mm/sec
M204 P1250 R1250 T1250 ; sets acceleration (P, T) and retract acceleration (R), mm/sec^2
M205 X8.00 Y8.00 Z0.40 E4.50 ; sets the jerk limits, mm/sec
M205 S0 T0 ; sets the minimum extruding and travel feed rate, mm/sec
M107
;TYPE:Custom
M862.3 P "MK3S" ; printer model check
M862.1 P0.4 ; nozzle diameter check
M115 U3.9.1 ; tell printer latest fw version
G90 ; use absolute coordinates
M83 ; extruder relative mode
M104 S240 ; set extruder temp
M140 S85 ; set bed temp
M190 S85 ; wait for bed temp
M109 S240 ; wait for extruder temp
G28 W ; home all without mesh bed level
G80 ; mesh bed leveling
G1 Y-3.0 F1000.0 ; go outside print area
G92 E0.0
G1 X60.0 E9.0 F1000.0 ; intro line
G1 X100.0 E12.5 F1000.0 ; intro line
G92 E0.0
M221 S95

; Don't change E values below. Excessive value can damage the printer.
M907 E430 ; set extruder motor current
G21 ; set units to millimeters
G90 ; use absolute coordinates
M83 ; use relative distances for extrusion
M900 K0.08 ; Filament gcode LA 1.5
M900 K45 ; Filament gcode LA 1.0
;LAYER_CHANGE
;Z:0.2
;HEIGHT:0.2
;BEFORE_LAYER_CHANGE
G92 E0.0
;0.2


G1 E-1.40000 F2100.000
G1 Z0.200 F10800.000
;AFTER_LAYER_CHANGE
;0.2
G1 Z0.400
G1 X110.797 Y75.608
G1 Z0.200
G1 E1.40000 F2100.000
M204 S1000
;TYPE:Skirt
;WIDTH:0.42
G1 F1200.000
G1 X111.132 Y75.030 E0.02095
G1 X111.615 Y74.568 E0.02095
G1 X112.207 Y74.259 E0.02095
G1 X112.866 Y74.127 E0.02107
G1 X137.004 Y74.123 E0.75683
G1 X137.892 Y74.297 E0.02837
G1 X138.653 Y74.792 E0.02849
G1 X139.172 Y75.534 E0.02837
G1 X139.376 Y76.415 E0.02837
G1 X139.377 Y133.508 E1.79009
G1 X139.203 Y134.392 E0.02825
G1 X138.864 Y134.976 E0.02119
G1 X138.376 Y135.438 E0.02107
G1 X137.775 Y135.747 E0.02119
G1 X137.115 Y135.874 E0.02107
G1 X112.985 Y135.877 E0.75660
G1 X112.108 Y135.703 E0.02802
G1 X111.512 Y135.354 E0.02166
G1 X111.044 Y134.851 E0.02154
G1 X110.738 Y134.232 E0.02166
G1 X110.623 Y133.551 E0.02166
G1 X110.623 Y76.492 E1.78902
G1 X110.785 Y75.667 E0.02637
;WIPE_START
G1 F8640.000
G1 X111.132 Y75.030 E-0.16744
G1 X111.615 Y74.568 E-0.15428
G1 X112.207 Y74.259 E-0.15428
G1 X112.866 Y74.127 E-0.15515
G1 X115.892 Y74.126 E-0.69884
;WIPE_END
G1 E-0.07000 F2100.000
G1 Z0.400 F10800.000
G1 X134.000 Y104.000
G1 Z0.200
G1 E1.40000 F2100.000
;TYPE:External perimeter
G1 F1200.000
G1 X134.293 Y103.776 E0.01157
G1 X134.634 Y103.635 E0.01158
G1 X135.001 Y103.587 E0.01158
G1 X135.368 Y103.637 E0.01162
G1 X135.708 Y103.786 E0.01165
G1 X135.994 Y104.023 E0.01164
G1 X136.198 Y104.333 E0.01164
G1 X136.289 Y104.675 E0.01109
G1 X136.313 Y105.000 E0.01021
G1 X136.289 Y105.325 E0.01021
G1 X136.197 Y105.667 E0.01109
G1 X135.994 Y105.977 E0.01164
G1 X135.708 Y106.214 E0.01164
G1 X135.368 Y106.363 E0.01165
G1 X135.001 Y106.413 E0.01161
G1 X134.634 Y106.365 E0.01158
G1 X134.293 Y106.224 E0.01158
G1 X134.000 Y106.000 E0.01157
G1 X133.776 Y105.707 E0.01157
G1 X133.635 Y105.366 E0.01157
G1 X133.586 Y105.000 E0.01157
G1 X133.635 Y104.634 E0.01157
G1 X133.776 Y104.293 E0.01157
G1 X133.964 Y104.048 E0.00969
G1 X133.905 Y103.644 F10800.000
;WIPE_START
G1 F8640.000
G1 X134.293 Y103.776 E-0.09866
G1 X134.634 Y103.635 E-0.08524
G1 X135.001 Y103.587 E-0.08528
G1 X135.368 Y103.637 E-0.08555
G1 X135.708 Y103.786 E-0.08578
G1 X135.994 Y104.023 E-0.08574
G1 X136.198 Y104.333 E-0.08570
G1 X136.289 Y104.675 E-0.08168
G1 X136.313 Y105.000 E-0.07522
G1 X136.289 Y105.325 E-0.07522
G1 X136.197 Y105.667 E-0.08168
G1 X135.994 Y105.977 E-0.08570
G1 X135.708 Y106.214 E-0.08574
G1 X135.368 Y106.363 E-0.08577
G1 X135.001 Y106.413 E-0.08553
G1 X134.737 Y106.379 E-0.06150
;WIPE_END
G1 E-0.07000 F2100.000
G1 Z0.400 F10800.000
G1 X116.414 Y105.000
G1 Z0.200
G1 E1.40000 F2100.000
G1 F1200.000
G1 X116.365 Y105.366 E0.01157
G1 X116.224 Y105.707 E0.01157
G1 X116.000 Y106.000 E0.01157
G1 X115.707 Y106.224 E0.01157
G1 X115.366 Y106.365 E0.01158
G1 X114.999 Y106.413 E0.01158
G1 X114.632 Y106.363 E0.01161
G1 X114.292 Y106.214 E0.01165
G1 X114.006 Y105.977 E0.01164
G1 X113.802 Y105.667 E0.01164
G1 X113.711 Y105.325 E0.01109
G1 X113.687 Y105.000 E0.01021
G1 X113.711 Y104.675 E0.01021
G1 X113.802 Y104.333 E0.01109
G1 X114.006 Y104.023 E0.01164
G1 X114.292 Y103.786 E0.01164
G1 X114.632 Y103.637 E0.01165
G1 X114.999 Y103.587 E0.01161
G1 X115.366 Y103.635 E0.01159
G1 X115.707 Y103.776 E0.01158
G1 X116.000 Y104.000 E0.01157
G1 X116.224 Y104.293 E0.01157
G1 X116.365 Y104.634 E0.01157
G1 X116.406 Y104.941 E0.00969
G1 X116.733 Y105.185 F10800.000
;WIPE_START
G1 F8640.000
G1 X116.365 Y105.366 E-0.09865
G1 X116.224 Y105.707 E-0.08520
G1 X116.000 Y106.000 E-0.08521
G1 X115.707 Y106.224 E-0.08521
G1 X115.366 Y106.365 E-0.08524
G1 X114.999 Y106.413 E-0.08530
G1 X114.632 Y106.363 E-0.08553
G1 X114.292 Y106.214 E-0.08577
G1 X114.006 Y105.977 E-0.08574
G1 X113.802 Y105.667 E-0.08570
G1 X113.711 Y105.325 E-0.08168
G1 X113.687 Y105.000 E-0.07522
G1 X113.711 Y104.675 E-0.07522
G1 X113.802 Y104.333 E-0.08168
G1 X114.006 Y104.023 E-0.08570
G1 X114.216 Y103.849 E-0.06293
;WIPE_END
G1 E-0.07000 F2100.000
G1 Z0.400 F10800.000
G1 X120.713 Y103.213
G1 Z0.200
G1 E1.40000 F2100.000
;TYPE:Perimeter
G1 F1200.000
G1 X129.287 Y103.213 E0.26884
M73 P0 R48
G1 X129.287 Y109.787 E0.20613
G1 X120.713 Y109.787 E0.26884
G1 X120.713 Y103.273 E0.20425
G1 X121.090 Y103.590 F10800.000
;TYPE:External perimeter
G1 F1200.000
G1 X128.910 Y103.590 E0.24519
G1 X128.910 Y109.410 E0.18248
G1 X121.090 Y109.410 E0.24519
G1 X121.090 Y103.650 E0.18060
G1 X120.968 Y103.209 F10800.000
;WIPE_START
G1 F8640.000
G1 X126.850 Y103.606 E-1.33000
;WIPE_END
G1 E-0.07000 F2100.000
G1 Z0.400 F10800.000
G1 X121.243 Y125.713
G1 Z0.200
G1 E1.40000 F2100.000
;TYPE:Perimeter
G1 F1200.000
G1 X129.817 Y125.713 E0.26884
G1 X129.817 Y132.287 E0.20613
G1 X121.243 Y132.287 E0.26884
G1 X121.243 Y125.773 E0.20425
G1 X121.620 Y126.090 F10800.000
;TYPE:External perimeter
G1 F1200.000
G1 X129.440 Y126.090 E0.24519
G1 X129.440 Y131.910 E0.18248
G1 X121.620 Y131.910 E0.24519
G1 X121.620 Y126.150 E0.18060
G1 X121.498 Y125.709 F10800.000
;WIPE_START
G1 F8640.000
G1 X127.380 Y126.106 E-1.33000
;WIPE_END
G1 E-0.07000 F2100.000
G1 Z0.400 F10800.000
G1 X122.713 Y84.287
G1 Z0.200
G1 E1.40000 F2100.000
;TYPE:Perimeter
G1 F1200.000
G1 X126.787 Y84.287 E0.12774
G1 X126.787 Y77.287 E0.21948
G1 X136.213 Y77.287 E0.29554
G1 X136.213 Y103.007 E0.80642
G1 X136.229 Y103.729 E0.02266
G1 X135.908 Y103.462 E0.01310
G1 X135.471 Y103.271 E0.01497
G1 X135.002 Y103.207 E0.01483
G1 X134.536 Y103.267 E0.01472
G1 X134.103 Y103.446 E0.01470
G1 X133.732 Y103.732 E0.01469
G1 X133.446 Y104.103 E0.01468
G1 X133.267 Y104.536 E0.01468
G1 X133.206 Y105.000 E0.01468
G1 X133.267 Y105.464 E0.01468
G1 X133.446 Y105.897 E0.01468
G1 X133.732 Y106.268 E0.01468
G1 X134.103 Y106.554 E0.01469
G1 X134.536 Y106.733 E0.01470
G1 X135.002 Y106.793 E0.01473
G1 X135.471 Y106.729 E0.01483
G1 X135.908 Y106.538 E0.01497
G1 X136.229 Y106.271 E0.01310
G1 X136.213 Y106.993 E0.02266
G1 X136.213 Y126.507 E0.61182
M73 P1 R48
M73 Q1 S49
G1 X136.229 Y127.229 E0.02266
G1 X135.908 Y126.962 E0.01310
G1 X135.471 Y126.771 E0.01497
G1 X135.002 Y126.707 E0.01483
G1 X134.536 Y126.767 E0.01472
G1 X134.103 Y126.946 E0.01470
G1 X133.732 Y127.232 E0.01469
G1 X133.446 Y127.603 E0.01468
G1 X133.267 Y128.036 E0.01468
G1 X133.206 Y128.500 E0.01468
G1 X133.267 Y128.964 E0.01468
G1 X133.446 Y129.397 E0.01468
G1 X133.732 Y129.768 E0.01468
G1 X134.103 Y130.054 E0.01469
G1 X134.536 Y130.233 E0.01470
G1 X135.002 Y130.293 E0.01473
G1 X135.471 Y130.229 E0.01483
G1 X135.908 Y130.038 E0.01497
G1 X136.225 Y129.775 E0.01291
G1 X136.214 Y132.713 E0.09212
G1 X113.786 Y132.713 E0.70319
G1 X113.775 Y129.775 E0.09212
G1 X114.092 Y130.038 E0.01291
G1 X114.529 Y130.229 E0.01497
G1 X114.998 Y130.293 E0.01483
G1 X115.464 Y130.233 E0.01473
G1 X115.897 Y130.054 E0.01470
G1 X116.268 Y129.768 E0.01468
G1 X116.554 Y129.397 E0.01468
G1 X116.733 Y128.964 E0.01468
G1 X116.794 Y128.500 E0.01468
G1 X116.733 Y128.036 E0.01468
G1 X116.554 Y127.603 E0.01468
G1 X116.268 Y127.232 E0.01468
G1 X115.897 Y126.946 E0.01468
G1 X115.464 Y126.767 E0.01470
G1 X114.998 Y126.707 E0.01473
G1 X114.529 Y126.771 E0.01482
G1 X114.092 Y126.962 E0.01497
G1 X113.771 Y127.229 E0.01310
G1 X113.787 Y126.507 E0.02266
G1 X113.787 Y106.993 E0.61182
G1 X113.771 Y106.271 E0.02266
G1 X114.092 Y106.538 E0.01310
G1 X114.529 Y106.729 E0.01497
G1 X114.998 Y106.793 E0.01483
G1 X115.464 Y106.733 E0.01473
G1 X115.897 Y106.554 E0.01470
G1 X116.268 Y106.268 E0.01468
G1 X116.554 Y105.897 E0.01468
G1 X116.733 Y105.464 E0.01468
G1 X116.794 Y105.000 E0.01468
G1 X116.733 Y104.536 E0.01468
G1 X116.554 Y104.103 E0.01468
G1 X116.268 Y103.732 E0.01468
G1 X115.897 Y103.446 E0.01469
G1 X115.464 Y103.267 E0.01470
G1 X114.998 Y103.207 E0.01473
G1 X114.529 Y103.271 E0.01482
G1 X114.092 Y103.462 E0.01497
G1 X113.771 Y103.729 E0.01310
G1 X113.787 Y103.007 E0.02266
G1 X113.787 Y77.287 E0.80642
M73 Q1 S48
G1 X122.713 Y77.287 E0.27986
G1 X122.713 Y84.227 E0.21760
;WIPE_START
G1 F8640.000
G1 X126.787 Y84.287 E-0.94084
G1 X126.787 Y82.602 E-0.38916
;WIPE_END
G1 E-0.07000 F2100.000
G1 Z0.400 F10800.000
G1 X115.366 Y127.135
G1 Z0.200
G1 E1.40000 F2100.000
;TYPE:External perimeter
G1 F1200.000
G1 X115.707 Y127.276 E0.01158
G1 X116.000 Y127.500 E0.01157
G1 X116.224 Y127.793 E0.01157
G1 X116.365 Y128.134 E0.01157
G1 X116.414 Y128.500 E0.01157
G1 X116.365 Y128.866 E0.01157
G1 X116.224 Y129.207 E0.01157
G1 X116.000 Y129.500 E0.01157
G1 X115.707 Y129.724 E0.01157
G1 X115.366 Y129.865 E0.01158
G1 X114.999 Y129.913 E0.01158
G1 X114.632 Y129.863 E0.01161
G1 X114.292 Y129.714 E0.01165
G1 X114.006 Y129.477 E0.01164
G1 X113.802 Y129.167 E0.01164
G1 X113.711 Y128.825 E0.01109
G1 X113.687 Y128.500 E0.01021
G1 X113.711 Y128.175 E0.01021
G1 X113.803 Y127.833 E0.01109
G1 X114.006 Y127.523 E0.01164
G1 X114.292 Y127.286 E0.01164
G1 X114.632 Y127.137 E0.01165
G1 X114.999 Y127.087 E0.01161
G1 X115.306 Y127.127 E0.00970
G1 X115.626 Y126.873 F10800.000
;WIPE_START
G1 F8640.000
G1 X115.707 Y127.276 E-0.09869
G1 X116.000 Y127.500 E-0.08521
G1 X116.224 Y127.793 E-0.08521
G1 X116.365 Y128.134 E-0.08520
G1 X116.414 Y128.500 E-0.08521
G1 X116.365 Y128.866 E-0.08520
G1 X116.224 Y129.207 E-0.08520
G1 X116.000 Y129.500 E-0.08521
G1 X115.707 Y129.724 E-0.08521
G1 X115.366 Y129.865 E-0.08524
G1 X114.999 Y129.913 E-0.08530
G1 X114.632 Y129.863 E-0.08553
G1 X114.292 Y129.714 E-0.08577
G1 X114.006 Y129.477 E-0.08574
G1 X113.802 Y129.167 E-0.08570
G1 X113.762 Y129.014 E-0.03637
;WIPE_END
G1 E-0.07000 F2100.000
G1 Z0.400 F10800.000
G1 X133.586 Y128.500
G1 Z0.200
G1 E1.40000 F2100.000
G1 F1200.000
G1 X133.635 Y128.134 E0.01157
G1 X133.776 Y127.793 E0.01157
G1 X134.000 Y127.500 E0.01157
G1 X134.293 Y127.276 E0.01157
G1 X134.634 Y127.135 E0.01158
G1 X135.001 Y127.087 E0.01158
G1 X135.368 Y127.137 E0.01162
G1 X135.708 Y127.286 E0.01165
G1 X135.994 Y127.523 E0.01164
G1 X136.198 Y127.833 E0.01164
G1 X136.289 Y128.175 E0.01109
G1 X136.313 Y128.500 E0.01021
G1 X136.289 Y128.825 E0.01021
G1 X136.197 Y129.167 E0.01109
G1 X135.994 Y129.477 E0.01164
G1 X135.708 Y129.714 E0.01164
G1 X135.368 Y129.863 E0.01165
G1 X135.001 Y129.913 E0.01161
G1 X134.634 Y129.865 E0.01158
G1 X134.293 Y129.724 E0.01158
G1 X134.000 Y129.500 E0.01157
G1 X133.776 Y129.207 E0.01157
G1 X133.635 Y128.866 E0.01157
G1 X133.594 Y128.559 E0.00969
G1 X133.267 Y128.315 F10800.000
;WIPE_START
G1 F8640.000
G1 X133.635 Y128.134 E-0.09865
G1 X133.776 Y127.793 E-0.08520
G1 X134.000 Y127.500 E-0.08521
G1 X134.293 Y127.276 E-0.08521
G1 X134.634 Y127.135 E-0.08524
G1 X135.001 Y127.087 E-0.08528
G1 X135.368 Y127.137 E-0.08555
G1 X135.708 Y127.286 E-0.08578
G1 X135.994 Y127.523 E-0.08574
G1 X136.198 Y127.833 E-0.08570
G1 X136.289 Y128.175 E-0.08168
G1 X136.313 Y128.500 E-0.07522
G1 X136.289 Y128.825 E-0.07522
G1 X136.197 Y129.167 E-0.08168
G1 X135.994 Y129.477 E-0.08570
G1 X135.784 Y129.651 E-0.06293
;WIPE_END
G1 E-0.07000 F2100.000
G1 Z0.400 F10800.000
G1 X123.090 Y83.910
G1 Z0.200
G1 E1.40000 F2100.000
G1 F1200.000
G1 X126.410 Y83.910 E0.10410
G1 X126.410 Y76.910 E0.21948
G1 X136.590 Y76.910 E0.31919
G1 X136.590 Y103.002 E0.81811
G1 X136.613 Y104.010 E0.03161
G1 X136.688 Y105.000 E0.03112
G1 X136.613 Y105.990 E0.03112
G1 X136.590 Y106.998 E0.03161
G1 X136.590 Y126.502 E0.61156
G1 X136.613 Y127.510 E0.03161
G1 X136.688 Y128.500 E0.03112
G1 X136.613 Y129.488 E0.03107
G1 X136.594 Y129.996 E0.01593
G1 X136.590 Y133.090 E0.09701
G1 X113.410 Y133.090 E0.72681
G1 X113.406 Y129.996 E0.09701
G1 X113.387 Y129.488 E0.01593
G1 X113.312 Y128.500 E0.03107
G1 X113.387 Y127.510 E0.03112
G1 X113.410 Y126.502 E0.03161
G1 X113.410 Y106.998 E0.61156
G1 X113.387 Y105.990 E0.03161
G1 X113.312 Y105.000 E0.03112
G1 X113.387 Y104.010 E0.03112
G1 X113.410 Y103.002 E0.03161
G1 X113.410 Y76.910 E0.81811
G1 X123.090 Y76.910 E0.30351
G1 X123.090 Y83.850 E0.21760
G1 X123.214 Y84.290 F10800.000
;WIPE_START
G1 F8640.000
G1 X126.410 Y83.910 E-0.76672
G1 X126.410 Y81.471 E-0.56328
;WIPE_END
G1 E-0.07000 F2100.000
G1 Z0.400 F10800.000
G1 X122.600 Y78.022
G1 Z0.200
G1 E1.40000 F2100.000
;TYPE:Solid infill
;WIDTH:0.420737
G1 F1200.000
G1 X122.148 Y77.570 E0.02008
G1 X121.614 Y77.570 E0.01679
G1 X122.430 Y78.386 E0.03628
G1 X122.430 Y78.921 E0.01679
G1 X121.079 Y77.570 E0.06002
G1 X120.545 Y77.570 E0.01679
G1 X122.430 Y79.455 E0.08376
G1 X122.430 Y79.989 E0.01679
G1 X120.011 Y77.570 E0.10750
G1 X119.476 Y77.570 E0.01679
G1 X122.430 Y80.524 E0.13124
G1 X122.430 Y81.058 E0.01679
G1 X118.942 Y77.570 E0.15497
G1 X118.408 Y77.570 E0.01679
G1 X122.430 Y81.592 E0.17871
G1 X122.430 Y82.127 E0.01679
G1 X117.873 Y77.570 E0.20245
G1 X117.339 Y77.570 E0.01679
G1 X122.430 Y82.661 E0.22619
G1 X122.430 Y83.195 E0.01679
G1 X116.805 Y77.570 E0.24993
G1 X116.270 Y77.570 E0.01679
G1 X122.600 Y83.899 E0.28121
;WIPE_START
G1 F8640.000
G1 X118.527 Y79.826 E-1.33000
;WIPE_END
G1 E-0.07000 F2100.000
G1 Z0.400 F10800.000
G1 X135.336 Y77.400
G1 Z0.200
G1 E1.40000 F2100.000
G1 F1200.000
G1 X135.930 Y77.994 E0.02640
G1 X135.930 Y78.529 E0.01679
G1 X134.971 Y77.570 E0.04260
G1 X134.437 Y77.570 E0.01679
G1 X135.930 Y79.063 E0.06634
G1 X135.930 Y79.597 E0.01679
G1 X133.903 Y77.570 E0.09008
G1 X133.368 Y77.570 E0.01679
G1 X135.930 Y80.132 E0.11381
G1 X135.930 Y80.666 E0.01679
G1 X132.834 Y77.570 E0.13755
G1 X132.300 Y77.570 E0.01679
G1 X135.930 Y81.200 E0.16129
G1 X135.930 Y81.735 E0.01679
G1 X131.765 Y77.570 E0.18503
G1 X131.231 Y77.570 E0.01679
G1 X135.930 Y82.269 E0.20877
G1 X135.930 Y82.803 E0.01679
G1 X130.697 Y77.570 E0.23251
G1 X130.163 Y77.570 E0.01679
G1 X135.930 Y83.338 E0.25625
G1 X135.930 Y83.872 E0.01679
G1 X129.628 Y77.570 E0.27999
G1 X129.094 Y77.570 E0.01679
G1 X135.930 Y84.406 E0.30373
G1 X135.930 Y84.940 E0.01679
G1 X128.560 Y77.570 E0.32746
G1 X128.025 Y77.570 E0.01679
G1 X135.930 Y85.475 E0.35120
G1 X135.930 Y86.009 E0.01679
G1 X127.491 Y77.570 E0.37494
G1 X127.070 Y77.570 E0.01323
G1 X127.070 Y77.683 E0.00356
G1 X135.930 Y86.543 E0.39365
M73 Q2 S48
G1 X135.930 Y87.078 E0.01679
G1 X127.070 Y78.217 E0.39365
M73 P2 R48
G1 X127.070 Y78.752 E0.01679
G1 X135.930 Y87.612 E0.39365
G1 X135.930 Y88.146 E0.01679
G1 X127.070 Y79.286 E0.39365
G1 X127.070 Y79.820 E0.01679
G1 X135.930 Y88.681 E0.39365
G1 X135.930 Y89.215 E0.01679
G1 X127.070 Y80.355 E0.39365
G1 X127.070 Y80.889 E0.01679
G1 X135.930 Y89.749 E0.39365
G1 X135.930 Y90.284 E0.01679
G1 X127.070 Y81.423 E0.39365
G1 X127.070 Y81.958 E0.01679
G1 X135.930 Y90.818 E0.39365
G1 X135.930 Y91.352 E0.01679
G1 X127.070 Y82.492 E0.39365
G1 X127.070 Y83.026 E0.01679
G1 X135.930 Y91.887 E0.39365
G1 X135.930 Y92.421 E0.01679
G1 X127.070 Y83.561 E0.39365
G1 X127.070 Y84.095 E0.01679
G1 X135.930 Y92.955 E0.39365
