; generated by PrusaSlicer 2.3.0+win64 on 2021-04-04 at 00:41:18 UTC

; 

; external perimeters extrusion width = 0.45mm
; perimeters extrusion width = 0.45mm
; infill extrusion width = 0.45mm
; solid infill extrusion width = 0.45mm
; top infill extrusion width = 0.40mm
; first layer extrusion width = 0.42mm

M73 P0 R68
M73 Q0 S68
M201 X1000 Y1000 Z200 E5000 ; sets maximum accelerations, mm/sec^2
M203 X200 Y200 Z12 E120 ; sets maximum feedrates, mm/sec
M204 P1250 R1250 T1250 ; sets acceleration (P, T) and retract acceleration (R), mm/sec^2
M205 X8.00 Y8.00 Z0.40 E4.50 ; sets the jerk limits, mm/sec
M205 S0 T0 ; sets the minimum extruding and travel feed rate, mm/sec
M107
;TYPE:Custom
M862.3 P "MK3S" ; printer model check
M862.1 P0.4 ; nozzle diameter check
M115 U3.9.1 ; tell printer latest fw version
G90 ; use absolute coordinates
M83 ; extruder relative mode
M104 S230 ; set extruder temp
M140 S85 ; set bed temp
M190 S85 ; wait for bed temp
M109 S230 ; wait for extruder temp
G28 W ; home all without mesh bed level
G80 ; mesh bed leveling
G1 Y-3.0 F1000.0 ; go outside print area
G92 E0.0
G1 X60.0 E9.0 F1000.0 ; intro line
G1 X100.0 E12.5 F1000.0 ; intro line
G92 E0.0
M221 S95

; Don't change E values below. Excessive value can damage the printer.
M907 E430 ; set extruder motor current
G21 ; set units to millimeters
G90 ; use absolute coordinates
M83 ; use relative distances for extrusion
M900 K0.08 ; Filament gcode LA 1.5
M900 K45 ; Filament gcode LA 1.0
;LAYER_CHANGE
;Z:0.2
;HEIGHT:0.2
;BEFORE_LAYER_CHANGE
G92 E0.0
;0.2


G1 E-1.40000 F2100.000
G1 Z0.200 F10800.000
;AFTER_LAYER_CHANGE
;0.2
G1 Z0.400
G1 X110.807 Y76.834
G1 Z0.200
G1 E1.40000 F2100.000
M204 S1000
;TYPE:Skirt
;WIDTH:0.42
G1 F1200.000
G1 X111.146 Y76.262 E0.02083
G1 X111.627 Y75.810 E0.02071
G1 X112.218 Y75.505 E0.02083
G1 X112.866 Y75.377 E0.02071
G1 X174.397 Y75.392 E1.92928
G1 X175.055 Y75.510 E0.02095
G1 X175.654 Y75.807 E0.02095
G1 X176.146 Y76.259 E0.02095
G1 X176.495 Y76.833 E0.02107
G1 X176.686 Y77.756 E0.02954
G1 X176.660 Y111.617 E1.06167
G1 X170.112 Y140.483 E0.92808
G1 X169.481 Y141.894 E0.04847
G1 X168.751 Y142.866 E0.03811
G1 X167.838 Y143.675 E0.03823
G1 X166.524 Y144.399 E0.04705
G1 X165.286 Y144.750 E0.04036
G1 X163.753 Y144.819 E0.04812
G1 X149.816 Y143.345 E0.43940
G1 X114.371 Y134.542 E1.14510
G1 X113.877 Y134.345 E0.01669
G1 X113.436 Y134.040 E0.01680
G1 X113.077 Y133.648 E0.01668
G1 X112.815 Y133.185 E0.01668
G1 X112.628 Y132.403 E0.02520
G1 X110.624 Y98.835 E1.05440
G1 X110.623 Y77.731 E0.66169
G1 X110.795 Y76.892 E0.02684
;WIPE_START
G1 F8640.000
G1 X111.146 Y76.262 E-0.16656
G1 X111.627 Y75.810 E-0.15254
G1 X112.218 Y75.505 E-0.15341
G1 X112.866 Y75.377 E-0.15254
G1 X115.919 Y75.377 E-0.70495
;WIPE_END
G1 E-0.07000 F2100.000
G1 Z0.400 F10800.000
G1 X157.549 Y92.563
G1 Z0.200
G1 E1.40000 F2100.000
;TYPE:Perimeter
G1 F1200.000
G1 X157.746 Y91.975 E0.01944
G1 X158.009 Y91.380 E0.02038
G1 X158.325 Y90.812 E0.02038
G1 X158.692 Y90.276 E0.02038
G1 X159.108 Y89.776 E0.02038
G1 X159.567 Y89.316 E0.02038
G1 X160.067 Y88.901 E0.02038
G1 X160.604 Y88.534 E0.02038
G1 X161.172 Y88.217 E0.02038
G1 X161.766 Y87.955 E0.02038
G1 X162.383 Y87.748 E0.02038
G1 X163.015 Y87.599 E0.02038
M73 P0 R67
G1 X163.659 Y87.509 E0.02038
G1 X164.239 Y87.483 E0.01820
G1 X164.955 Y87.509 E0.02247
G1 X165.602 Y87.599 E0.02047
G1 X166.235 Y87.748 E0.02038
G1 X166.851 Y87.955 E0.02038
G1 X167.446 Y88.217 E0.02038
G1 X168.014 Y88.534 E0.02038
G1 X168.550 Y88.901 E0.02038
G1 X169.050 Y89.316 E0.02038
G1 X169.510 Y89.776 E0.02038
G1 X169.925 Y90.276 E0.02038
G1 X170.292 Y90.812 E0.02038
G1 X170.609 Y91.380 E0.02038
G1 X170.871 Y91.975 E0.02038
G1 X171.078 Y92.591 E0.02038
G1 X171.227 Y93.224 E0.02038
G1 X171.317 Y93.868 E0.02038
G1 X171.347 Y94.517 E0.02038
G1 X171.317 Y95.167 E0.02038
G1 X171.227 Y95.811 E0.02038
G1 X171.078 Y96.443 E0.02038
G1 X170.871 Y97.060 E0.02038
G1 X170.609 Y97.654 E0.02038
G1 X170.292 Y98.222 E0.02038
G1 X169.925 Y98.759 E0.02038
G1 X169.510 Y99.259 E0.02038
G1 X169.050 Y99.718 E0.02038
G1 X168.550 Y100.134 E0.02038
G1 X168.014 Y100.501 E0.02038
G1 X167.446 Y100.817 E0.02038
G1 X166.851 Y101.080 E0.02038
G1 X166.235 Y101.287 E0.02038
G1 X165.602 Y101.435 E0.02038
G1 X164.958 Y101.525 E0.02038
G1 X164.309 Y101.555 E0.02038
G1 X163.659 Y101.525 E0.02038
G1 X163.015 Y101.435 E0.02038
G1 X162.383 Y101.287 E0.02038
G1 X161.766 Y101.080 E0.02038
G1 X161.172 Y100.817 E0.02038
G1 X160.604 Y100.501 E0.02038
G1 X160.067 Y100.134 E0.02038
G1 X159.567 Y99.718 E0.02038
G1 X159.108 Y99.259 E0.02038
G1 X158.692 Y98.759 E0.02038
G1 X158.325 Y98.222 E0.02038
G1 X158.009 Y97.654 E0.02038
G1 X157.746 Y97.060 E0.02038
G1 X157.539 Y96.443 E0.02038
G1 X157.391 Y95.811 E0.02038
G1 X157.301 Y95.167 E0.02038
G1 X157.271 Y94.517 E0.02038
G1 X157.301 Y93.868 E0.02038
G1 X157.391 Y93.224 E0.02038
G1 X157.533 Y92.621 E0.01944
G1 X157.900 Y92.707 F10800.000
;TYPE:External perimeter
G1 F1200.000
G1 X158.098 Y92.111 E0.01968
G1 X158.347 Y91.549 E0.01929
G1 X158.646 Y91.011 E0.01929
G1 X158.994 Y90.504 E0.01929
G1 X159.387 Y90.030 E0.01929
G1 X159.822 Y89.595 E0.01929
G1 X160.295 Y89.202 E0.01929
G1 X160.802 Y88.855 E0.01929
G1 X161.340 Y88.555 E0.01929
G1 X161.903 Y88.307 E0.01929
G1 X162.486 Y88.111 E0.01929
G1 X163.085 Y87.970 E0.01929
G1 X163.694 Y87.885 E0.01929
G1 X164.241 Y87.860 E0.01716
G1 X164.922 Y87.885 E0.02138
G1 X165.533 Y87.970 E0.01932
G1 X166.131 Y88.111 E0.01929
G1 X166.715 Y88.307 E0.01929
G1 X167.278 Y88.555 E0.01929
G1 X167.815 Y88.855 E0.01929
G1 X168.323 Y89.202 E0.01929
G1 X168.796 Y89.595 E0.01929
G1 X169.231 Y90.030 E0.01929
G1 X169.624 Y90.504 E0.01929
G1 X169.972 Y91.011 E0.01929
G1 X170.271 Y91.549 E0.01929
G1 X170.519 Y92.111 E0.01929
G1 X170.715 Y92.695 E0.01929
G1 X170.856 Y93.294 E0.01929
G1 X170.941 Y93.903 E0.01929
G1 X170.969 Y94.517 E0.01929
G1 X170.941 Y95.132 E0.01929
G1 X170.856 Y95.741 E0.01929
G1 X170.715 Y96.340 E0.01929
G1 X170.519 Y96.923 E0.01929
G1 X170.271 Y97.486 E0.01929
G1 X169.972 Y98.024 E0.01929
G1 X169.624 Y98.531 E0.01929
G1 X169.231 Y99.005 E0.01929
G1 X168.796 Y99.440 E0.01929
G1 X168.323 Y99.833 E0.01929
G1 X167.815 Y100.180 E0.01929
G1 X167.278 Y100.480 E0.01929
G1 X166.715 Y100.728 E0.01929
G1 X166.131 Y100.924 E0.01929
G1 X165.533 Y101.064 E0.01929
G1 X164.923 Y101.149 E0.01929
G1 X164.309 Y101.178 E0.01929
G1 X163.694 Y101.149 E0.01929
G1 X163.085 Y101.064 E0.01929
G1 X162.486 Y100.924 E0.01929
G1 X161.903 Y100.728 E0.01929
G1 X161.340 Y100.480 E0.01929
G1 X160.802 Y100.180 E0.01929
G1 X160.295 Y99.833 E0.01929
G1 X159.822 Y99.440 E0.01929
G1 X159.387 Y99.005 E0.01929
G1 X158.994 Y98.531 E0.01929
G1 X158.646 Y98.024 E0.01929
G1 X158.347 Y97.486 E0.01929
G1 X158.098 Y96.923 E0.01929
G1 X157.903 Y96.340 E0.01929
G1 X157.762 Y95.741 E0.01929
G1 X157.677 Y95.132 E0.01929
G1 X157.648 Y94.517 E0.01929
G1 X157.677 Y93.903 E0.01929
G1 X157.762 Y93.294 E0.01929
G1 X157.886 Y92.765 E0.01702
G1 X157.621 Y92.420 F10800.000
;WIPE_START
G1 F8640.000
G1 X158.098 Y92.111 E-0.15873
G1 X158.347 Y91.549 E-0.14205
G1 X158.646 Y91.011 E-0.14205
G1 X158.994 Y90.504 E-0.14205
G1 X159.387 Y90.030 E-0.14205
G1 X159.822 Y89.595 E-0.14205
G1 X160.295 Y89.202 E-0.14205
G1 X160.802 Y88.855 E-0.14205
G1 X161.340 Y88.555 E-0.14205
G1 X161.478 Y88.494 E-0.03485
;WIPE_END
G1 E-0.07000 F2100.000
G1 Z0.400 F10800.000
G1 X155.096 Y78.554
G1 Z0.200
G1 E1.40000 F2100.000
;TYPE:Perimeter
G1 F1200.000
G1 X173.522 Y78.554 E0.57773
G1 X173.522 Y110.480 E1.00101
G1 X155.096 Y110.480 E0.57773
G1 X155.096 Y78.614 E0.99913
G1 X154.719 Y78.177 F10800.000
;TYPE:External perimeter
G1 F1200.000
G1 X173.899 Y78.177 E0.60138
G1 X173.899 Y110.857 E1.02466
G1 X154.719 Y110.857 E0.60138
G1 X154.719 Y78.237 E1.02278
G1 X155.095 Y78.313 F10800.000
;WIPE_START
G1 F8640.000
G1 X160.479 Y78.219 E-1.33000
;WIPE_END
G1 E-0.07000 F2100.000
G1 Z0.400 F10800.000
G1 X172.640 Y78.668
G1 Z0.200
G1 E1.40000 F2100.000
;TYPE:Solid infill
;WIDTH:0.422892
G1 F1200.000
G1 X173.239 Y79.266 E0.02675
G1 X173.239 Y79.804 E0.01698
G1 X172.272 Y78.837 E0.04318
G1 X171.735 Y78.837 E0.01698
G1 X173.239 Y80.341 E0.06719
G1 X173.239 Y80.878 E0.01698
G1 X171.198 Y78.837 E0.09120
G1 X170.660 Y78.837 E0.01698
G1 X173.239 Y81.416 E0.11521
G1 X173.239 Y81.953 E0.01698
G1 X170.123 Y78.837 E0.13922
G1 X169.586 Y78.837 E0.01698
G1 X173.239 Y82.490 E0.16323
G1 X173.239 Y83.028 E0.01698
G1 X169.048 Y78.837 E0.18724
G1 X168.511 Y78.837 E0.01698
G1 X173.239 Y83.565 E0.21125
G1 X173.239 Y84.103 E0.01698
G1 X167.974 Y78.837 E0.23526
G1 X167.436 Y78.837 E0.01698
G1 X173.239 Y84.640 E0.25927
G1 X173.239 Y85.177 E0.01698
G1 X166.899 Y78.837 E0.28328
G1 X166.361 Y78.837 E0.01698
G1 X173.239 Y85.715 E0.30729
G1 X173.239 Y86.252 E0.01698
G1 X165.824 Y78.837 E0.33130
G1 X165.287 Y78.837 E0.01698
G1 X173.239 Y86.789 E0.35531
M73 P1 R67
M73 Q1 S68
G1 X173.239 Y87.327 E0.01698
G1 X164.749 Y78.837 E0.37932
G1 X164.212 Y78.837 E0.01698
G1 X173.239 Y87.864 E0.40333
G1 X173.239 Y88.401 E0.01698
G1 X163.675 Y78.837 E0.42734
G1 X163.137 Y78.837 E0.01698
G1 X173.239 Y88.939 E0.45136
G1 X173.239 Y89.476 E0.01698
G1 X162.600 Y78.837 E0.47537
G1 X162.063 Y78.837 E0.01698
G1 X173.239 Y90.014 E0.49938
G1 X173.239 Y90.551 E0.01698
G1 X161.525 Y78.837 E0.52339
G1 X160.988 Y78.837 E0.01698
G1 X173.239 Y91.088 E0.54740
G1 X173.239 Y91.626 E0.01698
G1 X160.450 Y78.837 E0.57141
G1 X159.913 Y78.837 E0.01698
G1 X173.239 Y92.163 E0.59542
M73 Q1 S67
G1 X173.239 Y92.700 E0.01698
G1 X159.376 Y78.837 E0.61943
G1 X158.838 Y78.837 E0.01698
G1 X173.239 Y93.238 E0.64344
G1 X173.239 Y93.775 E0.01698
G1 X170.976 Y91.513 E0.10109
G1 X171.135 Y91.873 E0.01244
G1 X171.305 Y92.378 E0.01685
G1 X173.239 Y94.312 E0.08641
G1 X173.239 Y94.850 E0.01698
G1 X171.488 Y93.099 E0.07824
G1 X171.583 Y93.731 E0.02021
G1 X173.239 Y95.387 E0.07398
G1 X173.239 Y95.925 E0.01698
G1 X171.620 Y94.306 E0.07234
G1 X171.615 Y94.838 E0.01682
G1 X173.239 Y96.462 E0.07256
G1 X173.239 Y96.999 E0.01698
G1 X171.578 Y95.339 E0.07420
G1 X171.512 Y95.810 E0.01504
G1 X173.239 Y97.537 E0.07714
G1 X173.239 Y98.074 E0.01698
G1 X171.414 Y96.249 E0.08153
G1 X171.300 Y96.672 E0.01384
G1 X173.239 Y98.611 E0.08665
G1 X173.239 Y99.149 E0.01698
G1 X171.165 Y97.075 E0.09268
G1 X171.007 Y97.454 E0.01298
G1 X173.239 Y99.686 E0.09974
G1 X173.239 Y100.223 E0.01698
G1 X170.839 Y97.823 E0.10725
G1 X170.646 Y98.168 E0.01248
G1 X173.239 Y100.761 E0.11584
G1 X173.239 Y101.298 E0.01698
G1 X170.443 Y98.503 E0.12491
G1 X170.225 Y98.822 E0.01221
G1 X173.239 Y101.835 E0.13467
G1 X173.239 Y102.373 E0.01698
G1 X169.990 Y99.124 E0.14518
G1 X169.746 Y99.417 E0.01206
G1 X173.239 Y102.910 E0.15607
G1 X173.239 Y103.448 E0.01698
G1 X169.480 Y99.689 E0.16796
G1 X169.208 Y99.955 E0.01201
G1 X173.239 Y103.985 E0.18008
G1 X173.239 Y104.522 E0.01698
G1 X168.915 Y100.198 E0.19320
G1 X168.613 Y100.434 E0.01210
G1 X173.239 Y105.060 E0.20670
G1 X173.239 Y105.597 E0.01698
G1 X168.294 Y100.652 E0.22095
G1 X167.959 Y100.855 E0.01236
G1 X173.239 Y106.134 E0.23589
G1 X173.239 Y106.672 E0.01698
G1 X167.614 Y101.047 E0.25131
G1 X167.245 Y101.215 E0.01282
G1 X173.239 Y107.209 E0.26782
G1 X173.239 Y107.746 E0.01698
G1 X166.866 Y101.373 E0.28476
G1 X166.463 Y101.508 E0.01341
G1 X173.239 Y108.284 E0.30274
G1 X173.239 Y108.821 E0.01698
G1 X166.040 Y101.623 E0.32163
G1 X165.601 Y101.721 E0.01422
G1 X173.239 Y109.359 E0.34126
G1 X173.239 Y109.896 E0.01698
G1 X165.130 Y101.787 E0.36233
G1 X164.629 Y101.824 E0.01586
G1 X173.003 Y110.198 E0.37416
G1 X172.466 Y110.198 E0.01698
G1 X164.097 Y101.829 E0.37394
G1 X163.523 Y101.792 E0.01818
G1 X171.928 Y110.198 E0.37558
G1 X171.391 Y110.198 E0.01698
G1 X162.890 Y101.696 E0.37984
G1 X162.170 Y101.513 E0.02348
G1 X170.854 Y110.198 E0.38802
G1 X170.316 Y110.198 E0.01698
G1 X160.933 Y100.814 E0.41928
;WIPE_START
G1 F8640.000
G1 X165.005 Y104.887 E-1.33000
;WIPE_END
G1 E-0.07000 F2100.000
G1 Z0.400 F10800.000
G1 X167.685 Y88.221
G1 Z0.200
G1 E1.40000 F2100.000
G1 F1200.000
G1 X158.301 Y78.837 E0.41928
G1 X157.764 Y78.837 E0.01698
G1 X166.448 Y87.521 E0.38802
G1 X165.727 Y87.338 E0.02348
G1 X157.226 Y78.837 E0.37984
G1 X156.689 Y78.837 E0.01698
G1 X165.095 Y87.243 E0.37558
G1 X164.525 Y87.210 E0.01804
G1 X156.152 Y78.837 E0.37412
G1 X155.614 Y78.837 E0.01698
G1 X163.988 Y87.211 E0.37416
G1 X163.488 Y87.248 E0.01586
G1 X155.379 Y79.139 E0.36232
G1 X155.379 Y79.676 E0.01698
G1 X163.016 Y87.314 E0.34125
G1 X162.577 Y87.412 E0.01422
G1 X155.379 Y80.214 E0.32163
G1 X155.379 Y80.751 E0.01698
G1 X162.154 Y87.527 E0.30274
G1 X161.752 Y87.661 E0.01341
G1 X155.379 Y81.288 E0.28476
G1 X155.379 Y81.826 E0.01698
G1 X161.372 Y87.820 E0.26781
G1 X161.003 Y87.988 E0.01282
G1 X155.379 Y82.363 E0.25131
G1 X155.379 Y82.901 E0.01698
G1 X160.658 Y88.180 E0.23589
G1 X160.323 Y88.383 E0.01236
G1 X155.379 Y83.438 E0.22095
G1 X155.379 Y83.975 E0.01698
G1 X160.005 Y88.601 E0.20670
G1 X159.702 Y88.836 E0.01210
G1 X155.379 Y84.513 E0.19320
G1 X155.379 Y85.050 E0.01698
G1 X159.409 Y89.080 E0.18008
G1 X159.137 Y89.346 E0.01201
G1 X155.379 Y85.587 E0.16795
G1 X155.379 Y86.125 E0.01698
G1 X158.872 Y89.618 E0.15607
G1 X158.628 Y89.911 E0.01206
G1 X155.379 Y86.662 E0.14518
G1 X155.379 Y87.199 E0.01698
G1 X158.393 Y90.213 E0.13467
G1 X158.174 Y90.532 E0.01221
G1 X155.379 Y87.737 E0.12491
G1 X155.379 Y88.274 E0.01698
G1 X157.971 Y90.867 E0.11584
G1 X157.779 Y91.212 E0.01248
G1 X155.379 Y88.811 E0.10725
G1 X155.379 Y89.349 E0.01698
G1 X157.611 Y91.581 E0.09974
G1 X157.453 Y91.960 E0.01298
G1 X155.379 Y89.886 E0.09268
G1 X155.379 Y90.424 E0.01698
G1 X157.318 Y92.363 E0.08665
G1 X157.203 Y92.786 E0.01384
G1 X155.379 Y90.961 E0.08153
G1 X155.379 Y91.498 E0.01698
G1 X157.105 Y93.225 E0.07714
G1 X157.039 Y93.696 E0.01504
G1 X155.379 Y92.036 E0.07420
G1 X155.379 Y92.573 E0.01698
G1 X157.002 Y94.197 E0.07256
G1 X156.997 Y94.729 E0.01682
G1 X155.379 Y93.110 E0.07234
G1 X155.379 Y93.648 E0.01698
G1 X157.034 Y95.304 E0.07398
G1 X157.130 Y95.936 E0.02021
G1 X155.379 Y94.185 E0.07824
G1 X155.379 Y94.722 E0.01698
G1 X157.313 Y96.657 E0.08642
G1 X157.482 Y97.162 E0.01685
G1 X157.641 Y97.522 E0.01245
G1 X155.379 Y95.260 E0.10110
G1 X155.379 Y95.797 E0.01698
G1 X169.779 Y110.198 E0.64343
G1 X169.242 Y110.198 E0.01698
G1 X155.379 Y96.335 E0.61942
G1 X155.379 Y96.872 E0.01698
G1 X168.704 Y110.198 E0.59541
M73 P1 R66
G1 X168.167 Y110.198 E0.01698
G1 X155.379 Y97.409 E0.57140
M73 P2 R66
M73 Q2 S67
G1 X155.379 Y97.947 E0.01698
G1 X167.629 Y110.198 E0.54739
G1 X167.092 Y110.198 E0.01698
G1 X155.379 Y98.484 E0.52338
G1 X155.379 Y99.021 E0.01698
G1 X166.555 Y110.198 E0.49937
G1 X166.017 Y110.198 E0.01698
G1 X155.379 Y99.559 E0.47536
G1 X155.379 Y100.096 E0.01698
G1 X165.480 Y110.198 E0.45135
G1 X164.943 Y110.198 E0.01698
G1 X155.379 Y100.633 E0.42734
G1 X155.379 Y101.171 E0.01698
G1 X164.405 Y110.198 E0.40333
G1 X163.868 Y110.198 E0.01698
G1 X155.379 Y101.708 E0.37932
G1 X155.379 Y102.246 E0.01698
G1 X163.331 Y110.198 E0.35531
G1 X162.793 Y110.198 E0.01698
G1 X155.379 Y102.783 E0.33130
G1 X155.379 Y103.320 E0.01698
G1 X162.256 Y110.198 E0.30729
G1 X161.718 Y110.198 E0.01698
G1 X155.379 Y103.858 E0.28328
G1 X155.379 Y104.395 E0.01698
G1 X161.181 Y110.198 E0.25927
G1 X160.644 Y110.198 E0.01698
G1 X155.379 Y104.932 E0.23526
G1 X155.379 Y105.470 E0.01698
G1 X160.106 Y110.198 E0.21125
G1 X159.569 Y110.198 E0.01698
G1 X155.379 Y106.007 E0.18724
G1 X155.379 Y106.544 E0.01698
G1 X159.032 Y110.198 E0.16323
G1 X158.494 Y110.198 E0.01698
G1 X155.379 Y107.082 E0.13922
G1 X155.379 Y107.619 E0.01698
G1 X157.957 Y110.198 E0.11521
G1 X157.420 Y110.198 E0.01698
G1 X155.379 Y108.157 E0.09120
G1 X155.379 Y108.694 E0.01698
G1 X156.882 Y110.198 E0.06719
G1 X156.345 Y110.198 E0.01698
G1 X155.379 Y109.231 E0.04318
G1 X155.379 Y109.769 E0.01698
G1 X155.977 Y110.367 E0.02675
;WIPE_START
G1 F8640.000
G1 X155.379 Y109.769 E-0.19547
G1 X155.379 Y109.231 E-0.12408
G1 X156.345 Y110.198 E-0.31553
G1 X156.882 Y110.198 E-0.12408
G1 X155.379 Y108.694 E-0.49101
G1 X155.379 Y108.348 E-0.07983
;WIPE_END
G1 E-0.07000 F2100.000
G1 Z0.400 F10800.000
G1 X163.086 Y119.499
