; generated by PrusaSlicer 2.3.0+win64 on 2021-04-04 at 01:50:22 UTC

; 

; external perimeters extrusion width = 0.60mm
; perimeters extrusion width = 0.50mm
; infill extrusion width = 0.50mm
; solid infill extrusion width = 0.50mm
; top infill extrusion width = 0.45mm
; first layer extrusion width = 0.42mm

M73 P0 R49
M73 Q0 S49
M201 X1000 Y1000 Z200 E5000 ; sets maximum accelerations, mm/sec^2
M203 X200 Y200 Z12 E120 ; sets maximum feedrates, mm/sec
M204 P1250 R1250 T1250 ; sets acceleration (P, T) and retract acceleration (R), mm/sec^2
M205 X8.00 Y8.00 Z0.40 E4.50 ; sets the jerk limits, mm/sec
M205 S0 T0 ; sets the minimum extruding and travel feed rate, mm/sec
M107
;TYPE:Custom
M862.3 P "MK3S" ; printer model check
M862.1 P0.4 ; nozzle diameter check
M115 U3.9.1 ; tell printer latest fw version
G90 ; use absolute coordinates
M83 ; extruder relative mode
M104 S230 ; set extruder temp
M140 S85 ; set bed temp
M190 S85 ; wait for bed temp
M109 S230 ; wait for extruder temp
G28 W ; home all without mesh bed level
G80 ; mesh bed leveling
G1 Y-3.0 F1000.0 ; go outside print area
G92 E0.0
G1 X60.0 E9.0 F1000.0 ; intro line
G1 X100.0 E12.5 F1000.0 ; intro line
G92 E0.0
M221 S95

; Don't change E values below. Excessive value can damage the printer.

M907 E538 ; set extruder motor current
G21 ; set units to millimeters
G90 ; use absolute coordinates
M83 ; use relative distances for extrusion
M900 K0.08 ; Filament gcode LA 1.5
M900 K45 ; Filament gcode LA 1.0
;LAYER_CHANGE
;Z:0.2
;HEIGHT:0.2
;BEFORE_LAYER_CHANGE
G92 E0.0
;0.2


G1 E-1.40000 F2100.000
G1 Z0.200 F10800.000
;AFTER_LAYER_CHANGE
;0.2
G1 Z0.400
G1 X110.780 Y76.901
G1 Z0.200
G1 E1.40000 F2100.000
M204 S1000
;TYPE:Skirt
;WIDTH:0.42
G1 F1200.000
G1 X111.210 Y76.186 E0.02614
G1 X111.572 Y75.850 E0.01550
G1 X111.999 Y75.594 E0.01562
G1 X112.466 Y75.434 E0.01550
G1 X112.961 Y75.373 E0.01562
G1 X162.671 Y75.351 E1.55863
G1 X163.556 Y75.523 E0.02825
G1 X164.310 Y76.010 E0.02813
G1 X164.830 Y76.741 E0.02813
G1 X165.042 Y77.617 E0.02825
G1 X165.044 Y111.266 E1.05506
G1 X164.886 Y112.081 E0.02602
G1 X164.458 Y112.792 E0.02602
G1 X138.503 Y134.091 E1.05274
G1 X137.886 Y134.456 E0.02249
G1 X137.016 Y134.627 E0.02778
G1 X112.962 Y134.627 E0.75420
G1 X112.147 Y134.469 E0.02602
G1 X111.436 Y134.040 E0.02602
G1 X111.093 Y133.669 E0.01585
G1 X110.838 Y133.237 E0.01574
G1 X110.679 Y132.761 E0.01574
G1 X110.623 Y132.259 E0.01585
G1 X110.623 Y77.723 E1.70992
G1 X110.769 Y76.960 E0.02437
;WIPE_START
G1 F8640.000
G1 X111.210 Y76.186 E-0.20555
G1 X111.572 Y75.850 E-0.11413
G1 X111.999 Y75.594 E-0.11500
G1 X112.466 Y75.434 E-0.11413
G1 X112.961 Y75.373 E-0.11500
G1 X115.846 Y75.372 E-0.66619
;WIPE_END
G1 E-0.07000 F2100.000
G1 Z0.400 F10800.000
G1 X144.134 Y91.863
G1 Z0.200
G1 E1.40000 F2100.000
;TYPE:Perimeter
G1 F1200.000
G1 X144.412 Y91.253 E0.02100
G1 X144.747 Y90.673 E0.02100
G1 X145.135 Y90.128 E0.02100
G1 X145.574 Y89.621 E0.02100
G1 X146.059 Y89.159 E0.02100
G1 X146.585 Y88.745 E0.02100
G1 X147.148 Y88.383 E0.02100
G1 X147.744 Y88.076 E0.02100
G1 X148.366 Y87.827 E0.02100
G1 X149.008 Y87.639 E0.02100
G1 X149.666 Y87.512 E0.02100
G1 X150.333 Y87.448 E0.02100
G1 X151.002 Y87.448 E0.02100
G1 X151.669 Y87.512 E0.02100
G1 X152.327 Y87.639 E0.02100
G1 X152.969 Y87.827 E0.02100
G1 X153.591 Y88.076 E0.02100
G1 X154.186 Y88.383 E0.02100
G1 X154.750 Y88.745 E0.02100
G1 X155.276 Y89.159 E0.02100
G1 X155.761 Y89.621 E0.02100
G1 X156.200 Y90.128 E0.02100
G1 X156.588 Y90.673 E0.02100
G1 X156.923 Y91.253 E0.02100
G1 X157.201 Y91.863 E0.02100
G1 X157.420 Y92.495 E0.02100
G1 X157.578 Y93.146 E0.02100
G1 X157.674 Y93.809 E0.02100
G1 X157.705 Y94.478 E0.02100
G1 X157.674 Y95.147 E0.02100
G1 X157.578 Y95.810 E0.02100
G1 X157.420 Y96.461 E0.02100
G1 X157.201 Y97.094 E0.02100
G1 X156.923 Y97.703 E0.02100
G1 X156.588 Y98.283 E0.02100
G1 X156.200 Y98.829 E0.02100
G1 X155.761 Y99.335 E0.02100
G1 X155.276 Y99.797 E0.02100
G1 X154.750 Y100.211 E0.02100
G1 X154.186 Y100.573 E0.02100
G1 X153.591 Y100.880 E0.02100
G1 X152.969 Y101.129 E0.02100
G1 X152.327 Y101.318 E0.02100
G1 X151.669 Y101.445 E0.02100
G1 X151.002 Y101.508 E0.02100
G1 X150.333 Y101.508 E0.02100
G1 X149.666 Y101.445 E0.02100
G1 X149.008 Y101.318 E0.02100
G1 X148.366 Y101.129 E0.02100
G1 X147.744 Y100.880 E0.02100
G1 X147.148 Y100.573 E0.02100
G1 X146.585 Y100.211 E0.02100
G1 X146.059 Y99.797 E0.02100
G1 X145.574 Y99.335 E0.02100
G1 X145.135 Y98.829 E0.02100
G1 X144.747 Y98.283 E0.02100
G1 X144.412 Y97.703 E0.02100
G1 X144.134 Y97.094 E0.02100
G1 X143.915 Y96.461 E0.02100
G1 X143.757 Y95.810 E0.02100
G1 X143.661 Y95.147 E0.02100
G1 X143.629 Y94.478 E0.02100
G1 X143.661 Y93.809 E0.02100
G1 X143.757 Y93.146 E0.02100
G1 X143.915 Y92.495 E0.02100
G1 X144.114 Y91.919 E0.01912
G1 X144.470 Y92.043 F10800.000
;TYPE:External perimeter
G1 F1200.000
G1 X144.747 Y91.426 E0.02119
G1 X145.064 Y90.877 E0.01987
G1 X145.432 Y90.361 E0.01987
G1 X145.847 Y89.882 E0.01987
G1 X146.306 Y89.445 E0.01987
G1 X146.804 Y89.053 E0.01987
G1 X147.337 Y88.710 E0.01987
G1 X147.901 Y88.420 E0.01987
G1 X148.489 Y88.184 E0.01987
G1 X149.097 Y88.006 E0.01987
G1 X149.720 Y87.886 E0.01987
G1 X150.350 Y87.825 E0.01987
G1 X150.984 Y87.825 E0.01987
G1 X151.615 Y87.886 E0.01987
G1 X152.238 Y88.006 E0.01987
G1 X152.846 Y88.184 E0.01987
G1 X153.434 Y88.420 E0.01987
G1 X153.998 Y88.710 E0.01987
G1 X154.531 Y89.053 E0.01987
G1 X155.029 Y89.445 E0.01987
G1 X155.488 Y89.882 E0.01987
G1 X155.903 Y90.361 E0.01987
G1 X156.271 Y90.877 E0.01987
G1 X156.587 Y91.426 E0.01987
G1 X156.851 Y92.003 E0.01987
G1 X157.058 Y92.602 E0.01987
G1 X157.207 Y93.218 E0.01987
G1 X157.298 Y93.845 E0.01987
G1 X157.328 Y94.478 E0.01987
G1 X157.298 Y95.111 E0.01987
G1 X157.207 Y95.739 E0.01987
G1 X157.058 Y96.355 E0.01987
G1 X156.851 Y96.954 E0.01987
G1 X156.587 Y97.530 E0.01987
G1 X156.271 Y98.079 E0.01987
G1 X155.903 Y98.595 E0.01987
G1 X155.488 Y99.075 E0.01987
G1 X155.029 Y99.512 E0.01987
G1 X154.531 Y99.904 E0.01987
G1 X153.998 Y100.246 E0.01987
G1 X153.434 Y100.537 E0.01987
G1 X152.846 Y100.772 E0.01987
G1 X152.238 Y100.951 E0.01987
G1 X151.615 Y101.071 E0.01987
G1 X150.984 Y101.131 E0.01987
G1 X150.350 Y101.131 E0.01987
G1 X149.720 Y101.071 E0.01987
G1 X149.097 Y100.951 E0.01987
G1 X148.489 Y100.772 E0.01987
G1 X147.901 Y100.537 E0.01987
G1 X147.337 Y100.246 E0.01987
G1 X146.804 Y99.904 E0.01987
G1 X146.306 Y99.512 E0.01987
G1 X145.847 Y99.075 E0.01987
G1 X145.432 Y98.595 E0.01987
G1 X145.064 Y98.079 E0.01987
G1 X144.747 Y97.530 E0.01987
G1 X144.484 Y96.954 E0.01987
G1 X144.277 Y96.355 E0.01987
G1 X144.127 Y95.739 E0.01987
G1 X144.037 Y95.111 E0.01987
G1 X144.007 Y94.478 E0.01987
G1 X144.037 Y93.845 E0.01987
G1 X144.127 Y93.218 E0.01987
G1 X144.277 Y92.602 E0.01987
G1 X144.451 Y92.099 E0.01667
G1 X144.222 Y91.729 F10800.000
;WIPE_START
G1 F8640.000
G1 X144.747 Y91.426 E-0.16982
G1 X145.064 Y90.877 E-0.14635
G1 X145.432 Y90.361 E-0.14635
G1 X145.847 Y89.882 E-0.14635
G1 X146.306 Y89.445 E-0.14635
G1 X146.804 Y89.053 E-0.14635
G1 X147.337 Y88.710 E-0.14635
G1 X147.901 Y88.420 E-0.14635
G1 X148.446 Y88.201 E-0.13570
;WIPE_END
G1 E-0.07000 F2100.000
G1 Z0.400 F10800.000
G1 X139.454 Y78.515
G1 Z0.200
G1 E1.40000 F2100.000
;TYPE:Perimeter
G1 F1200.000
G1 X161.880 Y78.515 E0.70315
G1 X161.880 Y110.441 E1.00101
G1 X139.454 Y110.441 E0.70315
G1 X139.454 Y78.575 E0.99913
G1 X139.077 Y78.138 F10800.000
;TYPE:External perimeter
G1 F1200.000
G1 X162.257 Y78.138 E0.72679
M73 P1 R49
M73 Q1 S49
G1 X162.257 Y110.818 E1.02466
M73 P1 R48
G1 X139.077 Y110.818 E0.72679
G1 X139.077 Y78.198 E1.02278
G1 X139.457 Y78.263 F10800.000
;WIPE_START
G1 F8640.000
G1 X144.837 Y78.183 E-1.33000
;WIPE_END
G1 E-0.07000 F2100.000
G1 Z0.400 F10800.000
G1 X161.767 Y79.392
G1 Z0.200
G1 E1.40000 F2100.000
;TYPE:Solid infill
;WIDTH:0.420799
G1 F1200.000
G1 X161.173 Y78.798 E0.02641
G1 X160.639 Y78.798 E0.01679
G1 X161.598 Y79.757 E0.04261
G1 X161.598 Y80.292 E0.01679
G1 X160.104 Y78.798 E0.06636
G1 X159.570 Y78.798 E0.01679
G1 X161.598 Y80.826 E0.09011
G1 X161.598 Y81.360 E0.01679
G1 X159.035 Y78.798 E0.11385
G1 X158.501 Y78.798 E0.01679
G1 X161.598 Y81.895 E0.13760
G1 X161.598 Y82.429 E0.01679
G1 X157.967 Y78.798 E0.16135
G1 X157.432 Y78.798 E0.01679
G1 X161.598 Y82.964 E0.18509
G1 X161.598 Y83.498 E0.01679
G1 X156.898 Y78.798 E0.20884
G1 X156.363 Y78.798 E0.01679
G1 X161.598 Y84.032 E0.23259
G1 X161.598 Y84.567 E0.01679
G1 X155.829 Y78.798 E0.25633
G1 X155.295 Y78.798 E0.01679
G1 X161.598 Y85.101 E0.28008
G1 X161.598 Y85.636 E0.01679
G1 X154.760 Y78.798 E0.30383
G1 X154.226 Y78.798 E0.01679
G1 X161.598 Y86.170 E0.32757
G1 X161.598 Y86.704 E0.01679
G1 X153.691 Y78.798 E0.35132
G1 X153.157 Y78.798 E0.01679
G1 X161.598 Y87.239 E0.37506
G1 X161.598 Y87.773 E0.01679
G1 X152.623 Y78.798 E0.39881
G1 X152.088 Y78.798 E0.01679
G1 X161.598 Y88.308 E0.42256
G1 X161.598 Y88.842 E0.01679
G1 X151.554 Y78.798 E0.44630
G1 X151.019 Y78.798 E0.01679
G1 X161.598 Y89.376 E0.47005
G1 X161.598 Y89.911 E0.01679
G1 X150.485 Y78.798 E0.49380
G1 X149.950 Y78.798 E0.01679
G1 X161.598 Y90.445 E0.51754
G1 X161.598 Y90.980 E0.01679
G1 X149.416 Y78.798 E0.54129
G1 X148.882 Y78.798 E0.01679
G1 X161.598 Y91.514 E0.56504
G1 X161.598 Y92.048 E0.01679
G1 X148.347 Y78.798 E0.58878
G1 X147.813 Y78.798 E0.01679
G1 X161.598 Y92.583 E0.61253
G1 X161.598 Y93.117 E0.01679
G1 X147.278 Y78.798 E0.63628
G1 X146.744 Y78.798 E0.01679
G1 X161.598 Y93.652 E0.66002
G1 X161.598 Y94.186 E0.01679
G1 X146.210 Y78.798 E0.68377
G1 X145.675 Y78.798 E0.01679
G1 X161.598 Y94.720 E0.70752
G1 X161.598 Y95.255 E0.01679
G1 X145.141 Y78.798 E0.73126
G1 X144.606 Y78.798 E0.01679
G1 X153.573 Y87.764 E0.39842
M73 Q1 S48
G1 X153.062 Y87.560 E0.01729
G1 X152.739 Y87.465 E0.01058
G1 X144.072 Y78.798 E0.38512
G1 X143.538 Y78.798 E0.01679
G1 X152.034 Y87.294 E0.37753
G1 X151.709 Y87.232 E0.01038
G1 X151.408 Y87.203 E0.00951
G1 X143.003 Y78.798 E0.37347
G1 X142.469 Y78.798 E0.01679
G1 X150.836 Y87.165 E0.37181
G1 X150.303 Y87.167 E0.01674
G1 X141.934 Y78.798 E0.37187
G1 X141.400 Y78.798 E0.01679
G1 X149.815 Y87.214 E0.37394
M73 P2 R48
M73 Q2 S48
G1 X149.352 Y87.284 E0.01473
G1 X140.866 Y78.798 E0.37709
G1 X140.331 Y78.798 E0.01679
G1 X148.907 Y87.374 E0.38106
G1 X148.494 Y87.495 E0.01353
G1 X139.797 Y78.798 E0.38645
G1 X139.737 Y78.798 E0.00187
G1 X139.737 Y79.273 E0.01492
G1 X148.095 Y87.631 E0.37139
G1 X147.714 Y87.784 E0.01292
G1 X139.737 Y79.807 E0.35444
G1 X139.737 Y80.342 E0.01679
G1 X147.354 Y87.959 E0.33847
G1 X147.002 Y88.141 E0.01246
G1 X139.737 Y80.876 E0.32282
G1 X139.737 Y81.411 E0.01679
G1 X146.677 Y88.350 E0.30836
G1 X146.357 Y88.565 E0.01210
G1 X139.737 Y81.945 E0.29416
G1 X139.737 Y82.479 E0.01679
G1 X146.058 Y88.800 E0.28086
G1 X145.769 Y89.045 E0.01191
G1 X139.737 Y83.014 E0.26800
G1 X139.737 Y83.548 E0.01679
G1 X145.495 Y89.306 E0.25585
G1 X145.235 Y89.580 E0.01188
G1 X139.737 Y84.083 E0.24430
G1 X139.737 Y84.617 E0.01679
G1 X144.987 Y89.867 E0.23328
G1 X144.757 Y90.171 E0.01199
G1 X139.737 Y85.151 E0.22306
G1 X139.737 Y85.686 E0.01679
G1 X144.535 Y90.483 E0.21318
G1 X144.336 Y90.819 E0.01226
G1 X139.737 Y86.220 E0.20435
G1 X139.737 Y86.755 E0.01679
G1 X144.143 Y91.161 E0.19578
G1 X143.976 Y91.527 E0.01267
G1 X139.737 Y87.289 E0.18834
G1 X139.737 Y87.823 E0.01679
G1 X143.819 Y91.906 E0.18139
G1 X143.682 Y92.303 E0.01320
G1 X139.737 Y88.358 E0.17529
G1 X139.737 Y88.892 E0.01679
G1 X143.568 Y92.723 E0.17023
G1 X143.469 Y93.158 E0.01403
G1 X139.737 Y89.427 E0.16583
G1 X139.737 Y89.961 E0.01679
G1 X143.402 Y93.626 E0.16284
G1 X143.363 Y94.121 E0.01562
G1 X139.737 Y90.495 E0.16113
G1 X139.737 Y91.030 E0.01679
G1 X143.354 Y94.647 E0.16073
G1 X143.385 Y95.212 E0.01778
G1 X139.737 Y91.564 E0.16208
G1 X139.737 Y92.099 E0.01679
G1 X143.475 Y95.836 E0.16607
G1 X143.642 Y96.538 E0.02267
G1 X139.737 Y92.633 E0.17352
G1 X139.737 Y93.167 E0.01679
G1 X144.299 Y97.730 E0.20273
;WIPE_START
G1 F8640.000
G1 X140.227 Y93.657 E-1.33000
;WIPE_END
G1 E-0.07000 F2100.000
G1 Z0.400 F10800.000
G1 X157.035 Y91.227
G1 Z0.200
G1 E1.40000 F2100.000
G1 F1200.000
G1 X161.598 Y95.789 E0.20272
G1 X161.598 Y96.324 E0.01679
G1 X157.693 Y92.419 E0.17351
G1 X157.860 Y93.121 E0.02267
G1 X161.598 Y96.858 E0.16607
G1 X161.598 Y97.392 E0.01679
G1 X157.950 Y93.745 E0.16208
G1 X157.980 Y94.310 E0.01778
G1 X161.598 Y97.927 E0.16073
G1 X161.598 Y98.461 E0.01679
G1 X157.971 Y94.835 E0.16113
G1 X157.933 Y95.331 E0.01562
G1 X161.598 Y98.996 E0.16284
G1 X161.598 Y99.530 E0.01679
G1 X157.866 Y95.798 E0.16583
G1 X157.767 Y96.233 E0.01403
G1 X161.598 Y100.064 E0.17023
G1 X161.598 Y100.599 E0.01679
G1 X157.653 Y96.654 E0.17529
G1 X157.515 Y97.051 E0.01320
G1 X161.598 Y101.133 E0.18139
G1 X161.598 Y101.668 E0.01679
G1 X157.359 Y97.429 E0.18834
G1 X157.192 Y97.796 E0.01267
G1 X161.598 Y102.202 E0.19578
G1 X161.598 Y102.736 E0.01679
G1 X156.999 Y98.138 E0.20435
G1 X156.800 Y98.473 E0.01226
G1 X161.598 Y103.271 E0.21318
G1 X161.598 Y103.805 E0.01679
G1 X156.578 Y98.785 E0.22306
G1 X156.348 Y99.090 E0.01199
G1 X161.598 Y104.340 E0.23328
G1 X161.598 Y104.874 E0.01679
G1 X156.100 Y99.376 E0.24430
G1 X155.840 Y99.651 E0.01188
G1 X161.598 Y105.408 E0.25585
G1 X161.598 Y105.943 E0.01679
G1 X155.566 Y99.912 E0.26801
G1 X155.277 Y100.157 E0.01191
G1 X161.598 Y106.477 E0.28086
G1 X161.598 Y107.012 E0.01679
G1 X154.978 Y100.392 E0.29416
G1 X154.658 Y100.606 E0.01210
G1 X161.598 Y107.546 E0.30836
G1 X161.598 Y108.080 E0.01679
G1 X154.333 Y100.816 E0.32282
G1 X153.980 Y100.998 E0.01246
G1 X161.598 Y108.615 E0.33847
G1 X161.598 Y109.149 E0.01679
G1 X153.621 Y101.173 E0.35444
G1 X153.239 Y101.326 E0.01292
G1 X161.598 Y109.684 E0.37139
G1 X161.598 Y110.158 E0.01492
G1 X161.538 Y110.158 E0.00187
G1 X152.841 Y101.462 E0.38645
G1 X152.428 Y101.583 E0.01353
G1 X161.003 Y110.158 E0.38106
G1 X160.469 Y110.158 E0.01679
G1 X151.983 Y101.672 E0.37709
G1 X151.519 Y101.743 E0.01473
G1 X159.935 Y110.158 E0.37394
G1 X159.400 Y110.158 E0.01679
G1 X151.031 Y101.790 E0.37187
G1 X150.499 Y101.791 E0.01674
G1 X158.866 Y110.158 E0.37181
G1 X158.331 Y110.158 E0.01679
G1 X149.927 Y101.754 E0.37347
G1 X149.625 Y101.725 E0.00951
G1 X149.301 Y101.662 E0.01038
G1 X157.797 Y110.158 E0.37753
G1 X157.263 Y110.158 E0.01679
G1 X148.596 Y101.491 E0.38512
M73 P3 R48
M73 Q3 S48
G1 X148.273 Y101.397 E0.01057
G1 X147.762 Y101.192 E0.01729
G1 X156.728 Y110.158 E0.39842
G1 X156.194 Y110.158 E0.01679
G1 X139.737 Y93.702 E0.73126
G1 X139.737 Y94.236 E0.01679
M73 P3 R47
G1 X155.659 Y110.158 E0.70751
G1 X155.125 Y110.158 E0.01679
G1 X139.737 Y94.771 E0.68377
G1 X139.737 Y95.305 E0.01679
G1 X154.591 Y110.158 E0.66002
G1 X154.056 Y110.158 E0.01679
G1 X139.737 Y95.839 E0.63627
G1 X139.737 Y96.374 E0.01679
G1 X153.522 Y110.158 E0.61253
G1 X152.987 Y110.158 E0.01679
G1 X139.737 Y96.908 E0.58878
G1 X139.737 Y97.443 E0.01679
G1 X152.453 Y110.158 E0.56503
G1 X151.919 Y110.158 E0.01679
G1 X139.737 Y97.977 E0.54129
G1 X139.737 Y98.511 E0.01679
G1 X151.384 Y110.158 E0.51754
G1 X150.850 Y110.158 E0.01679
G1 X139.737 Y99.046 E0.49379
G1 X139.737 Y99.580 E0.01679
G1 X150.315 Y110.158 E0.47005
G1 X149.781 Y110.158 E0.01679
G1 X139.737 Y100.115 E0.44630
G1 X139.737 Y100.649 E0.01679
G1 X149.247 Y110.158 E0.42256
G1 X148.712 Y110.158 E0.01679
G1 X139.737 Y101.183 E0.39881
G1 X139.737 Y101.718 E0.01679
G1 X148.178 Y110.158 E0.37506
G1 X147.643 Y110.158 E0.01679
G1 X139.737 Y102.252 E0.35132
G1 X139.737 Y102.787 E0.01679
G1 X147.109 Y110.158 E0.32757
G1 X146.575 Y110.158 E0.01679
G1 X139.737 Y103.321 E0.30382
G1 X139.737 Y103.855 E0.01679
G1 X146.040 Y110.158 E0.28008
G1 X145.506 Y110.158 E0.01679
G1 X139.737 Y104.390 E0.25633
G1 X139.737 Y104.924 E0.01679
G1 X144.971 Y110.158 E0.23258
G1 X144.437 Y110.158 E0.01679
G1 X139.737 Y105.459 E0.20884
G1 X139.737 Y105.993 E0.01679
G1 X143.903 Y110.158 E0.18509
G1 X143.368 Y110.158 E0.01679
G1 X139.737 Y106.527 E0.16134
G1 X139.737 Y107.062 E0.01679
G1 X142.834 Y110.158 E0.13760
G1 X142.299 Y110.158 E0.01679
G1 X139.737 Y107.596 E0.11385
G1 X139.737 Y108.131 E0.01679
G1 X141.765 Y110.158 E0.09010
G1 X141.231 Y110.158 E0.01679
G1 X139.737 Y108.665 E0.06636
