; generated by PrusaSlicer 2.3.0+win64 on 2021-07-22 at 11:50:42 UTC

; 

; external perimeters extrusion width = 0.25mm
; perimeters extrusion width = 0.25mm
; infill extrusion width = 0.25mm
; solid infill extrusion width = 0.25mm
; top infill extrusion width = 0.25mm
; first layer extrusion width = 0.30mm

M73 P0 R113
M73 Q0 S113
M201 X1000 Y1000 Z200 E5000 ; sets maximum accelerations, mm/sec^2
M203 X200 Y200 Z12 E120 ; sets maximum feedrates, mm/sec
M204 P1250 R1250 T1250 ; sets acceleration (P, T) and retract acceleration (R), mm/sec^2
M205 X8.00 Y8.00 Z0.40 E4.50 ; sets the jerk limits, mm/sec
M205 S0 T0 ; sets the minimum extruding and travel feed rate, mm/sec
M107
;TYPE:Custom
M862.3 P "MK3S" ; printer model check
M862.1 P0.25 ; nozzle diameter check
M115 U3.9.1 ; tell printer latest fw version
G90 ; use absolute coordinates
M83 ; extruder relative mode
M104 S240 ; set extruder temp
M140 S85 ; set bed temp
M190 S85 ; wait for bed temp
M109 S240 ; wait for extruder temp
G28 W ; home all without mesh bed level
G80 ; mesh bed leveling
G1 Y-3.0 F1000.0 ; go outside print area
G92 E0.0
G1 X60.0 E8.0 F700.0 ; intro line
G1 X100.0 E12.5 F700.0 ; intro line
G92 E0.0
M221 S95

; Don't change E value below. Excessive value can damage the printer.
M907 E430 ; set extruder motor current
G21 ; set units to millimeters
G90 ; use absolute coordinates
M83 ; use relative distances for extrusion
M900 K0.08 ; Filament gcode LA 1.5
M900 K45 ; Filament gcode LA 1.0
;LAYER_CHANGE
;Z:0.2
;HEIGHT:0.2
;BEFORE_LAYER_CHANGE
G92 E0.0
;0.2


M73 P0 R112
G1 E-1.40000 F2100.000
G1 Z0.200 F10800.000
;AFTER_LAYER_CHANGE
;0.2
G1 Z0.400
G1 X94.208 Y60.754
G1 Z0.200
G1 E1.40000 F2100.000
M204 S500
;TYPE:Skirt
;WIDTH:0.3
G1 F1200.000
G1 X94.974 Y60.614 E0.01666
G1 X165.495 Y60.614 E1.50749
G1 X166.308 Y60.767 E0.01767
G1 X167.008 Y61.199 E0.01759
G1 X167.508 Y61.857 E0.01767
G1 X167.738 Y62.651 E0.01767
G1 X171.990 Y123.680 E1.30771
G1 X171.969 Y126.325 E0.05656
G1 X171.791 Y127.059 E0.01613
G1 X171.385 Y127.826 E0.01856
G1 X156.630 Y148.056 E0.53523
G1 X156.052 Y148.659 E0.01787
G1 X155.074 Y149.206 E0.02394
G1 X154.037 Y149.386 E0.02249
G1 X120.822 Y149.386 E0.71003
G1 X116.738 Y149.284 E0.08732
G1 X116.205 Y149.197 E0.01156
G1 X115.559 Y148.893 E0.01525
G1 X86.086 Y128.689 E0.76385
G1 X85.644 Y128.289 E0.01274
G1 X85.244 Y127.599 E0.01705
G1 X78.118 Y107.595 E0.45394
G1 X78.025 Y106.988 E0.01313
G1 X78.040 Y102.787 E0.08980
G1 X78.160 Y102.279 E0.01116
G1 X92.876 Y62.085 E0.91498
G1 X93.143 Y61.576 E0.01226
G1 X93.532 Y61.150 E0.01234
G1 X94.175 Y60.773 E0.01593
M204 S1000
;WIPE_START
G1 F8640.000
G1 X94.974 Y60.614 E-0.18809
G1 X99.919 Y60.614 E-1.14191
;WIPE_END
G1 E-0.07000 F2100.000
G1 Z0.400 F10800.000
G1 X105.085 Y77.964
G1 Z0.200
G1 E1.40000 F2100.000
M204 S500
;TYPE:Perimeter
M73 Q0 S112
G1 F1200.000
G1 X113.899 Y77.964 E0.18841
G1 X113.899 Y81.778 E0.08153
G1 X105.085 Y81.778 E0.18841
G1 X105.085 Y78.001 E0.08073
M204 S1000
G1 X105.342 Y78.221 F10800.000
M204 S500
;TYPE:External perimeter
G1 F1200.000
G1 X113.642 Y78.221 E0.17742
G1 X113.642 Y81.521 E0.07054
G1 X105.342 Y81.521 E0.17742
G1 X105.342 Y78.258 E0.06974
M204 S1000
G1 X105.245 Y77.990 F10800.000
;WIPE_START
G1 F8640.000
G1 X111.102 Y78.232 E-1.33000
;WIPE_END
G1 E-0.07000 F2100.000
G1 Z0.400 F10800.000
G1 X104.828 Y82.035
G1 Z0.200
G1 E1.40000 F2100.000
M204 S500
;TYPE:Perimeter
G1 F1200.000
G1 X109.078 Y82.035 E0.09085
G1 X109.078 Y84.984 E0.06303
G1 X100.406 Y84.984 E0.18537
G1 X100.406 Y82.035 E0.06303
G1 X104.656 Y82.035 E0.09085
G1 X104.656 Y63.535 E0.39546
G1 X104.828 Y63.535 E0.00367
G1 X104.828 Y81.998 E0.39466
M204 S1000
G1 X104.399 Y81.778 F10800.000
M204 S500
G1 F1200.000
G1 X95.585 Y81.778 E0.18841
G1 X95.585 Y77.964 E0.08153
G1 X104.399 Y77.964 E0.18841
G1 X104.399 Y81.741 E0.08073
M204 S1000
G1 X104.142 Y81.521 F10800.000
M204 S500
;TYPE:External perimeter
G1 F1200.000
G1 X95.842 Y81.521 E0.17742
G1 X95.842 Y78.221 E0.07054
G1 X104.142 Y78.221 E0.17742
G1 X104.142 Y81.483 E0.06974
M204 S1000
G1 X104.239 Y81.751 F10800.000
;WIPE_START
G1 F8640.000
G1 X98.382 Y81.509 E-1.33000
;WIPE_END
G1 E-0.07000 F2100.000
G1 Z0.400 F10800.000
G1 X95.585 Y63.464
G1 Z0.200
G1 E1.40000 F2100.000
M204 S500
;TYPE:Perimeter
G1 F1200.000
G1 X104.399 Y63.464 E0.18841
G1 X104.399 Y67.278 E0.08153
G1 X95.585 Y67.278 E0.18841
G1 X95.585 Y63.501 E0.08073
M204 S1000
G1 X95.842 Y63.721 F10800.000
M204 S500
;TYPE:External perimeter
G1 F1200.000
G1 X104.142 Y63.721 E0.17742
G1 X104.142 Y67.021 E0.07054
G1 X95.842 Y67.021 E0.17742
G1 X95.842 Y63.758 E0.06974
M204 S1000
G1 X95.745 Y63.490 F10800.000
;WIPE_START
G1 F8640.000
G1 X101.602 Y63.732 E-1.33000
;WIPE_END
G1 E-0.07000 F2100.000
G1 Z0.400 F10800.000
G1 X95.585 Y67.464
G1 Z0.200
G1 E1.40000 F2100.000
M204 S500
;TYPE:Perimeter
G1 F1200.000
G1 X104.399 Y67.464 E0.18841
G1 X104.399 Y77.778 E0.22048
G1 X95.585 Y77.778 E0.18841
G1 X95.585 Y67.501 E0.21968
M204 S1000
G1 X95.842 Y67.721 F10800.000
M204 S500
;TYPE:External perimeter
G1 F1200.000
G1 X104.142 Y67.721 E0.17742
G1 X104.142 Y77.521 E0.20949
G1 X95.842 Y77.521 E0.17742
G1 X95.842 Y67.758 E0.20869
M204 S1000
G1 X95.784 Y67.478 F10800.000
;WIPE_START
G1 F8640.000
G1 X101.602 Y67.732 E-1.33000
;WIPE_END
G1 E-0.07000 F2100.000
G1 Z0.400 F10800.000
G1 X105.085 Y67.464
G1 Z0.200
G1 E1.40000 F2100.000
M204 S500
;TYPE:Perimeter
G1 F1200.000
G1 X113.899 Y67.464 E0.18841
G1 X113.899 Y77.778 E0.22048
G1 X105.085 Y77.778 E0.18841
G1 X105.085 Y67.501 E0.21968
M204 S1000
G1 X105.342 Y67.721 F10800.000
M204 S500
;TYPE:External perimeter
G1 F1200.000
G1 X113.642 Y67.721 E0.17742
G1 X113.642 Y77.521 E0.20949
G1 X105.342 Y77.521 E0.17742
G1 X105.342 Y67.758 E0.20869
M204 S1000
G1 X105.284 Y67.478 F10800.000
;WIPE_START
G1 F8640.000
G1 X111.102 Y67.732 E-1.33000
;WIPE_END
G1 E-0.07000 F2100.000
G1 Z0.400 F10800.000
G1 X105.085 Y63.464
G1 Z0.200
G1 E1.40000 F2100.000
M204 S500
;TYPE:Perimeter
G1 F1200.000
G1 X113.899 Y63.464 E0.18841
G1 X113.899 Y67.278 E0.08153
G1 X105.085 Y67.278 E0.18841
G1 X105.085 Y63.501 E0.08073
M204 S1000
G1 X105.342 Y63.721 F10800.000
M204 S500
;TYPE:External perimeter
G1 F1200.000
G1 X113.642 Y63.721 E0.17742
G1 X113.642 Y67.021 E0.07054
G1 X105.342 Y67.021 E0.17742
G1 X105.342 Y63.758 E0.06974
M204 S1000
G1 X105.245 Y63.490 F10800.000
;WIPE_START
G1 F8640.000
G1 X111.102 Y63.732 E-1.33000
;WIPE_END
G1 E-0.07000 F2100.000
G1 Z0.400 F10800.000
G1 X109.335 Y81.964
G1 Z0.200
G1 E1.40000 F2100.000
M204 S500
;TYPE:Perimeter
G1 F1200.000
G1 X109.335 Y85.241 E0.07005
G1 X100.149 Y85.241 E0.19636
G1 X100.149 Y81.964 E0.07005
G1 X95.399 Y81.964 E0.10154
G1 X95.399 Y63.278 E0.39943
G1 X114.085 Y63.278 E0.39943
G1 X114.085 Y81.964 E0.39943
G1 X109.372 Y81.964 E0.10074
M204 S1000
G1 X109.592 Y82.221 F10800.000
M204 S500
;TYPE:External perimeter
G1 F1200.000
G1 X109.592 Y85.498 E0.07005
G1 X99.892 Y85.498 E0.20735
G1 X99.892 Y82.221 E0.07005
G1 X95.142 Y82.221 E0.10154
G1 X95.142 Y63.021 E0.41042
G1 X114.342 Y63.021 E0.41042
G1 X114.342 Y82.221 E0.41042
G1 X109.629 Y82.221 E0.10074
M204 S1000
G1 X109.366 Y82.328 F10800.000
G1 X109.000 Y82.636
M204 S500
;TYPE:Solid infill
;WIDTH:0.302117
G1 F1200.000
G1 X108.592 Y82.228 E0.01245
G1 X108.225 Y82.228 E0.00790
G1 X108.885 Y82.887 E0.02010
G1 X108.885 Y83.254 E0.00790
G1 X107.859 Y82.228 E0.03127
G1 X107.492 Y82.228 E0.00790
G1 X108.885 Y83.620 E0.04244
G1 X108.885 Y83.987 E0.00790
G1 X107.126 Y82.228 E0.05362
G1 X106.759 Y82.228 E0.00790
G1 X108.885 Y84.354 E0.06479
G1 X108.885 Y84.720 E0.00790
G1 X106.393 Y82.228 E0.07596
G1 X106.026 Y82.228 E0.00790
G1 X108.589 Y84.791 E0.07812
G1 X108.223 Y84.791 E0.00790
G1 X105.659 Y82.228 E0.07812
G1 X105.293 Y82.228 E0.00790
G1 X107.856 Y84.791 E0.07812
G1 X107.490 Y84.791 E0.00790
G1 X104.926 Y82.228 E0.07812
G1 X104.560 Y82.228 E0.00790
G1 X107.123 Y84.791 E0.07812
G1 X106.756 Y84.791 E0.00790
G1 X104.193 Y82.228 E0.07812
G1 X103.827 Y82.228 E0.00790
G1 X106.390 Y84.791 E0.07812
G1 X106.023 Y84.791 E0.00790
G1 X103.460 Y82.228 E0.07812
G1 X103.094 Y82.228 E0.00790
G1 X105.657 Y84.791 E0.07812
G1 X105.290 Y84.791 E0.00790
G1 X102.727 Y82.228 E0.07812
G1 X102.360 Y82.228 E0.00790
G1 X104.924 Y84.791 E0.07812
G1 X104.557 Y84.791 E0.00790
G1 X101.994 Y82.228 E0.07812
G1 X101.627 Y82.228 E0.00790
G1 X104.190 Y84.791 E0.07812
G1 X103.824 Y84.791 E0.00790
G1 X101.261 Y82.228 E0.07812
G1 X100.894 Y82.228 E0.00790
G1 X103.457 Y84.791 E0.07812
G1 X103.091 Y84.791 E0.00790
G1 X100.599 Y82.299 E0.07596
G1 X100.599 Y82.666 E0.00790
G1 X102.724 Y84.791 E0.06478
G1 X102.358 Y84.791 E0.00790
G1 X100.599 Y83.032 E0.05361
G1 X100.599 Y83.399 E0.00790
G1 X101.991 Y84.791 E0.04244
G1 X101.625 Y84.791 E0.00790
G1 X100.599 Y83.765 E0.03127
G1 X100.599 Y84.132 E0.00790
G1 X101.258 Y84.791 E0.02009
G1 X100.891 Y84.791 E0.00790
G1 X100.483 Y84.383 E0.01245
M204 S1000
;WIPE_START
G1 F8640.000
G1 X100.891 Y84.791 E-0.13336
G1 X101.258 Y84.791 E-0.08464
G1 X100.599 Y84.132 E-0.21528
G1 X100.599 Y83.765 E-0.08464
G1 X101.625 Y84.791 E-0.33498
G1 X101.991 Y84.791 E-0.08464
G1 X100.789 Y83.589 E-0.39245
;WIPE_END
G1 E-0.07000 F2100.000
G1 Z0.400 F10800.000
G1 X130.585 Y81.778
G1 Z0.200
G1 E1.40000 F2100.000
M204 S500
;TYPE:Perimeter
;WIDTH:0.3
G1 F1200.000
G1 X130.585 Y77.964 E0.08153
G1 X139.399 Y77.964 E0.18841
G1 X139.399 Y81.778 E0.08153
G1 X130.622 Y81.778 E0.18761
M204 S1000
M73 P0 R111
G1 X130.842 Y81.521 F10800.000
M204 S500
;TYPE:External perimeter
G1 F1200.000
G1 X130.842 Y78.221 E0.07054
G1 X139.142 Y78.221 E0.17742
G1 X139.142 Y81.521 E0.07054
G1 X130.879 Y81.521 E0.17662
M204 S1000
G1 X130.594 Y81.552 F10800.000
G1 X130.328 Y82.035
M204 S500
;TYPE:Perimeter
G1 F1200.000
G1 X134.578 Y82.035 E0.09085
G1 X134.578 Y84.984 E0.06303
M73 P1 R111
M73 Q1 S112
G1 X125.906 Y84.984 E0.18537
G1 X125.906 Y82.035 E0.06303
G1 X130.156 Y82.035 E0.09085
G1 X130.156 Y63.535 E0.39546
G1 X130.328 Y63.535 E0.00367
G1 X130.328 Y81.998 E0.39466
M204 S1000
G1 X129.899 Y81.778 F10800.000
M204 S500
G1 F1200.000
G1 X121.085 Y81.778 E0.18841
G1 X121.085 Y77.964 E0.08153
G1 X129.899 Y77.964 E0.18841
G1 X129.899 Y81.741 E0.08073
M204 S1000
G1 X129.642 Y81.521 F10800.000
M204 S500
;TYPE:External perimeter
G1 F1200.000
G1 X121.342 Y81.521 E0.17742
G1 X121.342 Y78.221 E0.07054
G1 X129.642 Y78.221 E0.17742
G1 X129.642 Y81.483 E0.06974
M204 S1000
G1 X129.739 Y81.751 F10800.000
;WIPE_START
G1 F8640.000
G1 X123.882 Y81.509 E-1.33000
;WIPE_END
G1 E-0.07000 F2100.000
G1 Z0.400 F10800.000
G1 X121.085 Y63.464
G1 Z0.200
G1 E1.40000 F2100.000
M204 S500
;TYPE:Perimeter
G1 F1200.000
G1 X129.899 Y63.464 E0.18841
G1 X129.899 Y67.278 E0.08153
G1 X121.085 Y67.278 E0.18841
G1 X121.085 Y63.501 E0.08073
M204 S1000
G1 X121.342 Y63.721 F10800.000
M204 S500
;TYPE:External perimeter
G1 F1200.000
G1 X129.642 Y63.721 E0.17742
G1 X129.642 Y67.021 E0.07054
G1 X121.342 Y67.021 E0.17742
G1 X121.342 Y63.758 E0.06974
M204 S1000
G1 X121.245 Y63.490 F10800.000
;WIPE_START
G1 F8640.000
G1 X127.102 Y63.732 E-1.33000
;WIPE_END
G1 E-0.07000 F2100.000
G1 Z0.400 F10800.000
G1 X121.085 Y67.464
G1 Z0.200
G1 E1.40000 F2100.000
M204 S500
;TYPE:Perimeter
G1 F1200.000
G1 X129.899 Y67.464 E0.18841
G1 X129.899 Y77.778 E0.22048
G1 X121.085 Y77.778 E0.18841
G1 X121.085 Y67.501 E0.21968
M204 S1000
G1 X121.342 Y67.721 F10800.000
M204 S500
;TYPE:External perimeter
G1 F1200.000
G1 X129.642 Y67.721 E0.17742
G1 X129.642 Y77.521 E0.20949
G1 X121.342 Y77.521 E0.17742
G1 X121.342 Y67.758 E0.20869
M204 S1000
G1 X121.284 Y67.478 F10800.000
;WIPE_START
G1 F8640.000
G1 X127.102 Y67.732 E-1.33000
;WIPE_END
G1 E-0.07000 F2100.000
G1 Z0.400 F10800.000
G1 X130.585 Y67.464
G1 Z0.200
G1 E1.40000 F2100.000
M204 S500
;TYPE:Perimeter
G1 F1200.000
G1 X139.399 Y67.464 E0.18841
G1 X139.399 Y77.778 E0.22048
G1 X130.585 Y77.778 E0.18841
G1 X130.585 Y67.501 E0.21968
M204 S1000
G1 X130.842 Y67.721 F10800.000
M204 S500
;TYPE:External perimeter
G1 F1200.000
G1 X139.142 Y67.721 E0.17742
G1 X139.142 Y77.521 E0.20949
G1 X130.842 Y77.521 E0.17742
G1 X130.842 Y67.758 E0.20869
M204 S1000
G1 X130.784 Y67.478 F10800.000
;WIPE_START
G1 F8640.000
G1 X136.602 Y67.732 E-1.33000
;WIPE_END
G1 E-0.07000 F2100.000
G1 Z0.400 F10800.000
G1 X130.585 Y63.464
G1 Z0.200
G1 E1.40000 F2100.000
M204 S500
;TYPE:Perimeter
G1 F1200.000
G1 X139.399 Y63.464 E0.18841
G1 X139.399 Y67.278 E0.08153
M73 Q1 S111
G1 X130.585 Y67.278 E0.18841
G1 X130.585 Y63.501 E0.08073
M204 S1000
G1 X130.842 Y63.721 F10800.000
M204 S500
;TYPE:External perimeter
G1 F1200.000
G1 X139.142 Y63.721 E0.17742
G1 X139.142 Y67.021 E0.07054
G1 X130.842 Y67.021 E0.17742
G1 X130.842 Y63.758 E0.06974
M204 S1000
G1 X130.745 Y63.490 F10800.000
;WIPE_START
G1 F8640.000
G1 X136.602 Y63.732 E-1.33000
;WIPE_END
G1 E-0.07000 F2100.000
G1 Z0.400 F10800.000
G1 X134.835 Y81.964
G1 Z0.200
G1 E1.40000 F2100.000
M204 S500
;TYPE:Perimeter
G1 F1200.000
G1 X134.835 Y85.241 E0.07005
G1 X125.649 Y85.241 E0.19636
G1 X125.649 Y81.964 E0.07005
G1 X120.899 Y81.964 E0.10154
G1 X120.899 Y63.278 E0.39943
G1 X139.585 Y63.278 E0.39943
G1 X139.585 Y81.964 E0.39943
G1 X134.872 Y81.964 E0.10074
M204 S1000
G1 X135.092 Y82.221 F10800.000
M204 S500
;TYPE:External perimeter
G1 F1200.000
G1 X135.092 Y85.498 E0.07005
G1 X125.392 Y85.498 E0.20735
G1 X125.392 Y82.221 E0.07005
G1 X120.642 Y82.221 E0.10154
G1 X120.642 Y63.021 E0.41042
G1 X139.842 Y63.021 E0.41042
G1 X139.842 Y82.221 E0.41042
G1 X135.129 Y82.221 E0.10074
M204 S1000
G1 X134.866 Y82.328 F10800.000
G1 X134.500 Y82.636
M204 S500
;TYPE:Solid infill
;WIDTH:0.302117
G1 F1200.000
G1 X134.092 Y82.228 E0.01245
G1 X133.725 Y82.228 E0.00790
G1 X134.385 Y82.887 E0.02010
G1 X134.385 Y83.254 E0.00790
G1 X133.359 Y82.228 E0.03127
G1 X132.992 Y82.228 E0.00790
G1 X134.385 Y83.620 E0.04244
G1 X134.385 Y83.987 E0.00790
G1 X132.626 Y82.228 E0.05362
G1 X132.259 Y82.228 E0.00790
G1 X134.385 Y84.354 E0.06479
G1 X134.385 Y84.720 E0.00790
G1 X131.893 Y82.228 E0.07596
G1 X131.526 Y82.228 E0.00790
G1 X134.089 Y84.791 E0.07812
G1 X133.723 Y84.791 E0.00790
G1 X131.159 Y82.228 E0.07812
G1 X130.793 Y82.228 E0.00790
G1 X133.356 Y84.791 E0.07812
G1 X132.990 Y84.791 E0.00790
G1 X130.426 Y82.228 E0.07812
G1 X130.060 Y82.228 E0.00790
G1 X132.623 Y84.791 E0.07812
G1 X132.256 Y84.791 E0.00790
G1 X129.693 Y82.228 E0.07812
G1 X129.327 Y82.228 E0.00790
G1 X131.890 Y84.791 E0.07812
G1 X131.523 Y84.791 E0.00790
G1 X128.960 Y82.228 E0.07812
G1 X128.594 Y82.228 E0.00790
G1 X131.157 Y84.791 E0.07812
G1 X130.790 Y84.791 E0.00790
G1 X128.227 Y82.228 E0.07812
G1 X127.860 Y82.228 E0.00790
G1 X130.424 Y84.791 E0.07812
G1 X130.057 Y84.791 E0.00790
G1 X127.494 Y82.228 E0.07812
G1 X127.127 Y82.228 E0.00790
G1 X129.690 Y84.791 E0.07812
G1 X129.324 Y84.791 E0.00790
G1 X126.761 Y82.228 E0.07812
G1 X126.394 Y82.228 E0.00790
G1 X128.957 Y84.791 E0.07812
G1 X128.591 Y84.791 E0.00790
G1 X126.099 Y82.299 E0.07596
G1 X126.099 Y82.666 E0.00790
G1 X128.224 Y84.791 E0.06478
G1 X127.858 Y84.791 E0.00790
G1 X126.099 Y83.032 E0.05361
G1 X126.099 Y83.399 E0.00790
G1 X127.491 Y84.791 E0.04244
G1 X127.125 Y84.791 E0.00790
G1 X126.099 Y83.765 E0.03127
G1 X126.099 Y84.132 E0.00790
G1 X126.758 Y84.791 E0.02009
G1 X126.391 Y84.791 E0.00790
G1 X125.983 Y84.383 E0.01245
M204 S1000
;WIPE_START
G1 F8640.000
G1 X126.391 Y84.791 E-0.13336
G1 X126.758 Y84.791 E-0.08464
G1 X126.099 Y84.132 E-0.21528
G1 X126.099 Y83.765 E-0.08464
G1 X127.125 Y84.791 E-0.33498
G1 X127.491 Y84.791 E-0.08464
G1 X126.289 Y83.589 E-0.39245
;WIPE_END
G1 E-0.07000 F2100.000
G1 Z0.400 F10800.000
G1 X156.085 Y81.778
G1 Z0.200
G1 E1.40000 F2100.000
M204 S500
;TYPE:Perimeter
;WIDTH:0.3
G1 F1200.000
G1 X156.085 Y77.964 E0.08153
G1 X164.899 Y77.964 E0.18841
G1 X164.899 Y81.778 E0.08153
G1 X156.122 Y81.778 E0.18761
M204 S1000
G1 X156.342 Y81.521 F10800.000
M204 S500
;TYPE:External perimeter
G1 F1200.000
G1 X156.342 Y78.221 E0.07054
G1 X164.642 Y78.221 E0.17742
G1 X164.642 Y81.521 E0.07054
G1 X156.379 Y81.521 E0.17662
M204 S1000
G1 X156.094 Y81.552 F10800.000
G1 X155.828 Y82.035
M204 S500
;TYPE:Perimeter
G1 F1200.000
G1 X160.078 Y82.035 E0.09085
