; generated by PrusaSlicer 2.3.0+win64 on 2021-07-22 at 05:24:48 UTC

; 

; external perimeters extrusion width = 0.25mm
; perimeters extrusion width = 0.25mm
; infill extrusion width = 0.25mm
; solid infill extrusion width = 0.25mm
; top infill extrusion width = 0.25mm
; first layer extrusion width = 0.30mm

M73 P0 R154
M73 Q0 S155
M201 X1000 Y1000 Z200 E5000 ; sets maximum accelerations, mm/sec^2
M203 X200 Y200 Z12 E120 ; sets maximum feedrates, mm/sec
M204 P1250 R1250 T1250 ; sets acceleration (P, T) and retract acceleration (R), mm/sec^2
M205 X8.00 Y8.00 Z0.40 E4.50 ; sets the jerk limits, mm/sec
M205 S0 T0 ; sets the minimum extruding and travel feed rate, mm/sec
M107
;TYPE:Custom
M862.3 P "MK3S" ; printer model check
M862.1 P0.25 ; nozzle diameter check
M115 U3.9.1 ; tell printer latest fw version
G90 ; use absolute coordinates
M83 ; extruder relative mode
M104 S215 ; set extruder temp
M140 S60 ; set bed temp
M190 S60 ; wait for bed temp
M109 S215 ; wait for extruder temp
G28 W ; home all without mesh bed level
G80 ; mesh bed leveling
G1 Y-3.0 F1000.0 ; go outside print area
G92 E0.0
G1 X60.0 E8.0 F700.0 ; intro line
G1 X100.0 E12.5 F700.0 ; intro line
G92 E0.0
M221 S95

; Don't change E value below. Excessive value can damage the printer.
M907 E430 ; set extruder motor current
G21 ; set units to millimeters
G90 ; use absolute coordinates
M83 ; use relative distances for extrusion
M900 K0.05 ; Filament gcode LA 1.5
M900 K30 ; Filament gcode LA 1.0
;LAYER_CHANGE
;Z:0.2
;HEIGHT:0.2
;BEFORE_LAYER_CHANGE
G92 E0.0
;0.2


G1 E-0.80000 F2100.000
G1 Z0.150 F10800.000
G1 Z0.200
;AFTER_LAYER_CHANGE
;0.2
G1 Z0.350
G1 X79.365 Y65.851
G1 Z0.200
G1 E0.80000 F2100.000
M204 S500
;TYPE:Skirt
;WIDTH:0.3
G1 F1200.000
G1 X80.241 Y65.664 E0.01915
G1 X150.768 Y65.664 E1.50760
M73 Q0 S154
G1 X151.269 Y65.721 E0.01077
G1 X151.741 Y65.886 E0.01069
G1 X152.165 Y66.151 E0.01069
G1 X152.523 Y66.505 E0.01077
G1 X167.340 Y86.267 E0.52798
G1 X171.894 Y96.964 E0.24852
G1 X171.992 Y97.615 E0.01407
G1 X171.992 Y131.853 E0.73188
G1 X171.823 Y132.677 E0.01798
G1 X171.366 Y133.379 E0.01791
G1 X156.281 Y143.783 E0.39171
G1 X155.735 Y144.056 E0.01305
G1 X155.113 Y144.174 E0.01352
G1 X151.047 Y144.276 E0.08696
G1 X139.285 Y144.336 E0.25142
G1 X106.100 Y144.336 E0.70937
G1 X101.659 Y144.191 E0.09498
G1 X100.846 Y143.852 E0.01884
G1 X85.812 Y133.509 E0.39007
G1 X85.347 Y132.874 E0.01683
G1 X78.230 Y118.378 E0.34519
G1 X78.020 Y117.639 E0.01642
G1 X78.008 Y67.895 E1.06334
G1 X78.174 Y67.070 E0.01798
G1 X78.633 Y66.361 E0.01806
G1 X79.334 Y65.872 E0.01827
M204 S1000
;WIPE_START
G1 F8640.000
G1 X80.241 Y65.664 E-0.21488
G1 X82.602 Y65.664 E-0.54512
;WIPE_END
G1 E-0.04000 F2100.000
G1 Z0.350 F10800.000
G1 X90.357 Y83.014
G1 Z0.200
G1 E0.80000 F2100.000
M204 S500
;TYPE:Perimeter
G1 F1200.000
G1 X99.172 Y83.014 E0.18841
G1 X99.172 Y86.828 E0.08153
G1 X90.357 Y86.828 E0.18841
G1 X90.357 Y83.051 E0.08073
M204 S1000
G1 X90.614 Y83.271 F10800.000
M204 S500
;TYPE:External perimeter
G1 F1200.000
G1 X98.914 Y83.271 E0.17742
G1 X98.914 Y86.571 E0.07054
G1 X90.614 Y86.571 E0.17742
G1 X90.614 Y83.308 E0.06974
M204 S1000
G1 X90.518 Y83.040 F10800.000
;WIPE_START
G1 F8640.000
G1 X93.906 Y83.294 E-0.76000
;WIPE_END
G1 E-0.04000 F2100.000
G1 Z0.350 F10800.000
G1 X90.100 Y87.085
G1 Z0.200
G1 E0.80000 F2100.000
M204 S500
;TYPE:Perimeter
G1 F1200.000
G1 X94.350 Y87.085 E0.09085
G1 X94.350 Y90.034 E0.06303
G1 X85.679 Y90.034 E0.18537
G1 X85.679 Y87.085 E0.06303
G1 X89.929 Y87.085 E0.09085
G1 X89.929 Y68.585 E0.39546
G1 X90.100 Y68.585 E0.00367
G1 X90.100 Y87.048 E0.39466
M204 S1000
G1 X89.672 Y86.828 F10800.000
M204 S500
G1 F1200.000
G1 X80.857 Y86.828 E0.18841
G1 X80.857 Y83.014 E0.08153
G1 X89.672 Y83.014 E0.18841
G1 X89.672 Y86.791 E0.08073
M204 S1000
G1 X89.414 Y86.571 F10800.000
M204 S500
;TYPE:External perimeter
G1 F1200.000
G1 X81.114 Y86.571 E0.17742
G1 X81.114 Y83.271 E0.07054
G1 X89.414 Y83.271 E0.17742
G1 X89.414 Y86.533 E0.06974
M204 S1000
G1 X89.511 Y86.801 F10800.000
;WIPE_START
G1 F8640.000
G1 X86.123 Y86.548 E-0.76000
;WIPE_END
G1 E-0.04000 F2100.000
G1 Z0.350 F10800.000
G1 X80.857 Y68.514
G1 Z0.200
G1 E0.80000 F2100.000
M204 S500
;TYPE:Perimeter
G1 F1200.000
G1 X89.672 Y68.514 E0.18841
G1 X89.672 Y72.328 E0.08153
G1 X80.857 Y72.328 E0.18841
G1 X80.857 Y68.551 E0.08073
M204 S1000
G1 X81.114 Y68.771 F10800.000
M204 S500
;TYPE:External perimeter
G1 F1200.000
G1 X89.414 Y68.771 E0.17742
G1 X89.414 Y72.071 E0.07054
G1 X81.114 Y72.071 E0.17742
G1 X81.114 Y68.808 E0.06974
M204 S1000
G1 X81.018 Y68.540 F10800.000
;WIPE_START
G1 F8640.000
G1 X84.406 Y68.794 E-0.76000
;WIPE_END
G1 E-0.04000 F2100.000
G1 Z0.350 F10800.000
G1 X80.857 Y72.514
G1 Z0.200
G1 E0.80000 F2100.000
M204 S500
;TYPE:Perimeter
G1 F1200.000
G1 X89.672 Y72.514 E0.18841
G1 X89.672 Y82.828 E0.22048
G1 X80.857 Y82.828 E0.18841
G1 X80.857 Y72.551 E0.21968
M204 S1000
G1 X81.114 Y72.771 F10800.000
M204 S500
;TYPE:External perimeter
G1 F1200.000
G1 X89.414 Y72.771 E0.17742
G1 X89.414 Y82.571 E0.20949
G1 X81.114 Y82.571 E0.17742
G1 X81.114 Y72.808 E0.20869
M204 S1000
M73 P0 R153
G1 X81.056 Y72.528 F10800.000
;WIPE_START
G1 F8640.000
G1 X84.406 Y72.794 E-0.76000
;WIPE_END
G1 E-0.04000 F2100.000
G1 Z0.350 F10800.000
G1 X90.357 Y72.514
G1 Z0.200
G1 E0.80000 F2100.000
M204 S500
;TYPE:Perimeter
G1 F1200.000
G1 X99.172 Y72.514 E0.18841
G1 X99.172 Y82.828 E0.22048
G1 X90.357 Y82.828 E0.18841
G1 X90.357 Y72.551 E0.21968
M204 S1000
G1 X90.614 Y72.771 F10800.000
M204 S500
;TYPE:External perimeter
G1 F1200.000
G1 X98.914 Y72.771 E0.17742
G1 X98.914 Y82.571 E0.20949
G1 X90.614 Y82.571 E0.17742
G1 X90.614 Y72.808 E0.20869
M204 S1000
G1 X90.556 Y72.528 F10800.000
;WIPE_START
G1 F8640.000
G1 X93.906 Y72.794 E-0.76000
;WIPE_END
G1 E-0.04000 F2100.000
G1 Z0.350 F10800.000
G1 X90.357 Y68.514
G1 Z0.200
G1 E0.80000 F2100.000
M204 S500
;TYPE:Perimeter
G1 F1200.000
G1 X99.172 Y68.514 E0.18841
G1 X99.172 Y72.328 E0.08153
G1 X90.357 Y72.328 E0.18841
G1 X90.357 Y68.551 E0.08073
M204 S1000
G1 X90.614 Y68.771 F10800.000
M204 S500
;TYPE:External perimeter
G1 F1200.000
G1 X98.914 Y68.771 E0.17742
G1 X98.914 Y72.071 E0.07054
G1 X90.614 Y72.071 E0.17742
G1 X90.614 Y68.808 E0.06974
M204 S1000
G1 X90.518 Y68.540 F10800.000
;WIPE_START
G1 F8640.000
G1 X93.906 Y68.794 E-0.76000
;WIPE_END
G1 E-0.04000 F2100.000
G1 Z0.350 F10800.000
G1 X94.607 Y87.014
G1 Z0.200
G1 E0.80000 F2100.000
M204 S500
;TYPE:Perimeter
G1 F1200.000
G1 X94.607 Y90.291 E0.07005
G1 X85.422 Y90.291 E0.19636
G1 X85.422 Y87.014 E0.07005
G1 X80.672 Y87.014 E0.10154
G1 X80.672 Y68.328 E0.39943
G1 X99.357 Y68.328 E0.39943
G1 X99.357 Y87.014 E0.39943
G1 X94.645 Y87.014 E0.10074
M204 S1000
G1 X94.864 Y87.271 F10800.000
M204 S500
;TYPE:External perimeter
G1 F1200.000
G1 X94.864 Y90.548 E0.07005
G1 X85.164 Y90.548 E0.20735
G1 X85.164 Y87.271 E0.07005
G1 X80.414 Y87.271 E0.10154
G1 X80.414 Y68.071 E0.41042
G1 X99.614 Y68.071 E0.41042
G1 X99.614 Y87.271 E0.41042
G1 X94.902 Y87.271 E0.10074
M204 S1000
G1 X94.639 Y87.378 F10800.000
G1 X94.273 Y87.686
M204 S500
;TYPE:Solid infill
;WIDTH:0.302117
G1 F1200.000
G1 X93.865 Y87.278 E0.01245
G1 X93.498 Y87.278 E0.00790
G1 X94.158 Y87.937 E0.02010
G1 X94.158 Y88.304 E0.00790
G1 X93.132 Y87.278 E0.03127
G1 X92.765 Y87.278 E0.00790
G1 X94.158 Y88.670 E0.04244
G1 X94.158 Y89.037 E0.00790
G1 X92.398 Y87.278 E0.05362
G1 X92.032 Y87.278 E0.00790
G1 X94.158 Y89.404 E0.06479
G1 X94.158 Y89.770 E0.00790
G1 X91.665 Y87.278 E0.07596
G1 X91.299 Y87.278 E0.00790
G1 X93.862 Y89.841 E0.07812
G1 X93.495 Y89.841 E0.00790
G1 X90.932 Y87.278 E0.07812
G1 X90.566 Y87.278 E0.00790
G1 X93.129 Y89.841 E0.07812
G1 X92.762 Y89.841 E0.00790
G1 X90.199 Y87.278 E0.07812
G1 X89.833 Y87.278 E0.00790
G1 X92.396 Y89.841 E0.07812
G1 X92.029 Y89.841 E0.00790
G1 X89.466 Y87.278 E0.07812
G1 X89.099 Y87.278 E0.00790
G1 X91.663 Y89.841 E0.07812
G1 X91.296 Y89.841 E0.00790
G1 X88.733 Y87.278 E0.07812
G1 X88.366 Y87.278 E0.00790
G1 X90.929 Y89.841 E0.07812
G1 X90.563 Y89.841 E0.00790
G1 X88.000 Y87.278 E0.07812
G1 X87.633 Y87.278 E0.00790
G1 X90.196 Y89.841 E0.07812
G1 X89.830 Y89.841 E0.00790
G1 X87.267 Y87.278 E0.07812
G1 X86.900 Y87.278 E0.00790
G1 X89.463 Y89.841 E0.07812
G1 X89.097 Y89.841 E0.00790
G1 X86.533 Y87.278 E0.07812
G1 X86.167 Y87.278 E0.00790
G1 X88.730 Y89.841 E0.07812
G1 X88.364 Y89.841 E0.00790
G1 X85.871 Y87.349 E0.07596
G1 X85.871 Y87.716 E0.00790
G1 X87.997 Y89.841 E0.06478
G1 X87.630 Y89.841 E0.00790
G1 X85.871 Y88.082 E0.05361
G1 X85.871 Y88.449 E0.00790
G1 X87.264 Y89.841 E0.04244
G1 X86.897 Y89.841 E0.00790
G1 X85.871 Y88.815 E0.03127
G1 X85.871 Y89.182 E0.00790
G1 X86.531 Y89.841 E0.02009
G1 X86.164 Y89.841 E0.00790
G1 X85.756 Y89.433 E0.01245
M204 S1000
;WIPE_START
G1 F8640.000
G1 X86.164 Y89.841 E-0.13336
G1 X86.531 Y89.841 E-0.08464
G1 X85.871 Y89.182 E-0.21528
G1 X85.871 Y88.815 E-0.08464
G1 X86.613 Y89.557 E-0.24207
;WIPE_END
G1 E-0.04000 F2100.000
G1 Z0.350 F10800.000
G1 X115.857 Y86.828
G1 Z0.200
G1 E0.80000 F2100.000
M204 S500
;TYPE:Perimeter
;WIDTH:0.3
G1 F1200.000
G1 X115.857 Y83.014 E0.08153
G1 X124.672 Y83.014 E0.18841
G1 X124.672 Y86.828 E0.08153
G1 X115.895 Y86.828 E0.18761
M204 S1000
G1 X116.114 Y86.571 F10800.000
M204 S500
;TYPE:External perimeter
G1 F1200.000
G1 X116.114 Y83.271 E0.07054
G1 X124.414 Y83.271 E0.17742
G1 X124.414 Y86.571 E0.07054
G1 X116.152 Y86.571 E0.17662
M204 S1000
G1 X115.866 Y86.602 F10800.000
G1 X115.600 Y87.085
M204 S500
;TYPE:Perimeter
G1 F1200.000
G1 X119.850 Y87.085 E0.09085
G1 X119.850 Y90.034 E0.06303
G1 X111.179 Y90.034 E0.18537
G1 X111.179 Y87.085 E0.06303
G1 X115.429 Y87.085 E0.09085
G1 X115.429 Y68.585 E0.39546
G1 X115.600 Y68.585 E0.00367
G1 X115.600 Y87.048 E0.39466
M204 S1000
G1 X115.172 Y86.828 F10800.000
M204 S500
G1 F1200.000
G1 X106.357 Y86.828 E0.18841
M73 Q0 S153
G1 X106.357 Y83.014 E0.08153
G1 X115.172 Y83.014 E0.18841
G1 X115.172 Y86.791 E0.08073
M204 S1000
G1 X114.914 Y86.571 F10800.000
M204 S500
;TYPE:External perimeter
G1 F1200.000
G1 X106.614 Y86.571 E0.17742
G1 X106.614 Y83.271 E0.07054
G1 X114.914 Y83.271 E0.17742
G1 X114.914 Y86.533 E0.06974
M204 S1000
G1 X115.011 Y86.801 F10800.000
;WIPE_START
G1 F8640.000
G1 X111.623 Y86.548 E-0.76000
;WIPE_END
G1 E-0.04000 F2100.000
G1 Z0.350 F10800.000
G1 X106.357 Y68.514
G1 Z0.200
G1 E0.80000 F2100.000
M204 S500
;TYPE:Perimeter
G1 F1200.000
G1 X115.172 Y68.514 E0.18841
G1 X115.172 Y72.328 E0.08153
G1 X106.357 Y72.328 E0.18841
G1 X106.357 Y68.551 E0.08073
M204 S1000
G1 X106.614 Y68.771 F10800.000
M204 S500
;TYPE:External perimeter
G1 F1200.000
G1 X114.914 Y68.771 E0.17742
G1 X114.914 Y72.071 E0.07054
G1 X106.614 Y72.071 E0.17742
G1 X106.614 Y68.808 E0.06974
M204 S1000
G1 X106.518 Y68.540 F10800.000
;WIPE_START
G1 F8640.000
G1 X109.906 Y68.794 E-0.76000
;WIPE_END
G1 E-0.04000 F2100.000
G1 Z0.350 F10800.000
G1 X106.357 Y72.514
G1 Z0.200
G1 E0.80000 F2100.000
M204 S500
;TYPE:Perimeter
G1 F1200.000
G1 X115.172 Y72.514 E0.18841
G1 X115.172 Y82.828 E0.22048
G1 X106.357 Y82.828 E0.18841
G1 X106.357 Y72.551 E0.21968
M204 S1000
G1 X106.614 Y72.771 F10800.000
M204 S500
;TYPE:External perimeter
G1 F1200.000
G1 X114.914 Y72.771 E0.17742
G1 X114.914 Y82.571 E0.20949
G1 X106.614 Y82.571 E0.17742
G1 X106.614 Y72.808 E0.20869
M204 S1000
G1 X106.556 Y72.528 F10800.000
;WIPE_START
G1 F8640.000
G1 X109.906 Y72.794 E-0.76000
;WIPE_END
G1 E-0.04000 F2100.000
G1 Z0.350 F10800.000
G1 X115.857 Y72.514
G1 Z0.200
G1 E0.80000 F2100.000
M204 S500
;TYPE:Perimeter
G1 F1200.000
G1 X124.672 Y72.514 E0.18841
G1 X124.672 Y82.828 E0.22048
G1 X115.857 Y82.828 E0.18841
G1 X115.857 Y72.551 E0.21968
M204 S1000
G1 X116.114 Y72.771 F10800.000
M204 S500
;TYPE:External perimeter
G1 F1200.000
G1 X124.414 Y72.771 E0.17742
G1 X124.414 Y82.571 E0.20949
G1 X116.114 Y82.571 E0.17742
G1 X116.114 Y72.808 E0.20869
M204 S1000
G1 X116.056 Y72.528 F10800.000
;WIPE_START
G1 F8640.000
G1 X119.406 Y72.794 E-0.76000
;WIPE_END
G1 E-0.04000 F2100.000
G1 Z0.350 F10800.000
G1 X115.857 Y68.514
G1 Z0.200
G1 E0.80000 F2100.000
M204 S500
;TYPE:Perimeter
G1 F1200.000
G1 X124.672 Y68.514 E0.18841
G1 X124.672 Y72.328 E0.08153
G1 X115.857 Y72.328 E0.18841
G1 X115.857 Y68.551 E0.08073
M204 S1000
G1 X116.114 Y68.771 F10800.000
M204 S500
;TYPE:External perimeter
G1 F1200.000
G1 X124.414 Y68.771 E0.17742
G1 X124.414 Y72.071 E0.07054
G1 X116.114 Y72.071 E0.17742
G1 X116.114 Y68.808 E0.06974
M204 S1000
G1 X116.018 Y68.540 F10800.000
;WIPE_START
G1 F8640.000
G1 X119.406 Y68.794 E-0.76000
;WIPE_END
G1 E-0.04000 F2100.000
G1 Z0.350 F10800.000
G1 X120.107 Y87.014
G1 Z0.200
G1 E0.80000 F2100.000
M204 S500
;TYPE:Perimeter
G1 F1200.000
G1 X120.107 Y90.291 E0.07005
G1 X110.922 Y90.291 E0.19636
G1 X110.922 Y87.014 E0.07005
G1 X106.172 Y87.014 E0.10154
G1 X106.172 Y68.328 E0.39943
G1 X124.857 Y68.328 E0.39943
G1 X124.857 Y87.014 E0.39943
G1 X120.145 Y87.014 E0.10074
M204 S1000
G1 X120.364 Y87.271 F10800.000
M204 S500
;TYPE:External perimeter
G1 F1200.000
G1 X120.364 Y90.548 E0.07005
G1 X110.664 Y90.548 E0.20735
G1 X110.664 Y87.271 E0.07005
G1 X105.914 Y87.271 E0.10154
G1 X105.914 Y68.071 E0.41042
M73 P1 R153
M73 Q1 S153
G1 X125.114 Y68.071 E0.41042
G1 X125.114 Y87.271 E0.41042
G1 X120.402 Y87.271 E0.10074
M204 S1000
G1 X120.139 Y87.378 F10800.000
G1 X119.773 Y87.686
M204 S500
;TYPE:Solid infill
;WIDTH:0.302117
G1 F1200.000
G1 X119.365 Y87.278 E0.01245
G1 X118.998 Y87.278 E0.00790
G1 X119.658 Y87.937 E0.02010
G1 X119.658 Y88.304 E0.00790
G1 X118.632 Y87.278 E0.03127
G1 X118.265 Y87.278 E0.00790
G1 X119.658 Y88.670 E0.04244
G1 X119.658 Y89.037 E0.00790
G1 X117.898 Y87.278 E0.05362
G1 X117.532 Y87.278 E0.00790
G1 X119.658 Y89.404 E0.06479
G1 X119.658 Y89.770 E0.00790
G1 X117.165 Y87.278 E0.07596
G1 X116.799 Y87.278 E0.00790
G1 X119.362 Y89.841 E0.07812
G1 X118.995 Y89.841 E0.00790
G1 X116.432 Y87.278 E0.07812
G1 X116.066 Y87.278 E0.00790
G1 X118.629 Y89.841 E0.07812
G1 X118.262 Y89.841 E0.00790
G1 X115.699 Y87.278 E0.07812
G1 X115.333 Y87.278 E0.00790
G1 X117.896 Y89.841 E0.07812
G1 X117.529 Y89.841 E0.00790
G1 X114.966 Y87.278 E0.07812
G1 X114.599 Y87.278 E0.00790
G1 X117.163 Y89.841 E0.07812
G1 X116.796 Y89.841 E0.00790
G1 X114.233 Y87.278 E0.07812
G1 X113.866 Y87.278 E0.00790
G1 X116.429 Y89.841 E0.07812
G1 X116.063 Y89.841 E0.00790
G1 X113.500 Y87.278 E0.07812
G1 X113.133 Y87.278 E0.00790
G1 X115.696 Y89.841 E0.07812
G1 X115.330 Y89.841 E0.00790
G1 X112.767 Y87.278 E0.07812
G1 X112.400 Y87.278 E0.00790
G1 X114.963 Y89.841 E0.07812
G1 X114.597 Y89.841 E0.00790
G1 X112.033 Y87.278 E0.07812
G1 X111.667 Y87.278 E0.00790
G1 X114.230 Y89.841 E0.07812
G1 X113.864 Y89.841 E0.00790
G1 X111.371 Y87.349 E0.07596
G1 X111.371 Y87.716 E0.00790
G1 X113.497 Y89.841 E0.06478
G1 X113.130 Y89.841 E0.00790
G1 X111.371 Y88.082 E0.05361
G1 X111.371 Y88.449 E0.00790
G1 X112.764 Y89.841 E0.04244
G1 X112.397 Y89.841 E0.00790
G1 X111.371 Y88.815 E0.03127
G1 X111.371 Y89.182 E0.00790
G1 X112.031 Y89.841 E0.02009
G1 X111.664 Y89.841 E0.00790
G1 X111.256 Y89.433 E0.01245
M204 S1000
;WIPE_START
G1 F8640.000
G1 X111.664 Y89.841 E-0.13336
G1 X112.031 Y89.841 E-0.08464
G1 X111.371 Y89.182 E-0.21528
G1 X111.371 Y88.815 E-0.08464
G1 X112.113 Y89.557 E-0.24207
;WIPE_END
G1 E-0.04000 F2100.000
G1 Z0.350 F10800.000
G1 X141.357 Y86.828
G1 Z0.200
M73 P1 R152
G1 E0.80000 F2100.000
M204 S500
;TYPE:Perimeter
;WIDTH:0.3
G1 F1200.000
G1 X141.357 Y83.014 E0.08153
G1 X150.172 Y83.014 E0.18841
G1 X150.172 Y86.828 E0.08153
G1 X141.395 Y86.828 E0.18761
M204 S1000
G1 X141.614 Y86.571 F10800.000
M204 S500
;TYPE:External perimeter
G1 F1200.000
G1 X141.614 Y83.271 E0.07054
G1 X149.914 Y83.271 E0.17742
G1 X149.914 Y86.571 E0.07054
G1 X141.652 Y86.571 E0.17662
M204 S1000
G1 X141.366 Y86.602 F10800.000
G1 X141.100 Y87.085
M204 S500
;TYPE:Perimeter
G1 F1200.000
G1 X145.350 Y87.085 E0.09085
G1 X145.350 Y90.034 E0.06303
G1 X136.679 Y90.034 E0.18537
G1 X136.679 Y87.085 E0.06303
G1 X140.929 Y87.085 E0.09085
G1 X140.929 Y68.585 E0.39546
G1 X141.100 Y68.585 E0.00367
G1 X141.100 Y87.048 E0.39466
M204 S1000
G1 X140.672 Y86.828 F10800.000
M204 S500
G1 F1200.000
