; generated by PrusaSlicer 2.3.0+win64 on 2021-07-12 at 09:17:19 UTC

; 

; external perimeters extrusion width = 0.45mm
; perimeters extrusion width = 0.45mm
; infill extrusion width = 0.45mm
; solid infill extrusion width = 0.45mm
; top infill extrusion width = 0.40mm
; first layer extrusion width = 0.42mm

M73 P0 R9
M73 Q0 S9
M201 X1000 Y1000 Z200 E5000 ; sets maximum accelerations, mm/sec^2
M203 X200 Y200 Z12 E120 ; sets maximum feedrates, mm/sec
M204 P1250 R1250 T1250 ; sets acceleration (P, T) and retract acceleration (R), mm/sec^2
M205 X8.00 Y8.00 Z0.40 E4.50 ; sets the jerk limits, mm/sec
M205 S0 T0 ; sets the minimum extruding and travel feed rate, mm/sec
M107
;TYPE:Custom
M862.3 P "MK3S" ; printer model check
M862.1 P0.4 ; nozzle diameter check
M115 U3.9.1 ; tell printer latest fw version
G90 ; use absolute coordinates
M83 ; extruder relative mode
M104 S240 ; set extruder temp
M140 S85 ; set bed temp
M190 S85 ; wait for bed temp
M109 S240 ; wait for extruder temp
G28 W ; home all without mesh bed level
G80 ; mesh bed leveling
G1 Y-3.0 F1000.0 ; go outside print area
G92 E0.0
G1 X60.0 E9.0 F1000.0 ; intro line
G1 X100.0 E12.5 F1000.0 ; intro line
G92 E0.0
M221 S95

; Don't change E values below. Excessive value can damage the printer.
M907 E430 ; set extruder motor current
G21 ; set units to millimeters
G90 ; use absolute coordinates
M83 ; use relative distances for extrusion
M900 K0.08 ; Filament gcode LA 1.5
M900 K45 ; Filament gcode LA 1.0
;LAYER_CHANGE
;Z:0.2
;HEIGHT:0.2
;BEFORE_LAYER_CHANGE
G92 E0.0
;0.2


M73 P1 R9
M73 Q1 S9
G1 E-1.40000 F2100.000
G1 Z0.200 F10800.000
;AFTER_LAYER_CHANGE
;0.2
G1 Z0.400
G1 X95.751 Y85.916
G1 Z0.200
G1 E1.40000 F2100.000
M204 S1000
;TYPE:Skirt
;WIDTH:0.42
G1 F1200.000
G1 X96.486 Y85.230 E0.03153
G1 X97.480 Y84.473 E0.03916
G1 X118.290 Y72.431 E0.75386
G1 X119.342 Y71.934 E0.03647
G1 X120.301 Y71.596 E0.03189
G1 X121.601 Y71.287 E0.04190
G1 X123.631 Y71.130 E0.06382
G1 X146.676 Y71.129 E0.72259
G1 X147.835 Y71.215 E0.03642
G1 X148.836 Y71.393 E0.03189
G1 X150.123 Y71.766 E0.04202
G1 X151.075 Y72.157 E0.03225
G1 X152.053 Y72.678 E0.03476
G1 X152.973 Y73.297 E0.03476
G1 X153.756 Y73.945 E0.03189
G1 X154.695 Y74.907 E0.04214
M73 Q2 S9
G1 X155.325 Y75.710 E0.03201
G1 X155.920 Y76.646 E0.03475
G1 X156.417 Y77.640 E0.03487
G1 X156.781 Y78.594 E0.03201
M73 P2 R9
G1 X157.122 Y79.891 E0.04202
G1 X157.274 Y80.896 E0.03189
G1 X157.331 Y81.992 E0.03440
G1 X157.331 Y128.027 E1.44340
G1 X157.273 Y129.118 E0.03426
G1 X157.102 Y130.217 E0.03487
G1 X156.817 Y131.300 E0.03511
G1 X156.443 Y132.299 E0.03344
G1 X155.916 Y133.360 E0.03714
G1 X155.251 Y134.390 E0.03845
G1 X153.925 Y135.899 E0.06299
G1 X152.992 Y136.689 E0.03833
G1 X152.041 Y137.329 E0.03595
G1 X150.961 Y137.893 E0.03821
G1 X149.067 Y138.553 E0.06287
G1 X147.911 Y138.775 E0.03690
G1 X146.681 Y138.871 E0.03869
G1 X123.616 Y138.870 E0.72320
G1 X122.604 Y138.840 E0.03175
G1 X121.493 Y138.695 E0.03511
G1 X120.411 Y138.439 E0.03487
G1 X119.353 Y138.071 E0.03511
G1 X118.352 Y137.603 E0.03464
G1 X117.485 Y137.087 E0.03165
G1 X116.486 Y136.349 E0.03892
G1 X115.581 Y135.498 E0.03896
G1 X114.920 Y134.741 E0.03150
G1 X114.282 Y133.844 E0.03452
G1 X93.849 Y98.426 E1.28207
M73 P3 R8
M73 Q3 S9
G1 X93.371 Y97.346 E0.03702
G1 X93.030 Y96.280 E0.03511
G1 X92.799 Y95.176 E0.03535
G1 X92.684 Y94.062 E0.03511
G1 X92.684 Y92.942 E0.03512
G1 X92.800 Y91.821 E0.03534
G1 X93.030 Y90.725 E0.03511
G1 X93.392 Y89.605 E0.03690
G1 X93.815 Y88.643 E0.03296
G1 X94.309 Y87.762 E0.03165
G1 X95.022 Y86.746 E0.03892
G1 X95.711 Y85.961 E0.03275
;WIPE_START
G1 F8640.000
G1 X96.486 Y85.230 E-0.24600
G1 X97.480 Y84.473 E-0.28840
G1 X100.462 Y82.748 E-0.79560
;WIPE_END
G1 E-0.07000 F2100.000
G1 Z0.400 F10800.000
G1 X119.179 Y82.353
G1 Z0.200
G1 E1.40000 F2100.000
;TYPE:Perimeter
G1 F1200.000
G1 X119.179 Y81.654 E0.02190
G1 X119.289 Y80.977 E0.02152
G1 X119.507 Y80.322 E0.02165
G1 X119.828 Y79.711 E0.02165
G1 X120.243 Y79.159 E0.02165
G1 X120.741 Y78.681 E0.02165
G1 X121.309 Y78.289 E0.02165
G1 X121.933 Y77.993 E0.02165
G1 X122.596 Y77.801 E0.02165
G1 X123.281 Y77.717 E0.02165
G1 X123.971 Y77.745 E0.02165
G1 X124.647 Y77.883 E0.02165
G1 X125.293 Y78.128 E0.02165
G1 X125.891 Y78.473 E0.02165
G1 X126.425 Y78.910 E0.02165
G1 X126.883 Y79.427 E0.02165
G1 X127.252 Y80.010 E0.02165
G1 X127.387 Y80.328 E0.01082
G1 X127.523 Y80.645 E0.01082
G1 X127.688 Y81.316 E0.02165
G1 X127.743 Y82.004 E0.02165
G1 X127.688 Y82.692 E0.02165
G1 X127.523 Y83.362 E0.02165
G1 X127.252 Y83.997 E0.02165
G1 X126.883 Y84.581 E0.02165
G1 X126.425 Y85.097 E0.02165
G1 X125.891 Y85.534 E0.02165
G1 X125.293 Y85.879 E0.02165
M73 Q3 S8
G1 X124.647 Y86.124 E0.02165
G1 X123.971 Y86.262 E0.02165
G1 X123.281 Y86.290 E0.02165
G1 X122.596 Y86.207 E0.02165
G1 X121.933 Y86.015 E0.02165
G1 X121.468 Y85.794 E0.01612
G1 X121.309 Y85.719 E0.00552
G1 X120.741 Y85.326 E0.02165
G1 X120.243 Y84.848 E0.02165
G1 X119.828 Y84.296 E0.02165
G1 X119.507 Y83.685 E0.02165
G1 X119.289 Y83.030 E0.02165
G1 X119.188 Y82.412 E0.01964
G1 X119.561 Y82.352 F10800.000
;TYPE:External perimeter
G1 F1200.000
G1 X119.556 Y81.685 E0.02090
G1 X119.656 Y81.068 E0.01961
G1 X119.855 Y80.471 E0.01974
G1 X120.148 Y79.913 E0.01974
G1 X120.526 Y79.410 E0.01974
G1 X120.980 Y78.974 E0.01974
G1 X121.498 Y78.616 E0.01974
G1 X122.067 Y78.346 E0.01974
G1 X122.671 Y78.171 E0.01974
G1 X123.296 Y78.095 E0.01974
G1 X123.925 Y78.121 E0.01974
G1 X124.542 Y78.247 E0.01974
G1 X125.131 Y78.470 E0.01974
G1 X125.676 Y78.785 E0.01974
G1 X126.163 Y79.183 E0.01974
G1 X126.581 Y79.654 E0.01974
G1 X126.917 Y80.186 E0.01974
G1 X127.164 Y80.765 E0.01974
G1 X127.315 Y81.376 E0.01974
G1 X127.365 Y82.004 E0.01974
M73 Q4 S8
G1 X127.315 Y82.631 E0.01974
G1 X127.164 Y83.242 E0.01974
G1 X126.917 Y83.821 E0.01974
G1 X126.581 Y84.353 E0.01974
G1 X126.163 Y84.825 E0.01974
G1 X125.676 Y85.223 E0.01974
G1 X125.131 Y85.537 E0.01974
M73 P4 R8
G1 X124.542 Y85.761 E0.01974
G1 X123.925 Y85.886 E0.01974
G1 X123.296 Y85.912 E0.01974
G1 X122.671 Y85.836 E0.01974
G1 X122.067 Y85.661 E0.01974
G1 X121.630 Y85.453 E0.01517
G1 X121.498 Y85.391 E0.00457
G1 X120.980 Y85.033 E0.01974
G1 X120.526 Y84.597 E0.01974
G1 X120.148 Y84.094 E0.01974
G1 X119.855 Y83.537 E0.01974
G1 X119.656 Y82.940 E0.01974
G1 X119.570 Y82.411 E0.01680
G1 X119.198 Y82.182 F10800.000
;WIPE_START
G1 F8640.000
G1 X119.556 Y81.685 E-0.16763
G1 X119.656 Y81.068 E-0.14441
G1 X119.855 Y80.471 E-0.14534
G1 X120.148 Y79.913 E-0.14534
G1 X120.526 Y79.410 E-0.14534
G1 X120.980 Y78.974 E-0.14534
G1 X121.498 Y78.616 E-0.14535
G1 X122.067 Y78.346 E-0.14534
G1 X122.671 Y78.171 E-0.14534
G1 X122.674 Y78.171 E-0.00054
;WIPE_END
G1 E-0.07000 F2100.000
G1 Z0.400 F10800.000
G1 X115.834 Y83.190
G1 Z0.200
G1 E1.40000 F2100.000
;TYPE:Perimeter
G1 F1200.000
G1 X115.752 Y82.398 E0.02498
G1 X115.752 Y81.609 E0.02473
G1 X115.834 Y80.817 E0.02498
G1 X115.996 Y80.040 E0.02490
G1 X116.238 Y79.283 E0.02490
G1 X116.556 Y78.556 E0.02490
G1 X116.947 Y77.865 E0.02490
G1 X117.407 Y77.218 E0.02490
G1 X117.931 Y76.621 E0.02490
G1 X118.514 Y76.082 E0.02490
G1 X119.149 Y75.605 E0.02490
G1 X119.829 Y75.197 E0.02490
G1 X120.549 Y74.860 E0.02490
G1 X121.298 Y74.599 E0.02490
G1 X122.071 Y74.417 E0.02490
G1 X122.859 Y74.315 E0.02490
G1 X123.652 Y74.294 E0.02490
G1 X124.444 Y74.356 E0.02490
G1 X125.225 Y74.498 E0.02490
G1 X125.987 Y74.720 E0.02490
G1 X126.723 Y75.019 E0.02490
G1 X127.424 Y75.392 E0.02490
G1 X128.083 Y75.835 E0.02490
G1 X128.692 Y76.344 E0.02490
G1 X129.246 Y76.913 E0.02490
G1 X129.739 Y77.535 E0.02490
G1 X130.165 Y78.205 E0.02490
G1 X130.520 Y78.915 E0.02490
G1 X130.800 Y79.658 E0.02490
G1 X131.003 Y80.426 E0.02490
G1 X131.125 Y81.211 E0.02490
G1 X131.166 Y82.004 E0.02490
G1 X131.125 Y82.797 E0.02490
G1 X131.003 Y83.581 E0.02490
G1 X130.800 Y84.349 E0.02490
G1 X130.520 Y85.092 E0.02490
G1 X130.165 Y85.802 E0.02490
G1 X129.739 Y86.472 E0.02490
G1 X129.246 Y87.095 E0.02490
G1 X128.692 Y87.663 E0.02490
G1 X128.083 Y88.172 E0.02490
G1 X127.424 Y88.615 E0.02490
G1 X126.723 Y88.988 E0.02490
G1 X125.987 Y89.287 E0.02490
G1 X125.225 Y89.509 E0.02490
G1 X124.444 Y89.652 E0.02490
G1 X123.652 Y89.713 E0.02490
G1 X122.859 Y89.693 E0.02490
G1 X122.071 Y89.591 E0.02490
G1 X121.298 Y89.408 E0.02490
G1 X120.549 Y89.147 E0.02490
G1 X119.829 Y88.811 E0.02490
G1 X119.149 Y88.402 E0.02490
G1 X118.514 Y87.925 E0.02490
G1 X117.931 Y87.386 E0.02490
G1 X117.407 Y86.790 E0.02490
G1 X116.947 Y86.143 E0.02490
G1 X116.556 Y85.452 E0.02490
G1 X116.238 Y84.724 E0.02490
G1 X115.996 Y83.968 E0.02490
G1 X115.846 Y83.249 E0.02301
G1 X115.477 Y83.326 F10800.000
;TYPE:External perimeter
G1 F1200.000
G1 X115.375 Y82.418 E0.02867
G1 X115.375 Y81.590 E0.02595
G1 X115.461 Y80.759 E0.02619
G1 X115.631 Y79.943 E0.02611
G1 X115.884 Y79.150 E0.02611
G1 X116.218 Y78.387 E0.02611
G1 X116.628 Y77.662 E0.02611
G1 X117.111 Y76.983 E0.02611
G1 X117.661 Y76.358 E0.02611
G1 X118.272 Y75.792 E0.02611
G1 X118.938 Y75.292 E0.02611
G1 X119.652 Y74.863 E0.02611
G1 X120.406 Y74.510 E0.02611
G1 X121.193 Y74.237 E0.02611
G1 X122.004 Y74.045 E0.02611
G1 X122.830 Y73.938 E0.02611
G1 X123.662 Y73.917 E0.02611
G1 X124.492 Y73.981 E0.02611
G1 X125.312 Y74.130 E0.02611
G1 X126.112 Y74.363 E0.02611
G1 X126.883 Y74.677 E0.02611
G1 X127.618 Y75.068 E0.02611
G1 X128.309 Y75.533 E0.02611
G1 X128.949 Y76.067 E0.02611
G1 X129.530 Y76.663 E0.02611
G1 X130.047 Y77.316 E0.02611
G1 X130.494 Y78.019 E0.02611
G1 X130.866 Y78.764 E0.02611
G1 X131.160 Y79.544 E0.02611
G1 X131.372 Y80.349 E0.02611
G1 X131.500 Y81.172 E0.02611
G1 X131.543 Y82.004 E0.02611
G1 X131.500 Y82.835 E0.02611
G1 X131.372 Y83.658 E0.02611
G1 X131.160 Y84.464 E0.02611
G1 X130.866 Y85.243 E0.02611
G1 X130.494 Y85.988 E0.02611
G1 X130.047 Y86.691 E0.02611
G1 X129.530 Y87.344 E0.02611
G1 X128.949 Y87.940 E0.02611
G1 X128.309 Y88.474 E0.02611
M73 Q5 S8
G1 X127.618 Y88.939 E0.02611
G1 X126.883 Y89.330 E0.02611
G1 X126.112 Y89.644 E0.02611
G1 X125.312 Y89.877 E0.02611
G1 X124.492 Y90.026 E0.02611
M73 P5 R8
G1 X123.662 Y90.090 E0.02611
G1 X122.830 Y90.069 E0.02611
G1 X122.004 Y89.962 E0.02611
G1 X121.193 Y89.771 E0.02611
G1 X120.406 Y89.497 E0.02611
G1 X119.652 Y89.144 E0.02611
G1 X118.938 Y88.715 E0.02611
G1 X118.272 Y88.215 E0.02611
G1 X117.661 Y87.650 E0.02611
G1 X117.111 Y87.024 E0.02611
G1 X116.628 Y86.345 E0.02611
G1 X116.218 Y85.620 E0.02611
G1 X115.884 Y84.857 E0.02611
G1 X115.631 Y84.064 E0.02611
G1 X115.489 Y83.385 E0.02174
G1 X115.787 Y83.073 F10800.000
;WIPE_START
G1 F8640.000
G1 X115.375 Y82.418 E-0.22496
G1 X115.375 Y81.590 E-0.19113
G1 X115.461 Y80.759 E-0.19291
G1 X115.631 Y79.943 E-0.19231
G1 X115.884 Y79.150 E-0.19231
G1 X116.218 Y78.387 E-0.19231
G1 X116.525 Y77.844 E-0.14407
;WIPE_END
G1 E-0.07000 F2100.000
G1 Z0.400 F10800.000
G1 X123.939 Y74.600
G1 Z0.200
G1 E1.40000 F2100.000
;TYPE:Solid infill
;WIDTH:0.423633
G1 F1200.000
G1 X124.408 Y74.636 E0.01488
G1 X125.160 Y74.774 E0.02421
G1 X125.894 Y74.987 E0.02421
G1 X126.603 Y75.275 E0.02421
G1 X127.278 Y75.635 E0.02421
G1 X127.913 Y76.062 E0.02421
G1 X128.500 Y76.552 E0.02421
G1 X129.034 Y77.100 E0.02421
G1 X129.508 Y77.699 E0.02421
G1 X129.919 Y78.345 E0.02421
G1 X130.261 Y79.029 E0.02421
G1 X130.531 Y79.744 E0.02421
G1 X130.725 Y80.484 E0.02421
G1 X130.843 Y81.240 E0.02421
G1 X130.883 Y82.004 E0.02421
G1 X130.843 Y82.767 E0.02421
G1 X130.725 Y83.523 E0.02421
G1 X130.531 Y84.263 E0.02421
G1 X130.261 Y84.978 E0.02421
G1 X129.919 Y85.663 E0.02421
G1 X129.508 Y86.308 E0.02421
G1 X129.034 Y86.908 E0.02421
G1 X128.500 Y87.455 E0.02421
G1 X127.913 Y87.945 E0.02421
G1 X127.278 Y88.372 E0.02421
G1 X126.603 Y88.732 E0.02421
G1 X125.894 Y89.020 E0.02421
G1 X125.160 Y89.234 E0.02421
G1 X124.408 Y89.371 E0.02421
G1 X123.645 Y89.430 E0.02421
G1 X122.881 Y89.410 E0.02421
G1 X122.122 Y89.312 E0.02421
G1 X121.378 Y89.136 E0.02421
G1 X120.655 Y88.885 E0.02421
G1 X119.963 Y88.561 E0.02421
G1 X119.307 Y88.167 E0.02421
G1 X118.695 Y87.708 E0.02421
G1 X118.134 Y87.188 E0.02421
G1 X117.629 Y86.614 E0.02421
G1 X117.186 Y85.991 E0.02421
G1 X116.809 Y85.325 E0.02421
G1 X116.503 Y84.624 E0.02421
G1 X116.270 Y83.896 E0.02421
G1 X116.114 Y83.147 E0.02421
G1 X116.035 Y82.383 E0.02429
G1 X116.035 Y81.624 E0.02405
G1 X116.114 Y80.860 E0.02429
G1 X116.270 Y80.112 E0.02421
G1 X116.503 Y79.383 E0.02421
G1 X116.809 Y78.682 E0.02421
G1 X117.186 Y78.017 E0.02421
G1 X117.629 Y77.393 E0.02421
G1 X118.134 Y76.819 E0.02421
G1 X118.695 Y76.299 E0.02421
G1 X119.307 Y75.840 E0.02421
G1 X119.963 Y75.446 E0.02421
G1 X120.655 Y75.122 E0.02421
G1 X121.378 Y74.871 E0.02421
G1 X122.122 Y74.695 E0.02421
G1 X122.881 Y74.597 E0.02421
G1 X123.645 Y74.577 E0.02421
G1 X123.879 Y74.596 E0.00744
G1 X123.910 Y74.980 F10800.000
G1 F1200.000
G1 X124.359 Y75.014 E0.01426
G1 X125.073 Y75.145 E0.02297
G1 X125.769 Y75.347 E0.02297
G1 X126.441 Y75.621 E0.02297
G1 X127.082 Y75.962 E0.02297
G1 X127.684 Y76.367 E0.02297
G1 X128.241 Y76.832 E0.02297
G1 X128.747 Y77.351 E0.02297
G1 X129.198 Y77.920 E0.02297
G1 X129.587 Y78.532 E0.02297
G1 X129.912 Y79.181 E0.02297
G1 X130.168 Y79.860 E0.02297
G1 X130.352 Y80.562 E0.02297
G1 X130.464 Y81.279 E0.02297
G1 X130.501 Y82.004 E0.02297
G1 X130.464 Y82.728 E0.02297
G1 X130.352 Y83.445 E0.02297
G1 X130.168 Y84.147 E0.02297
G1 X129.912 Y84.826 E0.02297
G1 X129.587 Y85.475 E0.02297
G1 X129.198 Y86.087 E0.02297
G1 X128.747 Y86.656 E0.02297
G1 X128.241 Y87.176 E0.02297
G1 X127.684 Y87.640 E0.02297
G1 X127.082 Y88.046 E0.02297
G1 X126.441 Y88.387 E0.02297
G1 X125.769 Y88.660 E0.02297
G1 X125.073 Y88.863 E0.02297
G1 X124.359 Y88.993 E0.02297
G1 X123.635 Y89.049 E0.02297
G1 X122.910 Y89.030 E0.02297
G1 X122.190 Y88.937 E0.02297
G1 X121.484 Y88.770 E0.02297
G1 X120.799 Y88.532 E0.02297
G1 X120.142 Y88.224 E0.02297
G1 X119.520 Y87.851 E0.02297
G1 X118.939 Y87.415 E0.02297
G1 X118.407 Y86.922 E0.02297
G1 X117.928 Y86.377 E0.02297
G1 X117.507 Y85.786 E0.02297
G1 X117.150 Y85.155 E0.02297
G1 X116.859 Y84.490 E0.02297
G1 X116.639 Y83.798 E0.02297
M73 Q6 S8
G1 X116.490 Y83.088 E0.02297
G1 X116.415 Y82.364 E0.02305
G1 X116.415 Y81.643 E0.02281
G1 X116.490 Y80.919 E0.02305
G1 X116.639 Y80.209 E0.02297
G1 X116.859 Y79.518 E0.02297
G1 X117.150 Y78.853 E0.02297
M73 P6 R8
G1 X117.507 Y78.221 E0.02297
G1 X117.928 Y77.630 E0.02297
G1 X118.407 Y77.085 E0.02297
G1 X118.939 Y76.592 E0.02297
G1 X119.520 Y76.157 E0.02297
G1 X120.142 Y75.783 E0.02297
G1 X120.799 Y75.475 E0.02297
G1 X121.484 Y75.237 E0.02297
G1 X122.190 Y75.070 E0.02297
G1 X122.910 Y74.977 E0.02297
G1 X123.635 Y74.958 E0.02297
G1 X123.850 Y74.975 E0.00681
G1 X123.880 Y75.359 F10800.000
G1 F1200.000
G1 X124.310 Y75.393 E0.01363
G1 X124.985 Y75.516 E0.02173
G1 X125.644 Y75.707 E0.02173
G1 X126.280 Y75.966 E0.02173
G1 X126.886 Y76.289 E0.02173
G1 X127.455 Y76.672 E0.02173
G1 X127.982 Y77.111 E0.02173
G1 X128.461 Y77.603 E0.02173
G1 X128.887 Y78.141 E0.02173
G1 X129.255 Y78.720 E0.02173
G1 X129.562 Y79.334 E0.02173
G1 X129.804 Y79.976 E0.02173
G1 X129.979 Y80.640 E0.02173
G1 X130.085 Y81.318 E0.02173
G1 X130.120 Y82.004 E0.02173
G1 X130.085 Y82.689 E0.02173
G1 X129.979 Y83.367 E0.02173
G1 X129.804 Y84.031 E0.02173
G1 X129.562 Y84.673 E0.02173
G1 X129.255 Y85.287 E0.02173
G1 X128.887 Y85.866 E0.02173
G1 X128.461 Y86.404 E0.02173
G1 X127.982 Y86.896 E0.02173
G1 X127.455 Y87.336 E0.02173
G1 X126.886 Y87.719 E0.02173
G1 X126.280 Y88.041 E0.02173
G1 X125.644 Y88.300 E0.02173
G1 X124.985 Y88.492 E0.02173
G1 X124.310 Y88.615 E0.02173
G1 X123.625 Y88.668 E0.02173
G1 X122.939 Y88.650 E0.02173
G1 X122.259 Y88.562 E0.02173
G1 X121.591 Y88.404 E0.02173
G1 X120.942 Y88.179 E0.02173
G1 X120.321 Y87.888 E0.02173
G1 X119.732 Y87.534 E0.02173
G1 X119.183 Y87.123 E0.02173
G1 X118.680 Y86.656 E0.02173
G1 X118.227 Y86.141 E0.02173
G1 X117.829 Y85.581 E0.02173
G1 X117.491 Y84.984 E0.02173
G1 X117.216 Y84.355 E0.02173
G1 X117.007 Y83.701 E0.02173
G1 X116.867 Y83.030 E0.02173
G1 X116.796 Y82.344 E0.02181
G1 X116.796 Y81.663 E0.02156
G1 X116.867 Y80.978 E0.02181
G1 X117.007 Y80.306 E0.02173
G1 X117.216 Y79.652 E0.02173
G1 X117.491 Y79.023 E0.02173
G1 X117.829 Y78.426 E0.02173
