; generated by PrusaSlicer 2.4.1+win64 on 2023-01-29 at 03:42:46 UTC

; 

; external perimeters extrusion width = 0.45mm
; perimeters extrusion width = 0.45mm
; infill extrusion width = 0.45mm
; solid infill extrusion width = 0.45mm
; top infill extrusion width = 0.40mm
; first layer extrusion width = 0.42mm

M73 P0 R100
M73 Q0 S100
M201 X1000 Y1000 Z200 E5000 ; sets maximum accelerations, mm/sec^2
M203 X200 Y200 Z12 E120 ; sets maximum feedrates, mm / sec
M204 P1250 R1250 T1250 ; sets acceleration (P, T) and retract acceleration (R), mm/sec^2
M205 X8.00 Y8.00 Z0.40 E4.50 ; sets the jerk limits, mm/sec
M205 S0 T0 ; sets the minimum extruding and travel feed rate, mm/sec
M107
;TYPE:Custom
M862.3 P "MK3S" ; printer model check
M862.1 P0.4 ; nozzle diameter check
M115 U3.10.1 ; tell printer latest fw version
G90 ; use absolute coordinates
M83 ; extruder relative mode
M104 S230 ; set extruder temp
M140 S85 ; set bed temp
M190 S85 ; wait for bed temp
M109 S230 ; wait for extruder temp
G28 W ; home all without mesh bed level
G80 ; mesh bed leveling
G1 Y-3.0 F1000.0 ; go outside print area
G92 E0.0
G1 X60.0 E9.0 F1000.0 ; intro line
G1 X100.0 E12.5 F1000.0 ; intro line
G92 E0.0
M221 S95

; Don't change E values below. Excessive value can damage the printer.

M907 E538 ; set extruder motor current
G21 ; set units to millimeters
G90 ; use absolute coordinates
M83 ; use relative distances for extrusion
M900 K0.08 ; Filament gcode LA 1.5
M900 K45 ; Filament gcode LA 1.0
M107
;LAYER_CHANGE
;Z:0.2
;HEIGHT:0.2
;BEFORE_LAYER_CHANGE
G92 E0.0
;0.2


G1 E-1 F2100
G1 Z.2 F10800
;AFTER_LAYER_CHANGE
;0.2
G1 Z.4
G1 X169.09 Y38.829
G1 Z.2
G1 E1 F2100
M204 S1000
;TYPE:Skirt/Brim
;WIDTH:0.42
G1 F1200
G1 X169.482 Y37.522 E.04278
G1 X170.5 Y36.658 E.04189
G1 X234 Y8.388 E2.1794
G1 X235.354 Y8.214 E.04278
G1 X236.58 Y8.813 E.04278
G1 X237.344 Y10.559 E.05978
G1 X237.344 Y143.78 E4.17703
G1 X236.953 Y145.087 E.04278
M73 P0 R99
G1 X235.907 Y145.963 E.04278
G1 X234.967 Y146.157 E.03008
G1 X171.467 Y146.157 E1.991
G1 X170.16 Y145.765 E.04278
G1 X169.284 Y144.719 E.04278
G1 X169.09 Y143.78 E.03008
G1 X169.09 Y38.889 E3.28875
; printing object MeshBody1.stl id:0 copy 0
;WIPE_START
G1 F8640
G1 X169.482 Y37.522 E-.32835
G1 X170.5 Y36.658 E-.30851
G1 X171.739 Y36.106 E-.31314
;WIPE_END
G1 E-.05 F2100
G1 Z.4 F10800
G1 X190.526 Y81.719
G1 Z.2
G1 E1 F2100
;TYPE:Perimeter
G1 F1200
G1 X191.008 Y81.549 E.01604
G1 X191.481 Y81.462 E.01506
G1 X191.93 Y81.446 E.0141
G1 X192.435 Y81.496 E.01592
G1 X192.902 Y81.618 E.01514
G1 X193.344 Y81.806 E.01506
G1 X193.731 Y82.042 E.01422
G1 X194.122 Y82.362 E.01581
G1 X194.444 Y82.721 E.01513
G1 X194.709 Y83.122 E.01506
G1 X194.901 Y83.532 E.01422
G1 X195.051 Y84.014 E.01581
G1 X195.121 Y84.491 E.01513
G1 X195.121 Y84.972 E.01505
G1 X195.051 Y85.447 E.01506
G1 X194.913 Y85.907 E.01506
G1 X194.709 Y86.341 E.01506
G1 X194.444 Y86.742 E.01506
G1 X194.141 Y87.079 E.01422
G1 X193.756 Y87.405 E.01581
G1 X193.344 Y87.657 E.01513
G1 X192.902 Y87.845 E.01506
G1 X192.438 Y87.966 E.01506
G1 X191.961 Y88.018 E.01505
G1 X191.481 Y88.001 E.01506
G1 X191.008 Y87.914 E.01506
G1 X190.554 Y87.759 E.01506
G1 X190.127 Y87.539 E.01506
G1 X189.736 Y87.26 E.01506
G1 X189.391 Y86.926 E.01505
G1 X189.097 Y86.546 E.01506
G1 X188.875 Y86.151 E.01422
G1 X188.691 Y85.682 E.01581
G1 X188.586 Y85.21 E.01513
G1 X188.551 Y84.731 E.01506
G1 X188.586 Y84.253 E.01505
G1 X188.691 Y83.784 E.01506
G1 X188.862 Y83.335 E.01506
G1 X189.097 Y82.917 E.01506
G1 X189.391 Y82.537 E.01506
G1 X189.736 Y82.203 E.01505
G1 X190.105 Y81.939 E.01422
G1 X190.473 Y81.747 E.01301
G1 X190.701 Y82.053 F10800
;TYPE:External perimeter
G1 F1200
G1 X191.104 Y81.915 E.01335
G1 X191.522 Y81.838 E.01333
G1 X191.918 Y81.823 E.01242
G1 X192.368 Y81.869 E.01419
G1 X192.78 Y81.976 E.01336
G1 X193.171 Y82.143 E.01333
G1 X193.513 Y82.351 E.01254
G1 X193.86 Y82.635 E.01408
G1 X194.145 Y82.952 E.01335
G1 X194.379 Y83.307 E.01332
G1 X194.549 Y83.669 E.01254
G1 X194.682 Y84.098 E.01408
G1 X194.744 Y84.519 E.01335
G1 X194.744 Y84.944 E.01332
G1 X194.682 Y85.364 E.01333
G1 X194.559 Y85.771 E.01333
G1 X194.379 Y86.156 E.01332
G1 X194.145 Y86.511 E.01333
G1 X193.878 Y86.808 E.01254
G1 X193.535 Y87.099 E.01408
G1 X193.171 Y87.32 E.01335
G1 X192.78 Y87.487 E.01333
G1 X192.369 Y87.594 E.01333
G1 X191.947 Y87.641 E.01332
G1 X191.522 Y87.625 E.01333
G1 X191.104 Y87.548 E.01333
G1 X190.702 Y87.411 E.01333
G1 X190.324 Y87.216 E.01333
G1 X189.978 Y86.969 E.01333
G1 X189.672 Y86.674 E.01332
G1 X189.413 Y86.338 E.01333
G1 X189.217 Y85.989 E.01254
G1 X189.053 Y85.571 E.01408
G1 X188.96 Y85.155 E.01335
G1 X188.929 Y84.731 E.01333
G1 X188.96 Y84.308 E.01332
G1 X189.053 Y83.893 E.01333
G1 X189.205 Y83.496 E.01333
G1 X189.413 Y83.125 E.01333
G1 X189.672 Y82.789 E.01333
G1 X189.978 Y82.494 E.01332
G1 X190.303 Y82.261 E.01254
G1 X190.648 Y82.08 E.0122
G1 X190.75 Y81.656 F10800
;WIPE_START
G1 F8640
G1 X191.104 Y81.915 E-.11205
G1 X191.522 Y81.838 E-.09814
G1 X191.918 Y81.823 E-.09148
G1 X192.368 Y81.869 E-.10447
G1 X192.78 Y81.976 E-.09836
G1 X193.171 Y82.143 E-.09814
G1 X193.513 Y82.351 E-.09232
G1 X193.86 Y82.635 E-.10369
G1 X194.145 Y82.952 E-.09834
G1 X194.271 Y83.144 E-.05301
;WIPE_END
G1 E-.05 F2100
G1 Z.4 F10800
G1 X191.446 Y90.042
G1 Z.2
G1 E1 F2100
;TYPE:Perimeter
G1 F1200
G1 X192.102 Y90.036 E.02055
G1 X192.755 Y90.09 E.02055
G1 X193.401 Y90.203 E.02055
G1 X194.033 Y90.374 E.02055
G1 X194.648 Y90.602 E.02055
G1 X195.239 Y90.884 E.02055
G1 X195.799 Y91.218 E.02042
G1 X196.181 Y91.488 E.01469
G1 X196.683 Y91.903 E.02042
G1 X197.15 Y92.369 E.02068
G1 X197.682 Y93.022 E.02641
G1 X198.042 Y93.574 E.02068
G1 X198.347 Y94.15 E.02042
G1 X198.534 Y94.579 E.01468
G1 X198.746 Y95.195 E.02042
G1 X198.903 Y95.832 E.02055
G1 X199.001 Y96.48 E.02055
G1 X199.04 Y97.134 E.02055
G1 X199.019 Y97.789 E.02055
G1 X198.938 Y98.439 E.02055
G1 X198.799 Y99.081 E.02057
G1 X198.591 Y99.734 E.02149
G1 X198.265 Y100.482 E.02559
G1 X197.941 Y101.055 E.02066
G1 X197.568 Y101.594 E.02055
G1 X197.147 Y102.097 E.02055
G1 X196.683 Y102.56 E.02055
G1 X196.178 Y102.978 E.02055
G1 X195.638 Y103.348 E.02055
G1 X195.066 Y103.668 E.02055
G1 X194.467 Y103.935 E.02055
G1 X193.847 Y104.146 E.02055
G1 X193.214 Y104.299 E.02042
G1 X192.751 Y104.373 E.01469
G1 X192.102 Y104.427 E.02042
G1 X191.446 Y104.421 E.02055
G1 X190.794 Y104.355 E.02057
G1 X190.121 Y104.223 E.02149
G1 X189.341 Y103.984 E.02559
G1 X188.738 Y103.728 E.02054
G1 X188.322 Y103.513 E.01468
G1 X187.768 Y103.169 E.02042
G1 X187.245 Y102.774 E.02055
G1 X186.76 Y102.334 E.02055
G1 X186.317 Y101.851 E.02055
G1 X185.92 Y101.329 E.02055
G1 X185.572 Y100.774 E.02055
G1 X185.276 Y100.189 E.02055
G1 X185.034 Y99.58 E.02055
G1 X184.849 Y98.951 E.02055
G1 X184.721 Y98.305 E.02067
G1 X184.644 Y97.466 E.02641
G1 X184.653 Y96.806 E.02067
G1 X184.722 Y96.155 E.02055
G1 X184.849 Y95.512 E.02055
G1 X185.033 Y94.887 E.02042
G1 X185.2 Y94.449 E.01469
G1 X185.479 Y93.86 E.02043
G1 X185.811 Y93.296 E.02055
G1 X186.194 Y92.764 E.02055
G1 X186.624 Y92.269 E.02055
G1 X187.097 Y91.815 E.02055
G1 X187.609 Y91.406 E.02055
G1 X188.156 Y91.046 E.02055
G1 X188.734 Y90.736 E.02055
G1 X189.341 Y90.479 E.02068
G1 X190.147 Y90.233 E.02641
G1 X190.794 Y90.108 E.02067
G1 X191.387 Y90.048 E.01867
G1 X191.467 Y90.419 F10800
;TYPE:External perimeter
G1 F1200
G1 X192.088 Y90.414 E.01947
G1 X192.707 Y90.464 E.01947
G1 X193.319 Y90.571 E.01947
G1 X193.918 Y90.733 E.01947
G1 X194.501 Y90.949 E.01947
G1 X195.061 Y91.217 E.01947
G1 X195.593 Y91.534 E.01943
G1 X195.952 Y91.787 E.01377
G1 X196.429 Y92.183 E.01943
G1 X196.87 Y92.622 E.01952
G1 X197.377 Y93.245 E.02517
G1 X197.717 Y93.766 E.01952
G1 X198.007 Y94.313 E.01943
G1 X198.182 Y94.716 E.01377
G1 X198.384 Y95.302 E.01943
G1 X198.533 Y95.905 E.01947
G1 X198.626 Y96.519 E.01947
G1 X198.662 Y97.139 E.01947
G1 X198.642 Y97.76 E.01947
G1 X198.566 Y98.376 E.01947
G1 X198.434 Y98.983 E.01948
G1 X198.238 Y99.601 E.02032
G1 X197.927 Y100.313 E.02436
G1 X197.621 Y100.855 E.01951
G1 X197.268 Y101.366 E.01947
G1 X196.869 Y101.842 E.01947
G1 X196.429 Y102.28 E.01947
G1 X195.951 Y102.677 E.01947
G1 X195.439 Y103.028 E.01947
G1 X194.897 Y103.331 E.01947
G1 X194.329 Y103.584 E.01947
G1 X193.742 Y103.784 E.01947
G1 X193.139 Y103.929 E.01943
G1 X192.706 Y103.999 E.01377
G1 X192.088 Y104.049 E.01943
G1 X191.467 Y104.044 E.01947
G1 X190.849 Y103.981 E.01948
G1 X190.213 Y103.857 E.02032
G1 X189.47 Y103.629 E.02436
G1 X188.898 Y103.387 E.01947
G1 X188.508 Y103.185 E.01377
G1 X187.982 Y102.858 E.01943
G1 X187.486 Y102.484 E.01947
G1 X187.027 Y102.066 E.01947
G1 X186.607 Y101.608 E.01947
G1 X186.231 Y101.114 E.01947
G1 X185.901 Y100.588 E.01947
G1 X185.62 Y100.034 E.01947
G1 X185.391 Y99.457 E.01947
G1 X185.216 Y98.861 E.01947
G1 X185.095 Y98.251 E.01952
G1 X185.021 Y97.451 E.02517
G1 X185.03 Y96.829 E.01952
G1 X185.095 Y96.211 E.01947
G1 X185.216 Y95.602 E.01947
G1 X185.391 Y95.008 E.01943
G1 X185.547 Y94.597 E.01377
G1 X185.812 Y94.037 E.01943
G1 X186.128 Y93.502 E.01947
G1 X186.49 Y92.998 E.01947
G1 X186.897 Y92.529 E.01947
G1 X187.346 Y92.099 E.01947
G1 X187.831 Y91.712 E.01947
G1 X188.349 Y91.37 E.01947
G1 X188.897 Y91.077 E.01947
G1 X189.47 Y90.834 E.01952
G1 X190.238 Y90.6 E.02517
G1 X190.849 Y90.482 E.01952
G1 X191.407 Y90.425 E.01759
G1 X191.648 Y90.063 F10800
;WIPE_START
G1 F8640
G1 X192.088 Y90.414 E-.15719
G1 X192.707 Y90.464 E-.1434
G1 X193.319 Y90.571 E-.14341
G1 X193.918 Y90.733 E-.14339
G1 X194.501 Y90.949 E-.14339
G1 X195.061 Y91.217 E-.1434
G1 X195.343 Y91.385 E-.07581
;WIPE_END
G1 E-.05 F2100
G1 Z.4 F10800
G1 X182.895 Y95.623
G1 Z.2
G1 E1 F2100
;TYPE:Perimeter
G1 F1200
G1 X183.102 Y96.054 E.01499
G1 X183.241 Y96.516 E.01514
G1 X183.311 Y96.991 E.01506
G1 X183.311 Y97.472 E.01505
G1 X183.241 Y97.947 E.01506
G1 X183.103 Y98.407 E.01506
G1 X182.899 Y98.841 E.01506
G1 X182.634 Y99.242 E.01506
G1 X182.313 Y99.599 E.01506
G1 X181.944 Y99.907 E.01506
G1 X181.557 Y100.143 E.01421
G1 X181.095 Y100.344 E.01581
G1 X180.628 Y100.466 E.01513
G1 X180.151 Y100.518 E.01505
G1 X179.671 Y100.501 E.01506
G1 X179.198 Y100.414 E.01506
G1 X178.744 Y100.259 E.01506
G1 X178.317 Y100.039 E.01506
G1 X177.926 Y99.76 E.01506
G1 X177.581 Y99.426 E.01505
G1 X177.287 Y99.046 E.01506
G1 X177.052 Y98.628 E.01506
G1 X176.881 Y98.179 E.01506
G1 X176.776 Y97.71 E.01506
G1 X176.741 Y97.231 E.01506
G1 X176.776 Y96.753 E.01505
G1 X176.881 Y96.284 E.01506
G1 X177.043 Y95.86 E.01422
G1 X177.286 Y95.419 E.01581
G1 X177.581 Y95.037 E.01514
G1 X177.926 Y94.703 E.01505
G1 X178.317 Y94.424 E.01506
G1 X178.744 Y94.204 E.01506
G1 X179.198 Y94.049 E.01506
G1 X179.671 Y93.962 E.01506
G1 X180.124 Y93.946 E.01421
G1 X180.625 Y93.996 E.01581
G1 X181.092 Y94.118 E.01514
G1 X181.534 Y94.306 E.01506
G1 X181.944 Y94.556 E.01505
G1 X182.313 Y94.864 E.01506
G1 X182.634 Y95.221 E.01506
G1 X182.865 Y95.571 E.01315
G1 X182.555 Y95.786 F10800
;TYPE:External perimeter
G1 F1200
G1 X182.749 Y96.191 E.01408
G1 X182.872 Y96.599 E.01336
G1 X182.934 Y97.019 E.01333
G1 X182.934 Y97.444 E.01332
G1 X182.872 Y97.864 E.01333
G1 X182.749 Y98.271 E.01333
G1 X182.569 Y98.656 E.01332
G1 X182.335 Y99.011 E.01333
G1 X182.051 Y99.327 E.01333
G1 X181.724 Y99.599 E.01333
G1 X181.383 Y99.807 E.01253
G1 X180.971 Y99.986 E.01408
G1 X180.559 Y100.094 E.01335
G1 X180.137 Y100.141 E.01332
G1 X179.712 Y100.125 E.01332
G1 X179.294 Y100.048 E.01333
G1 X178.892 Y99.911 E.01333
G1 X178.514 Y99.716 E.01333
G1 X178.168 Y99.469 E.01333
G1 X177.862 Y99.174 E.01332
G1 X177.603 Y98.838 E.01333
G1 X177.395 Y98.467 E.01333
G1 X177.243 Y98.07 E.01332
G1 X177.15 Y97.655 E.01333
G1 X177.119 Y97.231 E.01333
G1 X177.15 Y96.808 E.01332
G1 X177.243 Y96.393 E.01333
G1 X177.386 Y96.019 E.01254
G1 X177.602 Y95.626 E.01408
G1 X177.862 Y95.289 E.01335
G1 X178.168 Y94.994 E.01332
G1 X178.514 Y94.747 E.01333
G1 X178.892 Y94.552 E.01333
G1 X179.294 Y94.415 E.01333
G1 X179.712 Y94.338 E.01333
G1 X180.112 Y94.323 E.01253
G1 X180.558 Y94.369 E.01408
G1 X180.97 Y94.476 E.01335
G1 X181.362 Y94.643 E.01333
G1 X181.724 Y94.864 E.01332
G1 X182.051 Y95.136 E.01333
G1 X182.335 Y95.452 E.01333
G1 X182.522 Y95.736 E.01065
G1 X182.955 Y95.788 F10800
;WIPE_START
G1 F8640
G1 X182.749 Y96.191 E-.11742
G1 X182.872 Y96.599 E-.09835
G1 X182.934 Y97.019 E-.09813
G1 X182.934 Y97.444 E-.09812
G1 X182.872 Y97.864 E-.09813
G1 X182.749 Y98.271 E-.09814
G1 X182.569 Y98.656 E-.09813
G1 X182.335 Y99.011 E-.09813
G1 X182.051 Y99.327 E-.09814
G1 X181.893 Y99.458 E-.04731
;WIPE_END
G1 E-.05 F2100
G1 Z.4 F10800
G1 X190.151 Y106.911
G1 Z.2
G1 E1 F2100
;TYPE:Perimeter
G1 F1200
G1 X190.554 Y106.704 E.01419
G1 X191.008 Y106.549 E.01506
G1 X191.481 Y106.462 E.01506
G1 X191.934 Y106.446 E.01422
G1 X192.435 Y106.496 E.01581
G1 X192.902 Y106.618 E.01513
G1 X193.344 Y106.806 E.01506
G1 X193.731 Y107.042 E.01422
G1 X194.122 Y107.362 E.01581
G1 X194.444 Y107.721 E.01513
G1 X194.709 Y108.122 E.01506
G1 X194.913 Y108.556 E.01506
G1 X195.051 Y109.016 E.01506
G1 X195.121 Y109.491 E.01506
G1 X195.121 Y109.972 E.01505
G1 X195.051 Y110.447 E.01506
G1 X194.913 Y110.907 E.01506
G1 X194.709 Y111.341 E.01506
G1 X194.444 Y111.742 E.01506
G1 X194.141 Y112.079 E.01422
G1 X193.756 Y112.405 E.01581
G1 X193.344 Y112.657 E.01513
G1 X192.902 Y112.845 E.01506
G1 X192.438 Y112.966 E.01506
G1 X191.961 Y113.018 E.01505
G1 X191.481 Y113.001 E.01506
G1 X191.008 Y112.914 E.01506
G1 X190.554 Y112.759 E.01506
G1 X190.127 Y112.539 E.01506
G1 X189.736 Y112.26 E.01506
G1 X189.391 Y111.926 E.01505
G1 X189.097 Y111.546 E.01506
G1 X188.862 Y111.128 E.01506
G1 X188.691 Y110.679 E.01506
G1 X188.586 Y110.21 E.01506
G1 X188.551 Y109.731 E.01506
G1 X188.586 Y109.253 E.01505
G1 X188.691 Y108.784 E.01506
G1 X188.853 Y108.36 E.01422
G1 X189.096 Y107.919 E.01581
G1 X189.391 Y107.537 E.01513
G1 X189.736 Y107.203 E.01505
G1 X190.101 Y106.943 E.01404
G1 X190.324 Y107.247 F10800
;TYPE:External perimeter
G1 F1200
G1 X190.702 Y107.052 E.01333
G1 X191.104 Y106.915 E.01333
G1 X191.522 Y106.838 E.01333
G1 X191.922 Y106.823 E.01254
G1 X192.368 Y106.869 E.01408
G1 X192.78 Y106.976 E.01335
G1 X193.171 Y107.143 E.01333
G1 X193.513 Y107.351 E.01254
G1 X193.86 Y107.635 E.01408
G1 X194.145 Y107.952 E.01335
G1 X194.379 Y108.307 E.01332
G1 X194.559 Y108.692 E.01332
G1 X194.682 Y109.099 E.01333
G1 X194.744 Y109.519 E.01333
G1 X194.744 Y109.944 E.01332
G1 X194.682 Y110.364 E.01333
G1 X194.559 Y110.771 E.01333
G1 X194.379 Y111.156 E.01332
G1 X194.145 Y111.511 E.01333
G1 X193.878 Y111.808 E.01254
G1 X193.535 Y112.099 E.01408
G1 X193.171 Y112.32 E.01335
G1 X192.78 Y112.487 E.01333
G1 X192.369 Y112.594 E.01333
G1 X191.947 Y112.641 E.01332
G1 X191.522 Y112.625 E.01333
G1 X191.104 Y112.548 E.01333
G1 X190.702 Y112.411 E.01333
G1 X190.324 Y112.216 E.01333
G1 X189.978 Y111.969 E.01333
G1 X189.672 Y111.674 E.01332
G1 X189.413 Y111.338 E.01333
G1 X189.205 Y110.967 E.01333
G1 X189.053 Y110.57 E.01332
G1 X188.96 Y110.155 E.01333
G1 X188.929 Y109.731 E.01333
G1 X188.96 Y109.308 E.01332
G1 X189.053 Y108.893 E.01333
G1 X189.196 Y108.519 E.01254
G1 X189.412 Y108.126 E.01408
G1 X189.672 Y107.789 E.01335
G1 X189.978 Y107.494 E.01332
G1 X190.275 Y107.282 E.01144
G1 X190.314 Y106.847 F10800
;WIPE_START
G1 F8640
G1 X190.702 Y107.052 E-.11186
G1 X191.104 Y106.915 E-.09813
G1 X191.522 Y106.838 E-.09814
G1 X191.922 Y106.823 E-.09231
G1 X192.368 Y106.869 E-.10367
G1 X192.78 Y106.976 E-.09834
G1 X193.171 Y107.143 E-.09814
G1 X193.513 Y107.351 E-.09231
G1 X193.86 Y107.635 E-.10369
G1 X194.015 Y107.807 E-.0534
;WIPE_END
G1 E-.05 F2100
G1 Z.4 F10800
G1 X196.483 Y115.187
G1 Z.2
G1 E1 F2100
;TYPE:Perimeter
G1 F1200
G1 X196.829 Y114.939 E.01335
G1 X197.276 Y114.705 E.01581
G1 X197.733 Y114.549 E.01513
G1 X198.205 Y114.462 E.01506
G1 X198.658 Y114.446 E.01422
G1 X199.16 Y114.496 E.01581
G1 X199.627 Y114.618 E.01513
G1 X200.069 Y114.806 E.01506
G1 X200.456 Y115.042 E.01422
G1 X200.846 Y115.362 E.01581
G1 X201.168 Y115.721 E.01513
G1 X201.433 Y116.122 E.01505
G1 X201.637 Y116.556 E.01506
G1 X201.775 Y117.016 E.01506
G1 X201.845 Y117.491 E.01505
G1 X201.845 Y117.972 E.01505
G1 X201.775 Y118.447 E.01505
