; generated by PrusaSlicer 2.4.1+win64 on 2023-01-29 at 04:08:55 UTC

; 

; external perimeters extrusion width = 0.45mm
; perimeters extrusion width = 0.45mm
; infill extrusion width = 0.45mm
; solid infill extrusion width = 0.45mm
; top infill extrusion width = 0.40mm
; support material extrusion width = 0.35mm
; first layer extrusion width = 0.42mm

M73 P0 R153
M73 Q0 S153
M201 X1000 Y1000 Z200 E5000 ; sets maximum accelerations, mm/sec^2
M203 X200 Y200 Z12 E120 ; sets maximum feedrates, mm / sec
M204 P1250 R1250 T1250 ; sets acceleration (P, T) and retract acceleration (R), mm/sec^2
M205 X8.00 Y8.00 Z0.40 E4.50 ; sets the jerk limits, mm/sec
M205 S0 T0 ; sets the minimum extruding and travel feed rate, mm/sec
M107
;TYPE:Custom
M862.3 P "MK3S" ; printer model check
M862.1 P0.4 ; nozzle diameter check
M115 U3.10.1 ; tell printer latest fw version
G90 ; use absolute coordinates
M83 ; extruder relative mode
M104 S230 ; set extruder temp
M140 S85 ; set bed temp
M190 S85 ; wait for bed temp
M109 S230 ; wait for extruder temp
G28 W ; home all without mesh bed level
G80 ; mesh bed leveling
G1 Y-3.0 F1000.0 ; go outside print area
G92 E0.0
G1 X60.0 E9.0 F1000.0 ; intro line
G1 X100.0 E12.5 F1000.0 ; intro line
G92 E0.0
M221 S95

; Don't change E values below. Excessive value can damage the printer.

M907 E538 ; set extruder motor current
G21 ; set units to millimeters
G90 ; use absolute coordinates
M83 ; use relative distances for extrusion
M900 K0.08 ; Filament gcode LA 1.5
M900 K45 ; Filament gcode LA 1.0
M107
;LAYER_CHANGE
;Z:0.2
;HEIGHT:0.2
;BEFORE_LAYER_CHANGE
G92 E0.0
;0.2


G1 E-1 F2100
G1 Z.2 F10800
;AFTER_LAYER_CHANGE
;0.2
G1 Z.4
G1 X101.116 Y95.743
G1 Z.2
G1 E1 F2100
M204 S1000
;TYPE:Skirt/Brim
;WIDTH:0.42
G1 F1200
G1 X130.276 Y64.948 E1.32975
G1 X131.459 Y64.268 E.04278
G1 X133.161 Y64.507 E.05389
G1 X150.66 Y74.28 E.62843
G1 X151.181 Y74.675 E.02051
G1 X154.499 Y77.992 E.14712
G1 X155.013 Y78.759 E.02893
G1 X171.602 Y118.573 E1.35236
G1 X171.784 Y119.487 E.02923
G1 X171.784 Y138.656 E.60103
G1 X171.393 Y139.963 E.04278
M73 P0 R152
G1 X170.347 Y140.839 E.04278
G1 X169.495 Y141.031 E.02739
G1 X149.069 Y141.768 E.64086
G1 X106.52 Y138.556 E1.3379
G1 X106.121 Y138.492 E.01265
G1 X104.943 Y137.804 E.04278
G1 X104.446 Y136.995 E.02976
G1 X93.228 Y106.118 E1.03004
G1 X93.115 Y105.695 E.01373
G1 X93.224 Y104.335 E.04278
G1 X93.713 Y103.562 E.02868
G1 X101.075 Y95.787 E.33573
; printing object Body1.stl id:0 copy 0
;WIPE_START
G1 F8640
G1 X103.904 Y92.8 E-.95
;WIPE_END
G1 E-.05 F2100
G1 Z.4 F10800
G1 X149.5 Y79.673
G1 Z.2
G1 E1 F2100
;TYPE:Support material
G1 F1200
G1 X152.818 Y79.673 E.10403
G1 X152.818 Y89.627 E.31208
G1 X156.136 Y89.627 E.10403
G1 X156.136 Y96.262 E.20806
G1 X159.454 Y96.262 E.10403
G1 X159.454 Y106.216 E.31208
G1 X162.772 Y106.216 E.10403
G1 X162.772 Y112.851 E.20806
G1 X166.09 Y112.851 E.10403
G1 X166.09 Y119.487 E.20806
G1 X169.407 Y119.487 E.10403
G1 X169.407 Y138.656 E.60103
G1 X158.216 Y138.656 E.35089
G1 X157.921 Y137.151 E.04809
G1 X162.446 Y135.29 E.15342
G1 X162.822 Y134.368 E.03123
G1 X147.874 Y98.392 E1.22149
G1 X146.948 Y98.01 E.03143
G1 X141.192 Y100.401 E.19543
G1 X134.811 Y85.044 E.52141
G1 X139.42 Y83.129 E.15649
G1 X139.803 Y82.203 E.03143
G1 X137.373 Y76.355 E.19853
G1 X149.5 Y76.355 E.38025
G1 X149.5 Y79.617 E.10225
G1 X168.927 Y138.486 F10800
G1 F1200
G1 X168.927 Y119.826 E.58506
G1 X168.508 Y119.826 E.01314
G1 X168.508 Y138.316 E.57974
G1 X168.09 Y138.316 E.01314
G1 X168.09 Y119.826 E.57974
G1 X167.671 Y119.826 E.01314
G1 X167.671 Y138.316 E.57974
G1 X167.252 Y138.316 E.01314
G1 X167.252 Y119.826 E.57974
G1 X166.833 Y119.826 E.01314
G1 X166.833 Y138.316 E.57974
G1 X166.414 Y138.316 E.01314
G1 X166.414 Y119.826 E.57974
G1 X165.995 Y119.826 E.01314
G1 X165.995 Y138.316 E.57974
G1 X165.576 Y138.316 E.01314
G1 X165.576 Y113.191 E.7878
G1 X165.157 Y113.191 E.01314
G1 X165.157 Y138.316 E.7878
G1 X164.738 Y138.316 E.01314
G1 X164.738 Y113.191 E.7878
G1 X164.319 Y113.191 E.01314
G1 X164.319 Y138.316 E.7878
G1 X163.9 Y138.316 E.01314
G1 X163.9 Y113.191 E.7878
G1 X163.481 Y113.191 E.01314
G1 X163.481 Y138.316 E.7878
G1 X163.062 Y138.316 E.01314
G1 X163.062 Y113.191 E.7878
G1 X162.643 Y113.191 E.01314
G1 X162.643 Y133.052 E.62273
G1 X162.224 Y132.043 E.03424
G1 X162.224 Y106.555 E.79917
G1 X161.805 Y106.555 E.01314
G1 X161.805 Y131.035 E.76755
G1 X161.386 Y130.027 E.03424
G1 X161.386 Y106.555 E.73593
G1 X160.967 Y106.555 E.01314
G1 X160.967 Y129.018 E.70432
G1 X160.548 Y128.01 E.03424
G1 X160.548 Y106.555 E.6727
G1 X160.129 Y106.555 E.01314
M73 Q0 S152
G1 X160.129 Y127.002 E.64109
G1 X159.71 Y125.993 E.03424
G1 X159.71 Y106.555 E.60947
G1 X159.291 Y106.555 E.01314
G1 X159.291 Y124.985 E.57785
G1 X158.872 Y123.977 E.03424
G1 X158.872 Y96.602 E.85832
G1 X158.453 Y96.602 E.01314
G1 X158.453 Y122.968 E.8267
G1 X158.034 Y121.96 E.03424
G1 X158.034 Y96.602 E.79509
G1 X157.615 Y96.602 E.01314
G1 X157.615 Y120.951 E.76347
G1 X157.196 Y119.943 E.03424
G1 X157.196 Y96.602 E.73186
G1 X156.777 Y96.602 E.01314
G1 X156.777 Y118.935 E.70024
G1 X156.358 Y117.926 E.03424
G1 X156.358 Y96.602 E.66862
G1 X155.939 Y96.602 E.01314
G1 X155.939 Y116.918 E.63701
G1 X155.52 Y115.91 E.03424
G1 X155.52 Y89.966 E.81345
G1 X155.101 Y89.966 E.01314
G1 X155.101 Y114.901 E.78183
G1 X154.682 Y113.893 E.03424
G1 X154.682 Y89.966 E.75022
G1 X154.263 Y89.966 E.01314
G1 X154.263 Y112.885 E.7186
G1 X153.844 Y111.876 E.03424
G1 X153.844 Y89.966 E.68698
G1 X153.425 Y89.966 E.01314
M73 P0 R151
G1 X153.425 Y110.868 E.65537
G1 X153.006 Y109.86 E.03424
G1 X153.006 Y89.966 E.62375
G1 X152.587 Y89.966 E.01314
G1 X152.587 Y108.851 E.59213
G1 X152.168 Y107.843 E.03424
G1 X152.168 Y80.013 E.8726
G1 X151.749 Y80.013 E.01314
G1 X151.749 Y106.835 E.84099
G1 X151.33 Y105.826 E.03424
G1 X151.33 Y80.013 E.80937
G1 X150.911 Y80.013 E.01314
G1 X150.911 Y104.818 E.77775
G1 X150.492 Y103.81 E.03424
G1 X150.492 Y80.013 E.74614
G1 X150.074 Y80.013 E.01314
G1 X150.074 Y102.801 E.71452
G1 X149.655 Y101.793 E.03424
G1 X149.655 Y80.013 E.6829
G1 X149.236 Y80.013 E.01314
G1 X149.236 Y100.784 E.65129
G1 X148.817 Y99.776 E.03424
G1 X148.817 Y76.695 E.7237
G1 X148.398 Y76.695 E.01314
G1 X148.398 Y98.768 E.69208
G1 X148.134 Y98.132 E.02158
G1 X147.979 Y98.068 E.00526
G1 X147.979 Y76.695 E.67015
G1 X147.56 Y76.695 E.01314
G1 X147.56 Y97.895 E.66473
G1 X147.141 Y97.722 E.01421
G1 X147.141 Y76.695 E.6593
G1 X146.722 Y76.695 E.01314
M73 P1 R151
M73 Q1 S152
G1 X146.722 Y97.736 E.65974
G1 X146.303 Y97.91 E.01423
G1 X146.303 Y76.695 E.6652
G1 X145.884 Y76.695 E.01314
G1 X145.884 Y98.084 E.67065
G1 X145.465 Y98.258 E.01423
G1 X145.465 Y76.695 E.67611
G1 X145.046 Y76.695 E.01314
G1 X145.046 Y98.432 E.68157
G1 X144.627 Y98.607 E.01423
G1 X144.627 Y76.695 E.68703
G1 X144.208 Y76.695 E.01314
G1 X144.208 Y98.781 E.69249
G1 X143.789 Y98.955 E.01423
G1 X143.789 Y76.695 E.69795
G1 X143.37 Y76.695 E.01314
G1 X143.37 Y99.129 E.7034
G1 X142.951 Y99.303 E.01423
G1 X142.951 Y76.695 E.70886
G1 X142.532 Y76.695 E.01314
G1 X142.532 Y99.477 E.71432
G1 X142.113 Y99.651 E.01423
G1 X142.113 Y76.695 E.71978
G1 X141.694 Y76.695 E.01314
G1 X141.694 Y99.825 E.72524
G1 X141.375 Y99.958 E.01083
G1 X141.275 Y99.717 E.00817
G1 X141.275 Y76.695 E.72184
G1 X140.856 Y76.695 E.01314
G1 X140.856 Y98.709 E.69023
G1 X140.437 Y97.7 E.03424
G1 X140.437 Y76.695 E.65861
G1 X140.018 Y76.695 E.01314
G1 X140.018 Y96.692 E.62699
G1 X139.599 Y95.683 E.03424
G1 X139.599 Y83.422 E.38444
G1 X139.18 Y83.596 E.01423
G1 X139.18 Y94.675 E.34737
G1 X138.761 Y93.667 E.03424
G1 X138.761 Y83.77 E.31029
G1 X138.342 Y83.945 E.01423
G1 X138.342 Y92.658 E.27322
G1 X137.923 Y91.65 E.03424
G1 X137.923 Y84.119 E.23614
G1 X137.504 Y84.293 E.01423
M73 Q1 S151
G1 X137.504 Y90.642 E.19907
G1 X137.085 Y89.633 E.03424
G1 X137.085 Y84.467 E.16199
G1 X136.666 Y84.641 E.01423
G1 X136.666 Y88.625 E.12492
G1 X136.247 Y87.617 E.03424
G1 X136.247 Y84.815 E.08784
G1 X135.828 Y84.989 E.01423
G1 X135.828 Y86.608 E.05077
G1 X135.409 Y85.6 E.03424
G1 X135.409 Y84.98 E.01945
;WIPE_START
G1 F8640
G1 X135.409 Y85.6 E-.14326
G1 X135.828 Y86.608 E-.25213
G1 X135.828 Y84.989 E-.37386
G1 X136.247 Y84.815 E-.10476
G1 X136.247 Y85.144 E-.07598
;WIPE_END
G1 E-.05 F2100
G1 Z.4 F10800
G1 X162.643 Y138.486
G1 Z.2
G1 E1 F2100
G1 F1200
G1 X162.643 Y135.576 E.09126
G1 X162.224 Y135.754 E.01428
G1 X162.224 Y138.316 E.08034
G1 X161.805 Y138.316 E.01314
G1 X161.805 Y135.931 E.07479
G1 X161.386 Y136.102 E.01419
G1 X161.386 Y138.316 E.06942
G1 X160.967 Y138.316 E.01314
G1 X160.967 Y136.273 E.06406
G1 X160.548 Y136.444 E.01419
G1 X160.548 Y138.316 E.05869
G1 X160.129 Y138.316 E.01314
G1 X160.129 Y136.616 E.05333
G1 X159.71 Y136.787 E.01419
G1 X159.71 Y138.316 E.04796
G1 X159.291 Y138.316 E.01314
G1 X159.291 Y136.958 E.0426
G1 X158.872 Y137.129 E.01419
G1 X158.872 Y138.316 E.03723
G1 X158.495 Y138.316 E.01181
G1 X158.453 Y138.101 E.0069
G1 X158.453 Y137.117 E.03085
;WIPE_START
G1 F8640
G1 X158.453 Y138.101 E-.22717
G1 X158.495 Y138.316 E-.05079
G1 X158.872 Y138.316 E-.08696
G1 X158.872 Y137.129 E-.27419
G1 X159.291 Y136.958 E-.1045
G1 X159.291 Y137.852 E-.20639
;WIPE_END
G1 E-.05 F2100
G1 Z.4 F10800
G1 X139.599 Y81.271
G1 Z.2
G1 E1 F2100
G1 F1200
G1 X139.599 Y76.695 E.14347
G1 X139.18 Y76.695 E.01314
G1 X139.18 Y79.82 E.09799
G1 X138.761 Y78.812 E.03424
G1 X138.761 Y76.695 E.06637
G1 X138.342 Y76.695 E.01314
G1 X138.342 Y77.803 E.03476
G1 X137.923 Y76.795 E.03424
G1 X137.923 Y76.525 E.00846
;WIPE_START
G1 F8640
G1 X137.923 Y76.795 E-.06232
G1 X138.342 Y77.803 E-.25213
G1 X138.342 Y76.695 E-.25597
G1 X138.761 Y76.695 E-.09674
G1 X138.761 Y77.92 E-.28283
;WIPE_END
G1 E-.05 F2100
G1 Z.4 F10800
G1 X132.2 Y83.967
G1 Z.2
G1 E1 F2100
;TYPE:Perimeter
G1 F1200
G1 X140.114 Y103.012 E.64665
G1 X146.524 Y100.348 E.21765
G1 X160.485 Y133.947 E1.14077
G1 X149.658 Y138.368 E.36667
G1 X142.422 Y120.734 E.59766
G1 X107.14 Y135.143 E1.19495
G1 X96.368 Y105.494 E.98907
G1 X131.779 Y68.097 E1.61482
G1 X137.464 Y81.779 E.46457
G1 X132.256 Y83.944 E.17684
G1 X132.693 Y84.17 F10800
;TYPE:External perimeter
G1 F1200
G1 X140.317 Y102.519 E.623
G1 X146.728 Y99.855 E.21765
G1 X160.978 Y134.152 E1.16449
M73 P1 R150
G1 X149.452 Y138.86 E.39037
G1 X142.216 Y121.225 E.59766
G1 X106.92 Y135.641 E1.19544
G1 X95.934 Y105.404 E1.00867
G1 X131.904 Y67.416 E1.64033
G1 X137.957 Y81.983 E.4946
G1 X132.749 Y84.147 E.17684
G1 X132.415 Y84.457 F10800
;WIPE_START
G1 F8640
G1 X134.316 Y87.951 E-.95
;WIPE_END
G1 E-.05 F2100
G1 Z.4 F10800
G1 X132.282 Y69.602
G1 Z.2
G1 E1 F2100
;TYPE:Solid infill
;WIDTH:0.420474
G1 F1200
G1 X131.491 Y68.812 E.0351
G1 X131.232 Y69.086 E.01186
G1 X132.347 Y70.202 E.04953
G1 X132.727 Y71.115 E.03106
G1 X130.972 Y69.36 E.07791
G1 X130.712 Y69.635 E.01186
G1 X133.106 Y72.029 E.10629
G1 X133.486 Y72.942 E.03106
G1 X130.453 Y69.909 E.13467
G1 X130.193 Y70.183 E.01186
G1 X133.865 Y73.856 E.16305
G1 X134.245 Y74.769 E.03106
G1 X129.933 Y70.457 E.19143
G1 X129.674 Y70.732 E.01186
G1 X134.625 Y75.683 E.21982
G1 X135.004 Y76.596 E.03106
G1 X129.414 Y71.006 E.2482
G1 X129.154 Y71.28 E.01186
G1 X135.384 Y77.51 E.27658
G1 X135.763 Y78.423 E.03106
G1 X128.894 Y71.554 E.30496
G1 X128.635 Y71.829 E.01186
G1 X136.143 Y79.337 E.33334
G1 X136.522 Y80.25 E.03106
G1 X128.375 Y72.103 E.36172
G1 X128.115 Y72.377 E.01186
G1 X136.902 Y81.164 E.3901
G1 X137.094 Y81.627 E.01574
G1 X136.908 Y81.704 E.00632
G1 X127.856 Y72.651 E.40191
G1 X127.596 Y72.926 E.01186
G1 X136.531 Y81.861 E.3967
G1 X136.154 Y82.017 E.01282
G1 X127.336 Y73.2 E.39148
G1 X127.077 Y73.474 E.01186
G1 X135.777 Y82.174 E.38626
G1 X135.4 Y82.331 E.01282
G1 X126.817 Y73.748 E.38104
G1 X126.557 Y74.023 E.01186
G1 X135.022 Y82.488 E.37583
G1 X134.645 Y82.644 E.01282
G1 X126.298 Y74.297 E.37061
G1 X126.038 Y74.571 E.01186
G1 X134.268 Y82.801 E.36539
G1 X133.891 Y82.958 E.01282
G1 X125.778 Y74.845 E.36017
G1 X125.519 Y75.12 E.01186
G1 X133.514 Y83.115 E.35496
G1 X133.136 Y83.271 E.01282
G1 X125.259 Y75.394 E.34974
G1 X124.999 Y75.668 E.01186
G1 X132.759 Y83.428 E.34452
G1 X132.382 Y83.585 E.01282
G1 X124.74 Y75.942 E.3393
G1 X124.48 Y76.217 E.01186
G1 X132.005 Y83.742 E.33409
G1 X131.831 Y83.814 E.00591
G1 X132.035 Y84.306 E.01673
G1 X124.22 Y76.491 E.34697
G1 X123.96 Y76.765 E.01186
G1 X132.415 Y85.22 E.37536
G1 X132.795 Y86.133 E.03106
G1 X123.701 Y77.039 E.40374
G1 X123.441 Y77.314 E.01186
G1 X133.174 Y87.047 E.43212
G1 X133.554 Y87.96 E.03106
G1 X123.181 Y77.588 E.4605
G1 X122.922 Y77.862 E.01186
G1 X133.933 Y88.874 E.48888
G1 X134.313 Y89.787 E.03106
G1 X122.662 Y78.136 E.51726
G1 X122.402 Y78.411 E.01186
G1 X134.692 Y90.701 E.54564
G1 X135.072 Y91.614 E.03106
G1 X122.143 Y78.685 E.57403
G1 X121.883 Y78.959 E.01186
G1 X135.452 Y92.528 E.60241
G1 X135.831 Y93.441 E.03106
G1 X121.623 Y79.234 E.63079
G1 X121.364 Y79.508 E.01186
G1 X136.211 Y94.355 E.65917
G1 X136.59 Y95.268 E.03106
G1 X121.104 Y79.782 E.68755
G1 X120.844 Y80.056 E.01186
G1 X136.97 Y96.182 E.71593
G1 X137.349 Y97.095 E.03106
G1 X120.585 Y80.331 E.74431
G1 X120.325 Y80.605 E.01186
G1 X137.729 Y98.009 E.77269
G1 X138.109 Y98.922 E.03106
G1 X120.065 Y80.879 E.80108
G1 X119.806 Y81.153 E.01186
M73 Q1 S150
G1 X138.488 Y99.836 E.82946
G1 X138.868 Y100.749 E.03106
G1 X119.546 Y81.428 E.85784
G1 X119.286 Y81.702 E.01186
G1 X139.562 Y101.977 E.90018
;WIPE_START
G1 F8640
G1 X136.652 Y99.068 E-.95
;WIPE_END
G1 E-.05 F2100
G1 Z.4 F10800
G1 X146.199 Y100.606
G1 Z.2
G1 E1 F2100
G1 F1200
G1 X146.414 Y100.821 E.00955
G1 X146.794 Y101.734 E.03106
G1 X145.952 Y100.892 E.03738
G1 X145.575 Y101.049 E.01282
G1 X147.173 Y102.648 E.07098
G1 X147.553 Y103.561 E.03106
G1 X145.197 Y101.206 E.10458
G1 X144.82 Y101.363 E.01282
G1 X147.933 Y104.475 E.13818
G1 X148.312 Y105.388 E.03106
G1 X144.443 Y101.519 E.17178
G1 X144.066 Y101.676 E.01282
G1 X148.692 Y106.302 E.20538
G1 X149.071 Y107.215 E.03106
G1 X143.689 Y101.833 E.23898
G1 X143.311 Y101.989 E.01282
G1 X149.451 Y108.129 E.27258
G1 X149.83 Y109.042 E.03106
G1 X142.934 Y102.146 E.30618
G1 X142.557 Y102.303 E.01282
G1 X150.21 Y109.956 E.33978
G1 X150.59 Y110.869 E.03106
G1 X142.18 Y102.46 E.37338
G1 X141.803 Y102.616 E.01282
G1 X150.969 Y111.783 E.40698
G1 X151.349 Y112.697 E.03106
M73 P2 R150
M73 Q2 S150
G1 X141.425 Y102.773 E.44058
G1 X141.048 Y102.93 E.01282
G1 X151.728 Y113.61 E.47417
G1 X152.108 Y114.524 E.03106
G1 X140.541 Y102.957 E.51354
;WIPE_START
G1 F8640
G1 X143.45 Y105.866 E-.95
;WIPE_END
G1 E-.05 F2100
G1 Z.4 F10800
G1 X152.802 Y115.751
G1 Z.2
G1 E1 F2100
G1 F1200
G1 X140.294 Y103.243 E.55533
G1 X139.961 Y103.381 E.0113
G1 X139.627 Y102.576 E.02737
G1 X119.026 Y81.976 E.9146
G1 X118.767 Y82.25 E.01186
G1 X152.867 Y116.351 E1.51396
G1 X153.247 Y117.264 E.03106
G1 X118.507 Y82.525 E1.54234
G1 X118.247 Y82.799 E.01186
M73 P2 R149
G1 X153.626 Y118.178 E1.57073
G1 X154.006 Y119.091 E.03106
G1 X117.988 Y83.073 E1.59911
G1 X117.728 Y83.347 E.01186
G1 X154.385 Y120.005 E1.62749
G1 X154.765 Y120.918 E.03106
G1 X117.468 Y83.622 E1.65587
G1 X117.209 Y83.896 E.01186
G1 X155.144 Y121.832 E1.68425
G1 X155.524 Y122.745 E.03106
G1 X116.949 Y84.17 E1.71263
G1 X116.689 Y84.444 E.01186
G1 X155.904 Y123.659 E1.74101
G1 X156.283 Y124.572 E.03106
G1 X116.43 Y84.719 E1.7694
G1 X116.17 Y84.993 E.01186
G1 X156.663 Y125.486 E1.79778
G1 X157.042 Y126.399 E.03106
G1 X115.91 Y85.267 E1.82616
G1 X115.651 Y85.541 E.01186
G1 X157.422 Y127.313 E1.85454
G1 X157.801 Y128.226 E.03106
G1 X115.391 Y85.816 E1.88292
G1 X115.131 Y86.09 E.01186
G1 X158.181 Y129.14 E1.9113
G1 X158.561 Y130.053 E.03106
G1 X114.872 Y86.364 E1.93968
G1 X114.612 Y86.638 E.01186
M73 Q2 S149
G1 X158.94 Y130.967 E1.96806
G1 X159.32 Y131.88 E.03106
G1 X114.352 Y86.913 E1.99645
G1 X114.092 Y87.187 E.01186
G1 X159.699 Y132.794 E2.02483
G1 X160.079 Y133.707 E.03106
G1 X113.833 Y87.461 E2.05321
G1 X113.573 Y87.736 E.01186
G1 X159.77 Y133.933 E2.05104
G1 X159.391 Y134.088 E.01286
G1 X113.313 Y88.01 E2.04574
G1 X113.054 Y88.284 E.01186
M73 P2 R148
G1 X159.012 Y134.242 E2.04044
G1 X158.633 Y134.397 E.01286
G1 X112.794 Y88.558 E2.03513
G1 X112.534 Y88.833 E.01186
